(Exported by FreeCAD)
(Post Processor: script_module)
(Output Time:2026-04-03 17:56:13.924119)
(Begin preamble)
G17 G90
G21
(Begin operation: Fixture)
(Path: Fixture)
G54
(Finish operation: Fixture)
(Begin operation: 30d_V_Bit003)
(Path: 30d_V_Bit003)
(30d_V_Bit003)
(Begin toolchange)
( M6 T2 )
M3 S1000
(Finish operation: 30d_V_Bit003)
(Begin operation: Profile001)
(Path: Profile001)
(Profile001)
(Uncompensated Tool Path)
G0 Z5.000
G0 X33.617 Y-6.423
G0 Z3.000
G1 X33.617 Y-6.423 Z0.000 F600.000
G2 X30.028 Y-27.029 Z0.000 I-4.556 J-9.822 K0.000 F600.000
G1 X-15.413 Y-27.030 Z0.000 F600.000
G2 X-14.651 Y-11.342 Z0.000 I1.462 J7.792 K0.000 F600.000
G2 X0.985 Y-2.127 Z0.000 I10.850 J-0.537 K0.000 F600.000
G2 X27.894 Y-5.485 Z0.000 I13.082 J-4.661 K0.000 F600.000
G1 X28.716 Y-5.423 Z0.000 F600.000
G2 X33.617 Y-6.423 Z0.000 I0.345 J-10.822 K0.000 F600.000
G0 Z5.000
G0 Z5.000
(Finish operation: Profile001)
(Begin postamble)
M5
G17 G90
M2
