(Exported by FreeCAD)
(Post Processor: script_module)
(Output Time:2025-07-03 12:00:43.522310)
(Begin preamble)
G17 G90
G21
(Begin operation: Fixture)
(Path: Fixture)
G54
(Finish operation: Fixture)
(Begin operation: 2mm_Endmill001)
(Path: 2mm_Endmill001)
(2mm_Endmill001)
(Begin toolchange)
( M6 T2 )
M3 S10000
(Finish operation: 2mm_Endmill001)
(Begin operation: Profile001)
(Path: Profile001)
(Profile001)
(Compensated Tool Path. Diameter: 2.0)
G0 Z6.000
G0 X0.704 Y0.704
G0 Z4.000
G1 X0.704 Y0.704 Z-1.000 F600.000
G2 X0.381 Y-0.919 Z-1.000 I-0.704 J-0.704 K0.000 F600.000
G2 X-0.919 Y-0.381 Z-1.000 I-0.381 J0.919 K0.000 F600.000
G2 X-0.381 Y0.919 Z-1.000 I0.919 J0.381 K0.000 F600.000
G2 X0.704 Y0.704 Z-1.000 I0.381 J-0.919 K0.000 F600.000
G1 X0.704 Y0.704 Z-3.000 F600.000
G2 X0.381 Y-0.919 Z-3.000 I-0.704 J-0.704 K0.000 F600.000
G2 X-0.919 Y-0.381 Z-3.000 I-0.381 J0.919 K0.000 F600.000
G2 X-0.381 Y0.919 Z-3.000 I0.919 J0.381 K0.000 F600.000
G2 X0.704 Y0.704 Z-3.000 I0.381 J-0.919 K0.000 F600.000
G1 X0.704 Y0.704 Z-4.000 F600.000
G2 X0.381 Y-0.919 Z-4.000 I-0.704 J-0.704 K0.000 F600.000
G2 X-0.919 Y-0.381 Z-4.000 I-0.381 J0.919 K0.000 F600.000
G2 X-0.381 Y0.919 Z-4.000 I0.919 J0.381 K0.000 F600.000
G2 X0.704 Y0.704 Z-4.000 I0.381 J-0.919 K0.000 F600.000
G0 Z6.000
G0 Z6.000
(Finish operation: Profile001)
(Begin operation: Profile)
(Path: Profile)
(Profile)
(Compensated Tool Path. Diameter: 2.0)
G0 Z6.000
G0 X14.849 Y14.849
G0 Z4.000
G1 X14.849 Y14.849 Z-1.000 F600.000
G2 X2.663 Y-20.830 Z-1.000 I-14.849 J-14.849 K0.000 F600.000
G2 X-2.663 Y20.830 Z-1.000 I-2.663 J20.830 K0.000 F600.000
G2 X14.849 Y14.849 Z-1.000 I2.663 J-20.830 K0.000 F600.000
G1 X14.849 Y14.849 Z-3.000 F600.000
G2 X2.663 Y-20.830 Z-3.000 I-14.849 J-14.849 K0.000 F600.000
G2 X-2.663 Y20.830 Z-3.000 I-2.663 J20.830 K0.000 F600.000
G2 X14.849 Y14.849 Z-3.000 I2.663 J-20.830 K0.000 F600.000
G1 X14.849 Y14.849 Z-4.000 F600.000
G2 X2.663 Y-20.830 Z-4.000 I-14.849 J-14.849 K0.000 F600.000
G2 X-2.663 Y20.830 Z-4.000 I-2.663 J20.830 K0.000 F600.000
G2 X14.849 Y14.849 Z-4.000 I2.663 J-20.830 K0.000 F600.000
G0 Z6.000
G0 Z6.000
(Finish operation: Profile)
(Begin postamble)
M5
G17 G90
M2
