(Exported by FreeCAD)
(Post Processor: script_module)
(Output Time:2025-04-17 15:17:42.940399)
(Begin preamble)
G17 G90
G21
(Begin operation: Fixture)
(Path: Fixture)
G54
(Finish operation: Fixture)
(Begin operation: 3mm_Endmill003)
(Path: 3mm_Endmill003)
(3mm_Endmill003)
(Begin toolchange)
( M6 T2 )
M3 S10000
(Finish operation: 3mm_Endmill003)
(Begin operation: Pocket_Shape)
(Path: Pocket_Shape)
(Pocket_Shape)
G0 Z5.000
G0 X6.009 Y6.010
G0 Z3.000
G1 X6.009 Y6.010 Z-3.000 F600.000
G2 X-0.000 Y-8.499 Z-3.000 I-6.009 J-6.010 K0.000 F600.000
G2 X-0.000 Y8.499 Z-3.000 I0.000 J8.499 K0.000 F600.000
G2 X6.009 Y6.010 Z-3.000 I-0.000 J-8.499 K0.000 F600.000
G0 Z5.000
G0 X-0.728 Y8.467 Z5.000
G0 X-0.728 Y8.467 Z3.000
G1 X-0.728 Y8.467 Z-3.000 F600.000
G3 X-8.467 Y0.728 Z-3.000 I0.726 J-8.465 K0.000 F600.000
G1 X-0.728 Y8.467 Z-3.000 F600.000
G2 X2.997 Y7.949 Z-3.000 I0.734 J-8.369 K0.000 F600.000
G1 X-7.949 Y-2.997 Z-3.000 F600.000
G3 X-6.348 Y-5.639 Z-3.000 I7.683 J2.847 K0.000 F600.000
G1 X5.639 Y6.348 Z-3.000 F600.000
G2 X7.505 Y3.971 Z-3.000 I-5.283 J-6.066 K0.000 F600.000
G1 X-3.971 Y-7.505 Z-3.000 F600.000
G3 X-0.692 Y-8.468 Z-3.000 I3.923 J7.287 K0.000 F600.000
G1 X8.468 Y0.692 Z-3.000 F600.000
G2 X6.009 Y-6.009 Z-3.000 I-8.459 J-0.698 K0.000 F600.000
G1 X6.009 Y-6.009 Z-5.000 F600.000
G3 X8.468 Y0.692 Z-5.000 I-6.000 J6.003 K0.000 F600.000
G1 X-0.692 Y-8.468 Z-5.000 F600.000
G2 X-3.971 Y-7.505 Z-5.000 I0.644 J8.251 K0.000 F600.000
G1 X7.505 Y3.971 Z-5.000 F600.000
G3 X5.639 Y6.348 Z-5.000 I-7.148 J-3.689 K0.000 F600.000
G1 X-6.348 Y-5.639 Z-5.000 F600.000
G2 X-7.949 Y-2.997 Z-5.000 I6.083 J5.490 K0.000 F600.000
G1 X2.997 Y7.949 Z-5.000 F600.000
G3 X-0.728 Y8.467 Z-5.000 I-2.990 J-7.850 K0.000 F600.000
G1 X-8.467 Y0.728 Z-5.000 F600.000
G2 X-0.728 Y8.467 Z-5.000 I8.465 J-0.726 K0.000 F600.000
G0 Z5.000
G0 X-0.728 Y8.467 Z5.000
G0 X-0.728 Y8.467 Z3.000
G1 X-0.728 Y8.467 Z-5.000 F600.000
G2 X-0.000 Y8.499 Z-5.000 I0.728 J-8.467 K0.000 F600.000
G2 X-0.000 Y-8.499 Z-5.000 I-0.000 J-8.499 K0.000 F600.000
G2 X-0.728 Y8.467 Z-5.000 I0.000 J8.499 K0.000 F600.000
G0 Z5.000
G0 Z5.000
(Finish operation: Pocket_Shape)
(Begin postamble)
M5
G17 G90
M2
