(Exported by FreeCAD)
(Post Processor: script_module)
(Output Time:2025-09-26 11:37:25.260622)
(Begin preamble)
G17 G90
G21
(Begin operation: Fixture)
(Path: Fixture)
G54
(Finish operation: Fixture)
(Begin operation: 3mm_Endmill001)
(Path: 3mm_Endmill001)
(3mm_Endmill001)
(Begin toolchange)
( M6 T2 )
M3 S10000
(Finish operation: 3mm_Endmill001)
(Begin operation: Pocket_Shape)
(Path: Pocket_Shape)
(Pocket_Shape)
G0 Z5.000
G0 X0.000 Y0.000
G0 X-0.250 Y0.000
G0 X-0.250 Y0.000 Z3.000
G1 X-0.250 Y0.000 Z-3.000 F600.000
G1 X-0.250 Y-0.250 Z-3.000 F600.000
G1 X0.250 Y-0.250 Z-3.000 F600.000
G1 X0.250 Y0.250 Z-3.000 F600.000
G1 X-0.250 Y0.250 Z-3.000 F600.000
G1 X-0.250 Y0.000 Z-3.000 F600.000
G1 X-1.000 Y0.000 Z-3.000 F600.000
G1 X-1.000 Y-1.000 Z-3.000 F600.000
G1 X1.000 Y-1.000 Z-3.000 F600.000
G1 X1.000 Y1.000 Z-3.000 F600.000
G1 X-1.000 Y1.000 Z-3.000 F600.000
G1 X-1.000 Y0.000 Z-3.000 F600.000
G1 X-4.000 Y0.000 Z-3.000 F600.000
G1 X-4.000 Y-4.000 Z-3.000 F600.000
G1 X4.000 Y-4.000 Z-3.000 F600.000
G1 X4.000 Y4.000 Z-3.000 F600.000
G1 X-4.000 Y4.000 Z-3.000 F600.000
G1 X-4.000 Y0.000 Z-3.000 F600.000
G1 X-7.000 Y0.000 Z-3.000 F600.000
G1 X-7.000 Y-7.000 Z-3.000 F600.000
G1 X7.000 Y-7.000 Z-3.000 F600.000
G1 X7.000 Y7.000 Z-3.000 F600.000
G1 X-7.000 Y7.000 Z-3.000 F600.000
G1 X-7.000 Y0.000 Z-3.000 F600.000
G1 X-10.000 Y0.000 Z-3.000 F600.000
G1 X-10.000 Y-10.000 Z-3.000 F600.000
G1 X10.000 Y-10.000 Z-3.000 F600.000
G1 X10.000 Y10.000 Z-3.000 F600.000
G1 X-10.000 Y10.000 Z-3.000 F600.000
G1 X-10.000 Y0.000 Z-3.000 F600.000
G1 X-13.000 Y0.000 Z-3.000 F600.000
G1 X-13.000 Y-13.000 Z-3.000 F600.000
G1 X13.000 Y-13.000 Z-3.000 F600.000
G1 X13.000 Y13.000 Z-3.000 F600.000
G1 X-13.000 Y13.000 Z-3.000 F600.000
G1 X-13.000 Y0.000 Z-3.000 F600.000
G1 X-16.000 Y0.000 Z-3.000 F600.000
G1 X-16.000 Y-16.000 Z-3.000 F600.000
G1 X16.000 Y-16.000 Z-3.000 F600.000
G1 X16.000 Y16.000 Z-3.000 F600.000
G1 X-16.000 Y16.000 Z-3.000 F600.000
G1 X-16.000 Y0.000 Z-3.000 F600.000
G1 X-19.000 Y0.000 Z-3.000 F600.000
G1 X-19.000 Y-19.000 Z-3.000 F600.000
G1 X19.000 Y-19.000 Z-3.000 F600.000
G1 X19.000 Y19.000 Z-3.000 F600.000
G1 X-19.000 Y19.000 Z-3.000 F600.000
G1 X-19.000 Y0.000 Z-3.000 F600.000
G1 X-22.000 Y0.000 Z-3.000 F600.000
G1 X-22.000 Y-22.000 Z-3.000 F600.000
G1 X22.000 Y-22.000 Z-3.000 F600.000
G1 X22.000 Y22.000 Z-3.000 F600.000
G1 X-22.000 Y22.000 Z-3.000 F600.000
G1 X-22.000 Y0.000 Z-3.000 F600.000
G1 X-25.000 Y0.000 Z-3.000 F600.000
G1 X-25.000 Y-25.000 Z-3.000 F600.000
G1 X25.000 Y-25.000 Z-3.000 F600.000
G1 X25.000 Y25.000 Z-3.000 F600.000
G1 X-25.000 Y25.000 Z-3.000 F600.000
G1 X-25.000 Y0.000 Z-3.000 F600.000
G1 X-28.000 Y0.000 Z-3.000 F600.000
G1 X-28.000 Y-28.000 Z-3.000 F600.000
G1 X28.000 Y-28.000 Z-3.000 F600.000
G1 X28.000 Y28.000 Z-3.000 F600.000
G1 X-28.000 Y28.000 Z-3.000 F600.000
G1 X-28.000 Y0.000 Z-3.000 F600.000
G1 X-31.000 Y0.000 Z-3.000 F600.000
G1 X-31.000 Y-31.000 Z-3.000 F600.000
G1 X31.000 Y-31.000 Z-3.000 F600.000
G1 X31.000 Y31.000 Z-3.000 F600.000
G1 X-31.000 Y31.000 Z-3.000 F600.000
G1 X-31.000 Y0.000 Z-3.000 F600.000
G1 X-34.000 Y0.000 Z-3.000 F600.000
G1 X-34.000 Y-34.000 Z-3.000 F600.000
G1 X34.000 Y-34.000 Z-3.000 F600.000
G1 X34.000 Y34.000 Z-3.000 F600.000
G1 X-34.000 Y34.000 Z-3.000 F600.000
G1 X-34.000 Y0.000 Z-3.000 F600.000
G1 X-37.000 Y0.000 Z-3.000 F600.000
G1 X-37.000 Y-37.000 Z-3.000 F600.000
G1 X37.000 Y-37.000 Z-3.000 F600.000
G1 X37.000 Y37.000 Z-3.000 F600.000
G1 X-37.000 Y37.000 Z-3.000 F600.000
G1 X-37.000 Y0.000 Z-3.000 F600.000
G1 X-40.000 Y0.000 Z-3.000 F600.000
G1 X-40.000 Y-40.000 Z-3.000 F600.000
G1 X40.000 Y-40.000 Z-3.000 F600.000
G1 X40.000 Y40.000 Z-3.000 F600.000
G1 X-40.000 Y40.000 Z-3.000 F600.000
G1 X-40.000 Y0.000 Z-3.000 F600.000
G1 X-43.000 Y0.000 Z-3.000 F600.000
G1 X-43.000 Y-43.000 Z-3.000 F600.000
G1 X43.000 Y-43.000 Z-3.000 F600.000
G1 X43.000 Y43.000 Z-3.000 F600.000
G1 X-43.000 Y43.000 Z-3.000 F600.000
G1 X-43.000 Y0.000 Z-3.000 F600.000
G1 X-46.000 Y0.000 Z-3.000 F600.000
G1 X-46.000 Y-46.000 Z-3.000 F600.000
G1 X46.000 Y-46.000 Z-3.000 F600.000
G1 X46.000 Y46.000 Z-3.000 F600.000
G1 X-46.000 Y46.000 Z-3.000 F600.000
G1 X-46.000 Y0.000 Z-3.000 F600.000
G1 X-49.000 Y0.000 Z-3.000 F600.000
G1 X-49.000 Y-48.965 Z-3.000 F600.000
G1 X-48.998 Y-48.998 Z-3.000 F600.000
G1 X-48.965 Y-49.000 Z-3.000 F600.000
G1 X48.965 Y-49.000 Z-3.000 F600.000
G1 X48.998 Y-48.998 Z-3.000 F600.000
G1 X49.000 Y-48.965 Z-3.000 F600.000
G1 X49.000 Y48.965 Z-3.000 F600.000
G1 X48.998 Y48.998 Z-3.000 F600.000
G1 X48.965 Y49.000 Z-3.000 F600.000
G1 X-48.965 Y49.000 Z-3.000 F600.000
G1 X-48.998 Y48.998 Z-3.000 F600.000
G1 X-49.000 Y48.965 Z-3.000 F600.000
G1 X-49.000 Y0.000 Z-3.000 F600.000
G1 X-49.000 Y0.000 Z-6.000 F600.000
G1 X-49.000 Y-48.965 Z-6.000 F600.000
G1 X-48.998 Y-48.998 Z-6.000 F600.000
G1 X-48.965 Y-49.000 Z-6.000 F600.000
G1 X48.965 Y-49.000 Z-6.000 F600.000
G1 X48.998 Y-48.998 Z-6.000 F600.000
G1 X49.000 Y-48.965 Z-6.000 F600.000
G1 X49.000 Y48.965 Z-6.000 F600.000
G1 X48.998 Y48.998 Z-6.000 F600.000
G1 X48.965 Y49.000 Z-6.000 F600.000
G1 X-48.965 Y49.000 Z-6.000 F600.000
G1 X-48.998 Y48.998 Z-6.000 F600.000
G1 X-49.000 Y48.965 Z-6.000 F600.000
G1 X-49.000 Y0.000 Z-6.000 F600.000
G1 X-46.000 Y0.000 Z-6.000 F600.000
G1 X-46.000 Y-46.000 Z-6.000 F600.000
G1 X46.000 Y-46.000 Z-6.000 F600.000
G1 X46.000 Y46.000 Z-6.000 F600.000
G1 X-46.000 Y46.000 Z-6.000 F600.000
G1 X-46.000 Y0.000 Z-6.000 F600.000
G1 X-43.000 Y0.000 Z-6.000 F600.000
G1 X-43.000 Y-43.000 Z-6.000 F600.000
G1 X43.000 Y-43.000 Z-6.000 F600.000
G1 X43.000 Y43.000 Z-6.000 F600.000
G1 X-43.000 Y43.000 Z-6.000 F600.000
G1 X-43.000 Y0.000 Z-6.000 F600.000
G1 X-40.000 Y0.000 Z-6.000 F600.000
G1 X-40.000 Y-40.000 Z-6.000 F600.000
G1 X40.000 Y-40.000 Z-6.000 F600.000
G1 X40.000 Y40.000 Z-6.000 F600.000
G1 X-40.000 Y40.000 Z-6.000 F600.000
G1 X-40.000 Y0.000 Z-6.000 F600.000
G1 X-37.000 Y0.000 Z-6.000 F600.000
G1 X-37.000 Y-37.000 Z-6.000 F600.000
G1 X37.000 Y-37.000 Z-6.000 F600.000
G1 X37.000 Y37.000 Z-6.000 F600.000
G1 X-37.000 Y37.000 Z-6.000 F600.000
G1 X-37.000 Y0.000 Z-6.000 F600.000
G1 X-34.000 Y0.000 Z-6.000 F600.000
G1 X-34.000 Y-34.000 Z-6.000 F600.000
G1 X34.000 Y-34.000 Z-6.000 F600.000
G1 X34.000 Y34.000 Z-6.000 F600.000
G1 X-34.000 Y34.000 Z-6.000 F600.000
G1 X-34.000 Y0.000 Z-6.000 F600.000
G1 X-31.000 Y0.000 Z-6.000 F600.000
G1 X-31.000 Y-31.000 Z-6.000 F600.000
G1 X31.000 Y-31.000 Z-6.000 F600.000
G1 X31.000 Y31.000 Z-6.000 F600.000
G1 X-31.000 Y31.000 Z-6.000 F600.000
G1 X-31.000 Y0.000 Z-6.000 F600.000
G1 X-28.000 Y0.000 Z-6.000 F600.000
G1 X-28.000 Y-28.000 Z-6.000 F600.000
G1 X28.000 Y-28.000 Z-6.000 F600.000
G1 X28.000 Y28.000 Z-6.000 F600.000
G1 X-28.000 Y28.000 Z-6.000 F600.000
G1 X-28.000 Y0.000 Z-6.000 F600.000
G1 X-25.000 Y0.000 Z-6.000 F600.000
G1 X-25.000 Y-25.000 Z-6.000 F600.000
G1 X25.000 Y-25.000 Z-6.000 F600.000
G1 X25.000 Y25.000 Z-6.000 F600.000
G1 X-25.000 Y25.000 Z-6.000 F600.000
G1 X-25.000 Y0.000 Z-6.000 F600.000
G1 X-22.000 Y0.000 Z-6.000 F600.000
G1 X-22.000 Y-22.000 Z-6.000 F600.000
G1 X22.000 Y-22.000 Z-6.000 F600.000
G1 X22.000 Y22.000 Z-6.000 F600.000
G1 X-22.000 Y22.000 Z-6.000 F600.000
G1 X-22.000 Y0.000 Z-6.000 F600.000
G1 X-19.000 Y0.000 Z-6.000 F600.000
G1 X-19.000 Y-19.000 Z-6.000 F600.000
G1 X19.000 Y-19.000 Z-6.000 F600.000
G1 X19.000 Y19.000 Z-6.000 F600.000
G1 X-19.000 Y19.000 Z-6.000 F600.000
G1 X-19.000 Y0.000 Z-6.000 F600.000
G1 X-16.000 Y0.000 Z-6.000 F600.000
G1 X-16.000 Y-16.000 Z-6.000 F600.000
G1 X16.000 Y-16.000 Z-6.000 F600.000
G1 X16.000 Y16.000 Z-6.000 F600.000
G1 X-16.000 Y16.000 Z-6.000 F600.000
G1 X-16.000 Y0.000 Z-6.000 F600.000
G1 X-13.000 Y0.000 Z-6.000 F600.000
G1 X-13.000 Y-13.000 Z-6.000 F600.000
G1 X13.000 Y-13.000 Z-6.000 F600.000
G1 X13.000 Y13.000 Z-6.000 F600.000
G1 X-13.000 Y13.000 Z-6.000 F600.000
G1 X-13.000 Y0.000 Z-6.000 F600.000
G1 X-10.000 Y0.000 Z-6.000 F600.000
G1 X-10.000 Y-10.000 Z-6.000 F600.000
G1 X10.000 Y-10.000 Z-6.000 F600.000
G1 X10.000 Y10.000 Z-6.000 F600.000
G1 X-10.000 Y10.000 Z-6.000 F600.000
G1 X-10.000 Y0.000 Z-6.000 F600.000
G1 X-7.000 Y0.000 Z-6.000 F600.000
G1 X-7.000 Y-7.000 Z-6.000 F600.000
G1 X7.000 Y-7.000 Z-6.000 F600.000
G1 X7.000 Y7.000 Z-6.000 F600.000
G1 X-7.000 Y7.000 Z-6.000 F600.000
G1 X-7.000 Y0.000 Z-6.000 F600.000
G1 X-4.000 Y0.000 Z-6.000 F600.000
G1 X-4.000 Y-4.000 Z-6.000 F600.000
G1 X4.000 Y-4.000 Z-6.000 F600.000
G1 X4.000 Y4.000 Z-6.000 F600.000
G1 X-4.000 Y4.000 Z-6.000 F600.000
G1 X-4.000 Y0.000 Z-6.000 F600.000
G1 X-1.000 Y0.000 Z-6.000 F600.000
G1 X-1.000 Y-1.000 Z-6.000 F600.000
G1 X1.000 Y-1.000 Z-6.000 F600.000
G1 X1.000 Y1.000 Z-6.000 F600.000
G1 X-1.000 Y1.000 Z-6.000 F600.000
G1 X-1.000 Y0.000 Z-6.000 F600.000
G1 X-0.250 Y0.000 Z-6.000 F600.000
G1 X-0.250 Y-0.250 Z-6.000 F600.000
G1 X0.250 Y-0.250 Z-6.000 F600.000
G1 X0.250 Y0.250 Z-6.000 F600.000
G1 X-0.250 Y0.250 Z-6.000 F600.000
G1 X-0.250 Y0.000 Z-6.000 F600.000
G1 X-0.250 Y0.000 Z-9.000 F600.000
G1 X-0.250 Y-0.250 Z-9.000 F600.000
G1 X0.250 Y-0.250 Z-9.000 F600.000
G1 X0.250 Y0.250 Z-9.000 F600.000
G1 X-0.250 Y0.250 Z-9.000 F600.000
G1 X-0.250 Y0.000 Z-9.000 F600.000
G1 X-1.000 Y0.000 Z-9.000 F600.000
G1 X-1.000 Y-1.000 Z-9.000 F600.000
G1 X1.000 Y-1.000 Z-9.000 F600.000
G1 X1.000 Y1.000 Z-9.000 F600.000
G1 X-1.000 Y1.000 Z-9.000 F600.000
G1 X-1.000 Y0.000 Z-9.000 F600.000
G1 X-4.000 Y0.000 Z-9.000 F600.000
G1 X-4.000 Y-4.000 Z-9.000 F600.000
G1 X4.000 Y-4.000 Z-9.000 F600.000
G1 X4.000 Y4.000 Z-9.000 F600.000
G1 X-4.000 Y4.000 Z-9.000 F600.000
G1 X-4.000 Y0.000 Z-9.000 F600.000
G1 X-7.000 Y0.000 Z-9.000 F600.000
G1 X-7.000 Y-7.000 Z-9.000 F600.000
G1 X7.000 Y-7.000 Z-9.000 F600.000
G1 X7.000 Y7.000 Z-9.000 F600.000
G1 X-7.000 Y7.000 Z-9.000 F600.000
G1 X-7.000 Y0.000 Z-9.000 F600.000
G1 X-10.000 Y0.000 Z-9.000 F600.000
G1 X-10.000 Y-10.000 Z-9.000 F600.000
G1 X10.000 Y-10.000 Z-9.000 F600.000
G1 X10.000 Y10.000 Z-9.000 F600.000
G1 X-10.000 Y10.000 Z-9.000 F600.000
G1 X-10.000 Y0.000 Z-9.000 F600.000
G1 X-13.000 Y0.000 Z-9.000 F600.000
G1 X-13.000 Y-13.000 Z-9.000 F600.000
G1 X13.000 Y-13.000 Z-9.000 F600.000
G1 X13.000 Y13.000 Z-9.000 F600.000
G1 X-13.000 Y13.000 Z-9.000 F600.000
G1 X-13.000 Y0.000 Z-9.000 F600.000
G1 X-16.000 Y0.000 Z-9.000 F600.000
G1 X-16.000 Y-16.000 Z-9.000 F600.000
G1 X16.000 Y-16.000 Z-9.000 F600.000
G1 X16.000 Y16.000 Z-9.000 F600.000
G1 X-16.000 Y16.000 Z-9.000 F600.000
G1 X-16.000 Y0.000 Z-9.000 F600.000
G1 X-19.000 Y0.000 Z-9.000 F600.000
G1 X-19.000 Y-19.000 Z-9.000 F600.000
G1 X19.000 Y-19.000 Z-9.000 F600.000
G1 X19.000 Y19.000 Z-9.000 F600.000
G1 X-19.000 Y19.000 Z-9.000 F600.000
G1 X-19.000 Y0.000 Z-9.000 F600.000
G1 X-22.000 Y0.000 Z-9.000 F600.000
G1 X-22.000 Y-22.000 Z-9.000 F600.000
G1 X22.000 Y-22.000 Z-9.000 F600.000
G1 X22.000 Y22.000 Z-9.000 F600.000
G1 X-22.000 Y22.000 Z-9.000 F600.000
G1 X-22.000 Y0.000 Z-9.000 F600.000
G1 X-25.000 Y0.000 Z-9.000 F600.000
G1 X-25.000 Y-25.000 Z-9.000 F600.000
G1 X25.000 Y-25.000 Z-9.000 F600.000
G1 X25.000 Y25.000 Z-9.000 F600.000
G1 X-25.000 Y25.000 Z-9.000 F600.000
G1 X-25.000 Y0.000 Z-9.000 F600.000
G1 X-28.000 Y0.000 Z-9.000 F600.000
G1 X-28.000 Y-28.000 Z-9.000 F600.000
G1 X28.000 Y-28.000 Z-9.000 F600.000
G1 X28.000 Y28.000 Z-9.000 F600.000
G1 X-28.000 Y28.000 Z-9.000 F600.000
G1 X-28.000 Y0.000 Z-9.000 F600.000
G1 X-31.000 Y0.000 Z-9.000 F600.000
G1 X-31.000 Y-31.000 Z-9.000 F600.000
G1 X31.000 Y-31.000 Z-9.000 F600.000
G1 X31.000 Y31.000 Z-9.000 F600.000
G1 X-31.000 Y31.000 Z-9.000 F600.000
G1 X-31.000 Y0.000 Z-9.000 F600.000
G1 X-34.000 Y0.000 Z-9.000 F600.000
G1 X-34.000 Y-34.000 Z-9.000 F600.000
G1 X34.000 Y-34.000 Z-9.000 F600.000
G1 X34.000 Y34.000 Z-9.000 F600.000
G1 X-34.000 Y34.000 Z-9.000 F600.000
G1 X-34.000 Y0.000 Z-9.000 F600.000
G1 X-37.000 Y0.000 Z-9.000 F600.000
G1 X-37.000 Y-37.000 Z-9.000 F600.000
G1 X37.000 Y-37.000 Z-9.000 F600.000
G1 X37.000 Y37.000 Z-9.000 F600.000
G1 X-37.000 Y37.000 Z-9.000 F600.000
G1 X-37.000 Y0.000 Z-9.000 F600.000
G1 X-40.000 Y0.000 Z-9.000 F600.000
G1 X-40.000 Y-40.000 Z-9.000 F600.000
G1 X40.000 Y-40.000 Z-9.000 F600.000
G1 X40.000 Y40.000 Z-9.000 F600.000
G1 X-40.000 Y40.000 Z-9.000 F600.000
G1 X-40.000 Y0.000 Z-9.000 F600.000
G1 X-43.000 Y0.000 Z-9.000 F600.000
G1 X-43.000 Y-43.000 Z-9.000 F600.000
G1 X43.000 Y-43.000 Z-9.000 F600.000
G1 X43.000 Y43.000 Z-9.000 F600.000
G1 X-43.000 Y43.000 Z-9.000 F600.000
G1 X-43.000 Y0.000 Z-9.000 F600.000
G1 X-46.000 Y0.000 Z-9.000 F600.000
G1 X-46.000 Y-46.000 Z-9.000 F600.000
G1 X46.000 Y-46.000 Z-9.000 F600.000
G1 X46.000 Y46.000 Z-9.000 F600.000
G1 X-46.000 Y46.000 Z-9.000 F600.000
G1 X-46.000 Y0.000 Z-9.000 F600.000
G1 X-49.000 Y0.000 Z-9.000 F600.000
G1 X-49.000 Y-48.965 Z-9.000 F600.000
G1 X-48.998 Y-48.998 Z-9.000 F600.000
G1 X-48.965 Y-49.000 Z-9.000 F600.000
G1 X48.965 Y-49.000 Z-9.000 F600.000
G1 X48.998 Y-48.998 Z-9.000 F600.000
G1 X49.000 Y-48.965 Z-9.000 F600.000
G1 X49.000 Y48.965 Z-9.000 F600.000
G1 X48.998 Y48.998 Z-9.000 F600.000
G1 X48.965 Y49.000 Z-9.000 F600.000
G1 X-48.965 Y49.000 Z-9.000 F600.000
G1 X-48.998 Y48.998 Z-9.000 F600.000
G1 X-49.000 Y48.965 Z-9.000 F600.000
G1 X-49.000 Y0.000 Z-9.000 F600.000
G1 X-49.000 Y0.000 Z-12.000 F600.000
G1 X-49.000 Y-48.965 Z-12.000 F600.000
G1 X-48.998 Y-48.998 Z-12.000 F600.000
G1 X-48.965 Y-49.000 Z-12.000 F600.000
G1 X48.965 Y-49.000 Z-12.000 F600.000
G1 X48.998 Y-48.998 Z-12.000 F600.000
G1 X49.000 Y-48.965 Z-12.000 F600.000
G1 X49.000 Y48.965 Z-12.000 F600.000
G1 X48.998 Y48.998 Z-12.000 F600.000
G1 X48.965 Y49.000 Z-12.000 F600.000
G1 X-48.965 Y49.000 Z-12.000 F600.000
G1 X-48.998 Y48.998 Z-12.000 F600.000
G1 X-49.000 Y48.965 Z-12.000 F600.000
G1 X-49.000 Y0.000 Z-12.000 F600.000
G1 X-46.000 Y0.000 Z-12.000 F600.000
G1 X-46.000 Y-46.000 Z-12.000 F600.000
G1 X46.000 Y-46.000 Z-12.000 F600.000
G1 X46.000 Y46.000 Z-12.000 F600.000
G1 X-46.000 Y46.000 Z-12.000 F600.000
G1 X-46.000 Y0.000 Z-12.000 F600.000
G1 X-43.000 Y0.000 Z-12.000 F600.000
G1 X-43.000 Y-43.000 Z-12.000 F600.000
G1 X43.000 Y-43.000 Z-12.000 F600.000
G1 X43.000 Y43.000 Z-12.000 F600.000
G1 X-43.000 Y43.000 Z-12.000 F600.000
G1 X-43.000 Y0.000 Z-12.000 F600.000
G1 X-40.000 Y0.000 Z-12.000 F600.000
G1 X-40.000 Y-40.000 Z-12.000 F600.000
G1 X40.000 Y-40.000 Z-12.000 F600.000
G1 X40.000 Y40.000 Z-12.000 F600.000
G1 X-40.000 Y40.000 Z-12.000 F600.000
G1 X-40.000 Y0.000 Z-12.000 F600.000
G1 X-37.000 Y0.000 Z-12.000 F600.000
G1 X-37.000 Y-37.000 Z-12.000 F600.000
G1 X37.000 Y-37.000 Z-12.000 F600.000
G1 X37.000 Y37.000 Z-12.000 F600.000
G1 X-37.000 Y37.000 Z-12.000 F600.000
G1 X-37.000 Y0.000 Z-12.000 F600.000
G1 X-34.000 Y0.000 Z-12.000 F600.000
G1 X-34.000 Y-34.000 Z-12.000 F600.000
G1 X34.000 Y-34.000 Z-12.000 F600.000
G1 X34.000 Y34.000 Z-12.000 F600.000
G1 X-34.000 Y34.000 Z-12.000 F600.000
G1 X-34.000 Y0.000 Z-12.000 F600.000
G1 X-31.000 Y0.000 Z-12.000 F600.000
G1 X-31.000 Y-31.000 Z-12.000 F600.000
G1 X31.000 Y-31.000 Z-12.000 F600.000
G1 X31.000 Y31.000 Z-12.000 F600.000
G1 X-31.000 Y31.000 Z-12.000 F600.000
G1 X-31.000 Y0.000 Z-12.000 F600.000
G1 X-28.000 Y0.000 Z-12.000 F600.000
G1 X-28.000 Y-28.000 Z-12.000 F600.000
G1 X28.000 Y-28.000 Z-12.000 F600.000
G1 X28.000 Y28.000 Z-12.000 F600.000
G1 X-28.000 Y28.000 Z-12.000 F600.000
G1 X-28.000 Y0.000 Z-12.000 F600.000
G1 X-25.000 Y0.000 Z-12.000 F600.000
G1 X-25.000 Y-25.000 Z-12.000 F600.000
G1 X25.000 Y-25.000 Z-12.000 F600.000
G1 X25.000 Y25.000 Z-12.000 F600.000
G1 X-25.000 Y25.000 Z-12.000 F600.000
G1 X-25.000 Y0.000 Z-12.000 F600.000
G1 X-22.000 Y0.000 Z-12.000 F600.000
G1 X-22.000 Y-22.000 Z-12.000 F600.000
G1 X22.000 Y-22.000 Z-12.000 F600.000
G1 X22.000 Y22.000 Z-12.000 F600.000
G1 X-22.000 Y22.000 Z-12.000 F600.000
G1 X-22.000 Y0.000 Z-12.000 F600.000
G1 X-19.000 Y0.000 Z-12.000 F600.000
G1 X-19.000 Y-19.000 Z-12.000 F600.000
G1 X19.000 Y-19.000 Z-12.000 F600.000
G1 X19.000 Y19.000 Z-12.000 F600.000
G1 X-19.000 Y19.000 Z-12.000 F600.000
G1 X-19.000 Y0.000 Z-12.000 F600.000
G1 X-16.000 Y0.000 Z-12.000 F600.000
G1 X-16.000 Y-16.000 Z-12.000 F600.000
G1 X16.000 Y-16.000 Z-12.000 F600.000
G1 X16.000 Y16.000 Z-12.000 F600.000
G1 X-16.000 Y16.000 Z-12.000 F600.000
G1 X-16.000 Y0.000 Z-12.000 F600.000
G1 X-13.000 Y0.000 Z-12.000 F600.000
G1 X-13.000 Y-13.000 Z-12.000 F600.000
G1 X13.000 Y-13.000 Z-12.000 F600.000
G1 X13.000 Y13.000 Z-12.000 F600.000
G1 X-13.000 Y13.000 Z-12.000 F600.000
G1 X-13.000 Y0.000 Z-12.000 F600.000
G1 X-10.000 Y0.000 Z-12.000 F600.000
G1 X-10.000 Y-10.000 Z-12.000 F600.000
G1 X10.000 Y-10.000 Z-12.000 F600.000
G1 X10.000 Y10.000 Z-12.000 F600.000
G1 X-10.000 Y10.000 Z-12.000 F600.000
G1 X-10.000 Y0.000 Z-12.000 F600.000
G1 X-7.000 Y0.000 Z-12.000 F600.000
G1 X-7.000 Y-7.000 Z-12.000 F600.000
G1 X7.000 Y-7.000 Z-12.000 F600.000
G1 X7.000 Y7.000 Z-12.000 F600.000
G1 X-7.000 Y7.000 Z-12.000 F600.000
G1 X-7.000 Y0.000 Z-12.000 F600.000
G1 X-4.000 Y0.000 Z-12.000 F600.000
G1 X-4.000 Y-4.000 Z-12.000 F600.000
G1 X4.000 Y-4.000 Z-12.000 F600.000
G1 X4.000 Y4.000 Z-12.000 F600.000
G1 X-4.000 Y4.000 Z-12.000 F600.000
G1 X-4.000 Y0.000 Z-12.000 F600.000
G1 X-1.000 Y0.000 Z-12.000 F600.000
G1 X-1.000 Y-1.000 Z-12.000 F600.000
G1 X1.000 Y-1.000 Z-12.000 F600.000
G1 X1.000 Y1.000 Z-12.000 F600.000
G1 X-1.000 Y1.000 Z-12.000 F600.000
G1 X-1.000 Y0.000 Z-12.000 F600.000
G1 X-0.250 Y0.000 Z-12.000 F600.000
G1 X-0.250 Y-0.250 Z-12.000 F600.000
G1 X0.250 Y-0.250 Z-12.000 F600.000
G1 X0.250 Y0.250 Z-12.000 F600.000
G1 X-0.250 Y0.250 Z-12.000 F600.000
G1 X-0.250 Y0.000 Z-12.000 F600.000
G1 X-0.250 Y0.000 Z-15.000 F600.000
G1 X-0.250 Y-0.250 Z-15.000 F600.000
G1 X0.250 Y-0.250 Z-15.000 F600.000
G1 X0.250 Y0.250 Z-15.000 F600.000
G1 X-0.250 Y0.250 Z-15.000 F600.000
G1 X-0.250 Y0.000 Z-15.000 F600.000
G1 X-1.000 Y0.000 Z-15.000 F600.000
G1 X-1.000 Y-1.000 Z-15.000 F600.000
G1 X1.000 Y-1.000 Z-15.000 F600.000
G1 X1.000 Y1.000 Z-15.000 F600.000
G1 X-1.000 Y1.000 Z-15.000 F600.000
G1 X-1.000 Y0.000 Z-15.000 F600.000
G1 X-4.000 Y0.000 Z-15.000 F600.000
G1 X-4.000 Y-4.000 Z-15.000 F600.000
G1 X4.000 Y-4.000 Z-15.000 F600.000
G1 X4.000 Y4.000 Z-15.000 F600.000
G1 X-4.000 Y4.000 Z-15.000 F600.000
G1 X-4.000 Y0.000 Z-15.000 F600.000
G1 X-7.000 Y0.000 Z-15.000 F600.000
G1 X-7.000 Y-7.000 Z-15.000 F600.000
G1 X7.000 Y-7.000 Z-15.000 F600.000
G1 X7.000 Y7.000 Z-15.000 F600.000
G1 X-7.000 Y7.000 Z-15.000 F600.000
G1 X-7.000 Y0.000 Z-15.000 F600.000
G1 X-10.000 Y0.000 Z-15.000 F600.000
G1 X-10.000 Y-10.000 Z-15.000 F600.000
G1 X10.000 Y-10.000 Z-15.000 F600.000
G1 X10.000 Y10.000 Z-15.000 F600.000
G1 X-10.000 Y10.000 Z-15.000 F600.000
G1 X-10.000 Y0.000 Z-15.000 F600.000
G1 X-13.000 Y0.000 Z-15.000 F600.000
G1 X-13.000 Y-13.000 Z-15.000 F600.000
G1 X13.000 Y-13.000 Z-15.000 F600.000
G1 X13.000 Y13.000 Z-15.000 F600.000
G1 X-13.000 Y13.000 Z-15.000 F600.000
G1 X-13.000 Y0.000 Z-15.000 F600.000
G1 X-16.000 Y0.000 Z-15.000 F600.000
G1 X-16.000 Y-16.000 Z-15.000 F600.000
G1 X16.000 Y-16.000 Z-15.000 F600.000
G1 X16.000 Y16.000 Z-15.000 F600.000
G1 X-16.000 Y16.000 Z-15.000 F600.000
G1 X-16.000 Y0.000 Z-15.000 F600.000
G1 X-19.000 Y0.000 Z-15.000 F600.000
G1 X-19.000 Y-19.000 Z-15.000 F600.000
G1 X19.000 Y-19.000 Z-15.000 F600.000
G1 X19.000 Y19.000 Z-15.000 F600.000
G1 X-19.000 Y19.000 Z-15.000 F600.000
G1 X-19.000 Y0.000 Z-15.000 F600.000
G1 X-22.000 Y0.000 Z-15.000 F600.000
G1 X-22.000 Y-22.000 Z-15.000 F600.000
G1 X22.000 Y-22.000 Z-15.000 F600.000
G1 X22.000 Y22.000 Z-15.000 F600.000
G1 X-22.000 Y22.000 Z-15.000 F600.000
G1 X-22.000 Y0.000 Z-15.000 F600.000
G1 X-25.000 Y0.000 Z-15.000 F600.000
G1 X-25.000 Y-25.000 Z-15.000 F600.000
G1 X25.000 Y-25.000 Z-15.000 F600.000
G1 X25.000 Y25.000 Z-15.000 F600.000
G1 X-25.000 Y25.000 Z-15.000 F600.000
G1 X-25.000 Y0.000 Z-15.000 F600.000
G1 X-28.000 Y0.000 Z-15.000 F600.000
G1 X-28.000 Y-28.000 Z-15.000 F600.000
G1 X28.000 Y-28.000 Z-15.000 F600.000
G1 X28.000 Y28.000 Z-15.000 F600.000
G1 X-28.000 Y28.000 Z-15.000 F600.000
G1 X-28.000 Y0.000 Z-15.000 F600.000
G1 X-31.000 Y0.000 Z-15.000 F600.000
G1 X-31.000 Y-31.000 Z-15.000 F600.000
G1 X31.000 Y-31.000 Z-15.000 F600.000
G1 X31.000 Y31.000 Z-15.000 F600.000
G1 X-31.000 Y31.000 Z-15.000 F600.000
G1 X-31.000 Y0.000 Z-15.000 F600.000
G1 X-34.000 Y0.000 Z-15.000 F600.000
G1 X-34.000 Y-34.000 Z-15.000 F600.000
G1 X34.000 Y-34.000 Z-15.000 F600.000
G1 X34.000 Y34.000 Z-15.000 F600.000
G1 X-34.000 Y34.000 Z-15.000 F600.000
G1 X-34.000 Y0.000 Z-15.000 F600.000
G1 X-37.000 Y0.000 Z-15.000 F600.000
G1 X-37.000 Y-37.000 Z-15.000 F600.000
G1 X37.000 Y-37.000 Z-15.000 F600.000
G1 X37.000 Y37.000 Z-15.000 F600.000
G1 X-37.000 Y37.000 Z-15.000 F600.000
G1 X-37.000 Y0.000 Z-15.000 F600.000
G1 X-40.000 Y0.000 Z-15.000 F600.000
G1 X-40.000 Y-40.000 Z-15.000 F600.000
G1 X40.000 Y-40.000 Z-15.000 F600.000
G1 X40.000 Y40.000 Z-15.000 F600.000
G1 X-40.000 Y40.000 Z-15.000 F600.000
G1 X-40.000 Y0.000 Z-15.000 F600.000
G1 X-43.000 Y0.000 Z-15.000 F600.000
G1 X-43.000 Y-43.000 Z-15.000 F600.000
G1 X43.000 Y-43.000 Z-15.000 F600.000
G1 X43.000 Y43.000 Z-15.000 F600.000
G1 X-43.000 Y43.000 Z-15.000 F600.000
G1 X-43.000 Y0.000 Z-15.000 F600.000
G1 X-46.000 Y0.000 Z-15.000 F600.000
G1 X-46.000 Y-46.000 Z-15.000 F600.000
G1 X46.000 Y-46.000 Z-15.000 F600.000
G1 X46.000 Y46.000 Z-15.000 F600.000
G1 X-46.000 Y46.000 Z-15.000 F600.000
G1 X-46.000 Y0.000 Z-15.000 F600.000
G1 X-49.000 Y0.000 Z-15.000 F600.000
G1 X-49.000 Y-48.965 Z-15.000 F600.000
G1 X-48.998 Y-48.998 Z-15.000 F600.000
G1 X-48.965 Y-49.000 Z-15.000 F600.000
G1 X48.965 Y-49.000 Z-15.000 F600.000
G1 X48.998 Y-48.998 Z-15.000 F600.000
G1 X49.000 Y-48.965 Z-15.000 F600.000
G1 X49.000 Y48.965 Z-15.000 F600.000
G1 X48.998 Y48.998 Z-15.000 F600.000
G1 X48.965 Y49.000 Z-15.000 F600.000
G1 X-48.965 Y49.000 Z-15.000 F600.000
G1 X-48.998 Y48.998 Z-15.000 F600.000
G1 X-49.000 Y48.965 Z-15.000 F600.000
G1 X-49.000 Y0.000 Z-15.000 F600.000
G0 Z5.000
G0 Z5.000
(Finish operation: Pocket_Shape)
(Begin operation: Profile)
(Path: Profile)
(Profile)
(Compensated Tool Path. Diameter: 3.0)
G0 Z5.000
G0 X0.000 Y0.000
G0 Y23.500
G0 Y23.500 Z3.000
G1 X0.000 Y23.500 Z-3.000 F600.000
G1 X23.500 Y23.500 Z-3.000 F600.000
G1 X23.500 Y-23.500 Z-3.000 F600.000
G1 X-23.500 Y-23.500 Z-3.000 F600.000
G1 X-23.500 Y23.500 Z-3.000 F600.000
G1 X0.000 Y23.500 Z-3.000 F600.000
G1 X0.000 Y23.500 Z-6.000 F600.000
G1 X23.500 Y23.500 Z-6.000 F600.000
G1 X23.500 Y-23.500 Z-6.000 F600.000
G1 X-23.500 Y-23.500 Z-6.000 F600.000
G1 X-23.500 Y23.500 Z-6.000 F600.000
G1 X0.000 Y23.500 Z-6.000 F600.000
G1 X0.000 Y23.500 Z-9.000 F600.000
G1 X23.500 Y23.500 Z-9.000 F600.000
G1 X23.500 Y-23.500 Z-9.000 F600.000
G1 X-23.500 Y-23.500 Z-9.000 F600.000
G1 X-23.500 Y23.500 Z-9.000 F600.000
G1 X0.000 Y23.500 Z-9.000 F600.000
G1 X0.000 Y23.500 Z-12.000 F600.000
G1 X23.500 Y23.500 Z-12.000 F600.000
G1 X23.500 Y-23.500 Z-12.000 F600.000
G1 X-23.500 Y-23.500 Z-12.000 F600.000
G1 X-23.500 Y23.500 Z-12.000 F600.000
G1 X0.000 Y23.500 Z-12.000 F600.000
G1 X0.000 Y23.500 Z-15.000 F600.000
G1 X23.500 Y23.500 Z-15.000 F600.000
G1 X23.500 Y-23.500 Z-15.000 F600.000
G1 X-23.500 Y-23.500 Z-15.000 F600.000
G1 X-23.500 Y23.500 Z-15.000 F600.000
G1 X0.000 Y23.500 Z-15.000 F600.000
G1 X0.000 Y23.500 Z-18.000 F600.000
G1 X23.500 Y23.500 Z-18.000 F600.000
G1 X23.500 Y-23.500 Z-18.000 F600.000
G1 X-23.500 Y-23.500 Z-18.000 F600.000
G1 X-23.500 Y23.500 Z-18.000 F600.000
G1 X0.000 Y23.500 Z-18.000 F600.000
G1 X0.000 Y23.500 Z-21.000 F600.000
G1 X23.500 Y23.500 Z-21.000 F600.000
G1 X23.500 Y-23.500 Z-21.000 F600.000
G1 X-23.500 Y-23.500 Z-21.000 F600.000
G1 X-23.500 Y23.500 Z-21.000 F600.000
G1 X0.000 Y23.500 Z-21.000 F600.000
G1 X0.000 Y23.500 Z-22.000 F600.000
G1 X23.500 Y23.500 Z-22.000 F600.000
G1 X23.500 Y-23.500 Z-22.000 F600.000
G1 X-23.500 Y-23.500 Z-22.000 F600.000
G1 X-23.500 Y23.500 Z-22.000 F600.000
G1 X0.000 Y23.500 Z-22.000 F600.000
G0 Z5.000
G0 Z5.000
(Finish operation: Profile)
(Begin postamble)
M5
G17 G90
M2
