(Exported by FreeCAD)
(Post Processor: script_module)
(Output Time:2025-10-26 10:40:01.775518)
(Begin preamble)
G17 G90
G21
(Begin operation: Fixture)
(Path: Fixture)
G54
(Finish operation: Fixture)
(Begin operation: 3mm_Endmill001)
(Path: 3mm_Endmill001)
(3mm_Endmill001)
(Begin toolchange)
( M6 T2 )
M3 S10000
(Finish operation: 3mm_Endmill001)
(Begin operation: Pocket_Shape)
(Path: Pocket_Shape)
(Pocket_Shape)
G0 Z5.000
G0 X0.000 Y0.000
G0 X-47.202 Y-22.280
G0 X-47.202 Y-22.280 Z3.000
G1 X-47.202 Y-22.280 Z-3.000 F600.000
G2 X-46.532 Y-24.096 Z-3.000 I-11.182 J-5.154 K0.000 F600.000
G1 X-46.272 Y-27.475 Z-3.000 F600.000
G1 X-46.271 Y-27.563 Z-3.000 F600.000
G1 X-46.441 Y-31.728 Z-3.000 F600.000
G2 X-46.450 Y-31.785 Z-3.000 I-0.223 J0.006 K0.000 F600.000
G2 X-46.885 Y-33.746 Z-3.000 I-21.939 J3.830 K0.000 F600.000
G2 X-46.899 Y-33.777 Z-3.000 I-0.222 J0.084 K0.000 F600.000
G2 X-47.038 Y-33.957 Z-3.000 I-0.721 J0.415 K0.000 F600.000
G2 X-47.835 Y-34.922 Z-3.000 I-12.376 J9.407 K0.000 F600.000
G3 X-48.070 Y-36.645 Z-3.000 I1.204 J-1.042 K0.000 F600.000
G1 X-47.023 Y-39.327 Z-3.000 F600.000
G2 X-47.026 Y-39.389 Z-3.000 I-0.032 J-0.030 K0.000 F600.000
G3 X-47.147 Y-39.463 Z-3.000 I1.862 J-3.203 K0.000 F600.000
G2 X-47.940 Y-39.963 Z-3.000 I-3.483 J4.644 K0.000 F600.000
G2 X-48.716 Y-40.119 Z-3.000 I-1.299 J4.446 K0.000 F600.000
G1 X-48.727 Y-40.099 Z-3.000 F600.000
G1 X-50.305 Y-36.419 Z-3.000 F600.000
G3 X-50.381 Y-36.265 Z-3.000 I-1.379 J-0.591 K0.000 F600.000
G3 X-51.674 Y-35.441 Z-3.000 I-1.344 J-0.683 K0.000 F600.000
G3 X-56.035 Y-35.395 Z-3.000 I-3.018 J-78.581 K0.000 F600.000
G1 X-56.065 Y-35.394 Z-3.000 F600.000
G2 X-55.955 Y-33.420 Z-3.000 I10.584 J0.403 K0.000 F600.000
G2 X-55.760 Y-32.796 Z-3.000 I1.835 J-0.233 K0.000 F600.000
G2 X-55.644 Y-32.809 Z-3.000 I0.014 J-0.380 K0.000 F600.000
G2 X-54.666 Y-32.910 Z-3.000 I-4.423 J-47.579 K0.000 F600.000
G3 X-53.030 Y-31.116 Z-3.000 I0.167 J1.491 K0.000 F600.000
G3 X-53.376 Y-30.414 Z-3.000 I-1.693 J-0.396 K0.000 F600.000
G1 X-55.330 Y-28.038 Z-3.000 F600.000
G3 X-55.526 Y-27.828 Z-3.000 I-2.385 J-2.036 K0.000 F600.000
G3 X-56.707 Y-26.742 Z-3.000 I-63.091 J-67.410 K0.000 F600.000
G1 X-56.727 Y-26.722 Z-3.000 F600.000
G2 X-56.710 Y-26.669 Z-3.000 I0.212 J-0.040 K0.000 F600.000
G3 X-56.615 Y-26.515 Z-3.000 I-7.355 J4.645 K0.000 F600.000
G2 X-56.073 Y-25.655 Z-3.000 I3.627 J-1.686 K0.000 F600.000
G2 X-55.082 Y-24.836 Z-3.000 I5.854 J-6.078 K0.000 F600.000
G1 X-55.067 Y-24.852 Z-3.000 F600.000
G1 X-53.748 Y-26.393 Z-3.000 F600.000
G1 X-53.692 Y-26.467 Z-3.000 F600.000
G1 X-50.966 Y-30.598 Z-3.000 F600.000
G3 X-50.788 Y-30.947 Z-3.000 I3.485 J1.558 K0.000 F600.000
G3 X-48.066 Y-30.934 Z-3.000 I1.357 J0.754 K0.000 F600.000
G3 X-47.810 Y-30.014 Z-3.000 I-1.554 J0.927 K0.000 F600.000
G1 X-47.639 Y-27.211 Z-3.000 F600.000
G3 X-47.665 Y-26.824 Z-3.000 I-1.497 J0.092 K0.000 F600.000
G3 X-48.218 Y-25.188 Z-3.000 I-11.725 J-3.048 K0.000 F600.000
G3 X-48.696 Y-24.557 Z-3.000 I-1.392 J-0.558 K0.000 F600.000
G3 X-49.857 Y-23.870 Z-3.000 I-5.940 J-8.721 K0.000 F600.000
G3 X-50.401 Y-23.704 Z-3.000 I-0.713 J-1.362 K0.000 F600.000
G3 X-49.697 Y-21.253 Z-3.000 I-9.204 J3.968 K0.000 F600.000
G2 X-49.670 Y-21.234 Z-3.000 I0.030 J-0.015 K0.000 F600.000
G2 X-48.020 Y-21.569 Z-3.000 I-1.549 J-11.855 K0.000 F600.000
G2 X-47.202 Y-22.280 Z-3.000 I-2.364 J-3.548 K0.000 F600.000
G1 X-49.424 Y-21.269 Z-3.000 F600.000
G1 X-49.670 Y-21.234 Z-3.000 F600.000
G3 X-49.697 Y-21.253 Z-3.000 I0.003 J-0.034 K0.000 F600.000
G2 X-49.758 Y-21.603 Z-3.000 I-5.432 J0.758 K0.000 F600.000
G1 X-49.424 Y-21.269 Z-3.000 F600.000
G2 X-48.020 Y-21.569 Z-3.000 I-1.722 J-11.508 K0.000 F600.000
G2 X-47.202 Y-22.280 Z-3.000 I-2.361 J-3.544 K0.000 F600.000
G2 X-46.902 Y-22.990 Z-3.000 I-8.957 J-4.194 K0.000 F600.000
G1 X-48.574 Y-24.662 Z-3.000 F600.000
G2 X-48.218 Y-25.188 Z-3.000 I-1.020 J-1.075 K0.000 F600.000
G2 X-47.665 Y-26.824 Z-3.000 I-11.172 J-4.685 K0.000 F600.000
G2 X-47.639 Y-27.211 Z-3.000 I-1.471 J-0.295 K0.000 F600.000
G1 X-47.688 Y-28.019 Z-3.000 F600.000
G1 X-46.335 Y-26.665 Z-3.000 F600.000
G0 Z5.000
G0 X-54.117 Y-25.962 Z5.000
G0 X-54.117 Y-25.962 Z3.000
G1 X-54.117 Y-25.962 Z-3.000 F600.000
G1 X-55.067 Y-24.852 Z-3.000 F600.000
G1 X-55.082 Y-24.836 Z-3.000 F600.000
G3 X-56.073 Y-25.655 Z-3.000 I4.863 J-6.897 K0.000 F600.000
G3 X-56.615 Y-26.515 Z-3.000 I3.085 J-2.546 K0.000 F600.000
G2 X-56.710 Y-26.669 Z-3.000 I-7.449 J4.491 K0.000 F600.000
G3 X-56.727 Y-26.722 Z-3.000 I0.195 J-0.093 K0.000 F600.000
G1 X-56.707 Y-26.742 Z-3.000 F600.000
G1 X-55.764 Y-27.609 Z-3.000 F600.000
G1 X-54.117 Y-25.962 Z-3.000 F600.000
G1 X-53.748 Y-26.393 Z-3.000 F600.000
G1 X-53.692 Y-26.467 Z-3.000 F600.000
G1 X-52.375 Y-28.463 Z-3.000 F600.000
G1 X-53.804 Y-29.892 Z-3.000 F600.000
G2 X-53.351 Y-30.445 Z-3.000 I-20.373 J-17.195 K0.000 F600.000
G2 X-53.004 Y-31.538 Z-3.000 I-1.204 J-0.984 K0.000 F600.000
G2 X-54.666 Y-32.910 Z-3.000 I-1.495 J0.119 K0.000 F600.000
G3 X-55.644 Y-32.809 Z-3.000 I-5.401 J-47.478 K0.000 F600.000
G3 X-55.760 Y-32.796 Z-3.000 I-0.101 J-0.367 K0.000 F600.000
G3 X-55.955 Y-33.420 Z-3.000 I1.639 J-0.857 K0.000 F600.000
G3 X-56.065 Y-35.394 Z-3.000 I10.475 J-1.570 K0.000 F600.000
G1 X-56.035 Y-35.395 Z-3.000 F600.000
G2 X-55.054 Y-35.385 Z-3.000 I0.949 J-44.506 K0.000 F600.000
G1 X-50.722 Y-31.053 Z-3.000 F600.000
G3 X-48.029 Y-30.864 Z-3.000 I1.293 J0.860 K0.000 F600.000
G3 X-47.810 Y-30.014 Z-3.000 I-1.588 J0.860 K0.000 F600.000
G1 X-47.688 Y-28.019 Z-3.000 F600.000
G1 X-46.335 Y-26.665 Z-3.000 F600.000
G1 X-46.272 Y-27.475 Z-3.000 F600.000
G1 X-46.271 Y-27.563 Z-3.000 F600.000
G1 X-46.411 Y-30.984 Z-3.000 F600.000
G1 X-51.035 Y-35.609 Z-3.000 F600.000
G2 X-50.360 Y-36.303 Z-3.000 I-0.714 J-1.369 K0.000 F600.000
G2 X-50.305 Y-36.419 Z-3.000 I-1.323 J-0.707 K0.000 F600.000
G1 X-49.494 Y-38.310 Z-3.000 F600.000
G1 X-48.003 Y-36.818 Z-3.000 F600.000
G1 X-47.023 Y-39.327 Z-3.000 F600.000
G2 X-47.026 Y-39.389 Z-3.000 I-0.032 J-0.030 K0.000 F600.000
G3 X-47.382 Y-39.630 Z-3.000 I1.472 J-2.560 K0.000 F600.000
G2 X-47.940 Y-39.963 Z-3.000 I-2.690 J3.877 K0.000 F600.000
G2 X-48.716 Y-40.119 Z-3.000 I-1.299 J4.447 K0.000 F600.000
G1 X-48.727 Y-40.099 Z-3.000 F600.000
G1 X-49.494 Y-38.310 Z-3.000 F600.000
G0 Z5.000
G0 X-50.009 Y-47.311 Z5.000
G0 X-50.009 Y-47.311 Z3.000
G1 X-50.009 Y-47.311 Z-3.000 F600.000
G1 X-48.060 Y-45.362 Z-3.000 F600.000
G1 X-47.138 Y-46.276 Z-3.000 F600.000
G1 X-47.124 Y-46.291 Z-3.000 F600.000
G2 X-49.010 Y-48.342 Z-3.000 I-12.131 J9.262 K0.000 F600.000
G1 X-49.021 Y-48.332 Z-3.000 F600.000
G2 X-50.009 Y-47.311 Z-3.000 I334.559 J324.733 K0.000 F600.000
G2 X-51.030 Y-46.250 Z-3.000 I231.954 J224.124 K0.000 F600.000
G3 X-51.122 Y-46.162 Z-3.000 I-1.082 J-1.039 K0.000 F600.000
G3 X-52.273 Y-45.332 Z-3.000 I-11.596 J-14.875 K0.000 F600.000
G1 X-50.309 Y-43.368 Z-3.000 F600.000
G1 X-52.874 Y-41.689 Z-3.000 F600.000
G1 X-54.836 Y-43.652 Z-3.000 F600.000
G3 X-54.906 Y-43.610 Z-3.000 I-0.749 J-1.152 K0.000 F600.000
G3 X-57.244 Y-42.500 Z-3.000 I-22.343 J-44.051 K0.000 F600.000
G3 X-57.796 Y-42.370 Z-3.000 I-0.612 J-1.354 K0.000 F600.000
G1 X-55.737 Y-40.310 Z-3.000 F600.000
G1 X-56.846 Y-39.789 Z-3.000 F600.000
G2 X-58.730 Y-39.126 Z-3.000 I6.859 J22.473 K0.000 F600.000
G1 X-58.775 Y-39.106 Z-3.000 F600.000
G1 X-61.432 Y-41.763 Z-3.000 F600.000
G3 X-62.638 Y-40.546 Z-3.000 I-1.516 J-0.297 K0.000 F600.000
G1 X-64.038 Y-40.126 Z-3.000 F600.000
G1 X-59.702 Y-35.790 Z-3.000 F600.000
G1 X-59.754 Y-31.599 Z-3.000 F600.000
G1 X-61.758 Y-33.604 Z-3.000 F600.000
G1 X-61.692 Y-35.901 Z-3.000 F600.000
G2 X-61.695 Y-36.055 Z-3.000 I-1.499 J-0.043 K0.000 F600.000
G2 X-62.878 Y-37.477 Z-3.000 I-1.503 J0.047 K0.000 F600.000
G2 X-63.641 Y-37.453 Z-3.000 I-0.327 J1.735 K0.000 F600.000
G1 X-65.203 Y-37.048 Z-3.000 F600.000
G1 X-66.066 Y-37.912 Z-3.000 F600.000
G1 X-65.907 Y-36.901 Z-3.000 F600.000
G1 X-65.901 Y-36.869 Z-3.000 F600.000
G1 X-65.868 Y-36.876 Z-3.000 F600.000
G1 X-65.203 Y-37.048 Z-3.000 F600.000
G0 Z5.000
G0 X-70.209 Y-37.036 Z5.000
G0 X-70.209 Y-37.036 Z3.000
G1 X-70.209 Y-37.036 Z-3.000 F600.000
G3 X-70.203 Y-44.547 Z-3.000 I1177.758 J-2.942 K0.000 F600.000
G3 X-68.800 Y-46.090 Z-3.000 I1.563 J0.012 K0.000 F600.000
G2 X-66.536 Y-46.326 Z-3.000 I-1.517 J-25.609 K0.000 F600.000
G2 X-66.801 Y-48.419 Z-3.000 I-8.636 J0.033 K0.000 F600.000
G1 X-66.822 Y-48.419 Z-3.000 F600.000
G1 X-70.269 Y-48.264 Z-3.000 F600.000
G3 X-70.319 Y-48.263 Z-3.000 I-0.068 J-1.499 K0.000 F600.000
G3 X-72.050 Y-48.262 Z-3.000 I-0.945 J-155.236 K0.000 F600.000
G1 X-72.081 Y-48.260 Z-3.000 F600.000
G2 X-72.109 Y-48.231 Z-3.000 I0.003 J0.031 K0.000 F600.000
G3 X-72.098 Y-48.088 Z-3.000 I-3.841 J0.356 K0.000 F600.000
G2 X-72.071 Y-47.083 Z-3.000 I13.860 J0.132 K0.000 F600.000
G1 X-71.842 Y-45.262 Z-3.000 F600.000
G3 X-71.892 Y-44.647 Z-3.000 I-1.488 J0.188 K0.000 F600.000
G2 X-71.959 Y-44.333 Z-3.000 I1.082 J0.395 K0.000 F600.000
G3 X-71.896 Y-39.278 Z-3.000 I-227.885 J5.404 K0.000 F600.000
G3 X-71.943 Y-37.877 Z-3.000 I-25.121 J-0.149 K0.000 F600.000
G3 X-73.424 Y-36.460 Z-3.000 I-1.498 J-0.083 K0.000 F600.000
G3 X-75.615 Y-36.492 Z-3.000 I-0.627 J-31.882 K0.000 F600.000
G1 X-75.643 Y-36.492 Z-3.000 F600.000
G2 X-75.528 Y-34.496 Z-3.000 I10.943 J0.372 K0.000 F600.000
G3 X-75.456 Y-34.051 Z-3.000 I-20.977 J3.629 K0.000 F600.000
G2 X-75.441 Y-34.018 Z-3.000 I0.083 J-0.016 K0.000 F600.000
G2 X-74.243 Y-34.014 Z-3.000 I0.619 J-6.910 K0.000 F600.000
G3 X-73.420 Y-34.046 Z-3.000 I0.537 J3.234 K0.000 F600.000
G3 X-72.015 Y-32.557 Z-3.000 I-0.094 J1.497 K0.000 F600.000
G1 X-71.971 Y-24.689 Z-3.000 F600.000
G2 X-71.500 Y-22.734 Z-3.000 I10.512 J-1.499 K0.000 F600.000
G2 X-70.727 Y-21.360 Z-3.000 I10.544 J-5.020 K0.000 F600.000
G1 X-70.707 Y-21.361 Z-3.000 F600.000
G1 X-65.661 Y-21.877 Z-3.000 F600.000
G1 X-65.631 Y-21.881 Z-3.000 F600.000
G2 X-65.615 Y-21.896 Z-3.000 I-0.004 J-0.021 K0.000 F600.000
G3 X-66.144 Y-24.066 Z-3.000 I22.296 J-6.584 K0.000 F600.000
G3 X-66.185 Y-24.456 Z-3.000 I3.583 J-0.575 K0.000 F600.000
G3 X-68.331 Y-24.208 Z-3.000 I-4.063 J-25.762 K0.000 F600.000
G3 X-69.982 Y-25.817 Z-3.000 I-0.110 J-1.539 K0.000 F600.000
G3 X-70.189 Y-32.632 Z-3.000 I153.009 J-8.057 K0.000 F600.000
G3 X-70.209 Y-37.036 Z-3.000 I1177.739 J-7.346 K0.000 F600.000
G0 Z5.000
G0 X-74.874 Y-33.991 Z5.000
G0 X-74.874 Y-33.991 Z3.000
G1 X-74.874 Y-33.991 Z-3.000 F600.000
G3 X-75.418 Y-34.015 Z-3.000 I-0.037 J-5.276 K0.000 F600.000
G3 X-75.448 Y-34.029 Z-3.000 I-0.010 J-0.019 K0.000 F600.000
G3 X-75.551 Y-34.668 Z-3.000 I8.091 J-1.627 K0.000 F600.000
G1 X-74.874 Y-33.991 Z-3.000 F600.000
G0 Z5.000
G0 X-70.727 Y-21.360 Z5.000
G0 X-70.727 Y-21.360 Z3.000
G1 X-70.727 Y-21.360 Z-3.000 F600.000
G3 X-71.500 Y-22.734 Z-3.000 I9.772 J-6.395 K0.000 F600.000
G3 X-71.971 Y-24.689 Z-3.000 I10.041 J-3.453 K0.000 F600.000
G1 X-71.983 Y-26.858 Z-3.000 F600.000
G1 X-66.877 Y-21.752 Z-3.000 F600.000
G1 X-65.661 Y-21.877 Z-3.000 F600.000
G2 X-65.617 Y-21.891 Z-3.000 I0.011 J-0.039 K0.000 F600.000
G2 X-65.615 Y-21.908 Z-3.000 I-0.018 J-0.011 K0.000 F600.000
G3 X-65.658 Y-22.043 Z-3.000 I2.112 J-0.741 K0.000 F600.000
G3 X-66.156 Y-24.149 Z-3.000 I20.911 J-6.062 K0.000 F600.000
G3 X-66.185 Y-24.456 Z-3.000 I10.955 J-1.180 K0.000 F600.000
G1 X-66.263 Y-24.441 Z-3.000 F600.000
G3 X-68.331 Y-24.208 Z-3.000 I-4.151 J-27.544 K0.000 F600.000
G3 X-69.978 Y-25.621 Z-3.000 I-0.110 J-1.538 K0.000 F600.000
G3 X-69.982 Y-25.817 Z-3.000 I1.086 J-0.120 K0.000 F600.000
G3 X-70.123 Y-29.240 Z-3.000 I129.334 J-7.016 K0.000 F600.000
G1 X-72.007 Y-31.124 Z-3.000 F600.000
G1 X-72.015 Y-32.557 Z-3.000 F600.000
G2 X-73.420 Y-34.046 Z-3.000 I-1.500 J0.008 K0.000 F600.000
G2 X-74.243 Y-34.014 Z-3.000 I-0.286 J3.266 K0.000 F600.000
G3 X-74.874 Y-33.991 Z-3.000 I-0.548 J-6.277 K0.000 F600.000
G1 X-75.551 Y-34.668 Z-3.000 F600.000
G3 X-75.643 Y-36.492 Z-3.000 I10.691 J-1.453 K0.000 F600.000
G1 X-75.615 Y-36.492 Z-3.000 F600.000
G2 X-73.424 Y-36.460 Z-3.000 I1.564 J-31.850 K0.000 F600.000
G2 X-73.132 Y-36.493 Z-3.000 I0.032 J-1.043 K0.000 F600.000
G1 X-70.193 Y-33.553 Z-3.000 F600.000
G3 X-70.210 Y-37.813 Z-3.000 I835.476 J-5.534 K0.000 F600.000
G1 X-71.896 Y-39.499 Z-3.000 F600.000
G2 X-71.948 Y-43.793 Z-3.000 I-214.205 J0.418 K0.000 F600.000
G1 X-70.212 Y-42.057 Z-3.000 F600.000
G1 X-70.203 Y-44.547 Z-3.000 F600.000
G3 X-69.644 Y-45.732 Z-3.000 I1.554 J0.010 K0.000 F600.000
G1 X-72.106 Y-48.194 Z-3.000 F600.000
G3 X-72.099 Y-48.251 Z-3.000 I0.045 J-0.024 K0.000 F600.000
G3 X-72.050 Y-48.262 Z-3.000 I0.035 J0.043 K0.000 F600.000
G2 X-70.319 Y-48.263 Z-3.000 I0.787 J-155.230 K0.000 F600.000
G2 X-70.269 Y-48.264 Z-3.000 I-0.017 J-1.500 K0.000 F600.000
G1 X-68.034 Y-48.365 Z-3.000 F600.000
G1 X-66.822 Y-48.419 Z-3.000 F600.000
G1 X-66.801 Y-48.419 Z-3.000 F600.000
G3 X-66.557 Y-46.888 Z-3.000 I-8.220 J2.096 K0.000 F600.000
G1 X-68.034 Y-48.365 Z-3.000 F600.000
G0 Z5.000
G0 X-59.282 Y-48.098 Z5.000
G0 X-59.282 Y-48.098 Z3.000
G1 X-59.282 Y-48.098 Z-3.000 F600.000
G1 X-59.093 Y-48.058 Z-3.000 F600.000
G3 X-59.101 Y-47.917 Z-3.000 I-1.534 J-0.015 K0.000 F600.000
G1 X-59.282 Y-48.098 Z-3.000 F600.000
G1 X-59.282 Y-48.098 Z-3.000 F600.000
G2 X-61.149 Y-48.229 Z-3.000 I-1.463 J7.454 K0.000 F600.000
G2 X-61.407 Y-41.999 Z-3.000 I159.135 J9.707 K0.000 F600.000
G3 X-62.638 Y-40.546 Z-3.000 I-1.541 J-0.057 K0.000 F600.000
G1 X-64.615 Y-39.953 Z-3.000 F600.000
G3 X-64.675 Y-39.936 Z-3.000 I-0.431 J-1.437 K0.000 F600.000
G2 X-66.329 Y-39.581 Z-3.000 I171.479 J802.201 K0.000 F600.000
G1 X-66.327 Y-39.567 Z-3.000 F600.000
G1 X-65.907 Y-36.901 Z-3.000 F600.000
G1 X-65.901 Y-36.869 Z-3.000 F600.000
G1 X-65.868 Y-36.876 Z-3.000 F600.000
G1 X-63.641 Y-37.453 Z-3.000 F600.000
G3 X-63.492 Y-37.483 Z-3.000 I0.376 J1.452 K0.000 F600.000
G3 X-61.839 Y-36.651 Z-3.000 I0.293 J1.475 K0.000 F600.000
G3 X-61.692 Y-35.901 Z-3.000 I-1.611 J0.707 K0.000 F600.000
G1 X-61.834 Y-30.989 Z-3.000 F600.000
G1 X-61.835 Y-29.983 Z-3.000 F600.000
G3 X-61.844 Y-29.816 Z-3.000 I-1.500 J-0.001 K0.000 F600.000
G3 X-64.495 Y-28.960 Z-3.000 I-1.497 J-0.105 K0.000 F600.000
G3 X-65.412 Y-30.536 Z-3.000 I6.480 J-4.826 K0.000 F600.000
G2 X-66.476 Y-29.691 Z-3.000 I1.649 J3.168 K0.000 F600.000
G2 X-66.494 Y-29.637 Z-3.000 I0.035 J0.041 K0.000 F600.000
G2 X-66.449 Y-29.499 Z-3.000 I0.273 J-0.013 K0.000 F600.000
G2 X-65.144 Y-26.621 Z-3.000 I23.186 J-8.781 K0.000 F600.000
G3 X-64.989 Y-26.130 Z-3.000 I-1.275 J0.672 K0.000 F600.000
G2 X-64.940 Y-26.148 Z-3.000 I-0.051 J-0.220 K0.000 F600.000
G2 X-64.783 Y-26.267 Z-3.000 I-0.323 J-0.590 K0.000 F600.000
G2 X-64.384 Y-26.581 Z-3.000 I-3.748 J-5.171 K0.000 F600.000
G3 X-62.084 Y-26.127 Z-3.000 I0.968 J1.146 K0.000 F600.000
G3 X-61.909 Y-25.351 Z-3.000 I-1.581 J0.766 K0.000 F600.000
G1 X-61.929 Y-23.360 Z-3.000 F600.000
G1 X-61.927 Y-23.326 Z-3.000 F600.000
G2 X-61.922 Y-23.319 Z-3.000 I0.009 J-0.001 K0.000 F600.000
G2 X-61.841 Y-23.316 Z-3.000 I0.047 J-0.211 K0.000 F600.000
G2 X-61.023 Y-23.314 Z-3.000 I0.440 J-12.776 K0.000 F600.000
G1 X-61.023 Y-23.314 Z-3.000 F600.000
G2 X-59.621 Y-23.525 Z-3.000 I-0.371 J-7.225 K0.000 F600.000
G1 X-59.622 Y-23.548 Z-3.000 F600.000
G1 X-59.765 Y-26.252 Z-3.000 F600.000
G3 X-59.738 Y-26.710 Z-3.000 I2.185 J-0.101 K0.000 F600.000
G2 X-59.728 Y-26.828 Z-3.000 I-0.206 J-0.077 K0.000 F600.000
G3 X-59.806 Y-27.360 Z-3.000 I1.904 J-0.552 K0.000 F600.000
G1 X-59.696 Y-36.277 Z-3.000 F600.000
G1 X-59.696 Y-37.648 Z-3.000 F600.000
G3 X-59.686 Y-37.818 Z-3.000 I1.500 J0.000 K0.000 F600.000
G3 X-58.854 Y-39.071 Z-3.000 I1.505 J0.097 K0.000 F600.000
G3 X-56.846 Y-39.789 Z-3.000 I8.332 J20.123 K0.000 F600.000
G1 X-53.117 Y-41.539 Z-3.000 F600.000
G1 X-53.025 Y-41.590 Z-3.000 F600.000
G1 X-49.626 Y-43.815 Z-3.000 F600.000
G2 X-49.596 Y-43.839 Z-3.000 I-0.065 J-0.110 K0.000 F600.000
G1 X-47.138 Y-46.276 Z-3.000 F600.000
G1 X-47.124 Y-46.291 Z-3.000 F600.000
G2 X-49.010 Y-48.342 Z-3.000 I-12.131 J9.262 K0.000 F600.000
G2 X-51.030 Y-46.250 Z-3.000 I262.805 J255.670 K0.000 F600.000
G3 X-51.122 Y-46.162 Z-3.000 I-1.082 J-1.039 K0.000 F600.000
G3 X-53.067 Y-44.820 Z-3.000 I-13.357 J-17.280 K0.000 F600.000
G3 X-54.906 Y-43.610 Z-3.000 I-61.300 J-91.187 K0.000 F600.000
G3 X-57.244 Y-42.500 Z-3.000 I-22.343 J-44.051 K0.000 F600.000
G3 X-59.237 Y-43.271 Z-3.000 I-0.617 J-1.367 K0.000 F600.000
G3 X-59.359 Y-44.034 Z-3.000 I1.626 J-0.653 K0.000 F600.000
G1 X-59.093 Y-48.025 Z-3.000 F600.000
G1 X-59.093 Y-48.058 Z-3.000 F600.000
G1 X-59.282 Y-48.098 Z-3.000 F600.000
G2 X-61.149 Y-48.229 Z-3.000 I-1.463 J7.454 K0.000 F600.000
G2 X-61.276 Y-45.849 Z-3.000 I142.846 J8.822 K0.000 F600.000
G1 X-59.363 Y-43.936 Z-3.000 F600.000
G0 Z5.000
G0 X-59.754 Y-31.599 Z5.000
G0 X-59.754 Y-31.599 Z3.000
G1 X-59.754 Y-31.599 Z-3.000 F600.000
G1 X-61.758 Y-33.604 Z-3.000 F600.000
G1 X-61.834 Y-30.989 Z-3.000 F600.000
G1 X-61.835 Y-29.983 Z-3.000 F600.000
G3 X-61.902 Y-29.504 Z-3.000 I-1.859 J-0.016 K0.000 F600.000
G1 X-59.806 Y-27.408 Z-3.000 F600.000
G2 X-59.805 Y-27.268 Z-3.000 I2.288 J0.052 K0.000 F600.000
G2 X-59.722 Y-26.795 Z-3.000 I3.118 J-0.303 K0.000 F600.000
G2 X-59.765 Y-26.252 Z-3.000 I2.091 J0.441 K0.000 F600.000
G1 X-59.622 Y-23.548 Z-3.000 F600.000
G1 X-59.621 Y-23.525 Z-3.000 F600.000
G3 X-60.068 Y-23.428 Z-3.000 I-1.323 J-5.009 K0.000 F600.000
G1 X-61.909 Y-25.270 Z-3.000 F600.000
G2 X-61.916 Y-25.519 Z-3.000 I-1.914 J-0.072 K0.000 F600.000
G2 X-63.566 Y-26.926 Z-3.000 I-1.498 J0.085 K0.000 F600.000
G1 X-66.407 Y-29.767 Z-3.000 F600.000
G1 X-66.476 Y-29.691 Z-3.000 F600.000
G2 X-66.494 Y-29.637 Z-3.000 I0.035 J0.041 K0.000 F600.000
G2 X-66.449 Y-29.499 Z-3.000 I0.273 J-0.013 K0.000 F600.000
G2 X-65.144 Y-26.621 Z-3.000 I23.186 J-8.781 K0.000 F600.000
G3 X-64.989 Y-26.130 Z-3.000 I-1.275 J0.672 K0.000 F600.000
G2 X-64.940 Y-26.148 Z-3.000 I-0.051 J-0.220 K0.000 F600.000
G2 X-64.783 Y-26.267 Z-3.000 I-0.323 J-0.590 K0.000 F600.000
G2 X-64.384 Y-26.581 Z-3.000 I-3.748 J-5.171 K0.000 F600.000
G3 X-63.566 Y-26.926 Z-3.000 I0.959 J1.132 K0.000 F600.000
G1 X-61.909 Y-25.270 Z-3.000 F600.000
G1 X-61.929 Y-23.360 Z-3.000 F600.000
G1 X-61.927 Y-23.326 Z-3.000 F600.000
G2 X-61.919 Y-23.318 Z-3.000 I0.009 J-0.001 K0.000 F600.000
G2 X-60.068 Y-23.428 Z-3.000 I0.460 J-7.912 K0.000 F600.000
G1 X-61.909 Y-25.270 Z-3.000 F600.000
G0 Z5.000
G0 Z5.000
(Finish operation: Pocket_Shape)
(Begin operation: Pocket_Shape001)
(Path: Pocket_Shape001)
(Pocket_Shape001)
G0 Z5.000
G0 X0.000 Y0.000
G0 X-12.060 Y-19.201
G0 X-12.060 Y-19.201 Z3.000
G1 X-12.060 Y-19.201 Z-3.000 F600.000
G1 X-20.062 Y-18.988 Z-3.000 F600.000
G1 X-28.136 Y-19.121 Z-3.000 F600.000
G3 X-28.349 Y-19.342 Z-3.000 I0.034 J-0.246 K0.000 F600.000
G1 X-28.580 Y-25.164 Z-3.000 F600.000
G1 X-28.651 Y-31.821 Z-3.000 F600.000
G2 X-30.235 Y-33.517 Z-3.000 I-1.525 J-0.164 K0.000 F600.000
G2 X-30.741 Y-33.424 Z-3.000 I0.262 J2.835 K0.000 F600.000
G3 X-31.398 Y-33.278 Z-3.000 I-8.264 J-35.652 K0.000 F600.000
G1 X-34.210 Y-32.866 Z-3.000 F600.000
G1 X-34.244 Y-32.863 Z-3.000 F600.000
G1 X-34.260 Y-32.908 Z-3.000 F600.000
G1 X-34.857 Y-34.804 Z-3.000 F600.000
G1 X-34.841 Y-34.807 Z-3.000 F600.000
G2 X-32.364 Y-35.206 Z-3.000 I-4.123 J-33.517 K0.000 F600.000
G1 X-27.045 Y-36.455 Z-3.000 F600.000
G2 X-25.950 Y-37.372 Z-3.000 I-0.327 J-1.503 K0.000 F600.000
G2 X-27.246 Y-39.429 Z-3.000 I-1.391 J-0.560 K0.000 F600.000
G3 X-27.726 Y-39.477 Z-3.000 I0.371 J-6.144 K0.000 F600.000
G2 X-27.873 Y-39.486 Z-3.000 I-0.419 J5.616 K0.000 F600.000
G3 X-27.932 Y-39.535 Z-3.000 I0.015 J-0.078 K0.000 F600.000
G2 X-27.829 Y-40.840 Z-3.000 I-4.794 J-1.034 K0.000 F600.000
G2 X-29.265 Y-42.197 Z-3.000 I-1.497 J0.146 K0.000 F600.000
G2 X-29.425 Y-42.202 Z-3.000 I-0.129 J1.494 K0.000 F600.000
G1 X-35.066 Y-42.086 Z-3.000 F600.000
G1 X-35.086 Y-42.086 Z-3.000 F600.000
G3 X-35.354 Y-44.014 Z-3.000 I9.876 J-2.353 K0.000 F600.000
G1 X-35.335 Y-44.014 Z-3.000 F600.000
G2 X-28.877 Y-43.950 Z-3.000 I4.922 J-171.051 K0.000 F600.000
G2 X-27.396 Y-45.272 Z-3.000 I-0.008 J-1.500 K0.000 F600.000
G2 X-27.371 Y-46.758 Z-3.000 I-6.098 J-0.845 K0.000 F600.000
G2 X-29.315 Y-47.974 Z-3.000 I-1.500 J0.236 K0.000 F600.000
G3 X-29.471 Y-47.943 Z-3.000 I-0.414 J-1.710 K0.000 F600.000
G1 X-32.353 Y-47.658 Z-3.000 F600.000
G1 X-32.369 Y-47.657 Z-3.000 F600.000
G3 X-32.717 Y-49.454 Z-3.000 I21.219 J-5.045 K0.000 F600.000
G1 X-32.698 Y-49.457 Z-3.000 F600.000
G2 X-28.873 Y-49.967 Z-3.000 I-71.570 J-551.295 K0.000 F600.000
G2 X-28.762 Y-49.985 Z-3.000 I-0.490 J-3.356 K0.000 F600.000
G1 X-24.242 Y-50.831 Z-3.000 F600.000
G3 X-23.548 Y-49.585 Z-3.000 I-19.016 J11.420 K0.000 F600.000
G2 X-23.466 Y-49.460 Z-3.000 I2.340 J-1.433 K0.000 F600.000
G1 X-23.496 Y-49.449 Z-3.000 F600.000
G1 X-25.237 Y-48.917 Z-3.000 F600.000
G2 X-25.186 Y-46.031 Z-3.000 I0.441 J1.436 K0.000 F600.000
G3 X-25.158 Y-45.973 Z-3.000 I-0.022 J0.046 K0.000 F600.000
G2 X-24.002 Y-43.934 Z-3.000 I1.464 J0.517 K0.000 F600.000
G2 X-23.727 Y-43.908 Z-3.000 I0.278 J-1.474 K0.000 F600.000
G3 X-18.584 Y-43.877 Z-3.000 I-0.186 J458.675 K0.000 F600.000
G2 X-17.153 Y-44.881 Z-3.000 I0.015 J-1.500 K0.000 F600.000
G2 X-15.940 Y-48.885 Z-3.000 I-37.871 J-13.663 K0.000 F600.000
G3 X-13.968 Y-48.373 Z-3.000 I-2.688 J14.408 K0.000 F600.000
G1 X-13.974 Y-48.354 Z-3.000 F600.000
G1 X-14.248 Y-47.587 Z-3.000 F600.000
G1 X-14.248 Y-47.587 Z-3.000 F600.000
G1 X-15.443 Y-48.782 Z-3.000 F600.000
G3 X-13.968 Y-48.373 Z-3.000 I-3.089 J13.984 K0.000 F600.000
G1 X-13.974 Y-48.354 Z-3.000 F600.000
G1 X-14.846 Y-45.912 Z-3.000 F600.000
G2 X-14.934 Y-45.123 Z-3.000 I1.657 J0.584 K0.000 F600.000
G2 X-13.446 Y-43.840 Z-3.000 I1.484 J-0.217 K0.000 F600.000
G3 X-6.718 Y-43.780 Z-3.000 I1.422 J216.859 K0.000 F600.000
G3 X-6.559 Y-41.876 Z-3.000 I-6.227 J1.476 K0.000 F600.000
G1 X-6.583 Y-41.876 Z-3.000 F600.000
G1 X-14.794 Y-42.089 Z-3.000 F600.000
G2 X-16.357 Y-41.288 Z-3.000 I-0.192 J1.551 K0.000 F600.000
G2 X-16.547 Y-40.764 Z-3.000 I1.460 J0.828 K0.000 F600.000
G1 X-17.318 Y-38.248 Z-3.000 F600.000
G1 X-17.324 Y-38.231 Z-3.000 F600.000
G3 X-19.380 Y-38.737 Z-3.000 I1.396 J-10.091 K0.000 F600.000
G2 X-18.841 Y-40.177 Z-3.000 I-117.447 J-44.758 K0.000 F600.000
G2 X-20.164 Y-42.196 Z-3.000 I-1.409 J-0.519 K0.000 F600.000
G2 X-20.317 Y-42.204 Z-3.000 I-0.153 J1.492 K0.000 F600.000
G1 X-23.970 Y-42.204 Z-3.000 F600.000
G2 X-25.663 Y-40.858 Z-3.000 I-0.159 J1.537 K0.000 F600.000
G1 X-25.671 Y-40.726 Z-3.000 F600.000
G2 X-25.696 Y-38.782 Z-3.000 I64.144 J1.772 K0.000 F600.000
G2 X-23.674 Y-37.373 Z-3.000 I1.502 J0.001 K0.000 F600.000
G3 X-22.582 Y-35.657 Z-3.000 I-36.583 J24.465 K0.000 F600.000
G3 X-25.599 Y-34.772 Z-3.000 I-24.487 J-77.887 K0.000 F600.000
G2 X-26.840 Y-34.161 Z-3.000 I0.145 J1.861 K0.000 F600.000
G2 X-25.880 Y-31.696 Z-3.000 I1.152 J0.971 K0.000 F600.000
G3 X-25.789 Y-31.644 Z-3.000 I-0.039 J0.175 K0.000 F600.000
G2 X-25.691 Y-31.536 Z-3.000 I1.239 J-1.021 K0.000 F600.000
G2 X-26.297 Y-30.275 Z-3.000 I0.918 J1.217 K0.000 F600.000
G3 X-26.171 Y-25.714 Z-3.000 I-513.984 J16.429 K0.000 F600.000
G2 X-26.163 Y-25.633 Z-3.000 I1.496 J-0.115 K0.000 F600.000
G1 X-25.831 Y-23.113 Z-3.000 F600.000
G2 X-24.356 Y-21.635 Z-3.000 I1.549 J-0.070 K0.000 F600.000
G2 X-22.306 Y-21.658 Z-3.000 I0.836 J-16.851 K0.000 F600.000
G2 X-21.277 Y-23.993 Z-3.000 I-0.207 J-1.486 K0.000 F600.000
G3 X-22.269 Y-25.734 Z-3.000 I7.936 J-5.675 K0.000 F600.000
G1 X-22.250 Y-25.740 Z-3.000 F600.000
G1 X-18.810 Y-26.713 Z-3.000 F600.000
G2 X-18.599 Y-26.784 Z-3.000 I-0.851 J-2.876 K0.000 F600.000
G1 X-13.201 Y-28.907 Z-3.000 F600.000
G2 X-12.999 Y-28.998 Z-3.000 I-1.130 J-2.775 K0.000 F600.000
G1 X-8.366 Y-31.369 Z-3.000 F600.000
G2 X-8.087 Y-31.535 Z-3.000 I-1.573 J-2.953 K0.000 F600.000
G2 X-7.525 Y-31.878 Z-3.000 I-18.761 J-31.426 K0.000 F600.000
G2 X-6.802 Y-30.516 Z-3.000 I62.886 J-32.503 K0.000 F600.000
G2 X-6.715 Y-30.391 Z-3.000 I1.809 J-1.163 K0.000 F600.000
G3 X-8.236 Y-29.198 Z-3.000 I-9.394 J-10.402 K0.000 F600.000
G3 X-10.148 Y-28.218 Z-3.000 I-32.524 J-61.112 K0.000 F600.000
G2 X-10.160 Y-28.212 Z-3.000 I0.680 J1.335 K0.000 F600.000
G1 X-13.520 Y-26.464 Z-3.000 F600.000
G3 X-18.909 Y-24.645 Z-3.000 I-45.235 J-125.117 K0.000 F600.000
G2 X-18.478 Y-21.714 Z-3.000 I0.457 J1.430 K0.000 F600.000
G2 X-18.356 Y-21.713 Z-3.000 I0.071 J-1.498 K0.000 F600.000
G1 X-14.183 Y-21.855 Z-3.000 F600.000
G2 X-13.918 Y-21.879 Z-3.000 I-0.144 J-2.964 K0.000 F600.000
G1 X-9.393 Y-22.576 Z-3.000 F600.000
G2 X-7.951 Y-23.928 Z-3.000 I-0.116 J-1.569 K0.000 F600.000
G3 X-7.758 Y-25.075 Z-3.000 I13.586 J1.695 K0.000 F600.000
G2 X-7.740 Y-25.228 Z-3.000 I-3.991 J-0.542 K0.000 F600.000
G3 X-7.701 Y-25.270 Z-3.000 I0.057 J0.014 K0.000 F600.000
G2 X-5.979 Y-24.961 Z-3.000 I1.878 J-5.510 K0.000 F600.000
G1 X-5.952 Y-24.962 Z-3.000 F600.000
G3 X-5.860 Y-24.118 Z-3.000 I-4.627 J0.933 K0.000 F600.000
G1 X-6.028 Y-21.620 Z-3.000 F600.000
G1 X-6.031 Y-21.597 Z-3.000 F600.000
G3 X-6.941 Y-20.504 Z-3.000 I-12.332 J-9.344 K0.000 F600.000
G3 X-7.062 Y-20.353 Z-3.000 I-0.746 J-0.473 K0.000 F600.000
G3 X-7.184 Y-20.288 Z-3.000 I-0.189 J-0.212 K0.000 F600.000
G1 X-12.025 Y-19.206 Z-3.000 F600.000
G3 X-12.060 Y-19.201 Z-3.000 I-0.033 J-0.119 K0.000 F600.000
G0 Z5.000
G0 X-18.081 Y-21.723 Z5.000
G0 X-18.081 Y-21.723 Z3.000
G1 X-18.081 Y-21.723 Z-3.000 F600.000
G1 X-15.469 Y-19.110 Z-3.000 F600.000
G1 X-12.060 Y-19.201 Z-3.000 F600.000
G2 X-12.025 Y-19.206 Z-3.000 I0.002 J-0.123 K0.000 F600.000
G1 X-11.450 Y-19.334 Z-3.000 F600.000
G1 X-13.987 Y-21.870 Z-3.000 F600.000
G2 X-13.918 Y-21.879 Z-3.000 I-0.155 J-1.460 K0.000 F600.000
G1 X-10.308 Y-22.435 Z-3.000 F600.000
G1 X-7.983 Y-20.110 Z-3.000 F600.000
G1 X-7.184 Y-20.288 Z-3.000 F600.000
G2 X-6.982 Y-20.451 Z-3.000 I-0.083 J-0.310 K0.000 F600.000
G3 X-6.898 Y-20.554 Z-3.000 I1.203 J0.896 K0.000 F600.000
G2 X-6.031 Y-21.597 Z-3.000 I-9.918 J-9.131 K0.000 F600.000
G1 X-6.028 Y-21.620 Z-3.000 F600.000
G1 X-5.979 Y-22.348 Z-3.000 F600.000
G1 X-7.904 Y-24.273 Z-3.000 F600.000
G3 X-7.764 Y-25.037 Z-3.000 I11.911 J1.783 K0.000 F600.000
G2 X-7.739 Y-25.233 Z-3.000 I-4.702 J-0.711 K0.000 F600.000
G3 X-7.701 Y-25.270 Z-3.000 I0.055 J0.019 K0.000 F600.000
G2 X-5.979 Y-24.961 Z-3.000 I1.878 J-5.510 K0.000 F600.000
G1 X-5.952 Y-24.962 Z-3.000 F600.000
G3 X-5.860 Y-24.118 Z-3.000 I-4.627 J0.933 K0.000 F600.000
G1 X-5.979 Y-22.348 Z-3.000 F600.000
G0 Z5.000
G0 X-9.948 Y-30.559 Z5.000
G0 X-9.948 Y-30.559 Z3.000
G1 X-9.948 Y-30.559 Z-3.000 F600.000
G1 X-8.366 Y-31.369 Z-3.000 F600.000
G2 X-7.525 Y-31.878 Z-3.000 I-69.305 J-115.489 K0.000 F600.000
G2 X-6.855 Y-30.608 Z-3.000 I94.730 J-49.130 K0.000 F600.000
G2 X-6.715 Y-30.391 Z-3.000 I1.398 J-0.749 K0.000 F600.000
G3 X-8.236 Y-29.198 Z-3.000 I-9.394 J-10.402 K0.000 F600.000
G1 X-8.465 Y-29.076 Z-3.000 F600.000
G1 X-9.948 Y-30.559 Z-3.000 F600.000
G1 X-12.754 Y-29.123 Z-3.000 F600.000
G1 X-11.267 Y-27.636 Z-3.000 F600.000
G1 X-13.520 Y-26.464 Z-3.000 F600.000
G1 X-14.122 Y-26.249 Z-3.000 F600.000
G1 X-15.770 Y-27.897 Z-3.000 F600.000
G1 X-18.599 Y-26.784 Z-3.000 F600.000
G3 X-18.825 Y-26.709 Z-3.000 I-1.026 J-2.699 K0.000 F600.000
G1 X-17.284 Y-25.168 Z-3.000 F600.000
G3 X-18.909 Y-24.645 Z-3.000 I-31.056 J-93.725 K0.000 F600.000
G2 X-19.914 Y-23.555 Z-3.000 I0.454 J1.427 K0.000 F600.000
G1 X-22.132 Y-25.773 Z-3.000 F600.000
G2 X-22.269 Y-25.734 Z-3.000 I0.359 J1.493 K0.000 F600.000
G2 X-21.277 Y-23.993 Z-3.000 I8.928 J-3.935 K0.000 F600.000
G3 X-22.267 Y-21.665 Z-3.000 I-1.234 J0.850 K0.000 F600.000
G1 X-19.602 Y-19.000 Z-3.000 F600.000
G1 X-20.062 Y-18.988 Z-3.000 F600.000
G1 X-23.895 Y-19.051 Z-3.000 F600.000
G1 X-28.521 Y-23.677 Z-3.000 F600.000
G1 X-28.349 Y-19.342 Z-3.000 F600.000
G2 X-28.261 Y-19.176 Z-3.000 I0.247 J-0.025 K0.000 F600.000
G0 Z5.000
G0 X-26.152 Y-25.550 Z5.000
G0 X-26.152 Y-25.550 Z3.000
G1 X-26.152 Y-25.550 Z-3.000 F600.000
G1 X-28.610 Y-28.009 Z-3.000 F600.000
G1 X-28.651 Y-31.821 Z-3.000 F600.000
G2 X-28.680 Y-32.321 Z-3.000 I-1.453 J-0.165 K0.000 F600.000
G1 X-26.286 Y-29.927 Z-3.000 F600.000
G1 X-23.701 Y-31.367 Z-3.000 F600.000
G3 X-23.539 Y-31.163 Z-3.000 I-1.009 J0.970 K0.000 F600.000
G3 X-22.800 Y-29.683 Z-3.000 I-13.013 J7.415 K0.000 F600.000
G2 X-22.254 Y-29.827 Z-3.000 I-2.256 J-9.648 K0.000 F600.000
G2 X-18.876 Y-31.025 Z-3.000 I-169.874 J-484.395 K0.000 F600.000
G1 X-18.786 Y-31.064 Z-3.000 F600.000
G1 X-13.950 Y-33.534 Z-3.000 F600.000
G1 X-13.886 Y-33.570 Z-3.000 F600.000
G1 X-9.994 Y-36.069 Z-3.000 F600.000
G1 X-9.979 Y-36.080 Z-3.000 F600.000
G2 X-11.148 Y-37.626 Z-3.000 I-22.785 J16.011 K0.000 F600.000
G1 X-11.161 Y-37.618 Z-3.000 F600.000
G1 X-14.920 Y-35.122 Z-3.000 F600.000
G3 X-15.163 Y-34.989 Z-3.000 I-0.973 J-1.497 K0.000 F600.000
G1 X-22.384 Y-31.776 Z-3.000 F600.000
G3 X-23.700 Y-31.367 Z-3.000 I-3.728 J-9.694 K0.000 F600.000
G1 X-23.701 Y-31.367 Z-3.000 F600.000
G1 X-23.526 Y-31.410 Z-3.000 F600.000
G3 X-23.701 Y-31.367 Z-3.000 I-6.132 J-24.513 K0.000 F600.000
G3 X-23.467 Y-31.042 Z-3.000 I-1.062 J1.013 K0.000 F600.000
G3 X-22.800 Y-29.683 Z-3.000 I-14.105 J7.760 K0.000 F600.000
G2 X-22.254 Y-29.827 Z-3.000 I-2.256 J-9.648 K0.000 F600.000
G2 X-22.024 Y-29.908 Z-3.000 I-11.460 J-32.939 K0.000 F600.000
G1 X-23.526 Y-31.410 Z-3.000 F600.000
G2 X-22.384 Y-31.776 Z-3.000 I-2.548 J-9.923 K0.000 F600.000
G1 X-20.491 Y-32.618 Z-3.000 F600.000
G1 X-18.892 Y-31.019 Z-3.000 F600.000
G2 X-18.786 Y-31.064 Z-3.000 I-0.287 J-0.836 K0.000 F600.000
G1 X-16.078 Y-32.447 Z-3.000 F600.000
G1 X-17.555 Y-33.924 Z-3.000 F600.000
G2 X-15.147 Y-34.996 Z-3.000 I-94.036 J-214.541 K0.000 F600.000
G2 X-14.920 Y-35.122 Z-3.000 I-0.750 J-1.630 K0.000 F600.000
G1 X-14.673 Y-35.285 Z-3.000 F600.000
G1 X-13.321 Y-33.933 Z-3.000 F600.000
G1 X-10.737 Y-35.592 Z-3.000 F600.000
G1 X-12.124 Y-36.979 Z-3.000 F600.000
G1 X-11.161 Y-37.618 Z-3.000 F600.000
G1 X-11.148 Y-37.626 Z-3.000 F600.000
G3 X-9.979 Y-36.080 Z-3.000 I-21.616 J17.558 K0.000 F600.000
G1 X-9.994 Y-36.069 Z-3.000 F600.000
G1 X-10.737 Y-35.592 Z-3.000 F600.000
G0 Z5.000
G0 X-8.588 Y-41.928 Z5.000
G0 X-8.588 Y-41.928 Z3.000
G1 X-8.588 Y-41.928 Z-3.000 F600.000
G1 X-10.498 Y-43.838 Z-3.000 F600.000
G3 X-6.718 Y-43.780 Z-3.000 I-1.061 J192.381 K0.000 F600.000
G3 X-6.559 Y-41.876 Z-3.000 I-6.227 J1.476 K0.000 F600.000
G1 X-6.583 Y-41.876 Z-3.000 F600.000
G1 X-8.588 Y-41.928 Z-3.000 F600.000
G1 X-12.944 Y-42.041 Z-3.000 F600.000
G1 X-16.803 Y-45.900 Z-3.000 F600.000
G3 X-17.153 Y-44.881 Z-3.000 I-29.059 J-9.425 K0.000 F600.000
G3 X-18.441 Y-43.882 Z-3.000 I-1.415 J-0.496 K0.000 F600.000
G3 X-19.027 Y-43.882 Z-3.000 I-0.302 J-6.126 K0.000 F600.000
G1 X-16.384 Y-41.238 Z-3.000 F600.000
G2 X-16.547 Y-40.764 Z-3.000 I1.408 J0.751 K0.000 F600.000
G1 X-17.318 Y-38.248 Z-3.000 F600.000
G1 X-17.324 Y-38.231 Z-3.000 F600.000
G3 X-17.674 Y-38.286 Z-3.000 I0.737 J-5.826 K0.000 F600.000
G1 X-19.037 Y-39.649 Z-3.000 F600.000
G2 X-18.841 Y-40.177 Z-3.000 I-77.568 J-29.005 K0.000 F600.000
G2 X-19.679 Y-42.084 Z-3.000 I-1.407 J-0.520 K0.000 F600.000
G2 X-20.279 Y-42.203 Z-3.000 I-0.651 J1.711 K0.000 F600.000
G2 X-21.592 Y-42.204 Z-3.000 I-0.676 J51.433 K0.000 F600.000
G1 X-23.296 Y-43.907 Z-3.000 F600.000
G1 X-25.203 Y-45.814 Z-3.000 F600.000
G1 X-25.611 Y-46.223 Z-3.000 F600.000
G2 X-25.190 Y-46.032 Z-3.000 I0.838 J-1.290 K0.000 F600.000
G3 X-25.157 Y-45.986 Z-3.000 I-0.018 J0.048 K0.000 F600.000
G2 X-25.203 Y-45.814 Z-3.000 I39.387 J10.561 K0.000 F600.000
G0 Z5.000
G0 X-24.337 Y-49.192 Z5.000
G0 X-24.337 Y-49.192 Z3.000
G1 X-24.337 Y-49.192 Z-3.000 F600.000
G1 X-25.703 Y-50.558 Z-3.000 F600.000
G1 X-24.242 Y-50.831 Z-3.000 F600.000
G3 X-23.548 Y-49.585 Z-3.000 I-19.016 J11.420 K0.000 F600.000
G2 X-23.466 Y-49.460 Z-3.000 I2.340 J-1.432 K0.000 F600.000
G1 X-23.496 Y-49.449 Z-3.000 F600.000
G1 X-24.337 Y-49.192 Z-3.000 F600.000
G1 X-25.237 Y-48.917 Z-3.000 F600.000
G2 X-26.056 Y-46.668 Z-3.000 I0.437 J1.433 K0.000 F600.000
G1 X-29.299 Y-49.910 Z-3.000 F600.000
G1 X-32.698 Y-49.457 Z-3.000 F600.000
G1 X-32.717 Y-49.454 Z-3.000 F600.000
G2 X-32.646 Y-49.015 Z-3.000 I11.373 J-1.628 K0.000 F600.000
G1 X-31.385 Y-47.754 Z-3.000 F600.000
G1 X-29.471 Y-47.943 Z-3.000 F600.000
G2 X-29.315 Y-47.974 Z-3.000 I-0.258 J-1.741 K0.000 F600.000
G3 X-27.371 Y-46.758 Z-3.000 I0.444 J1.453 K0.000 F600.000
G3 X-27.396 Y-45.272 Z-3.000 I-6.123 J0.640 K0.000 F600.000
G3 X-27.928 Y-44.297 Z-3.000 I-1.484 J-0.176 K0.000 F600.000
G1 X-25.304 Y-41.673 Z-3.000 F600.000
G2 X-25.671 Y-40.726 Z-3.000 I1.127 J0.982 K0.000 F600.000
G2 X-25.696 Y-38.782 Z-3.000 I64.144 J1.772 K0.000 F600.000
G2 X-23.674 Y-37.373 Z-3.000 I1.502 J0.001 K0.000 F600.000
G3 X-22.582 Y-35.657 Z-3.000 I-36.583 J24.465 K0.000 F600.000
G3 X-23.307 Y-35.433 Z-3.000 I-11.116 J-34.707 K0.000 F600.000
G1 X-25.844 Y-37.970 Z-3.000 F600.000
G2 X-27.306 Y-39.433 Z-3.000 I-1.499 J0.036 K0.000 F600.000
G1 X-27.857 Y-39.984 Z-3.000 F600.000
G2 X-27.822 Y-40.701 Z-3.000 I-4.758 J-0.594 K0.000 F600.000
G2 X-28.788 Y-42.098 Z-3.000 I-1.500 J0.005 K0.000 F600.000
G2 X-29.385 Y-42.202 Z-3.000 I-0.614 J1.752 K0.000 F600.000
G2 X-30.062 Y-42.189 Z-3.000 I0.165 J25.410 K0.000 F600.000
G1 X-31.824 Y-43.950 Z-3.000 F600.000
G3 X-35.335 Y-44.014 Z-3.000 I1.082 J-155.586 K0.000 F600.000
G1 X-35.354 Y-44.014 Z-3.000 F600.000
G2 X-35.282 Y-43.166 Z-3.000 I9.479 J-0.376 K0.000 F600.000
G1 X-34.219 Y-42.103 Z-3.000 F600.000
G1 X-35.066 Y-42.086 Z-3.000 F600.000
G1 X-35.086 Y-42.086 Z-3.000 F600.000
G3 X-35.282 Y-43.166 Z-3.000 I9.516 J-2.283 K0.000 F600.000
G0 Z5.000
G0 X-32.369 Y-47.657 Z5.000
G0 X-32.369 Y-47.657 Z3.000
G1 X-32.369 Y-47.657 Z-3.000 F600.000
G3 X-32.646 Y-49.015 Z-3.000 I20.434 J-4.872 K0.000 F600.000
G1 X-31.385 Y-47.754 Z-3.000 F600.000
G1 X-32.353 Y-47.658 Z-3.000 F600.000
G1 X-32.369 Y-47.657 Z-3.000 F600.000
G0 Z5.000
G0 X-27.857 Y-39.984 Z5.000
G0 X-27.857 Y-39.984 Z3.000
G1 X-27.857 Y-39.984 Z-3.000 F600.000
G3 X-27.932 Y-39.535 Z-3.000 I-4.308 J-0.483 K0.000 F600.000
G2 X-27.880 Y-39.488 Z-3.000 I0.074 J-0.028 K0.000 F600.000
G2 X-27.758 Y-39.479 Z-3.000 I0.091 J-0.445 K0.000 F600.000
G3 X-27.306 Y-39.433 Z-3.000 I-7.215 J72.043 K0.000 F600.000
G1 X-27.857 Y-39.984 Z-3.000 F600.000
G0 Z5.000
G0 X-23.307 Y-35.433 Z5.000
G0 X-23.307 Y-35.433 Z3.000
G1 X-23.307 Y-35.433 Z-3.000 F600.000
G1 X-25.844 Y-37.970 Z-3.000 F600.000
G3 X-25.950 Y-37.372 Z-3.000 I-1.444 J0.051 K0.000 F600.000
G3 X-27.045 Y-36.455 Z-3.000 I-1.422 J-0.586 K0.000 F600.000
G1 X-28.281 Y-36.165 Z-3.000 F600.000
G1 X-26.544 Y-34.428 Z-3.000 F600.000
G2 X-25.880 Y-31.696 Z-3.000 I0.856 J1.238 K0.000 F600.000
G3 X-25.800 Y-31.655 Z-3.000 I-0.039 J0.175 K0.000 F600.000
G3 X-25.691 Y-31.536 Z-3.000 I-0.875 J0.911 K0.000 F600.000
G2 X-26.295 Y-30.408 Z-3.000 I0.912 J1.215 K0.000 F600.000
G2 X-26.286 Y-29.927 Z-3.000 I5.432 J0.135 K0.000 F600.000
G1 X-28.680 Y-32.321 Z-3.000 F600.000
G2 X-29.844 Y-33.485 Z-3.000 I-1.501 J0.337 K0.000 F600.000
G1 X-31.717 Y-35.358 Z-3.000 F600.000
G1 X-32.364 Y-35.206 Z-3.000 F600.000
G3 X-34.841 Y-34.807 Z-3.000 I-6.600 J-33.118 K0.000 F600.000
G1 X-34.857 Y-34.804 Z-3.000 F600.000
G1 X-34.605 Y-34.004 Z-3.000 F600.000
G1 X-33.562 Y-32.961 Z-3.000 F600.000
G1 X-34.210 Y-32.866 Z-3.000 F600.000
G1 X-34.244 Y-32.863 Z-3.000 F600.000
G1 X-34.260 Y-32.908 Z-3.000 F600.000
G1 X-34.605 Y-34.004 Z-3.000 F600.000
G0 Z5.000
G0 X-19.380 Y-38.737 Z5.000
G0 X-19.380 Y-38.737 Z3.000
G1 X-19.380 Y-38.737 Z-3.000 F600.000
G2 X-17.674 Y-38.286 Z-3.000 I3.431 J-9.515 K0.000 F600.000
G1 X-19.037 Y-39.649 Z-3.000 F600.000
G3 X-19.380 Y-38.737 Z-3.000 I-103.944 J-38.609 K0.000 F600.000
G0 Z5.000
G0 Z5.000
(Finish operation: Pocket_Shape001)
(Begin operation: Pocket_Shape002)
(Path: Pocket_Shape002)
(Pocket_Shape002)
G0 Z5.000
G0 X0.000 Y0.000
G0 X10.108 Y-21.775
G0 X10.108 Y-21.775 Z3.000
G1 X10.108 Y-21.775 Z-3.000 F600.000
G2 X12.248 Y-21.863 Z-3.000 I0.560 J-12.345 K0.000 F600.000
G3 X12.356 Y-36.911 Z-3.000 I720.598 J-2.329 K0.000 F600.000
G3 X12.656 Y-37.788 Z-3.000 I1.500 J0.023 K0.000 F600.000
G3 X13.797 Y-38.446 Z-3.000 I1.393 J1.097 K0.000 F600.000
G3 X15.051 Y-38.727 Z-3.000 I4.590 J17.562 K0.000 F600.000
G2 X15.681 Y-38.950 Z-3.000 I-1.461 J-5.126 K0.000 F600.000
G3 X17.579 Y-38.238 Z-3.000 I0.561 J1.391 K0.000 F600.000
G3 X17.749 Y-37.478 Z-3.000 I-1.593 J0.755 K0.000 F600.000
G1 X17.677 Y-28.389 Z-3.000 F600.000
G1 X17.755 Y-25.570 Z-3.000 F600.000
G1 X17.758 Y-25.537 Z-3.000 F600.000
G2 X19.106 Y-25.087 Z-3.000 I4.818 J-12.188 K0.000 F600.000
G1 X21.040 Y-24.705 Z-3.000 F600.000
G2 X21.101 Y-24.719 Z-3.000 I0.023 J-0.041 K0.000 F600.000
G1 X24.939 Y-27.504 Z-3.000 F600.000
G2 X24.966 Y-27.528 Z-3.000 I-0.080 J-0.119 K0.000 F600.000
G1 X26.272 Y-28.894 Z-3.000 F600.000
G3 X28.890 Y-28.656 Z-3.000 I1.234 J0.939 K0.000 F600.000
G1 X30.376 Y-26.410 Z-3.000 F600.000
G3 X30.520 Y-26.158 Z-3.000 I-2.510 J1.604 K0.000 F600.000
G1 X32.728 Y-21.642 Z-3.000 F600.000
G1 X32.744 Y-21.613 Z-3.000 F600.000
G2 X32.751 Y-21.611 Z-3.000 I0.004 J-0.003 K0.000 F600.000
G2 X32.814 Y-21.677 Z-3.000 I-0.205 J-0.258 K0.000 F600.000
G2 X33.598 Y-22.647 Z-3.000 I-2.523 J-2.843 K0.000 F600.000
G3 X33.725 Y-22.883 Z-3.000 I5.302 J2.682 K0.000 F600.000
G2 X34.094 Y-23.616 Z-3.000 I-2.193 J-1.564 K0.000 F600.000
G1 X34.092 Y-23.621 Z-3.000 F600.000
G1 X31.059 Y-29.245 Z-3.000 F600.000
G1 X31.018 Y-29.312 Z-3.000 F600.000
G1 X29.687 Y-31.260 Z-3.000 F600.000
G3 X29.634 Y-33.172 Z-3.000 I1.245 J-0.991 K0.000 F600.000
G1 X31.471 Y-36.199 Z-3.000 F600.000
G1 X31.498 Y-36.248 Z-3.000 F600.000
G1 X33.057 Y-39.311 Z-3.000 F600.000
G1 X33.071 Y-39.342 Z-3.000 F600.000
G1 X33.052 Y-39.370 Z-3.000 F600.000
G1 X31.808 Y-41.005 Z-3.000 F600.000
G1 X31.801 Y-41.012 Z-3.000 F600.000
G3 X28.773 Y-35.788 Z-3.000 I-51.383 J-26.297 K0.000 F600.000
G3 X26.558 Y-35.438 Z-3.000 I-1.263 J-0.809 K0.000 F600.000
G3 X25.482 Y-36.554 Z-3.000 I10.918 J-11.603 K0.000 F600.000
G1 X24.233 Y-37.636 Z-3.000 F600.000
G1 X24.206 Y-37.657 Z-3.000 F600.000
G1 X24.187 Y-37.629 Z-3.000 F600.000
G1 X23.064 Y-35.841 Z-3.000 F600.000
G1 X23.051 Y-35.819 Z-3.000 F600.000
G3 X25.415 Y-33.355 Z-3.000 I-8.292 J10.320 K0.000 F600.000
G3 X25.142 Y-31.225 Z-3.000 I-1.244 J0.923 K0.000 F600.000
G1 X23.379 Y-29.529 Z-3.000 F600.000
G3 X23.276 Y-29.438 Z-3.000 I-1.040 J-1.081 K0.000 F600.000
G3 X21.864 Y-28.596 Z-3.000 I-5.923 J-8.325 K0.000 F600.000
G3 X19.820 Y-29.292 Z-3.000 I-0.686 J-1.334 K0.000 F600.000
G3 X19.668 Y-29.941 Z-3.000 I1.720 J-0.746 K0.000 F600.000
G1 X19.454 Y-35.212 Z-3.000 F600.000
G3 X19.455 Y-35.420 Z-3.000 I3.086 J-0.084 K0.000 F600.000
G3 X19.589 Y-37.609 Z-3.000 I173.619 J9.521 K0.000 F600.000
G1 X19.590 Y-37.642 Z-3.000 F600.000
G2 X19.584 Y-37.653 Z-3.000 I-0.016 J0.001 K0.000 F600.000
G3 X18.963 Y-40.045 Z-3.000 I0.518 J-1.411 K0.000 F600.000
G3 X19.608 Y-40.491 Z-3.000 I1.282 J1.165 K0.000 F600.000
G1 X23.689 Y-42.082 Z-3.000 F600.000
G1 X23.782 Y-42.126 Z-3.000 F600.000
G1 X27.052 Y-43.950 Z-3.000 F600.000
G1 X27.089 Y-43.973 Z-3.000 F600.000
G1 X31.710 Y-46.913 Z-3.000 F600.000
G1 X31.725 Y-46.923 Z-3.000 F600.000
G2 X30.406 Y-48.921 Z-3.000 I-37.182 J23.112 K0.000 F600.000
G1 X30.391 Y-48.912 Z-3.000 F600.000
G1 X27.052 Y-46.719 Z-3.000 F600.000
G3 X26.898 Y-46.626 Z-3.000 I-1.569 J-2.439 K0.000 F600.000
G1 X22.891 Y-44.442 Z-3.000 F600.000
G3 X22.599 Y-44.309 Z-3.000 I-1.385 J-2.651 K0.000 F600.000
G1 X16.609 Y-42.082 Z-3.000 F600.000
G3 X16.398 Y-42.015 Z-3.000 I-1.057 J-2.970 K0.000 F600.000
G3 X14.493 Y-41.529 Z-3.000 I-37.713 J-143.959 K0.000 F600.000
G3 X14.339 Y-41.499 Z-3.000 I-0.370 J-1.454 K0.000 F600.000
G3 X12.680 Y-42.370 Z-3.000 I-0.282 J-1.477 K0.000 F600.000
G3 X12.554 Y-43.136 Z-3.000 I1.632 J-0.663 K0.000 F600.000
G1 X12.817 Y-47.341 Z-3.000 F600.000
G1 X12.817 Y-47.361 Z-3.000 F600.000
G3 X10.739 Y-47.552 Z-3.000 I1.908 J-32.057 K0.000 F600.000
G1 X10.692 Y-46.647 Z-3.000 F600.000
G1 X12.651 Y-44.688 Z-3.000 F600.000
G1 X12.817 Y-47.341 Z-3.000 F600.000
G1 X12.817 Y-47.361 Z-3.000 F600.000
G3 X10.739 Y-47.552 Z-3.000 I1.908 J-32.057 K0.000 F600.000
G2 X10.544 Y-41.671 Z-3.000 I133.166 J7.345 K0.000 F600.000
G3 X9.189 Y-40.182 Z-3.000 I-1.545 J-0.044 K0.000 F600.000
G1 X4.822 Y-39.211 Z-3.000 F600.000
G1 X4.795 Y-39.204 Z-3.000 F600.000
G3 X5.584 Y-36.463 Z-3.000 I-13.928 J5.493 K0.000 F600.000
G1 X5.587 Y-36.451 Z-3.000 F600.000
G2 X8.524 Y-37.189 Z-3.000 I-35.105 J-145.843 K0.000 F600.000
G3 X10.400 Y-35.718 Z-3.000 I0.376 J1.452 K0.000 F600.000
G3 X10.238 Y-30.218 Z-3.000 I-132.391 J-1.156 K0.000 F600.000
G2 X10.107 Y-21.801 Z-3.000 I303.150 J8.912 K0.000 F600.000
G1 X10.108 Y-21.775 Z-3.000 F600.000
G1 X10.108 Y-21.775 Z-3.000 F600.000
G1 X10.107 Y-21.801 Z-3.000 F600.000
G3 X10.144 Y-25.981 Z-3.000 I250.999 J0.120 K0.000 F600.000
G1 X12.245 Y-23.880 Z-3.000 F600.000
G3 X12.255 Y-28.113 Z-3.000 I415.646 J-1.125 K0.000 F600.000
G1 X10.235 Y-30.133 Z-3.000 F600.000
G1 X10.238 Y-30.218 Z-3.000 F600.000
G2 X10.378 Y-34.233 Z-3.000 I-127.305 J-6.451 K0.000 F600.000
G1 X12.291 Y-32.319 Z-3.000 F600.000
G0 Z5.000
G0 X7.648 Y-36.963 Z5.000
G0 X7.648 Y-36.963 Z3.000
G1 X7.648 Y-36.963 Z-3.000 F600.000
G3 X5.587 Y-36.451 Z-3.000 I-33.952 J-132.310 K0.000 F600.000
G1 X5.584 Y-36.463 Z-3.000 F600.000
G2 X4.795 Y-39.204 Z-3.000 I-14.717 J2.752 K0.000 F600.000
G1 X4.822 Y-39.211 Z-3.000 F600.000
G1 X5.294 Y-39.316 Z-3.000 F600.000
G1 X7.648 Y-36.963 Z-3.000 F600.000
G2 X8.524 Y-37.189 Z-3.000 I-21.035 J-83.140 K0.000 F600.000
G3 X10.400 Y-35.718 Z-3.000 I0.376 J1.452 K0.000 F600.000
G3 X10.378 Y-34.233 Z-3.000 I-89.464 J-0.602 K0.000 F600.000
G1 X12.291 Y-32.319 Z-3.000 F600.000
G3 X12.350 Y-36.503 Z-3.000 I498.498 J4.869 K0.000 F600.000
G1 X8.766 Y-40.087 Z-3.000 F600.000
G1 X9.189 Y-40.182 Z-3.000 F600.000
G2 X10.544 Y-41.671 Z-3.000 I-0.189 J-1.534 K0.000 F600.000
G1 X10.558 Y-42.538 Z-3.000 F600.000
G1 X14.485 Y-38.611 Z-3.000 F600.000
G3 X15.051 Y-38.727 Z-3.000 I3.338 J14.877 K0.000 F600.000
G2 X15.681 Y-38.950 Z-3.000 I-1.461 J-5.126 K0.000 F600.000
G3 X17.742 Y-37.638 Z-3.000 I0.561 J1.393 K0.000 F600.000
G3 X17.749 Y-37.478 Z-3.000 I-1.493 J0.149 K0.000 F600.000
G1 X17.732 Y-35.363 Z-3.000 F600.000
G1 X19.520 Y-33.576 Z-3.000 F600.000
G3 X19.453 Y-35.231 Z-3.000 I129.279 J-6.061 K0.000 F600.000
G3 X19.456 Y-35.439 Z-3.000 I3.100 J-0.059 K0.000 F600.000
G1 X19.589 Y-37.609 Z-3.000 F600.000
G2 X19.586 Y-37.651 Z-3.000 I-0.042 J-0.018 K0.000 F600.000
G2 X19.580 Y-37.656 Z-3.000 I-0.013 J0.010 K0.000 F600.000
G3 X18.647 Y-38.692 Z-3.000 I0.521 J-1.408 K0.000 F600.000
G1 X15.542 Y-41.797 Z-3.000 F600.000
G2 X16.398 Y-42.015 Z-3.000 I-16.105 J-64.943 K0.000 F600.000
G2 X16.609 Y-42.082 Z-3.000 I-0.846 J-3.036 K0.000 F600.000
G1 X18.716 Y-42.865 Z-3.000 F600.000
G1 X20.674 Y-40.907 Z-3.000 F600.000
G1 X23.689 Y-42.082 Z-3.000 F600.000
G1 X23.725 Y-42.099 Z-3.000 F600.000
G1 X21.809 Y-44.015 Z-3.000 F600.000
G2 X22.625 Y-44.318 Z-3.000 I-16.343 J-45.177 K0.000 F600.000
G2 X22.891 Y-44.442 Z-3.000 I-1.174 J-2.887 K0.000 F600.000
G1 X24.660 Y-45.406 Z-3.000 F600.000
G1 X26.451 Y-43.615 Z-3.000 F600.000
G1 X27.052 Y-43.950 Z-3.000 F600.000
G1 X27.089 Y-43.973 Z-3.000 F600.000
G1 X29.074 Y-45.235 Z-3.000 F600.000
G1 X27.377 Y-46.932 Z-3.000 F600.000
G1 X29.937 Y-48.614 Z-3.000 F600.000
G1 X30.391 Y-48.912 Z-3.000 F600.000
G1 X30.406 Y-48.921 Z-3.000 F600.000
G3 X31.725 Y-46.923 Z-3.000 I-35.864 J25.110 K0.000 F600.000
G3 X31.666 Y-46.885 Z-3.000 I-0.434 J-0.599 K0.000 F600.000
G1 X29.937 Y-48.614 Z-3.000 F600.000
G0 Z5.000
G0 X30.844 Y-39.223 Z5.000
G0 X30.844 Y-39.223 Z3.000
G1 X30.844 Y-39.223 Z-3.000 F600.000
G1 X32.281 Y-37.786 Z-3.000 F600.000
G1 X33.057 Y-39.311 Z-3.000 F600.000
G1 X33.071 Y-39.342 Z-3.000 F600.000
G1 X33.052 Y-39.370 Z-3.000 F600.000
G1 X31.808 Y-41.005 Z-3.000 F600.000
G1 X31.801 Y-41.012 Z-3.000 F600.000
G3 X30.844 Y-39.223 Z-3.000 I-42.031 J-21.341 K0.000 F600.000
G3 X29.266 Y-36.558 Z-3.000 I-48.551 J-26.951 K0.000 F600.000
G1 X30.774 Y-35.050 Z-3.000 F600.000
G1 X29.634 Y-33.172 Z-3.000 F600.000
G2 X29.341 Y-32.240 Z-3.000 I1.296 J0.920 K0.000 F600.000
G1 X24.096 Y-37.485 Z-3.000 F600.000
G1 X23.064 Y-35.841 Z-3.000 F600.000
G1 X23.051 Y-35.819 Z-3.000 F600.000
G3 X25.415 Y-33.355 Z-3.000 I-8.292 J10.320 K0.000 F600.000
G3 X25.569 Y-31.769 Z-3.000 I-1.225 J0.920 K0.000 F600.000
G1 X27.878 Y-29.461 Z-3.000 F600.000
G3 X28.890 Y-28.656 Z-3.000 I-0.365 J1.497 K0.000 F600.000
G1 X29.295 Y-28.043 Z-3.000 F600.000
G1 X33.991 Y-23.347 Z-3.000 F600.000
G3 X33.725 Y-22.883 Z-3.000 I-2.871 J-1.340 K0.000 F600.000
G3 X33.001 Y-21.857 Z-3.000 I-3.456 J-1.669 K0.000 F600.000
G2 X32.752 Y-21.612 Z-3.000 I2.571 J2.862 K0.000 F600.000
G3 X32.746 Y-21.611 Z-3.000 I-0.003 J-0.004 K0.000 F600.000
G3 X32.728 Y-21.642 Z-3.000 I0.022 J-0.034 K0.000 F600.000
G1 X30.520 Y-26.158 Z-3.000 F600.000
G2 X30.389 Y-26.390 Z-3.000 I-2.751 J1.403 K0.000 F600.000
G2 X29.295 Y-28.043 Z-3.000 I-103.251 J67.125 K0.000 F600.000
G0 Z5.000
G0 X25.260 Y-27.836 Z5.000
G0 X25.260 Y-27.836 Z3.000
G1 X25.260 Y-27.836 Z-3.000 F600.000
G1 X23.475 Y-29.621 Z-3.000 F600.000
G3 X23.276 Y-29.438 Z-3.000 I-2.102 J-2.088 K0.000 F600.000
G3 X21.864 Y-28.596 Z-3.000 I-5.923 J-8.325 K0.000 F600.000
G3 X19.820 Y-29.292 Z-3.000 I-0.686 J-1.334 K0.000 F600.000
G3 X19.668 Y-29.941 Z-3.000 I1.720 J-0.746 K0.000 F600.000
G1 X19.520 Y-33.576 Z-3.000 F600.000
G1 X17.732 Y-35.363 Z-3.000 F600.000
G1 X17.699 Y-31.154 Z-3.000 F600.000
G1 X22.859 Y-25.994 Z-3.000 F600.000
G1 X21.101 Y-24.719 Z-3.000 F600.000
G3 X21.040 Y-24.705 Z-3.000 I-0.038 J-0.028 K0.000 F600.000
G1 X19.626 Y-24.984 Z-3.000 F600.000
G1 X17.719 Y-26.892 Z-3.000 F600.000
G1 X17.755 Y-25.570 Z-3.000 F600.000
G1 X17.758 Y-25.537 Z-3.000 F600.000
G2 X19.106 Y-25.087 Z-3.000 I4.818 J-12.188 K0.000 F600.000
G1 X19.626 Y-24.984 Z-3.000 F600.000
G0 Z5.000
G0 X23.475 Y-29.621 Z5.000
G0 X23.475 Y-29.621 Z3.000
G1 X23.475 Y-29.621 Z-3.000 F600.000
G1 X25.260 Y-27.836 Z-3.000 F600.000
G1 X26.272 Y-28.894 Z-3.000 F600.000
G3 X27.878 Y-29.461 Z-3.000 I1.233 J0.938 K0.000 F600.000
G1 X25.569 Y-31.769 Z-3.000 F600.000
G0 Z5.000
G0 Z5.000
(Finish operation: Pocket_Shape002)
(Begin operation: Pocket_Shape003)
(Path: Pocket_Shape003)
(Pocket_Shape003)
G0 Z5.000
G0 X0.000 Y0.000
G0 X49.456 Y-22.849
G0 X49.456 Y-22.849 Z3.000
G1 X49.456 Y-22.849 Z-3.000 F600.000
G1 X49.321 Y-22.762 Z-3.000 F600.000
G3 X48.035 Y-23.750 Z-3.000 I5.770 J-8.845 K0.000 F600.000
G1 X46.520 Y-25.187 Z-3.000 F600.000
G1 X46.511 Y-25.196 Z-3.000 F600.000
G1 X46.562 Y-25.743 Z-3.000 F600.000
G1 X49.456 Y-22.849 Z-3.000 F600.000
G3 X52.046 Y-24.501 Z-3.000 I72.024 J110.077 K0.000 F600.000
G1 X49.793 Y-26.754 Z-3.000 F600.000
G3 X49.194 Y-27.353 Z-3.000 I0.698 J-1.297 K0.000 F600.000
G1 X46.807 Y-29.741 Z-3.000 F600.000
G1 X46.942 Y-33.217 Z-3.000 F600.000
G1 X46.943 Y-33.236 Z-3.000 F600.000
G3 X47.644 Y-33.146 Z-3.000 I-0.579 J7.331 K0.000 F600.000
G1 X49.019 Y-31.772 Z-3.000 F600.000
G3 X49.157 Y-32.758 Z-3.000 I6.619 J0.425 K0.000 F600.000
G2 X49.153 Y-32.769 Z-3.000 I-0.043 J0.008 K0.000 F600.000
G2 X47.644 Y-33.146 Z-3.000 I-2.921 J8.478 K0.000 F600.000
G0 Z5.000
G0 X51.345 Y-36.637 Z5.000
G0 X51.345 Y-36.637 Z3.000
G1 X51.345 Y-36.637 Z-3.000 F600.000
G2 X53.971 Y-36.474 Z-3.000 I2.629 J-21.157 K0.000 F600.000
G3 X54.685 Y-37.572 Z-3.000 I1.494 J0.191 K0.000 F600.000
G3 X55.437 Y-37.796 Z-3.000 I0.863 J1.525 K0.000 F600.000
G1 X57.567 Y-37.924 Z-3.000 F600.000
G3 X58.951 Y-37.545 Z-3.000 I0.312 J1.582 K0.000 F600.000
G3 X59.996 Y-38.511 Z-3.000 I1.413 J0.481 K0.000 F600.000
G2 X61.363 Y-38.865 Z-3.000 I-46.102 J-180.827 K0.000 F600.000
G1 X64.910 Y-40.460 Z-3.000 F600.000
G2 X65.413 Y-40.783 Z-3.000 I-1.846 J-3.427 K0.000 F600.000
G3 X67.376 Y-40.597 Z-3.000 I0.875 J1.218 K0.000 F600.000
G3 X69.320 Y-38.505 Z-3.000 I-69.737 J66.716 K0.000 F600.000
G1 X69.332 Y-38.492 Z-3.000 F600.000
G3 X71.091 Y-40.032 Z-3.000 I6.137 J5.237 K0.000 F600.000
G2 X69.632 Y-41.813 Z-3.000 I-15.504 J11.219 K0.000 F600.000
G1 X69.544 Y-41.919 Z-3.000 F600.000
G3 X69.838 Y-44.036 Z-3.000 I1.245 J-0.906 K0.000 F600.000
G1 X72.421 Y-46.523 Z-3.000 F600.000
G1 X72.435 Y-46.539 Z-3.000 F600.000
G2 X70.804 Y-47.811 Z-3.000 I-8.054 J8.648 K0.000 F600.000
G1 X70.792 Y-47.801 Z-3.000 F600.000
G1 X68.412 Y-45.805 Z-3.000 F600.000
G3 X68.279 Y-45.706 Z-3.000 I-0.964 J-1.149 K0.000 F600.000
G3 X66.364 Y-45.812 Z-3.000 I-0.894 J-1.211 K0.000 F600.000
G3 X65.661 Y-46.743 Z-3.000 I2.936 J-2.948 K0.000 F600.000
G2 X65.025 Y-47.501 Z-3.000 I-1.700 J0.780 K0.000 F600.000
G3 X64.819 Y-47.639 Z-3.000 I2.417 J-3.844 K0.000 F600.000
G2 X64.086 Y-48.163 Z-3.000 I-3.361 J3.925 K0.000 F600.000
G2 X62.209 Y-48.852 Z-3.000 I-6.826 J15.690 K0.000 F600.000
G1 X62.187 Y-48.847 Z-3.000 F600.000
G1 X57.595 Y-47.522 Z-3.000 F600.000
G3 X57.442 Y-47.486 Z-3.000 I-0.416 J-1.441 K0.000 F600.000
G3 X55.611 Y-48.932 Z-3.000 I-0.329 J-1.466 K0.000 F600.000
G3 X55.765 Y-50.095 Z-3.000 I6.057 J0.212 K0.000 F600.000
G2 X55.748 Y-50.118 Z-3.000 I-0.045 J0.015 K0.000 F600.000
G2 X55.647 Y-50.154 Z-3.000 I-0.145 J0.247 K0.000 F600.000
G2 X54.822 Y-50.392 Z-3.000 I-1.806 J4.716 K0.000 F600.000
G1 X53.558 Y-50.545 Z-3.000 F600.000
G1 X53.545 Y-50.546 Z-3.000 F600.000
G3 X53.056 Y-47.309 Z-3.000 I-63.342 J-7.918 K0.000 F600.000
G3 X52.219 Y-46.206 Z-3.000 I-1.479 J-0.252 K0.000 F600.000
G3 X50.460 Y-45.729 Z-3.000 I-2.797 J-6.829 K0.000 F600.000
G1 X45.621 Y-45.241 Z-3.000 F600.000
G1 X45.600 Y-45.238 Z-3.000 F600.000
G2 X46.007 Y-42.982 Z-3.000 I11.961 J-0.993 K0.000 F600.000
G1 X46.026 Y-42.983 Z-3.000 F600.000
G1 X49.170 Y-43.278 Z-3.000 F600.000
G2 X50.362 Y-43.509 Z-3.000 I-3.472 J-21.067 K0.000 F600.000
G3 X52.164 Y-41.836 Z-3.000 I0.316 J1.466 K0.000 F600.000
G3 X51.347 Y-36.653 Z-3.000 I-115.100 J-15.467 K0.000 F600.000
G1 X51.345 Y-36.637 Z-3.000 F600.000
G1 X52.766 Y-36.510 Z-3.000 F600.000
G1 X51.538 Y-37.738 Z-3.000 F600.000
G3 X51.345 Y-36.637 Z-3.000 I-69.478 J-11.580 K0.000 F600.000
G2 X52.766 Y-36.510 Z-3.000 I2.504 J-19.912 K0.000 F600.000
G2 X53.971 Y-36.474 Z-3.000 I1.163 J-19.164 K0.000 F600.000
G3 X55.222 Y-37.768 Z-3.000 I1.491 J0.190 K0.000 F600.000
G3 X55.707 Y-37.812 Z-3.000 I0.510 J2.968 K0.000 F600.000
G1 X52.105 Y-41.414 Z-3.000 F600.000
G1 X54.488 Y-41.323 Z-3.000 F600.000
G3 X54.720 Y-43.357 Z-3.000 I13.556 J0.515 K0.000 F600.000
G3 X55.870 Y-44.562 Z-3.000 I1.477 J0.259 K0.000 F600.000
G2 X57.101 Y-44.843 Z-3.000 I-24.608 J-110.625 K0.000 F600.000
G1 X60.810 Y-46.251 Z-3.000 F600.000
G3 X61.335 Y-46.349 Z-3.000 I0.532 J1.402 K0.000 F600.000
G3 X62.215 Y-46.069 Z-3.000 I0.008 J1.500 K0.000 F600.000
G3 X63.768 Y-44.485 Z-3.000 I-5.849 J7.288 K0.000 F600.000
G3 X63.787 Y-42.637 Z-3.000 I-1.172 J0.936 K0.000 F600.000
G3 X63.163 Y-42.151 Z-3.000 I-1.362 J-1.105 K0.000 F600.000
G1 X59.679 Y-40.551 Z-3.000 F600.000
G3 X59.503 Y-40.482 Z-3.000 I-0.753 J-1.649 K0.000 F600.000
G3 X56.250 Y-39.785 Z-3.000 I-10.060 J-39.019 K0.000 F600.000
G3 X54.485 Y-41.206 Z-3.000 I-0.266 J-1.476 K0.000 F600.000
G3 X54.488 Y-41.323 Z-3.000 I13.560 J0.397 K0.000 F600.000
G0 Z5.000
G0 X51.734 Y-46.027 Z5.000
G0 X51.734 Y-46.027 Z3.000
G1 X51.734 Y-46.027 Z-3.000 F600.000
G1 X54.673 Y-43.088 Z-3.000 F600.000
G1 X54.720 Y-43.357 Z-3.000 F600.000
G3 X55.870 Y-44.562 Z-3.000 I1.477 J0.259 K0.000 F600.000
G2 X57.101 Y-44.843 Z-3.000 I-24.609 J-110.626 K0.000 F600.000
G1 X57.144 Y-44.859 Z-3.000 F600.000
G1 X53.288 Y-48.716 Z-3.000 F600.000
G2 X53.545 Y-50.546 Z-3.000 I-48.939 J-7.812 K0.000 F600.000
G1 X53.558 Y-50.545 Z-3.000 F600.000
G1 X54.822 Y-50.392 Z-3.000 F600.000
G3 X55.401 Y-50.241 Z-3.000 I-0.851 J4.457 K0.000 F600.000
G2 X55.736 Y-50.125 Z-3.000 I2.752 J-7.389 K0.000 F600.000
G3 X55.763 Y-50.100 Z-3.000 I-0.017 J0.045 K0.000 F600.000
G2 X55.616 Y-49.076 Z-3.000 I6.771 J1.494 K0.000 F600.000
G2 X56.942 Y-47.460 Z-3.000 I1.495 J0.126 K0.000 F600.000
G2 X57.557 Y-47.511 Z-3.000 I0.158 J-1.826 K0.000 F600.000
G2 X58.472 Y-47.775 Z-3.000 I-9.630 J-35.151 K0.000 F600.000
G1 X60.220 Y-46.027 Z-3.000 F600.000
G0 Z5.000
G0 X59.362 Y-35.198 Z5.000
G0 X59.362 Y-35.198 Z3.000
G1 X59.362 Y-35.198 Z-3.000 F600.000
G2 X59.148 Y-32.430 Z-3.000 I89.000 J8.261 K0.000 F600.000
G2 X59.081 Y-30.361 Z-3.000 I25.935 J1.876 K0.000 F600.000
G3 X59.067 Y-30.155 Z-3.000 I-1.500 J-0.002 K0.000 F600.000
G3 X57.097 Y-28.867 Z-3.000 I-1.496 J-0.138 K0.000 F600.000
G2 X55.394 Y-29.390 Z-3.000 I-8.446 J24.501 K0.000 F600.000
G2 X55.261 Y-29.301 Z-3.000 I0.084 J0.270 K0.000 F600.000
G3 X52.731 Y-27.515 Z-3.000 I-27.488 J-36.240 K0.000 F600.000
G3 X51.112 Y-26.696 Z-3.000 I-6.472 J-10.781 K0.000 F600.000
G3 X49.186 Y-27.368 Z-3.000 I-0.601 J-1.374 K0.000 F600.000
G3 X49.003 Y-28.142 Z-3.000 I1.585 J-0.782 K0.000 F600.000
G1 X49.003 Y-31.470 Z-3.000 F600.000
G3 X49.157 Y-32.758 Z-3.000 I6.983 J0.179 K0.000 F600.000
G2 X49.153 Y-32.769 Z-3.000 I-0.043 J0.008 K0.000 F600.000
G2 X46.943 Y-33.236 Z-3.000 I-3.026 J8.867 K0.000 F600.000
G1 X46.942 Y-33.217 Z-3.000 F600.000
G1 X46.719 Y-27.445 Z-3.000 F600.000
G3 X46.715 Y-27.384 Z-3.000 I-1.499 J-0.058 K0.000 F600.000
G3 X46.511 Y-25.196 Z-3.000 I-160.973 J-13.899 K0.000 F600.000
G1 X46.520 Y-25.187 Z-3.000 F600.000
G1 X48.035 Y-23.750 Z-3.000 F600.000
G2 X49.321 Y-22.762 Z-3.000 I7.056 J-7.857 K0.000 F600.000
G3 X52.046 Y-24.501 Z-3.000 I75.794 J115.744 K0.000 F600.000
G1 X49.793 Y-26.754 Z-3.000 F600.000
G2 X50.982 Y-26.646 Z-3.000 I0.719 J-1.307 K0.000 F600.000
G2 X52.659 Y-27.470 Z-3.000 I-4.571 J-11.426 K0.000 F600.000
G2 X53.057 Y-27.733 Z-3.000 I-3.340 J-5.483 K0.000 F600.000
G1 X54.681 Y-26.109 Z-3.000 F600.000
G0 Z5.000
G0 X52.046 Y-24.501 Z5.000
G0 X52.046 Y-24.501 Z3.000
G1 X52.046 Y-24.501 Z-3.000 F600.000
G3 X55.453 Y-26.568 Z-3.000 I74.290 J118.589 K0.000 F600.000
G3 X56.402 Y-26.768 Z-3.000 I0.767 J1.289 K0.000 F600.000
G3 X58.053 Y-26.261 Z-3.000 I-1.181 J6.777 K0.000 F600.000
G3 X58.953 Y-25.054 Z-3.000 I-0.590 J1.379 K0.000 F600.000
G3 X58.936 Y-23.083 Z-3.000 I-18.242 J0.830 K0.000 F600.000
G1 X59.082 Y-19.519 Z-3.000 F600.000
G1 X59.084 Y-19.494 Z-3.000 F600.000
G3 X61.457 Y-19.642 Z-3.000 I2.021 J13.283 K0.000 F600.000
G1 X61.468 Y-19.643 Z-3.000 F600.000
G2 X61.265 Y-23.669 Z-3.000 I-910.619 J43.838 K0.000 F600.000
G3 X62.408 Y-25.204 Z-3.000 I1.498 J-0.078 K0.000 F600.000
G3 X63.062 Y-25.227 Z-3.000 I0.392 J1.852 K0.000 F600.000
G1 X65.225 Y-24.899 Z-3.000 F600.000
G1 X65.331 Y-24.891 Z-3.000 F600.000
G1 X69.938 Y-24.859 Z-3.000 F600.000
G2 X69.999 Y-24.878 Z-3.000 I0.014 J-0.061 K0.000 F600.000
G1 X72.144 Y-26.399 Z-3.000 F600.000
G2 X72.189 Y-26.449 Z-3.000 I-0.044 J-0.084 K0.000 F600.000
G1 X73.307 Y-28.503 Z-3.000 F600.000
G1 X73.322 Y-28.535 Z-3.000 F600.000
G2 X72.803 Y-31.539 Z-3.000 I-47.606 J6.676 K0.000 F600.000
G2 X72.638 Y-31.872 Z-3.000 I-1.048 J0.312 K0.000 F600.000
G2 X71.787 Y-33.316 Z-3.000 I-14.156 J7.372 K0.000 F600.000
G2 X71.769 Y-33.315 Z-3.000 I-0.007 J0.042 K0.000 F600.000
G3 X71.619 Y-33.257 Z-3.000 I-1.309 J-3.167 K0.000 F600.000
G2 X69.943 Y-32.744 Z-3.000 I7.596 J27.783 K0.000 F600.000
G2 X69.945 Y-32.735 Z-3.000 I0.027 J-0.001 K0.000 F600.000
G3 X70.010 Y-32.617 Z-3.000 I-3.382 J1.937 K0.000 F600.000
G2 X70.448 Y-31.732 Z-3.000 I13.842 J-6.295 K0.000 F600.000
G3 X70.579 Y-31.386 Z-3.000 I-1.326 J0.702 K0.000 F600.000
G3 X70.767 Y-29.752 Z-3.000 I-11.260 J2.125 K0.000 F600.000
G3 X70.255 Y-28.533 Z-3.000 I-1.497 J0.088 K0.000 F600.000
G3 X68.372 Y-27.397 Z-3.000 I-5.799 J-7.485 K0.000 F600.000
G3 X67.662 Y-27.253 Z-3.000 I-0.643 J-1.355 K0.000 F600.000
G1 X64.473 Y-27.395 Z-3.000 F600.000
G3 X62.516 Y-27.643 Z-3.000 I1.434 J-19.207 K0.000 F600.000
G3 X61.273 Y-28.948 Z-3.000 I0.247 J-1.480 K0.000 F600.000
G3 X61.335 Y-31.776 Z-3.000 I20.270 J-0.965 K0.000 F600.000
G3 X61.596 Y-35.250 Z-3.000 I128.658 J7.894 K0.000 F600.000
G2 X61.571 Y-35.309 Z-3.000 I-0.052 J-0.012 K0.000 F600.000
G3 X60.080 Y-35.580 Z-3.000 I2.183 J-16.253 K0.000 F600.000
G3 X59.430 Y-35.890 Z-3.000 I0.367 J-1.607 K0.000 F600.000
G1 X59.362 Y-35.198 Z-3.000 F600.000
G0 Z5.000
G0 X61.360 Y-32.158 Z5.000
G0 X61.360 Y-32.158 Z3.000
G1 X61.360 Y-32.158 Z-3.000 F600.000
G3 X61.595 Y-35.277 Z-3.000 I145.041 J9.345 K0.000 F600.000
G2 X61.554 Y-35.315 Z-3.000 I-0.048 J0.011 K0.000 F600.000
G3 X59.968 Y-35.609 Z-3.000 I1.709 J-13.630 K0.000 F600.000
G3 X59.430 Y-35.890 Z-3.000 I0.438 J-1.496 K0.000 F600.000
G2 X59.278 Y-34.240 Z-3.000 I55.666 J5.940 K0.000 F600.000
G1 X61.360 Y-32.158 Z-3.000 F600.000
G2 X61.295 Y-31.259 Z-3.000 I1035.328 J75.591 K0.000 F600.000
G2 X61.273 Y-28.948 Z-3.000 I19.994 J1.348 K0.000 F600.000
G2 X62.516 Y-27.643 Z-3.000 I1.490 J-0.174 K0.000 F600.000
G2 X64.473 Y-27.395 Z-3.000 I3.390 J-18.960 K0.000 F600.000
G1 X66.200 Y-27.318 Z-3.000 F600.000
G1 X68.651 Y-24.868 Z-3.000 F600.000
G1 X65.331 Y-24.891 Z-3.000 F600.000
G1 X65.225 Y-24.899 Z-3.000 F600.000
G1 X64.225 Y-25.050 Z-3.000 F600.000
G1 X59.073 Y-30.203 Z-3.000 F600.000
G3 X58.530 Y-29.137 Z-3.000 I-1.525 J-0.105 K0.000 F600.000
G3 X57.097 Y-28.867 Z-3.000 I-0.959 J-1.153 K0.000 F600.000
G2 X55.740 Y-29.294 Z-3.000 I-8.403 J24.368 K0.000 F600.000
G1 X61.265 Y-23.769 Z-3.000 F600.000
G1 X61.265 Y-23.669 Z-3.000 F600.000
G3 X61.468 Y-19.643 Z-3.000 I-910.433 J47.865 K0.000 F600.000
G3 X61.144 Y-19.646 Z-3.000 I-0.123 J-3.403 K0.000 F600.000
G1 X58.989 Y-21.802 Z-3.000 F600.000
G1 X59.082 Y-19.519 Z-3.000 F600.000
G1 X59.084 Y-19.494 Z-3.000 F600.000
G3 X61.144 Y-19.646 Z-3.000 I2.012 J13.199 K0.000 F600.000
G0 Z5.000
G0 X68.651 Y-24.868 Z5.000
G0 X68.651 Y-24.868 Z3.000
G1 X68.651 Y-24.868 Z-3.000 F600.000
G1 X66.200 Y-27.318 Z-3.000 F600.000
G1 X67.662 Y-27.253 Z-3.000 F600.000
G2 X68.259 Y-27.349 Z-3.000 I0.067 J-1.499 K0.000 F600.000
G2 X69.656 Y-28.105 Z-3.000 I-3.714 J-8.530 K0.000 F600.000
G1 X71.687 Y-26.075 Z-3.000 F600.000
G1 X72.144 Y-26.399 Z-3.000 F600.000
G2 X72.189 Y-26.449 Z-3.000 I-0.044 J-0.084 K0.000 F600.000
G1 X73.307 Y-28.503 Z-3.000 F600.000
G1 X73.322 Y-28.535 Z-3.000 F600.000
G2 X73.298 Y-28.706 Z-3.000 I-3.296 J0.382 K0.000 F600.000
G1 X70.564 Y-31.440 Z-3.000 F600.000
G2 X70.501 Y-31.620 Z-3.000 I-1.121 J0.288 K0.000 F600.000
G3 X70.137 Y-32.346 Z-3.000 I27.500 J-14.269 K0.000 F600.000
G2 X69.946 Y-32.732 Z-3.000 I-2.944 J1.209 K0.000 F600.000
G3 X69.943 Y-32.744 Z-3.000 I0.024 J-0.012 K0.000 F600.000
G3 X71.538 Y-33.232 Z-3.000 I7.688 J22.259 K0.000 F600.000
G2 X71.765 Y-33.314 Z-3.000 I-0.474 J-1.672 K0.000 F600.000
G3 X71.787 Y-33.316 Z-3.000 I0.015 J0.041 K0.000 F600.000
G3 X72.426 Y-32.265 Z-3.000 I-11.138 J7.498 K0.000 F600.000
G2 X72.625 Y-31.894 Z-3.000 I10.773 J-5.532 K0.000 F600.000
G3 X72.791 Y-31.579 Z-3.000 I-1.134 J0.798 K0.000 F600.000
G3 X73.298 Y-28.706 Z-3.000 I-40.869 J8.687 K0.000 F600.000
G0 Z5.000
G0 X72.435 Y-46.539 Z5.000
G0 X72.435 Y-46.539 Z3.000
G1 X72.435 Y-46.539 Z-3.000 F600.000
G1 X72.421 Y-46.523 Z-3.000 F600.000
G1 X70.275 Y-44.457 Z-3.000 F600.000
G1 X68.692 Y-46.040 Z-3.000 F600.000
G3 X68.347 Y-45.754 Z-3.000 I-3.756 J-4.175 K0.000 F600.000
G3 X67.550 Y-45.421 Z-3.000 I-0.997 J-1.268 K0.000 F600.000
G3 X66.264 Y-45.914 Z-3.000 I-0.166 J-1.491 K0.000 F600.000
G3 X65.576 Y-46.907 Z-3.000 I3.077 J-2.867 K0.000 F600.000
G2 X64.887 Y-47.592 Z-3.000 I-1.672 J0.994 K0.000 F600.000
G3 X64.599 Y-47.817 Z-3.000 I1.561 J-2.289 K0.000 F600.000
G2 X64.086 Y-48.163 Z-3.000 I-2.514 J3.173 K0.000 F600.000
G2 X62.209 Y-48.852 Z-3.000 I-6.805 J15.633 K0.000 F600.000
G1 X62.187 Y-48.847 Z-3.000 F600.000
G1 X61.764 Y-48.725 Z-3.000 F600.000
G1 X70.715 Y-39.774 Z-3.000 F600.000
G2 X69.332 Y-38.492 Z-3.000 I4.774 J6.539 K0.000 F600.000
G1 X69.320 Y-38.505 Z-3.000 F600.000
G2 X67.376 Y-40.597 Z-3.000 I-71.681 J64.624 K0.000 F600.000
G2 X65.444 Y-40.803 Z-3.000 I-1.086 J1.030 K0.000 F600.000
G1 X63.706 Y-42.541 Z-3.000 F600.000
G3 X63.163 Y-42.151 Z-3.000 I-1.325 J-1.270 K0.000 F600.000
G1 X60.895 Y-41.109 Z-3.000 F600.000
G1 X62.588 Y-39.416 Z-3.000 F600.000
G1 X61.363 Y-38.865 Z-3.000 F600.000
G3 X59.996 Y-38.511 Z-3.000 I-47.468 J-180.475 K0.000 F600.000
G2 X59.489 Y-38.273 Z-3.000 I0.368 J1.442 K0.000 F600.000
G1 X57.699 Y-40.062 Z-3.000 F600.000
G3 X56.250 Y-39.785 Z-3.000 I-8.308 J-39.497 K0.000 F600.000
G3 X54.486 Y-41.348 Z-3.000 I-0.266 J-1.476 K0.000 F600.000
G3 X54.673 Y-43.088 Z-3.000 I13.956 J0.620 K0.000 F600.000
G1 X51.734 Y-46.027 Z-3.000 F600.000
G3 X50.460 Y-45.729 Z-3.000 I-2.322 J-7.054 K0.000 F600.000
G1 X48.034 Y-45.484 Z-3.000 F600.000
G1 X50.072 Y-43.447 Z-3.000 F600.000
G3 X49.170 Y-43.278 Z-3.000 I-4.250 J-20.201 K0.000 F600.000
G1 X46.270 Y-43.006 Z-3.000 F600.000
G1 X45.905 Y-43.370 Z-3.000 F600.000
G2 X46.007 Y-42.982 Z-3.000 I6.319 J-1.442 K0.000 F600.000
G2 X46.270 Y-43.006 Z-3.000 I-0.116 J-2.758 K0.000 F600.000
G0 Z5.000
G0 Z5.000
(Finish operation: Pocket_Shape003)
(Begin operation: Pocket_Shape004)
(Path: Pocket_Shape004)
(Pocket_Shape004)
G0 Z5.000
G0 X0.000 Y0.000
G0 X51.472 Y19.891
G0 X51.472 Y19.891 Z3.000
G1 X51.472 Y19.891 Z-3.000 F600.000
G2 X50.246 Y20.301 Z-3.000 I2.699 J10.102 K0.000 F600.000
G3 X50.275 Y20.403 Z-3.000 I-2.700 J0.817 K0.000 F600.000
G2 X50.460 Y21.055 Z-3.000 I5.969 J-1.344 K0.000 F600.000
G2 X51.682 Y24.325 Z-3.000 I362.281 J-133.506 K0.000 F600.000
G1 X51.696 Y24.357 Z-3.000 F600.000
G2 X53.760 Y23.602 Z-3.000 I-1.852 J-8.264 K0.000 F600.000
G2 X52.996 Y21.873 Z-3.000 I-26.179 J10.529 K0.000 F600.000
G3 X52.920 Y21.676 Z-3.000 I1.357 J-0.639 K0.000 F600.000
G1 X52.316 Y19.721 Z-3.000 F600.000
G1 X52.309 Y19.700 Z-3.000 F600.000
G2 X51.472 Y19.891 Z-3.000 I1.578 J8.847 K0.000 F600.000
G3 X52.309 Y19.700 Z-3.000 I2.594 J9.444 K0.000 F600.000
G1 X52.316 Y19.721 Z-3.000 F600.000
G1 X52.769 Y21.187 Z-3.000 F600.000
G1 X51.472 Y19.891 Z-3.000 F600.000
G2 X50.246 Y20.301 Z-3.000 I2.699 J10.102 K0.000 F600.000
G3 X50.275 Y20.403 Z-3.000 I-2.700 J0.817 K0.000 F600.000
G2 X50.460 Y21.055 Z-3.000 I5.969 J-1.344 K0.000 F600.000
G2 X51.682 Y24.325 Z-3.000 I362.293 J-133.510 K0.000 F600.000
G1 X51.696 Y24.357 Z-3.000 F600.000
G0 Z5.000
G0 Z5.000
G0 X51.696 Y24.357
G0 X53.782 Y31.740
G0 X53.782 Y31.740 Z3.000
G1 X53.782 Y31.740 Z-3.000 F600.000
G3 X53.828 Y30.589 Z-3.000 I59.257 J1.789 K0.000 F600.000
G1 X53.829 Y30.578 Z-3.000 F600.000
G3 X55.553 Y30.684 Z-3.000 I0.155 J11.532 K0.000 F600.000
G1 X55.554 Y30.717 Z-3.000 F600.000
G2 X55.468 Y33.426 Z-3.000 I266.441 J9.790 K0.000 F600.000
G1 X53.782 Y31.740 Z-3.000 F600.000
G2 X53.710 Y35.911 Z-3.000 I114.307 J4.061 K0.000 F600.000
G1 X55.363 Y37.564 Z-3.000 F600.000
G1 X55.274 Y40.510 Z-3.000 F600.000
G2 X55.277 Y40.715 Z-3.000 I3.003 J0.056 K0.000 F600.000
G1 X55.342 Y41.786 Z-3.000 F600.000
G1 X52.091 Y38.535 Z-3.000 F600.000
G0 Z5.000
G0 X47.874 Y42.803 Z5.000
G0 X47.874 Y42.803 Z3.000
G1 X47.874 Y42.803 Z-3.000 F600.000
G1 X45.677 Y40.606 Z-3.000 F600.000
G2 X45.986 Y42.309 Z-3.000 I18.811 J-2.532 K0.000 F600.000
G2 X47.874 Y42.803 Z-3.000 I3.374 J-9.041 K0.000 F600.000
G2 X48.560 Y42.886 Z-3.000 I1.348 J-8.226 K0.000 F600.000
G2 X49.626 Y42.479 Z-3.000 I-1.224 J-4.811 K0.000 F600.000
G2 X50.956 Y41.642 Z-3.000 I-16.315 J-27.392 K0.000 F600.000
G1 X49.403 Y40.089 Z-3.000 F600.000
G1 X49.081 Y40.204 Z-3.000 F600.000
G3 X47.110 Y39.098 Z-3.000 I-0.503 J-1.413 K0.000 F600.000
G3 X46.981 Y37.667 Z-3.000 I14.074 J-1.993 K0.000 F600.000
G1 X44.647 Y35.334 Z-3.000 F600.000
G1 X46.100 Y34.401 Z-3.000 F600.000
G2 X46.294 Y34.262 Z-3.000 I-1.737 J-2.619 K0.000 F600.000
G2 X47.133 Y33.577 Z-3.000 I-47.652 J-59.172 K0.000 F600.000
G1 X48.441 Y34.884 Z-3.000 F600.000
G1 X49.659 Y33.803 Z-3.000 F600.000
G2 X50.266 Y33.154 Z-3.000 I-3.974 J-4.326 K0.000 F600.000
G2 X49.090 Y31.926 Z-3.000 I-4.390 J3.028 K0.000 F600.000
G1 X49.090 Y31.926 Z-3.000 F600.000
G3 X48.841 Y32.180 Z-3.000 I-1.697 J-1.413 K0.000 F600.000
G1 X47.133 Y33.577 Z-3.000 F600.000
G0 Z5.000
G0 X53.681 Y44.367 Z5.000
G0 X53.681 Y44.367 Z3.000
G1 X53.681 Y44.367 Z-3.000 F600.000
G1 X54.007 Y47.398 Z-3.000 F600.000
G2 X54.023 Y47.445 Z-3.000 I0.045 J0.011 K0.000 F600.000
G2 X54.120 Y47.482 Z-3.000 I0.189 J-0.353 K0.000 F600.000
G2 X54.898 Y47.759 Z-3.000 I1.567 J-3.168 K0.000 F600.000
G1 X58.498 Y47.661 Z-3.000 F600.000
G3 X58.657 Y47.665 Z-3.000 I0.041 J1.499 K0.000 F600.000
G3 X60.111 Y49.112 Z-3.000 I-0.049 J1.503 K0.000 F600.000
G3 X60.160 Y50.625 Z-3.000 I-147.942 J5.590 K0.000 F600.000
G2 X61.735 Y50.581 Z-3.000 I0.637 J-5.450 K0.000 F600.000
G2 X61.752 Y50.538 Z-3.000 I-0.051 J-0.044 K0.000 F600.000
G3 X61.736 Y50.388 Z-3.000 I4.323 J-0.541 K0.000 F600.000
G2 X61.684 Y49.062 Z-3.000 I-57.545 J1.573 K0.000 F600.000
G3 X63.071 Y47.491 Z-3.000 I1.498 J-0.075 K0.000 F600.000
G3 X67.625 Y47.316 Z-3.000 I4.326 J53.276 K0.000 F600.000
G1 X67.646 Y47.315 Z-3.000 F600.000
G1 X67.646 Y47.281 Z-3.000 F600.000
G1 X67.400 Y42.551 Z-3.000 F600.000
G3 X67.406 Y40.662 Z-3.000 I26.426 J-0.862 K0.000 F600.000
G3 X68.889 Y39.208 Z-3.000 I1.499 J0.046 K0.000 F600.000
G3 X73.309 Y39.298 Z-3.000 I1.046 J56.956 K0.000 F600.000
G2 X73.412 Y39.259 Z-3.000 I0.027 J-0.085 K0.000 F600.000
G2 X73.733 Y37.561 Z-3.000 I-8.070 J-2.408 K0.000 F600.000
G1 X73.733 Y35.589 Z-3.000 F600.000
G2 X73.728 Y35.548 Z-3.000 I-0.041 J-0.016 K0.000 F600.000
G3 X72.786 Y35.201 Z-3.000 I2.169 J-7.340 K0.000 F600.000
G2 X72.775 Y35.212 Z-3.000 I0.008 J0.018 K0.000 F600.000
G2 X72.742 Y35.347 Z-3.000 I0.775 J0.262 K0.000 F600.000
G3 X72.506 Y35.903 Z-3.000 I-3.428 J-1.130 K0.000 F600.000
G3 X70.984 Y36.951 Z-3.000 I-1.518 J-0.575 K0.000 F600.000
G1 X69.033 Y37.017 Z-3.000 F600.000
G3 X68.862 Y37.013 Z-3.000 I-0.051 J-1.499 K0.000 F600.000
G3 X67.406 Y35.543 Z-3.000 I0.047 J-1.503 K0.000 F600.000
G3 X67.432 Y31.200 Z-3.000 I64.494 J-1.777 K0.000 F600.000
G2 X67.425 Y31.160 Z-3.000 I-0.032 J-0.015 K0.000 F600.000
G3 X66.531 Y31.073 Z-3.000 I0.560 J-10.378 K0.000 F600.000
G2 X66.307 Y35.531 Z-3.000 I46.212 J4.558 K0.000 F600.000
G3 X65.016 Y37.000 Z-3.000 I-1.500 J-0.017 K0.000 F600.000
G3 X63.016 Y37.014 Z-3.000 I-1.104 J-14.944 K0.000 F600.000
G3 X61.583 Y35.535 Z-3.000 I0.066 J-1.499 K0.000 F600.000
G3 X61.783 Y29.478 Z-3.000 I56.076 J-1.172 K0.000 F600.000
G1 X61.785 Y29.446 Z-3.000 F600.000
G2 X60.521 Y29.327 Z-3.000 I-1.324 J7.318 K0.000 F600.000
G1 X60.460 Y30.350 Z-3.000 F600.000
G1 X60.460 Y30.350 Z-3.000 F600.000
G2 X60.255 Y35.445 Z-3.000 I159.673 J8.983 K0.000 F600.000
G3 X58.480 Y36.880 Z-3.000 I-1.502 J-0.044 K0.000 F600.000
G2 X58.402 Y36.896 Z-3.000 I-0.012 J0.136 K0.000 F600.000
G1 X58.794 Y39.237 Z-3.000 F600.000
G1 X58.802 Y39.276 Z-3.000 F600.000
G2 X58.808 Y39.285 Z-3.000 I0.016 J-0.004 K0.000 F600.000
G3 X60.043 Y40.230 Z-3.000 I-0.184 J1.520 K0.000 F600.000
G3 X60.154 Y40.871 Z-3.000 I-1.767 J0.636 K0.000 F600.000
G1 X60.119 Y43.486 Z-3.000 F600.000
G3 X60.110 Y43.639 Z-3.000 I-1.500 J-0.020 K0.000 F600.000
G3 X58.851 Y45.017 Z-3.000 I-1.500 J-0.106 K0.000 F600.000
G3 X56.954 Y45.081 Z-3.000 I-1.473 J-15.513 K0.000 F600.000
G3 X55.446 Y43.486 Z-3.000 I0.041 J-1.549 K0.000 F600.000
G1 X55.277 Y40.715 Z-3.000 F600.000
G3 X55.274 Y40.510 Z-3.000 I3.000 J-0.149 K0.000 F600.000
G1 X55.378 Y37.061 Z-3.000 F600.000
G3 X55.669 Y36.105 Z-3.000 I1.568 J-0.045 K0.000 F600.000
G2 X55.667 Y36.091 Z-3.000 I-0.086 J0.002 K0.000 F600.000
G3 X55.422 Y35.226 Z-3.000 I1.345 J-0.847 K0.000 F600.000
G3 X55.554 Y30.717 Z-3.000 I331.284 J7.388 K0.000 F600.000
G1 X55.553 Y30.684 Z-3.000 F600.000
G2 X53.829 Y30.578 Z-3.000 I-1.570 J11.426 K0.000 F600.000
G2 X53.709 Y36.358 Z-3.000 I117.686 J5.328 K0.000 F600.000
G3 X53.142 Y37.548 Z-3.000 I-1.581 J-0.024 K0.000 F600.000
G1 X51.477 Y39.112 Z-3.000 F600.000
G3 X51.194 Y39.322 Z-3.000 I-1.027 J-1.093 K0.000 F600.000
G3 X49.081 Y40.204 Z-3.000 I-7.637 J-15.317 K0.000 F600.000
G3 X47.110 Y39.098 Z-3.000 I-0.503 J-1.413 K0.000 F600.000
G3 X46.967 Y36.896 Z-3.000 I14.868 J-2.076 K0.000 F600.000
G3 X47.573 Y35.654 Z-3.000 I1.611 J0.019 K0.000 F600.000
G1 X49.659 Y33.803 Z-3.000 F600.000
G2 X50.266 Y33.154 Z-3.000 I-3.974 J-4.326 K0.000 F600.000
G2 X49.090 Y31.926 Z-3.000 I-4.390 J3.028 K0.000 F600.000
G1 X49.090 Y31.926 Z-3.000 F600.000
G3 X48.841 Y32.180 Z-3.000 I-1.697 J-1.413 K0.000 F600.000
G1 X46.311 Y34.249 Z-3.000 F600.000
G3 X46.119 Y34.389 Z-3.000 I-1.960 J-2.472 K0.000 F600.000
G3 X44.332 Y35.536 Z-3.000 I-80.228 J-123.068 K0.000 F600.000
G1 X44.304 Y35.556 Z-3.000 F600.000
G2 X45.006 Y37.429 Z-3.000 I10.641 J-2.919 K0.000 F600.000
G2 X45.148 Y37.640 Z-3.000 I4.304 J-2.759 K0.000 F600.000
G3 X45.502 Y38.548 Z-3.000 I-1.205 J0.992 K0.000 F600.000
G2 X45.986 Y42.309 Z-3.000 I19.932 J-0.652 K0.000 F600.000
G2 X48.560 Y42.886 Z-3.000 I3.397 J-9.115 K0.000 F600.000
G2 X49.626 Y42.479 Z-3.000 I-1.224 J-4.811 K0.000 F600.000
G2 X51.268 Y41.434 Z-3.000 I-17.221 J-28.863 K0.000 F600.000
G3 X53.585 Y42.471 Z-3.000 I0.832 J1.248 K0.000 F600.000
G3 X53.617 Y43.775 Z-3.000 I-12.794 J0.964 K0.000 F600.000
G1 X54.007 Y47.398 Z-3.000 F600.000
G2 X54.023 Y47.445 Z-3.000 I0.045 J0.011 K0.000 F600.000
G2 X54.120 Y47.482 Z-3.000 I0.189 J-0.353 K0.000 F600.000
G2 X54.898 Y47.759 Z-3.000 I1.567 J-3.168 K0.000 F600.000
G1 X57.015 Y47.701 Z-3.000 F600.000
G1 X53.681 Y44.367 Z-3.000 F600.000
G0 Z5.000
G0 X57.015 Y47.701 Z5.000
G0 X57.015 Y47.701 Z3.000
G1 X57.015 Y47.701 Z-3.000 F600.000
G1 X53.681 Y44.367 Z-3.000 F600.000
G1 X53.617 Y43.775 Z-3.000 F600.000
G2 X53.599 Y42.615 Z-3.000 I-14.567 J-0.350 K0.000 F600.000
G2 X51.392 Y41.360 Z-3.000 I-1.498 J0.068 K0.000 F600.000
G2 X50.956 Y41.642 Z-3.000 I2.716 J4.670 K0.000 F600.000
G1 X49.403 Y40.089 Z-3.000 F600.000
G2 X51.089 Y39.376 Z-3.000 I-5.969 J-16.457 K0.000 F600.000
G2 X51.477 Y39.112 Z-3.000 I-0.640 J-1.357 K0.000 F600.000
G1 X52.091 Y38.535 Z-3.000 F600.000
G1 X55.342 Y41.786 Z-3.000 F600.000
G1 X55.446 Y43.486 Z-3.000 F600.000
G2 X56.822 Y45.074 Z-3.000 I1.552 J0.045 K0.000 F600.000
G2 X58.597 Y45.041 Z-3.000 I0.605 J-15.263 K0.000 F600.000
G1 X61.852 Y48.296 Z-3.000 F600.000
G3 X62.936 Y47.507 Z-3.000 I1.328 J0.686 K0.000 F600.000
G3 X65.162 Y47.363 Z-3.000 I3.760 J40.914 K0.000 F600.000
G1 X62.742 Y44.944 Z-3.000 F600.000
G3 X61.483 Y43.684 Z-3.000 I0.217 J-1.477 K0.000 F600.000
G1 X60.135 Y42.336 Z-3.000 F600.000
G1 X60.154 Y40.871 Z-3.000 F600.000
G2 X60.148 Y40.712 Z-3.000 I-1.500 J-0.020 K0.000 F600.000
G2 X58.815 Y39.288 Z-3.000 I-1.505 J0.073 K0.000 F600.000
G3 X58.806 Y39.283 Z-3.000 I0.003 J-0.016 K0.000 F600.000
G3 X58.794 Y39.237 Z-3.000 I0.055 J-0.038 K0.000 F600.000
G1 X58.402 Y36.896 Z-3.000 F600.000
G3 X58.468 Y36.879 Z-3.000 I0.066 J0.118 K0.000 F600.000
G2 X58.932 Y36.891 Z-3.000 I0.283 J-1.989 K0.000 F600.000
G1 X61.837 Y39.795 Z-3.000 F600.000
G1 X61.836 Y39.795 Z-3.000 F600.000
G3 X62.674 Y39.277 Z-3.000 I1.163 J0.947 K0.000 F600.000
G3 X63.732 Y39.186 Z-3.000 I1.079 J6.295 K0.000 F600.000
G3 X64.697 Y39.209 Z-3.000 I0.021 J19.378 K0.000 F600.000
G3 X66.115 Y40.531 Z-3.000 I-0.072 J1.498 K0.000 F600.000
G3 X66.121 Y42.055 Z-3.000 I-16.589 J0.831 K0.000 F600.000
G2 X66.153 Y43.236 Z-3.000 I5.738 J0.438 K0.000 F600.000
G3 X64.990 Y44.845 Z-3.000 I-1.493 J0.146 K0.000 F600.000
G3 X62.916 Y44.960 Z-3.000 I-1.573 J-9.615 K0.000 F600.000
G3 X61.464 Y43.472 Z-3.000 I0.049 J-1.499 K0.000 F600.000
G3 X61.500 Y40.693 Z-3.000 I53.212 J-0.707 K0.000 F600.000
G3 X61.836 Y39.795 Z-3.000 I1.499 J0.049 K0.000 F600.000
G0 Z5.000
G0 X67.392 Y41.108 Z5.000
G0 X67.392 Y41.108 Z3.000
G1 X67.392 Y41.108 Z-3.000 F600.000
G1 X63.311 Y37.027 Z-3.000 F600.000
G2 X64.875 Y37.013 Z-3.000 I0.647 J-15.225 K0.000 F600.000
G2 X66.286 Y35.759 Z-3.000 I-0.066 J-1.495 K0.000 F600.000
G1 X69.725 Y39.199 Z-3.000 F600.000
G3 X73.309 Y39.298 Z-3.000 I0.229 J56.429 K0.000 F600.000
G2 X73.419 Y39.240 Z-3.000 I0.027 J-0.083 K0.000 F600.000
G2 X73.541 Y38.771 Z-3.000 I-6.871 J-2.029 K0.000 F600.000
G1 X71.600 Y36.831 Z-3.000 F600.000
G3 X70.984 Y36.951 Z-3.000 I-0.615 J-1.513 K0.000 F600.000
G1 X69.033 Y37.017 Z-3.000 F600.000
G3 X68.862 Y37.013 Z-3.000 I-0.051 J-1.499 K0.000 F600.000
G3 X67.406 Y35.543 Z-3.000 I0.047 J-1.503 K0.000 F600.000
G3 X67.393 Y32.623 Z-3.000 I61.645 J-1.739 K0.000 F600.000
G1 X66.473 Y31.704 Z-3.000 F600.000
G3 X66.531 Y31.073 Z-3.000 I18.989 J1.429 K0.000 F600.000
G2 X67.417 Y31.157 Z-3.000 I1.195 J-7.918 K0.000 F600.000
G3 X67.431 Y31.167 Z-3.000 I-0.002 J0.016 K0.000 F600.000
G2 X67.393 Y32.623 Z-3.000 I71.257 J2.596 K0.000 F600.000
G0 Z5.000
G0 X71.600 Y36.831 Z5.000
G0 X71.600 Y36.831 Z3.000
G1 X71.600 Y36.831 Z-3.000 F600.000
G2 X72.396 Y36.137 Z-3.000 I-0.607 J-1.498 K0.000 F600.000
G2 X72.618 Y35.672 Z-3.000 I-22.950 J-11.246 K0.000 F600.000
G2 X72.775 Y35.214 Z-3.000 I-2.003 J-0.944 K0.000 F600.000
G3 X72.782 Y35.203 Z-3.000 I0.019 J0.006 K0.000 F600.000
G2 X73.688 Y35.533 Z-3.000 I2.876 J-6.498 K0.000 F600.000
G3 X73.728 Y35.548 Z-3.000 I-0.001 J0.061 K0.000 F600.000
G3 X73.733 Y35.589 Z-3.000 I-0.036 J0.025 K0.000 F600.000
G1 X73.733 Y37.561 Z-3.000 F600.000
G3 X73.541 Y38.771 Z-3.000 I-8.507 J-0.733 K0.000 F600.000
G1 X71.600 Y36.831 Z-3.000 F600.000
G0 Z5.000
G0 X67.218 Y25.870 Z5.000
G0 X67.218 Y25.870 Z3.000
G1 X67.218 Y25.870 Z-3.000 F600.000
G1 X69.925 Y24.788 Z-3.000 F600.000
G2 X69.973 Y24.760 Z-3.000 I-0.038 J-0.121 K0.000 F600.000
G1 X71.782 Y23.301 Z-3.000 F600.000
G2 X71.859 Y23.194 Z-3.000 I-0.145 J-0.184 K0.000 F600.000
G3 X71.896 Y23.019 Z-3.000 I12.282 J2.554 K0.000 F600.000
G2 X72.181 Y21.820 Z-3.000 I-8.426 J-2.631 K0.000 F600.000
G2 X72.042 Y20.302 Z-3.000 I-10.794 J0.221 K0.000 F600.000
G2 X70.065 Y19.966 Z-3.000 I-4.746 J21.957 K0.000 F600.000
G3 X69.802 Y20.844 Z-3.000 I-1.520 J0.023 K0.000 F600.000
G3 X68.351 Y22.367 Z-3.000 I-8.312 J-6.468 K0.000 F600.000
G3 X68.077 Y22.560 Z-3.000 I-0.998 J-1.120 K0.000 F600.000
G3 X64.910 Y23.941 Z-3.000 I-25.463 J-54.107 K0.000 F600.000
G3 X64.710 Y24.007 Z-3.000 I-0.570 J-1.388 K0.000 F600.000
G3 X62.156 Y24.478 Z-3.000 I-9.149 J-42.420 K0.000 F600.000
G1 X62.151 Y24.479 Z-3.000 F600.000
G2 X63.030 Y26.880 Z-3.000 I12.738 J-3.300 K0.000 F600.000
G2 X66.636 Y26.102 Z-3.000 I-16.077 J-83.258 K0.000 F600.000
G1 X66.644 Y26.099 Z-3.000 F600.000
G1 X67.218 Y25.870 Z-3.000 F600.000
G1 X65.399 Y26.387 Z-3.000 F600.000
G3 X63.030 Y26.880 Z-3.000 I-17.603 J-78.525 K0.000 F600.000
G3 X62.151 Y24.479 Z-3.000 I11.859 J-5.701 K0.000 F600.000
G2 X63.298 Y24.286 Z-3.000 I-6.473 J-42.010 K0.000 F600.000
G1 X65.399 Y26.387 Z-3.000 F600.000
G2 X66.636 Y26.102 Z-3.000 I-12.491 J-57.183 K0.000 F600.000
G1 X66.644 Y26.099 Z-3.000 F600.000
G1 X68.580 Y25.325 Z-3.000 F600.000
G1 X66.520 Y23.266 Z-3.000 F600.000
G2 X67.977 Y22.611 Z-3.000 I-24.374 J-56.162 K0.000 F600.000
G2 X68.265 Y22.438 Z-3.000 I-0.624 J-1.364 K0.000 F600.000
G2 X69.126 Y21.628 Z-3.000 I-6.418 J-7.687 K0.000 F600.000
G1 X71.237 Y23.740 Z-3.000 F600.000
G1 X71.782 Y23.301 Z-3.000 F600.000
G2 X71.859 Y23.194 Z-3.000 I-0.145 J-0.184 K0.000 F600.000
G3 X71.896 Y23.019 Z-3.000 I12.280 J2.553 K0.000 F600.000
G2 X72.181 Y21.820 Z-3.000 I-8.426 J-2.631 K0.000 F600.000
G2 X72.042 Y20.302 Z-3.000 I-10.794 J0.221 K0.000 F600.000
G0 Z5.000
G0 X60.484 Y29.957 Z5.000
G0 X60.484 Y29.957 Z3.000
G1 X60.484 Y29.957 Z-3.000 F600.000
G1 X60.521 Y29.327 Z-3.000 F600.000
G3 X61.785 Y29.446 Z-3.000 I-0.061 J7.436 K0.000 F600.000
G1 X61.783 Y29.478 Z-3.000 F600.000
G2 X61.663 Y31.137 Z-3.000 I53.591 J4.714 K0.000 F600.000
G1 X60.484 Y29.957 Z-3.000 F600.000
G2 X60.296 Y34.012 Z-3.000 I149.255 J8.918 K0.000 F600.000
G1 X61.579 Y35.295 Z-3.000 F600.000
G2 X61.591 Y35.677 Z-3.000 I4.035 J0.066 K0.000 F600.000
G2 X63.016 Y37.014 Z-3.000 I1.491 J-0.162 K0.000 F600.000
G1 X63.311 Y37.027 Z-3.000 F600.000
G1 X67.392 Y41.108 Z-3.000 F600.000
G2 X67.400 Y42.551 Z-3.000 I26.183 J0.582 K0.000 F600.000
G1 X67.554 Y45.512 Z-3.000 F600.000
G1 X66.030 Y43.989 Z-3.000 F600.000
G3 X64.848 Y44.871 Z-3.000 I-1.368 J-0.601 K0.000 F600.000
G3 X62.772 Y44.949 Z-3.000 I-1.404 J-9.648 K0.000 F600.000
G1 X62.742 Y44.944 Z-3.000 F600.000
G1 X65.162 Y47.363 Z-3.000 F600.000
G0 Z5.000
G0 Z5.000
(Finish operation: Pocket_Shape004)
(Begin operation: Pocket_Shape005)
(Path: Pocket_Shape005)
(Pocket_Shape005)
G0 Z5.000
G0 X0.000 Y0.000
G0 X14.037 Y19.768
G0 X14.037 Y19.768 Z3.000
G1 X14.037 Y19.768 Z-3.000 F600.000
G2 X13.918 Y19.982 Z-3.000 I0.718 J0.542 K0.000 F600.000
G2 X13.835 Y20.360 Z-3.000 I1.311 J0.483 K0.000 F600.000
G2 X13.784 Y20.844 Z-3.000 I1.574 J0.414 K0.000 F600.000
G1 X13.799 Y20.847 Z-3.000 F600.000
G1 X16.590 Y21.192 Z-3.000 F600.000
G3 X18.602 Y21.637 Z-3.000 I-2.956 J18.149 K0.000 F600.000
G3 X19.620 Y22.560 Z-3.000 I-0.386 J1.448 K0.000 F600.000
G3 X19.710 Y22.268 Z-3.000 I1.071 J0.172 K0.000 F600.000
G2 X20.151 Y21.099 Z-3.000 I-8.874 J-4.015 K0.000 F600.000
G2 X20.178 Y20.693 Z-3.000 I-1.539 J-0.304 K0.000 F600.000
G2 X20.103 Y20.647 Z-3.000 I-0.127 J0.122 K0.000 F600.000
G2 X19.909 Y20.624 Z-3.000 I-1.795 J14.000 K0.000 F600.000
G1 X14.076 Y19.770 Z-3.000 F600.000
G1 X14.041 Y19.767 Z-3.000 F600.000
G2 X14.037 Y19.768 Z-3.000 I-0.000 J0.005 K0.000 F600.000
G1 X13.805 Y20.513 Z-3.000 F600.000
G2 X13.784 Y20.844 Z-3.000 I1.154 J0.241 K0.000 F600.000
G1 X13.799 Y20.847 Z-3.000 F600.000
G1 X14.187 Y20.895 Z-3.000 F600.000
G1 X13.805 Y20.513 Z-3.000 F600.000
G2 X13.860 Y20.186 Z-3.000 I-2.805 J-0.637 K0.000 F600.000
G3 X14.039 Y19.767 Z-3.000 I0.866 J0.123 K0.000 F600.000
G3 X14.076 Y19.770 Z-3.000 I0.015 J0.049 K0.000 F600.000
G1 X17.858 Y20.323 Z-3.000 F600.000
G1 X19.738 Y22.203 Z-3.000 F600.000
G2 X20.151 Y21.099 Z-3.000 I-8.640 J-3.862 K0.000 F600.000
G2 X20.178 Y20.693 Z-3.000 I-1.535 J-0.304 K0.000 F600.000
G2 X20.074 Y20.640 Z-3.000 I-0.127 J0.122 K0.000 F600.000
G3 X19.909 Y20.624 Z-3.000 I0.142 J-2.178 K0.000 F600.000
G1 X17.858 Y20.323 Z-3.000 F600.000
G0 Z5.000
G0 X19.684 Y23.385 Z5.000
G0 X19.684 Y23.385 Z3.000
G1 X19.684 Y23.385 Z-3.000 F600.000
G3 X18.510 Y24.557 Z-3.000 I-1.466 J-0.296 K0.000 F600.000
G3 X16.475 Y24.696 Z-3.000 I-2.174 J-16.806 K0.000 F600.000
G3 X11.550 Y24.696 Z-3.000 I-2.467 J-833.894 K0.000 F600.000
G3 X11.491 Y24.695 Z-3.000 I-0.000 J-1.500 K0.000 F600.000
G1 X5.665 Y24.466 Z-3.000 F600.000
G1 X5.632 Y24.466 Z-3.000 F600.000
G2 X5.638 Y26.095 Z-3.000 I8.830 J0.778 K0.000 F600.000
G2 X5.825 Y26.516 Z-3.000 I1.334 J-0.340 K0.000 F600.000
G2 X18.465 Y26.111 Z-3.000 I-1.747 J-252.086 K0.000 F600.000
G3 X21.096 Y25.826 Z-3.000 I6.426 J47.020 K0.000 F600.000
G3 X22.057 Y26.071 Z-3.000 I0.131 J1.494 K0.000 F600.000
G2 X28.804 Y30.347 Z-3.000 I85.006 J-126.676 K0.000 F600.000
G3 X28.981 Y30.456 Z-3.000 I-1.163 J2.074 K0.000 F600.000
G3 X29.480 Y30.986 Z-3.000 I-0.895 J1.343 K0.000 F600.000
G3 X29.832 Y30.158 Z-3.000 I1.470 J0.137 K0.000 F600.000
G2 X30.075 Y29.797 Z-3.000 I-0.921 J-0.883 K0.000 F600.000
G3 X30.195 Y29.470 Z-3.000 I7.194 J2.445 K0.000 F600.000
G2 X30.411 Y28.844 Z-3.000 I-1.788 J-0.968 K0.000 F600.000
G3 X27.642 Y27.670 Z-3.000 I36.885 J-90.873 K0.000 F600.000
G3 X27.206 Y27.395 Z-3.000 I0.902 J-1.916 K0.000 F600.000
G3 X27.673 Y24.749 Z-3.000 I0.896 J-1.206 K0.000 F600.000
G2 X32.739 Y23.014 Z-3.000 I-15.101 J-52.344 K0.000 F600.000
G1 X32.771 Y22.999 Z-3.000 F600.000
G2 X32.778 Y22.984 Z-3.000 I-0.006 J-0.013 K0.000 F600.000
G3 X32.697 Y22.797 Z-3.000 I2.401 J-1.157 K0.000 F600.000
G2 X32.372 Y22.101 Z-3.000 I-2.346 J0.672 K0.000 F600.000
G2 X31.664 Y21.408 Z-3.000 I-5.150 J4.554 K0.000 F600.000
G1 X31.643 Y21.417 Z-3.000 F600.000
G1 X29.324 Y22.410 Z-3.000 F600.000
G3 X29.118 Y22.487 Z-3.000 I-1.132 J-2.730 K0.000 F600.000
G1 X25.609 Y23.597 Z-3.000 F600.000
G3 X25.448 Y23.641 Z-3.000 I-0.918 J-3.012 K0.000 F600.000
G3 X22.796 Y24.250 Z-3.000 I-62.239 J-264.837 K0.000 F600.000
G1 X22.749 Y24.260 Z-3.000 F600.000
G3 X21.100 Y24.360 Z-3.000 I-1.551 J-11.930 K0.000 F600.000
G3 X19.684 Y23.385 Z-3.000 I-0.011 J-1.499 K0.000 F600.000
G0 Z5.000
G0 X18.159 Y29.272 Z5.000
G0 X18.159 Y29.272 Z3.000
G1 X18.159 Y29.272 Z-3.000 F600.000
G2 X17.810 Y29.359 Z-3.000 I0.190 J1.500 K0.000 F600.000
G2 X16.191 Y29.846 Z-3.000 I12.289 J43.814 K0.000 F600.000
G3 X15.959 Y29.899 Z-3.000 I-0.453 J-1.430 K0.000 F600.000
G1 X12.869 Y30.360 Z-3.000 F600.000
G3 X11.805 Y30.426 Z-3.000 I-1.054 J-8.423 K0.000 F600.000
G2 X11.804 Y30.428 Z-3.000 I0.008 J0.006 K0.000 F600.000
G2 X12.255 Y32.253 Z-3.000 I4.690 J-0.193 K0.000 F600.000
G3 X11.595 Y34.174 Z-3.000 I-1.374 J0.602 K0.000 F600.000
G3 X10.837 Y34.363 Z-3.000 I-0.795 J-1.574 K0.000 F600.000
G1 X7.890 Y34.413 Z-3.000 F600.000
G1 X7.869 Y34.414 Z-3.000 F600.000
G2 X7.607 Y36.311 Z-3.000 I7.780 J2.040 K0.000 F600.000
G3 X7.057 Y37.428 Z-3.000 I-1.579 J-0.083 K0.000 F600.000
G1 X5.446 Y38.973 Z-3.000 F600.000
G1 X5.415 Y39.001 Z-3.000 F600.000
G3 X4.125 Y39.977 Z-3.000 I-27.289 J-34.742 K0.000 F600.000
G2 X4.121 Y40.025 Z-3.000 I0.134 J0.036 K0.000 F600.000
G3 X4.189 Y40.272 Z-3.000 I-7.426 J2.188 K0.000 F600.000
G2 X4.583 Y41.752 Z-3.000 I7.302 J-1.152 K0.000 F600.000
G2 X4.712 Y41.792 Z-3.000 I0.081 J-0.034 K0.000 F600.000
G3 X4.829 Y41.695 Z-3.000 I3.637 J4.236 K0.000 F600.000
G2 X5.232 Y41.387 Z-3.000 I-4.038 J-5.705 K0.000 F600.000
G3 X7.668 Y42.342 Z-3.000 I0.950 J1.161 K0.000 F600.000
G3 X7.690 Y44.383 Z-3.000 I-18.173 J1.220 K0.000 F600.000
G1 X7.853 Y48.298 Z-3.000 F600.000
G2 X8.039 Y48.687 Z-3.000 I0.652 J-0.071 K0.000 F600.000
G2 X12.521 Y48.705 Z-3.000 I3.812 J-402.513 K0.000 F600.000
G2 X21.810 Y48.587 Z-3.000 I-0.655 J-416.996 K0.000 F600.000
G2 X22.383 Y48.519 Z-3.000 I0.061 J-1.947 K0.000 F600.000
G1 X22.383 Y48.475 Z-3.000 F600.000
G3 X22.416 Y47.948 Z-3.000 I6.814 J0.163 K0.000 F600.000
G1 X22.318 Y44.015 Z-3.000 F600.000
G3 X22.317 Y43.975 Z-3.000 I1.499 J-0.038 K0.000 F600.000
G2 X22.290 Y42.830 Z-3.000 I-8.093 J-0.381 K0.000 F600.000
G3 X22.280 Y41.636 Z-3.000 I26.952 J-0.817 K0.000 F600.000
G1 X22.511 Y34.433 Z-3.000 F600.000
G2 X22.483 Y34.370 Z-3.000 I-0.045 J-0.018 K0.000 F600.000
G2 X22.378 Y34.369 Z-3.000 I-0.056 J0.288 K0.000 F600.000
G2 X15.005 Y34.248 Z-3.000 I-10.890 J437.294 K0.000 F600.000
G3 X13.541 Y32.496 Z-3.000 I0.015 J-1.500 K0.000 F600.000
G3 X14.651 Y31.290 Z-3.000 I1.491 J0.258 K0.000 F600.000
G2 X17.768 Y30.539 Z-3.000 I-10.825 J-51.751 K0.000 F600.000
G2 X18.628 Y30.260 Z-3.000 I-1.830 J-7.109 K0.000 F600.000
G2 X18.159 Y29.272 Z-3.000 I-1.831 J0.263 K0.000 F600.000
G1 X15.836 Y31.029 Z-3.000 F600.000
G1 X14.869 Y30.062 Z-3.000 F600.000
G1 X15.959 Y29.899 Z-3.000 F600.000
G2 X16.191 Y29.846 Z-3.000 I-0.221 J-1.484 K0.000 F600.000
G3 X17.810 Y29.359 Z-3.000 I13.908 J43.327 K0.000 F600.000
G3 X18.159 Y29.272 Z-3.000 I0.539 J1.413 K0.000 F600.000
G3 X18.628 Y30.260 Z-3.000 I-1.363 J1.251 K0.000 F600.000
G3 X17.768 Y30.539 Z-3.000 I-2.690 J-6.830 K0.000 F600.000
G3 X15.836 Y31.029 Z-3.000 I-11.348 J-40.657 K0.000 F600.000
G3 X14.750 Y31.266 Z-3.000 I-8.960 J-38.537 K0.000 F600.000
G2 X14.601 Y31.305 Z-3.000 I0.310 J1.468 K0.000 F600.000
G2 X13.539 Y32.975 Z-3.000 I0.422 J1.441 K0.000 F600.000
G1 X11.944 Y31.380 Z-3.000 F600.000
G2 X12.255 Y32.253 Z-3.000 I4.573 J-1.138 K0.000 F600.000
G3 X11.469 Y34.235 Z-3.000 I-1.374 J0.602 K0.000 F600.000
G3 X10.687 Y34.366 Z-3.000 I-0.716 J-1.876 K0.000 F600.000
G1 X13.746 Y37.424 Z-3.000 F600.000
G3 X14.826 Y36.437 Z-3.000 I1.421 J0.471 K0.000 F600.000
G3 X15.525 Y36.355 Z-3.000 I0.885 J4.517 K0.000 F600.000
G3 X16.234 Y36.361 Z-3.000 I0.210 J16.644 K0.000 F600.000
G3 X17.763 Y37.822 Z-3.000 I0.023 J1.507 K0.000 F600.000
G3 X17.815 Y41.493 Z-3.000 I-93.937 J3.168 K0.000 F600.000
G1 X17.992 Y41.671 Z-3.000 F600.000
G1 X17.992 Y41.671 Z-3.000 F600.000
G3 X17.979 Y38.040 Z-3.000 I136.816 J-2.326 K0.000 F600.000
G3 X17.988 Y37.882 Z-3.000 I1.500 J0.008 K0.000 F600.000
G3 X19.362 Y36.477 Z-3.000 I1.501 J0.094 K0.000 F600.000
G3 X20.846 Y36.556 Z-3.000 I0.253 J9.271 K0.000 F600.000
G3 X22.152 Y37.796 Z-3.000 I-0.173 J1.490 K0.000 F600.000
G3 X22.212 Y40.221 Z-3.000 I-15.559 J1.596 K0.000 F600.000
G3 X22.138 Y44.145 Z-3.000 I-138.870 J-0.671 K0.000 F600.000
G3 X20.953 Y45.567 Z-3.000 I-1.499 J-0.044 K0.000 F600.000
G3 X19.581 Y45.672 Z-3.000 I-1.358 J-8.773 K0.000 F600.000
G3 X18.059 Y44.219 Z-3.000 I-0.023 J-1.500 K0.000 F600.000
G3 X17.992 Y41.671 Z-3.000 I136.749 J-4.874 K0.000 F600.000
G1 X17.815 Y41.670 Z-3.000 F600.000
G3 X17.764 Y44.324 Z-3.000 I-98.681 J-0.575 K0.000 F600.000
G3 X16.528 Y45.759 Z-3.000 I-1.499 J-0.041 K0.000 F600.000
G3 X15.465 Y45.822 Z-3.000 I-1.025 J-8.339 K0.000 F600.000
G3 X15.174 Y45.816 Z-3.000 I0.085 J-11.095 K0.000 F600.000
G3 X13.707 Y44.379 Z-3.000 I0.032 J-1.500 K0.000 F600.000
G3 X13.669 Y37.852 Z-3.000 I77.391 J-3.721 K0.000 F600.000
G3 X14.826 Y36.437 Z-3.000 I1.499 J0.045 K0.000 F600.000
G3 X15.525 Y36.355 Z-3.000 I0.885 J4.517 K0.000 F600.000
G3 X16.234 Y36.361 Z-3.000 I0.210 J16.644 K0.000 F600.000
G3 X17.763 Y37.822 Z-3.000 I0.023 J1.507 K0.000 F600.000
G3 X17.815 Y41.670 Z-3.000 I-98.629 J3.272 K0.000 F600.000
G0 Z5.000
G0 X17.372 Y45.293 Z5.000
G0 X17.372 Y45.293 Z3.000
G1 X17.372 Y45.293 Z-3.000 F600.000
G1 X20.689 Y48.610 Z-3.000 F600.000
G3 X21.982 Y48.585 Z-3.000 I2.213 J78.444 K0.000 F600.000
G2 X22.383 Y48.519 Z-3.000 I-0.072 J-1.701 K0.000 F600.000
G3 X22.405 Y48.108 Z-3.000 I3.154 J-0.037 K0.000 F600.000
G2 X22.416 Y47.948 Z-3.000 I-11.330 J-0.825 K0.000 F600.000
G1 X22.368 Y46.047 Z-3.000 F600.000
G1 X21.585 Y45.264 Z-3.000 F600.000
G2 X22.138 Y44.145 Z-3.000 I-0.946 J-1.163 K0.000 F600.000
G2 X22.197 Y41.633 Z-3.000 I-118.671 J-4.071 K0.000 F600.000
G1 X22.279 Y41.715 Z-3.000 F600.000
G0 Z5.000
G0 X25.625 Y42.795 Z5.000
G0 X25.625 Y42.795 Z3.000
G1 X25.625 Y42.795 Z-3.000 F600.000
G3 X25.679 Y42.649 Z-3.000 I1.749 J0.565 K0.000 F600.000
G2 X25.812 Y42.324 Z-3.000 I-2.242 J-1.108 K0.000 F600.000
G3 X25.815 Y42.318 Z-3.000 I0.016 J0.006 K0.000 F600.000
G2 X27.500 Y42.982 Z-3.000 I30.408 J-74.709 K0.000 F600.000
G2 X27.622 Y43.023 Z-3.000 I0.537 J-1.401 K0.000 F600.000
G3 X27.701 Y43.048 Z-3.000 I-0.014 J0.185 K0.000 F600.000
G3 X27.342 Y43.886 Z-3.000 I-1.692 J-0.229 K0.000 F600.000
G3 X25.553 Y43.105 Z-3.000 I1.483 J-5.837 K0.000 F600.000
G3 X25.625 Y42.795 Z-3.000 I1.820 J0.255 K0.000 F600.000
G1 X25.625 Y42.796 Z-3.000 F600.000
G2 X25.553 Y43.105 Z-3.000 I1.953 J0.616 K0.000 F600.000
G2 X27.342 Y43.886 Z-3.000 I3.271 J-5.056 K0.000 F600.000
G2 X27.704 Y43.050 Z-3.000 I-1.417 J-1.110 K0.000 F600.000
G2 X27.701 Y43.048 Z-3.000 I-0.013 J0.015 K0.000 F600.000
G2 X27.622 Y43.023 Z-3.000 I-0.094 J0.160 K0.000 F600.000
G3 X25.818 Y42.316 Z-3.000 I16.313 J-44.281 K0.000 F600.000
G2 X25.813 Y42.321 Z-3.000 I0.010 J0.014 K0.000 F600.000
G3 X25.754 Y42.482 Z-3.000 I-3.016 J-1.030 K0.000 F600.000
G2 X25.625 Y42.796 Z-3.000 I1.825 J0.930 K0.000 F600.000
G0 Z5.000
G0 X26.268 Y38.195 Z5.000
G0 X26.268 Y38.195 Z3.000
G1 X26.268 Y38.195 Z-3.000 F600.000
G1 X28.877 Y38.559 Z-3.000 F600.000
G3 X29.275 Y38.673 Z-3.000 I-0.208 J1.486 K0.000 F600.000
G3 X30.825 Y39.621 Z-3.000 I-5.857 J11.314 K0.000 F600.000
G3 X31.273 Y40.106 Z-3.000 I-0.852 J1.234 K0.000 F600.000
G3 X32.032 Y41.898 Z-3.000 I-14.960 J7.396 K0.000 F600.000
G3 X32.117 Y42.587 Z-3.000 I-1.406 J0.523 K0.000 F600.000
G3 X30.797 Y44.276 Z-3.000 I-2.136 J-0.309 K0.000 F600.000
G2 X30.981 Y45.344 Z-3.000 I2.261 J0.161 K0.000 F600.000
G2 X31.062 Y45.362 Z-3.000 I0.138 J-0.426 K0.000 F600.000
G2 X31.807 Y45.466 Z-3.000 I0.760 J-2.733 K0.000 F600.000
G2 X32.355 Y45.404 Z-3.000 I-0.010 J-2.585 K0.000 F600.000
G3 X32.834 Y45.315 Z-3.000 I0.642 J2.105 K0.000 F600.000
G2 X33.041 Y45.205 Z-3.000 I-0.050 J-0.345 K0.000 F600.000
G3 X33.270 Y44.919 Z-3.000 I1.883 J1.269 K0.000 F600.000
G2 X33.483 Y44.601 Z-3.000 I-0.472 J-0.548 K0.000 F600.000
G2 X33.631 Y42.774 Z-3.000 I-8.941 J-1.642 K0.000 F600.000
G1 X33.122 Y39.926 Z-3.000 F600.000
G2 X33.068 Y39.782 Z-3.000 I-0.449 J0.088 K0.000 F600.000
G3 X32.913 Y39.568 Z-3.000 I4.999 J-3.769 K0.000 F600.000
G2 X32.136 Y38.513 Z-3.000 I-4.674 J2.628 K0.000 F600.000
G2 X29.757 Y37.507 Z-3.000 I-24.164 J53.837 K0.000 F600.000
G2 X28.972 Y37.378 Z-3.000 I-0.866 J2.815 K0.000 F600.000
G2 X28.037 Y37.278 Z-3.000 I-2.681 J20.696 K0.000 F600.000
G3 X27.185 Y36.939 Z-3.000 I0.145 J-1.604 K0.000 F600.000
G3 X26.384 Y37.053 Z-3.000 I-0.724 J-2.220 K0.000 F600.000
G2 X26.274 Y37.276 Z-3.000 I0.844 J0.555 K0.000 F600.000
G2 X26.211 Y37.671 Z-3.000 I1.354 J0.420 K0.000 F600.000
G2 X26.182 Y38.182 Z-3.000 I1.737 J0.354 K0.000 F600.000
G1 X26.197 Y38.185 Z-3.000 F600.000
G1 X26.268 Y38.195 Z-3.000 F600.000
G1 X27.403 Y38.353 Z-3.000 F600.000
G1 X26.197 Y38.185 Z-3.000 F600.000
G1 X26.182 Y38.182 Z-3.000 F600.000
G3 X26.211 Y37.671 Z-3.000 I1.766 J-0.157 K0.000 F600.000
G3 X26.274 Y37.276 Z-3.000 I1.417 J0.025 K0.000 F600.000
G1 X26.288 Y37.239 Z-3.000 F600.000
G1 X27.403 Y38.353 Z-3.000 F600.000
G1 X28.877 Y38.559 Z-3.000 F600.000
G3 X29.399 Y38.734 Z-3.000 I-0.208 J1.486 K0.000 F600.000
G3 X30.931 Y39.701 Z-3.000 I-6.049 J11.282 K0.000 F600.000
G3 X31.334 Y40.225 Z-3.000 I-0.958 J1.154 K0.000 F600.000
G3 X32.075 Y42.032 Z-3.000 I-14.931 J7.175 K0.000 F600.000
G3 X32.025 Y42.975 Z-3.000 I-1.502 J0.394 K0.000 F600.000
G1 X33.508 Y44.459 Z-3.000 F600.000
G2 X33.631 Y42.774 Z-3.000 I-9.113 J-1.509 K0.000 F600.000
G1 X33.122 Y39.926 Z-3.000 F600.000
G2 X33.055 Y39.762 Z-3.000 I-0.432 J0.082 K0.000 F600.000
G3 X32.913 Y39.568 Z-3.000 I2.782 J-2.176 K0.000 F600.000
G2 X32.136 Y38.513 Z-3.000 I-4.674 J2.628 K0.000 F600.000
G2 X31.543 Y38.251 Z-3.000 I-7.213 J15.512 K0.000 F600.000
G1 X33.055 Y39.762 Z-3.000 F600.000
G0 Z5.000
G0 X32.025 Y42.975 Z5.000
G0 X32.025 Y42.975 Z3.000
G1 X32.025 Y42.975 Z-3.000 F600.000
G3 X30.797 Y44.276 Z-3.000 I-2.049 J-0.704 K0.000 F600.000
G2 X30.981 Y45.344 Z-3.000 I2.261 J0.161 K0.000 F600.000
G2 X31.055 Y45.360 Z-3.000 I0.125 J-0.386 K0.000 F600.000
G2 X32.355 Y45.404 Z-3.000 I0.738 J-2.576 K0.000 F600.000
G3 X32.834 Y45.315 Z-3.000 I0.642 J2.105 K0.000 F600.000
G2 X33.041 Y45.205 Z-3.000 I-0.050 J-0.345 K0.000 F600.000
G3 X33.270 Y44.919 Z-3.000 I1.883 J1.269 K0.000 F600.000
G2 X33.508 Y44.459 Z-3.000 I-0.432 J-0.516 K0.000 F600.000
G1 X32.025 Y42.975 Z-3.000 F600.000
G0 Z5.000
G0 X31.297 Y33.762 Z5.000
G0 X31.297 Y33.762 Z3.000
G1 X31.297 Y33.762 Z-3.000 F600.000
G3 X29.566 Y34.041 Z-3.000 I-10.009 J-56.573 K0.000 F600.000
G2 X27.754 Y34.327 Z-3.000 I1.504 J15.441 K0.000 F600.000
G3 X27.467 Y33.494 Z-3.000 I1.691 J-1.049 K0.000 F600.000
G3 X27.456 Y33.412 Z-3.000 I0.176 J-0.066 K0.000 F600.000
G3 X27.468 Y33.389 Z-3.000 I0.040 J0.007 K0.000 F600.000
G2 X28.694 Y33.132 Z-3.000 I-0.653 J-6.185 K0.000 F600.000
G2 X29.629 Y32.094 Z-3.000 I-0.514 J-1.401 K0.000 F600.000
G1 X31.297 Y33.762 Z-3.000 F600.000
G2 X32.857 Y33.467 Z-3.000 I-9.759 J-55.831 K0.000 F600.000
G1 X32.865 Y33.465 Z-3.000 F600.000
G2 X32.514 Y32.280 Z-3.000 I-2.605 J0.128 K0.000 F600.000
G2 X32.466 Y32.279 Z-3.000 I-0.026 J0.084 K0.000 F600.000
G3 X31.854 Y32.446 Z-3.000 I-2.909 J-9.468 K0.000 F600.000
G2 X31.377 Y32.579 Z-3.000 I11.249 J41.342 K0.000 F600.000
G3 X29.668 Y31.878 Z-3.000 I-0.406 J-1.443 K0.000 F600.000
G3 X29.629 Y32.094 Z-3.000 I-1.167 J-0.100 K0.000 F600.000
G2 X29.668 Y31.878 Z-3.000 I-1.128 J-0.316 K0.000 F600.000
G2 X31.377 Y32.579 Z-3.000 I1.303 J-0.742 K0.000 F600.000
G3 X32.363 Y32.310 Z-3.000 I13.267 J46.812 K0.000 F600.000
G3 X32.490 Y32.276 Z-3.000 I0.156 J0.330 K0.000 F600.000
G3 X32.517 Y32.281 Z-3.000 I-0.002 J0.084 K0.000 F600.000
G3 X32.865 Y33.465 Z-3.000 I-2.301 J1.319 K0.000 F600.000
G1 X32.857 Y33.467 Z-3.000 F600.000
G3 X29.566 Y34.041 Z-3.000 I-11.959 J-58.812 K0.000 F600.000
G2 X27.845 Y34.304 Z-3.000 I1.606 J16.258 K0.000 F600.000
G1 X27.845 Y34.304 Z-3.000 F600.000
G1 X27.754 Y34.327 Z-3.000 F600.000
G3 X27.467 Y33.494 Z-3.000 I1.691 J-1.049 K0.000 F600.000
G3 X27.456 Y33.412 Z-3.000 I0.176 J-0.066 K0.000 F600.000
G3 X27.468 Y33.389 Z-3.000 I0.040 J0.007 K0.000 F600.000
G2 X28.694 Y33.132 Z-3.000 I-0.653 J-6.185 K0.000 F600.000
G2 X29.629 Y32.094 Z-3.000 I-0.514 J-1.401 K0.000 F600.000
G0 Z5.000
G0 X22.409 Y37.602 Z5.000
G0 X22.409 Y37.602 Z3.000
G1 X22.409 Y37.602 Z-3.000 F600.000
G1 X19.107 Y34.300 Z-3.000 F600.000
G3 X22.354 Y34.369 Z-3.000 I-6.385 J380.988 K0.000 F600.000
G3 X22.483 Y34.370 Z-3.000 I-0.039 J8.517 K0.000 F600.000
G3 X22.511 Y34.433 Z-3.000 I-0.018 J0.045 K0.000 F600.000
G1 X22.409 Y37.602 Z-3.000 F600.000
G1 X22.280 Y41.636 Z-3.000 F600.000
G2 X22.279 Y41.715 Z-3.000 I2.301 J0.068 K0.000 F600.000
G1 X22.197 Y41.633 Z-3.000 F600.000
G2 X22.212 Y40.221 Z-3.000 I-99.821 J-1.755 K0.000 F600.000
G2 X22.169 Y37.933 Z-3.000 I-16.371 J-0.837 K0.000 F600.000
G2 X20.983 Y36.578 Z-3.000 I-1.496 J0.113 K0.000 F600.000
G2 X19.500 Y36.472 Z-3.000 I-1.400 J9.166 K0.000 F600.000
G2 X18.065 Y37.500 Z-3.000 I-0.014 J1.497 K0.000 F600.000
G1 X14.793 Y34.229 Z-3.000 F600.000
G0 Z5.000
G0 X12.801 Y36.758 Z5.000
G0 X12.801 Y36.758 Z3.000
G1 X12.801 Y36.758 Z-3.000 F600.000
G3 X13.372 Y37.917 Z-3.000 I-0.928 J1.178 K0.000 F600.000
G3 X13.299 Y44.298 Z-3.000 I-108.368 J1.944 K0.000 F600.000
G3 X11.743 Y45.743 Z-3.000 I-1.499 J-0.054 K0.000 F600.000
G3 X10.454 Y45.634 Z-3.000 I0.252 J-10.613 K0.000 F600.000
G3 X9.127 Y44.064 Z-3.000 I0.222 J-1.534 K0.000 F600.000
G1 X8.957 Y41.267 Z-3.000 F600.000
G3 X8.953 Y41.093 Z-3.000 I3.110 J-0.154 K0.000 F600.000
G3 X9.020 Y38.132 Z-3.000 I296.908 J5.231 K0.000 F600.000
G3 X10.359 Y36.442 Z-3.000 I1.532 J-0.162 K0.000 F600.000
G3 X11.947 Y36.438 Z-3.000 I0.822 J11.241 K0.000 F600.000
G3 X12.801 Y36.758 Z-3.000 I-0.074 J1.498 K0.000 F600.000
G0 Z5.000
G0 X10.687 Y34.366 Z5.000
G0 X10.687 Y34.366 Z3.000
G1 X10.687 Y34.366 Z-3.000 F600.000
G1 X13.746 Y37.424 Z-3.000 F600.000
G2 X13.669 Y37.852 Z-3.000 I1.381 J0.469 K0.000 F600.000
G2 X13.623 Y41.544 Z-3.000 I77.025 J2.798 K0.000 F600.000
G1 X13.379 Y41.300 Z-3.000 F600.000
G2 X13.372 Y37.917 Z-3.000 I-104.338 J-1.472 K0.000 F600.000
G2 X12.088 Y36.452 Z-3.000 I-1.500 J0.020 K0.000 F600.000
G2 X10.504 Y36.430 Z-3.000 I-0.956 J11.741 K0.000 F600.000
G2 X9.241 Y37.162 Z-3.000 I0.048 J1.538 K0.000 F600.000
G1 X7.656 Y35.577 Z-3.000 F600.000
G2 X7.607 Y36.311 Z-3.000 I6.592 J0.804 K0.000 F600.000
G3 X7.057 Y37.428 Z-3.000 I-1.579 J-0.083 K0.000 F600.000
G1 X6.142 Y38.305 Z-3.000 F600.000
G1 X8.953 Y41.117 Z-3.000 F600.000
G0 Z5.000
G0 X5.093 Y41.499 Z5.000
G0 X5.093 Y41.499 Z3.000
G1 X5.093 Y41.499 Z-3.000 F600.000
G2 X4.803 Y41.716 Z-3.000 I5.768 J8.027 K0.000 F600.000
G3 X4.705 Y41.796 Z-3.000 I-0.347 J-0.320 K0.000 F600.000
G3 X4.583 Y41.752 Z-3.000 I-0.041 J-0.078 K0.000 F600.000
G3 X4.265 Y40.671 Z-3.000 I6.584 J-2.527 K0.000 F600.000
G1 X5.093 Y41.499 Z-3.000 F600.000
G3 X5.472 Y41.227 Z-3.000 I1.716 J1.986 K0.000 F600.000
G3 X7.681 Y42.486 Z-3.000 I0.710 J1.321 K0.000 F600.000
G3 X7.700 Y44.106 Z-3.000 I-19.088 J1.031 K0.000 F600.000
G1 X12.298 Y48.705 Z-3.000 F600.000
G2 X16.515 Y48.678 Z-3.000 I-0.074 J-348.195 K0.000 F600.000
G1 X12.991 Y45.154 Z-3.000 F600.000
G2 X13.299 Y44.298 Z-3.000 I-1.177 J-0.907 K0.000 F600.000
G2 X13.379 Y41.300 Z-3.000 I-102.140 J-4.245 K0.000 F600.000
G1 X13.623 Y41.544 Z-3.000 F600.000
G2 X13.707 Y44.379 Z-3.000 I76.547 J-0.853 K0.000 F600.000
G2 X15.174 Y45.816 Z-3.000 I1.499 J-0.063 K0.000 F600.000
G2 X16.528 Y45.759 Z-3.000 I0.327 J-8.407 K0.000 F600.000
G2 X17.372 Y45.293 Z-3.000 I-0.260 J-1.467 K0.000 F600.000
G1 X20.689 Y48.610 Z-3.000 F600.000
G0 Z5.000
G0 X12.298 Y48.705 Z5.000
G0 X12.298 Y48.705 Z3.000
G1 X12.298 Y48.705 Z-3.000 F600.000
G1 X7.700 Y44.106 Z-3.000 F600.000
G1 X7.690 Y44.383 Z-3.000 F600.000
G1 X7.853 Y48.298 Z-3.000 F600.000
G2 X8.039 Y48.687 Z-3.000 I0.652 J-0.071 K0.000 F600.000
G0 Z5.000
G0 X7.068 Y26.503 Z5.000
G0 X7.068 Y26.503 Z3.000
G1 X7.068 Y26.503 Z-3.000 F600.000
G1 X5.825 Y26.516 Z-3.000 F600.000
G3 X5.638 Y26.095 Z-3.000 I1.147 J-0.761 K0.000 F600.000
G3 X5.600 Y25.036 Z-3.000 I8.732 J-0.846 K0.000 F600.000
G1 X7.068 Y26.503 Z-3.000 F600.000
G2 X11.227 Y26.420 Z-3.000 I-2.616 J-235.422 K0.000 F600.000
G1 X9.421 Y24.614 Z-3.000 F600.000
G2 X11.506 Y24.696 Z-3.000 I9.382 J-211.903 K0.000 F600.000
G2 X11.550 Y24.696 Z-3.000 I0.044 J-1.499 K0.000 F600.000
G1 X13.746 Y24.696 Z-3.000 F600.000
G1 X15.320 Y26.270 Z-3.000 F600.000
G2 X18.465 Y26.111 Z-3.000 I-9.382 J-217.044 K0.000 F600.000
G3 X19.298 Y26.006 Z-3.000 I4.191 J29.779 K0.000 F600.000
G1 X17.917 Y24.624 Z-3.000 F600.000
G2 X18.510 Y24.557 Z-3.000 I-1.637 J-16.986 K0.000 F600.000
G2 X19.684 Y23.385 Z-3.000 I-0.293 J-1.467 K0.000 F600.000
G2 X21.100 Y24.360 Z-3.000 I1.404 J-0.524 K0.000 F600.000
G2 X21.876 Y24.342 Z-3.000 I0.076 J-12.938 K0.000 F600.000
G1 X26.438 Y28.903 Z-3.000 F600.000
G2 X28.815 Y30.353 Z-3.000 I75.256 J-120.692 K0.000 F600.000
G3 X29.271 Y30.699 Z-3.000 I-1.024 J1.822 K0.000 F600.000
G3 X29.480 Y30.986 Z-3.000 I-0.906 J0.880 K0.000 F600.000
G3 X29.832 Y30.158 Z-3.000 I1.477 J0.140 K0.000 F600.000
G2 X30.144 Y29.604 Z-3.000 I-0.911 J-0.877 K0.000 F600.000
G3 X30.279 Y29.290 Z-3.000 I2.135 J0.737 K0.000 F600.000
G2 X30.411 Y28.844 Z-3.000 I-1.625 J-0.721 K0.000 F600.000
G1 X30.406 Y28.841 Z-3.000 F600.000
G3 X27.583 Y27.643 Z-3.000 I34.747 J-85.758 K0.000 F600.000
G3 X26.929 Y27.126 Z-3.000 I1.016 J-1.957 K0.000 F600.000
G3 X26.973 Y25.196 Z-3.000 I1.169 J-0.939 K0.000 F600.000
G1 X25.424 Y23.647 Z-3.000 F600.000
G2 X25.609 Y23.597 Z-3.000 I-0.671 J-2.849 K0.000 F600.000
G1 X28.654 Y22.634 Z-3.000 F600.000
G1 X30.030 Y24.010 Z-3.000 F600.000
G2 X32.772 Y22.999 Z-3.000 I-15.725 J-46.864 K0.000 F600.000
G2 X32.777 Y22.981 Z-3.000 I-0.008 J-0.012 K0.000 F600.000
G3 X32.630 Y22.600 Z-3.000 I2.053 J-1.014 K0.000 F600.000
G2 X32.388 Y22.126 Z-3.000 I-2.062 J0.751 K0.000 F600.000
G2 X31.711 Y21.448 Z-3.000 I-4.690 J4.012 K0.000 F600.000
G1 X32.388 Y22.126 Z-3.000 F600.000
G0 Z5.000
G0 Z5.000
G0 X32.388 Y22.126
G0 X27.554 Y47.879
G0 X27.554 Y47.879 Z3.000
G1 X27.554 Y47.879 Z-3.000 F600.000
G2 X27.165 Y48.702 Z-3.000 I0.882 J0.921 K0.000 F600.000
G1 X27.166 Y48.703 Z-3.000 F600.000
G2 X30.978 Y50.067 Z-3.000 I8.652 J-18.169 K0.000 F600.000
G2 X30.986 Y50.061 Z-3.000 I-0.030 J-0.045 K0.000 F600.000
G2 X31.046 Y49.955 Z-3.000 I-0.254 J-0.212 K0.000 F600.000
G2 X31.322 Y48.943 Z-3.000 I-1.385 J-0.922 K0.000 F600.000
G2 X29.459 Y48.516 Z-3.000 I-6.944 J26.076 K0.000 F600.000
G3 X29.270 Y48.466 Z-3.000 I0.297 J-1.470 K0.000 F600.000
G1 X27.561 Y47.882 Z-3.000 F600.000
G1 X27.554 Y47.879 Z-3.000 F600.000
G2 X27.165 Y48.702 Z-3.000 I0.882 J0.921 K0.000 F600.000
G2 X27.172 Y48.710 Z-3.000 I0.028 J-0.018 K0.000 F600.000
G2 X30.978 Y50.067 Z-3.000 I8.802 J-18.667 K0.000 F600.000
G2 X30.986 Y50.061 Z-3.000 I-0.030 J-0.045 K0.000 F600.000
G2 X31.046 Y49.955 Z-3.000 I-0.254 J-0.212 K0.000 F600.000
G2 X31.322 Y48.943 Z-3.000 I-1.385 J-0.922 K0.000 F600.000
G2 X29.459 Y48.516 Z-3.000 I-6.944 J26.076 K0.000 F600.000
G3 X29.270 Y48.466 Z-3.000 I0.297 J-1.470 K0.000 F600.000
G1 X27.561 Y47.882 Z-3.000 F600.000
G1 X27.554 Y47.879 Z-3.000 F600.000
G0 Z5.000
G0 Z5.000
(Finish operation: Pocket_Shape005)
(Begin operation: Pocket_Shape006)
(Path: Pocket_Shape006)
(Pocket_Shape006)
G0 Z5.000
G0 X0.000 Y0.000
G0 X-26.205 Y22.582
G0 X-26.205 Y22.582 Z3.000
G1 X-26.205 Y22.582 Z-3.000 F600.000
G3 X-26.484 Y22.713 Z-3.000 I-3.238 J-6.526 K0.000 F600.000
G2 X-27.587 Y23.322 Z-3.000 I1.007 J3.128 K0.000 F600.000
G1 X-27.577 Y23.349 Z-3.000 F600.000
G1 X-26.422 Y26.176 Z-3.000 F600.000
G2 X-25.728 Y27.301 Z-3.000 I7.513 J-3.855 K0.000 F600.000
G2 X-24.182 Y26.366 Z-3.000 I-2.301 J-5.553 K0.000 F600.000
G3 X-24.233 Y26.291 Z-3.000 I2.839 J-1.967 K0.000 F600.000
G3 X-24.979 Y24.883 Z-3.000 I35.024 J-19.468 K0.000 F600.000
G1 X-25.968 Y22.546 Z-3.000 F600.000
G1 X-25.978 Y22.525 Z-3.000 F600.000
G2 X-26.205 Y22.582 Z-3.000 I0.096 J0.864 K0.000 F600.000
G3 X-25.978 Y22.525 Z-3.000 I0.324 J0.812 K0.000 F600.000
G1 X-25.968 Y22.546 Z-3.000 F600.000
G1 X-25.768 Y23.018 Z-3.000 F600.000
G1 X-26.205 Y22.582 Z-3.000 F600.000
G3 X-26.484 Y22.713 Z-3.000 I-3.238 J-6.526 K0.000 F600.000
G2 X-27.587 Y23.322 Z-3.000 I1.007 J3.128 K0.000 F600.000
G1 X-27.577 Y23.349 Z-3.000 F600.000
G1 X-26.422 Y26.176 Z-3.000 F600.000
G2 X-25.728 Y27.301 Z-3.000 I7.513 J-3.855 K0.000 F600.000
G0 Z5.000
G0 Z5.000
G0 X-25.728 Y27.301
G0 X-32.869 Y29.737
G0 X-32.869 Y29.737 Z3.000
G1 X-32.869 Y29.737 Z-3.000 F600.000
G1 X-32.882 Y29.718 Z-3.000 F600.000
G1 X-33.605 Y28.439 Z-3.000 F600.000
G1 X-33.650 Y28.345 Z-3.000 F600.000
G1 X-34.619 Y25.888 Z-3.000 F600.000
G1 X-34.625 Y25.869 Z-3.000 F600.000
G3 X-33.293 Y25.071 Z-3.000 I3.306 J4.007 K0.000 F600.000
G1 X-32.944 Y25.420 Z-3.000 F600.000
G2 X-33.141 Y25.010 Z-3.000 I-22.783 J10.722 K0.000 F600.000
G2 X-33.293 Y25.071 Z-3.000 I0.624 J1.791 K0.000 F600.000
G3 X-33.141 Y25.010 Z-3.000 I0.776 J1.731 K0.000 F600.000
G3 X-32.633 Y26.093 Z-3.000 I-36.109 J17.627 K0.000 F600.000
