(Exported by FreeCAD)
(Post Processor: script_module)
(Output Time:2025-09-25 19:32:47.019742)
(Begin preamble)
G17 G90
G21
(Begin operation: Fixture)
(Path: Fixture)
G54
(Finish operation: Fixture)
(Begin operation: 3mm_Endmill001)
(Path: 3mm_Endmill001)
(3mm_Endmill001)
(Begin toolchange)
( M6 T2 )
M3 S15000
(Finish operation: 3mm_Endmill001)
(Begin operation: Pocket_Shape)
(Path: Pocket_Shape)
(Pocket_Shape)
G0 Z5.000
G0 X0.000 Y0.000
G0 Y0.500
G0 Y0.500 Z3.000
G1 X0.000 Y0.500 Z-3.000 F900.000
G1 X-0.500 Y0.500 Z-3.000 F900.000
G1 X-0.500 Y-0.500 Z-3.000 F900.000
G1 X0.500 Y-0.500 Z-3.000 F900.000
G1 X0.500 Y0.500 Z-3.000 F900.000
G1 X0.000 Y0.500 Z-3.000 F900.000
G1 X0.000 Y3.500 Z-3.000 F900.000
G1 X-3.500 Y3.500 Z-3.000 F900.000
G1 X-3.500 Y-3.500 Z-3.000 F900.000
G1 X3.500 Y-3.500 Z-3.000 F900.000
G1 X3.500 Y3.500 Z-3.000 F900.000
G1 X0.000 Y3.500 Z-3.000 F900.000
G1 X0.000 Y6.500 Z-3.000 F900.000
G1 X-6.500 Y6.500 Z-3.000 F900.000
G1 X-6.500 Y-6.500 Z-3.000 F900.000
G1 X6.500 Y-6.500 Z-3.000 F900.000
G1 X6.500 Y6.500 Z-3.000 F900.000
G1 X0.000 Y6.500 Z-3.000 F900.000
G1 X0.000 Y6.500 Z-6.000 F900.000
G1 X-6.500 Y6.500 Z-6.000 F900.000
G1 X-6.500 Y-6.500 Z-6.000 F900.000
G1 X6.500 Y-6.500 Z-6.000 F900.000
G1 X6.500 Y6.500 Z-6.000 F900.000
G1 X0.000 Y6.500 Z-6.000 F900.000
G1 X0.000 Y3.500 Z-6.000 F900.000
G1 X-3.500 Y3.500 Z-6.000 F900.000
G1 X-3.500 Y-3.500 Z-6.000 F900.000
G1 X3.500 Y-3.500 Z-6.000 F900.000
G1 X3.500 Y3.500 Z-6.000 F900.000
G1 X0.000 Y3.500 Z-6.000 F900.000
G1 X0.000 Y0.500 Z-6.000 F900.000
G1 X-0.500 Y0.500 Z-6.000 F900.000
G1 X-0.500 Y-0.500 Z-6.000 F900.000
G1 X0.500 Y-0.500 Z-6.000 F900.000
G1 X0.500 Y0.500 Z-6.000 F900.000
G1 X0.000 Y0.500 Z-6.000 F900.000
G1 X0.000 Y0.500 Z-9.000 F900.000
G1 X-0.500 Y0.500 Z-9.000 F900.000
G1 X-0.500 Y-0.500 Z-9.000 F900.000
G1 X0.500 Y-0.500 Z-9.000 F900.000
G1 X0.500 Y0.500 Z-9.000 F900.000
G1 X0.000 Y0.500 Z-9.000 F900.000
G1 X0.000 Y3.500 Z-9.000 F900.000
G1 X-3.500 Y3.500 Z-9.000 F900.000
G1 X-3.500 Y-3.500 Z-9.000 F900.000
G1 X3.500 Y-3.500 Z-9.000 F900.000
G1 X3.500 Y3.500 Z-9.000 F900.000
G1 X0.000 Y3.500 Z-9.000 F900.000
G1 X0.000 Y6.500 Z-9.000 F900.000
G1 X-6.500 Y6.500 Z-9.000 F900.000
G1 X-6.500 Y-6.500 Z-9.000 F900.000
G1 X6.500 Y-6.500 Z-9.000 F900.000
G1 X6.500 Y6.500 Z-9.000 F900.000
G1 X0.000 Y6.500 Z-9.000 F900.000
G1 X0.000 Y6.500 Z-12.000 F900.000
G1 X-6.500 Y6.500 Z-12.000 F900.000
G1 X-6.500 Y-6.500 Z-12.000 F900.000
G1 X6.500 Y-6.500 Z-12.000 F900.000
G1 X6.500 Y6.500 Z-12.000 F900.000
G1 X0.000 Y6.500 Z-12.000 F900.000
G1 X0.000 Y3.500 Z-12.000 F900.000
G1 X-3.500 Y3.500 Z-12.000 F900.000
G1 X-3.500 Y-3.500 Z-12.000 F900.000
G1 X3.500 Y-3.500 Z-12.000 F900.000
G1 X3.500 Y3.500 Z-12.000 F900.000
G1 X0.000 Y3.500 Z-12.000 F900.000
G1 X0.000 Y0.500 Z-12.000 F900.000
G1 X-0.500 Y0.500 Z-12.000 F900.000
G1 X-0.500 Y-0.500 Z-12.000 F900.000
G1 X0.500 Y-0.500 Z-12.000 F900.000
G1 X0.500 Y0.500 Z-12.000 F900.000
G1 X0.000 Y0.500 Z-12.000 F900.000
G1 X0.000 Y0.500 Z-15.000 F900.000
G1 X-0.500 Y0.500 Z-15.000 F900.000
G1 X-0.500 Y-0.500 Z-15.000 F900.000
G1 X0.500 Y-0.500 Z-15.000 F900.000
G1 X0.500 Y0.500 Z-15.000 F900.000
G1 X0.000 Y0.500 Z-15.000 F900.000
G1 X0.000 Y3.500 Z-15.000 F900.000
G1 X-3.500 Y3.500 Z-15.000 F900.000
G1 X-3.500 Y-3.500 Z-15.000 F900.000
G1 X3.500 Y-3.500 Z-15.000 F900.000
G1 X3.500 Y3.500 Z-15.000 F900.000
G1 X0.000 Y3.500 Z-15.000 F900.000
G1 X0.000 Y6.500 Z-15.000 F900.000
G1 X-6.500 Y6.500 Z-15.000 F900.000
G1 X-6.500 Y-6.500 Z-15.000 F900.000
G1 X6.500 Y-6.500 Z-15.000 F900.000
G1 X6.500 Y6.500 Z-15.000 F900.000
G1 X0.000 Y6.500 Z-15.000 F900.000
G1 X0.000 Y6.500 Z-18.000 F900.000
G1 X-6.500 Y6.500 Z-18.000 F900.000
G1 X-6.500 Y-6.500 Z-18.000 F900.000
G1 X6.500 Y-6.500 Z-18.000 F900.000
G1 X6.500 Y6.500 Z-18.000 F900.000
G1 X0.000 Y6.500 Z-18.000 F900.000
G1 X0.000 Y3.500 Z-18.000 F900.000
G1 X-3.500 Y3.500 Z-18.000 F900.000
G1 X-3.500 Y-3.500 Z-18.000 F900.000
G1 X3.500 Y-3.500 Z-18.000 F900.000
G1 X3.500 Y3.500 Z-18.000 F900.000
G1 X0.000 Y3.500 Z-18.000 F900.000
G1 X0.000 Y0.500 Z-18.000 F900.000
G1 X-0.500 Y0.500 Z-18.000 F900.000
G1 X-0.500 Y-0.500 Z-18.000 F900.000
G1 X0.500 Y-0.500 Z-18.000 F900.000
G1 X0.500 Y0.500 Z-18.000 F900.000
G1 X0.000 Y0.500 Z-18.000 F900.000
G1 X0.000 Y0.500 Z-20.000 F900.000
G1 X-0.500 Y0.500 Z-20.000 F900.000
G1 X-0.500 Y-0.500 Z-20.000 F900.000
G1 X0.500 Y-0.500 Z-20.000 F900.000
G1 X0.500 Y0.500 Z-20.000 F900.000
G1 X0.000 Y0.500 Z-20.000 F900.000
G1 X0.000 Y3.500 Z-20.000 F900.000
G1 X-3.500 Y3.500 Z-20.000 F900.000
G1 X-3.500 Y-3.500 Z-20.000 F900.000
G1 X3.500 Y-3.500 Z-20.000 F900.000
G1 X3.500 Y3.500 Z-20.000 F900.000
G1 X0.000 Y3.500 Z-20.000 F900.000
G1 X0.000 Y6.500 Z-20.000 F900.000
G1 X-6.500 Y6.500 Z-20.000 F900.000
G1 X-6.500 Y-6.500 Z-20.000 F900.000
G1 X6.500 Y-6.500 Z-20.000 F900.000
G1 X6.500 Y6.500 Z-20.000 F900.000
G1 X0.000 Y6.500 Z-20.000 F900.000
G0 Z5.000
G0 Y9.500 Z5.000
G0 Y9.500 Z3.000
G1 X0.000 Y9.500 Z-3.000 F900.000
G1 X-9.500 Y9.500 Z-3.000 F900.000
G1 X-9.500 Y-9.500 Z-3.000 F900.000
G1 X9.500 Y-9.500 Z-3.000 F900.000
G1 X9.500 Y9.500 Z-3.000 F900.000
G1 X0.000 Y9.500 Z-3.000 F900.000
G1 X0.000 Y12.500 Z-3.000 F900.000
G1 X-12.500 Y12.500 Z-3.000 F900.000
G1 X-12.500 Y-12.500 Z-3.000 F900.000
G1 X12.500 Y-12.500 Z-3.000 F900.000
G1 X12.500 Y12.500 Z-3.000 F900.000
G1 X0.000 Y12.500 Z-3.000 F900.000
G1 X0.000 Y15.500 Z-3.000 F900.000
G1 X-15.500 Y15.500 Z-3.000 F900.000
G1 X-15.500 Y-15.500 Z-3.000 F900.000
G1 X15.500 Y-15.500 Z-3.000 F900.000
G1 X15.500 Y15.500 Z-3.000 F900.000
G1 X0.000 Y15.500 Z-3.000 F900.000
G1 X0.000 Y18.500 Z-3.000 F900.000
G1 X-18.500 Y18.500 Z-3.000 F900.000
G1 X-18.500 Y-18.500 Z-3.000 F900.000
G1 X18.500 Y-18.500 Z-3.000 F900.000
G1 X18.500 Y18.500 Z-3.000 F900.000
G1 X0.000 Y18.500 Z-3.000 F900.000
G1 X0.000 Y21.500 Z-3.000 F900.000
G1 X-21.500 Y21.500 Z-3.000 F900.000
G1 X-21.500 Y-21.500 Z-3.000 F900.000
G1 X21.500 Y-21.500 Z-3.000 F900.000
G1 X21.500 Y21.500 Z-3.000 F900.000
G1 X0.000 Y21.500 Z-3.000 F900.000
G1 X0.000 Y24.500 Z-3.000 F900.000
G1 X-24.500 Y24.500 Z-3.000 F900.000
G1 X-24.500 Y-24.500 Z-3.000 F900.000
G1 X24.500 Y-24.500 Z-3.000 F900.000
G1 X24.500 Y24.500 Z-3.000 F900.000
G1 X0.000 Y24.500 Z-3.000 F900.000
G1 X0.000 Y27.500 Z-3.000 F900.000
G1 X-27.500 Y27.500 Z-3.000 F900.000
G1 X-27.500 Y-27.500 Z-3.000 F900.000
G1 X27.500 Y-27.500 Z-3.000 F900.000
G1 X27.500 Y27.500 Z-3.000 F900.000
G1 X0.000 Y27.500 Z-3.000 F900.000
G1 X0.000 Y30.500 Z-3.000 F900.000
G1 X-30.500 Y30.500 Z-3.000 F900.000
G1 X-30.500 Y-30.500 Z-3.000 F900.000
G1 X30.500 Y-30.500 Z-3.000 F900.000
G1 X30.500 Y30.500 Z-3.000 F900.000
G1 X0.000 Y30.500 Z-3.000 F900.000
G1 X0.000 Y33.500 Z-3.000 F900.000
G1 X-33.500 Y33.500 Z-3.000 F900.000
G1 X-33.500 Y-33.500 Z-3.000 F900.000
G1 X33.500 Y-33.500 Z-3.000 F900.000
G1 X33.500 Y33.500 Z-3.000 F900.000
G1 X0.000 Y33.500 Z-3.000 F900.000
G1 X0.000 Y36.500 Z-3.000 F900.000
G1 X-36.500 Y36.500 Z-3.000 F900.000
G1 X-36.500 Y-36.500 Z-3.000 F900.000
G1 X36.500 Y-36.500 Z-3.000 F900.000
G1 X36.500 Y36.500 Z-3.000 F900.000
G1 X0.000 Y36.500 Z-3.000 F900.000
G1 X0.000 Y39.500 Z-3.000 F900.000
G1 X-39.500 Y39.500 Z-3.000 F900.000
G1 X-39.500 Y-39.500 Z-3.000 F900.000
G1 X39.500 Y-39.500 Z-3.000 F900.000
G1 X39.500 Y39.500 Z-3.000 F900.000
G1 X0.000 Y39.500 Z-3.000 F900.000
G1 X0.000 Y42.500 Z-3.000 F900.000
G1 X-42.500 Y42.500 Z-3.000 F900.000
G1 X-42.500 Y-42.500 Z-3.000 F900.000
G1 X42.500 Y-42.500 Z-3.000 F900.000
G1 X42.500 Y42.500 Z-3.000 F900.000
G1 X0.000 Y42.500 Z-3.000 F900.000
G1 X0.000 Y45.500 Z-3.000 F900.000
G1 X-45.500 Y45.500 Z-3.000 F900.000
G1 X-45.500 Y-45.500 Z-3.000 F900.000
G1 X45.500 Y-45.500 Z-3.000 F900.000
G1 X45.500 Y45.500 Z-3.000 F900.000
G1 X0.000 Y45.500 Z-3.000 F900.000
G1 X0.000 Y48.500 Z-3.000 F900.000
G1 X-48.500 Y48.500 Z-3.000 F900.000
G1 X-48.500 Y-48.500 Z-3.000 F900.000
G1 X48.500 Y-48.500 Z-3.000 F900.000
G1 X48.500 Y48.500 Z-3.000 F900.000
G1 X0.000 Y48.500 Z-3.000 F900.000
G1 X0.000 Y48.500 Z-6.000 F900.000
G1 X-48.500 Y48.500 Z-6.000 F900.000
G1 X-48.500 Y-48.500 Z-6.000 F900.000
G1 X48.500 Y-48.500 Z-6.000 F900.000
G1 X48.500 Y48.500 Z-6.000 F900.000
G1 X0.000 Y48.500 Z-6.000 F900.000
G1 X0.000 Y45.500 Z-6.000 F900.000
G1 X-45.500 Y45.500 Z-6.000 F900.000
G1 X-45.500 Y-45.500 Z-6.000 F900.000
G1 X45.500 Y-45.500 Z-6.000 F900.000
G1 X45.500 Y45.500 Z-6.000 F900.000
G1 X0.000 Y45.500 Z-6.000 F900.000
G1 X0.000 Y42.500 Z-6.000 F900.000
G1 X-42.500 Y42.500 Z-6.000 F900.000
G1 X-42.500 Y-42.500 Z-6.000 F900.000
G1 X42.500 Y-42.500 Z-6.000 F900.000
G1 X42.500 Y42.500 Z-6.000 F900.000
G1 X0.000 Y42.500 Z-6.000 F900.000
G1 X0.000 Y39.500 Z-6.000 F900.000
G1 X-39.500 Y39.500 Z-6.000 F900.000
G1 X-39.500 Y-39.500 Z-6.000 F900.000
G1 X39.500 Y-39.500 Z-6.000 F900.000
G1 X39.500 Y39.500 Z-6.000 F900.000
G1 X0.000 Y39.500 Z-6.000 F900.000
G1 X0.000 Y36.500 Z-6.000 F900.000
G1 X-36.500 Y36.500 Z-6.000 F900.000
G1 X-36.500 Y-36.500 Z-6.000 F900.000
G1 X36.500 Y-36.500 Z-6.000 F900.000
G1 X36.500 Y36.500 Z-6.000 F900.000
G1 X0.000 Y36.500 Z-6.000 F900.000
G1 X0.000 Y33.500 Z-6.000 F900.000
G1 X-33.500 Y33.500 Z-6.000 F900.000
G1 X-33.500 Y-33.500 Z-6.000 F900.000
G1 X33.500 Y-33.500 Z-6.000 F900.000
G1 X33.500 Y33.500 Z-6.000 F900.000
G1 X0.000 Y33.500 Z-6.000 F900.000
G1 X0.000 Y30.500 Z-6.000 F900.000
G1 X-30.500 Y30.500 Z-6.000 F900.000
G1 X-30.500 Y-30.500 Z-6.000 F900.000
G1 X30.500 Y-30.500 Z-6.000 F900.000
G1 X30.500 Y30.500 Z-6.000 F900.000
G1 X0.000 Y30.500 Z-6.000 F900.000
G1 X0.000 Y27.500 Z-6.000 F900.000
G1 X-27.500 Y27.500 Z-6.000 F900.000
G1 X-27.500 Y-27.500 Z-6.000 F900.000
G1 X27.500 Y-27.500 Z-6.000 F900.000
G1 X27.500 Y27.500 Z-6.000 F900.000
G1 X0.000 Y27.500 Z-6.000 F900.000
G1 X0.000 Y24.500 Z-6.000 F900.000
G1 X-24.500 Y24.500 Z-6.000 F900.000
G1 X-24.500 Y-24.500 Z-6.000 F900.000
G1 X24.500 Y-24.500 Z-6.000 F900.000
G1 X24.500 Y24.500 Z-6.000 F900.000
G1 X0.000 Y24.500 Z-6.000 F900.000
G1 X0.000 Y21.500 Z-6.000 F900.000
G1 X-21.500 Y21.500 Z-6.000 F900.000
G1 X-21.500 Y-21.500 Z-6.000 F900.000
G1 X21.500 Y-21.500 Z-6.000 F900.000
G1 X21.500 Y21.500 Z-6.000 F900.000
G1 X0.000 Y21.500 Z-6.000 F900.000
G1 X0.000 Y18.500 Z-6.000 F900.000
G1 X-18.500 Y18.500 Z-6.000 F900.000
G1 X-18.500 Y-18.500 Z-6.000 F900.000
G1 X18.500 Y-18.500 Z-6.000 F900.000
G1 X18.500 Y18.500 Z-6.000 F900.000
G1 X0.000 Y18.500 Z-6.000 F900.000
G1 X0.000 Y15.500 Z-6.000 F900.000
G1 X-15.500 Y15.500 Z-6.000 F900.000
G1 X-15.500 Y-15.500 Z-6.000 F900.000
G1 X15.500 Y-15.500 Z-6.000 F900.000
G1 X15.500 Y15.500 Z-6.000 F900.000
G1 X0.000 Y15.500 Z-6.000 F900.000
G1 X0.000 Y12.500 Z-6.000 F900.000
G1 X-12.500 Y12.500 Z-6.000 F900.000
G1 X-12.500 Y-12.500 Z-6.000 F900.000
G1 X12.500 Y-12.500 Z-6.000 F900.000
G1 X12.500 Y12.500 Z-6.000 F900.000
G1 X0.000 Y12.500 Z-6.000 F900.000
G1 X0.000 Y9.500 Z-6.000 F900.000
G1 X-9.500 Y9.500 Z-6.000 F900.000
G1 X-9.500 Y-9.500 Z-6.000 F900.000
G1 X9.500 Y-9.500 Z-6.000 F900.000
G1 X9.500 Y9.500 Z-6.000 F900.000
G1 X0.000 Y9.500 Z-6.000 F900.000
G1 X0.000 Y9.500 Z-9.000 F900.000
G1 X-9.500 Y9.500 Z-9.000 F900.000
G1 X-9.500 Y-9.500 Z-9.000 F900.000
G1 X9.500 Y-9.500 Z-9.000 F900.000
G1 X9.500 Y9.500 Z-9.000 F900.000
G1 X0.000 Y9.500 Z-9.000 F900.000
G1 X0.000 Y12.500 Z-9.000 F900.000
G1 X-12.500 Y12.500 Z-9.000 F900.000
G1 X-12.500 Y-12.500 Z-9.000 F900.000
G1 X12.500 Y-12.500 Z-9.000 F900.000
G1 X12.500 Y12.500 Z-9.000 F900.000
G1 X0.000 Y12.500 Z-9.000 F900.000
G1 X0.000 Y15.500 Z-9.000 F900.000
G1 X-15.500 Y15.500 Z-9.000 F900.000
G1 X-15.500 Y-15.500 Z-9.000 F900.000
G1 X15.500 Y-15.500 Z-9.000 F900.000
G1 X15.500 Y15.500 Z-9.000 F900.000
G1 X0.000 Y15.500 Z-9.000 F900.000
G1 X0.000 Y18.500 Z-9.000 F900.000
G1 X-18.500 Y18.500 Z-9.000 F900.000
G1 X-18.500 Y-18.500 Z-9.000 F900.000
G1 X18.500 Y-18.500 Z-9.000 F900.000
G1 X18.500 Y18.500 Z-9.000 F900.000
G1 X0.000 Y18.500 Z-9.000 F900.000
G1 X0.000 Y21.500 Z-9.000 F900.000
G1 X-21.500 Y21.500 Z-9.000 F900.000
G1 X-21.500 Y-21.500 Z-9.000 F900.000
G1 X21.500 Y-21.500 Z-9.000 F900.000
G1 X21.500 Y21.500 Z-9.000 F900.000
G1 X0.000 Y21.500 Z-9.000 F900.000
G1 X0.000 Y24.500 Z-9.000 F900.000
G1 X-24.500 Y24.500 Z-9.000 F900.000
G1 X-24.500 Y-24.500 Z-9.000 F900.000
G1 X24.500 Y-24.500 Z-9.000 F900.000
G1 X24.500 Y24.500 Z-9.000 F900.000
G1 X0.000 Y24.500 Z-9.000 F900.000
G1 X0.000 Y27.500 Z-9.000 F900.000
G1 X-27.500 Y27.500 Z-9.000 F900.000
G1 X-27.500 Y-27.500 Z-9.000 F900.000
G1 X27.500 Y-27.500 Z-9.000 F900.000
G1 X27.500 Y27.500 Z-9.000 F900.000
G1 X0.000 Y27.500 Z-9.000 F900.000
G1 X0.000 Y30.500 Z-9.000 F900.000
G1 X-30.500 Y30.500 Z-9.000 F900.000
G1 X-30.500 Y-30.500 Z-9.000 F900.000
G1 X30.500 Y-30.500 Z-9.000 F900.000
G1 X30.500 Y30.500 Z-9.000 F900.000
G1 X0.000 Y30.500 Z-9.000 F900.000
G1 X0.000 Y33.500 Z-9.000 F900.000
G1 X-33.500 Y33.500 Z-9.000 F900.000
G1 X-33.500 Y-33.500 Z-9.000 F900.000
G1 X33.500 Y-33.500 Z-9.000 F900.000
G1 X33.500 Y33.500 Z-9.000 F900.000
G1 X0.000 Y33.500 Z-9.000 F900.000
G1 X0.000 Y36.500 Z-9.000 F900.000
G1 X-36.500 Y36.500 Z-9.000 F900.000
G1 X-36.500 Y-36.500 Z-9.000 F900.000
G1 X36.500 Y-36.500 Z-9.000 F900.000
G1 X36.500 Y36.500 Z-9.000 F900.000
G1 X0.000 Y36.500 Z-9.000 F900.000
G1 X0.000 Y39.500 Z-9.000 F900.000
G1 X-39.500 Y39.500 Z-9.000 F900.000
G1 X-39.500 Y-39.500 Z-9.000 F900.000
G1 X39.500 Y-39.500 Z-9.000 F900.000
G1 X39.500 Y39.500 Z-9.000 F900.000
G1 X0.000 Y39.500 Z-9.000 F900.000
G1 X0.000 Y42.500 Z-9.000 F900.000
G1 X-42.500 Y42.500 Z-9.000 F900.000
G1 X-42.500 Y-42.500 Z-9.000 F900.000
G1 X42.500 Y-42.500 Z-9.000 F900.000
G1 X42.500 Y42.500 Z-9.000 F900.000
G1 X0.000 Y42.500 Z-9.000 F900.000
G1 X0.000 Y45.500 Z-9.000 F900.000
G1 X-45.500 Y45.500 Z-9.000 F900.000
G1 X-45.500 Y-45.500 Z-9.000 F900.000
G1 X45.500 Y-45.500 Z-9.000 F900.000
G1 X45.500 Y45.500 Z-9.000 F900.000
G1 X0.000 Y45.500 Z-9.000 F900.000
G1 X0.000 Y48.500 Z-9.000 F900.000
G1 X-48.500 Y48.500 Z-9.000 F900.000
G1 X-48.500 Y-48.500 Z-9.000 F900.000
G1 X48.500 Y-48.500 Z-9.000 F900.000
G1 X48.500 Y48.500 Z-9.000 F900.000
G1 X0.000 Y48.500 Z-9.000 F900.000
G1 X0.000 Y48.500 Z-12.000 F900.000
G1 X-48.500 Y48.500 Z-12.000 F900.000
G1 X-48.500 Y-48.500 Z-12.000 F900.000
G1 X48.500 Y-48.500 Z-12.000 F900.000
G1 X48.500 Y48.500 Z-12.000 F900.000
G1 X0.000 Y48.500 Z-12.000 F900.000
G1 X0.000 Y45.500 Z-12.000 F900.000
G1 X-45.500 Y45.500 Z-12.000 F900.000
G1 X-45.500 Y-45.500 Z-12.000 F900.000
G1 X45.500 Y-45.500 Z-12.000 F900.000
G1 X45.500 Y45.500 Z-12.000 F900.000
G1 X0.000 Y45.500 Z-12.000 F900.000
G1 X0.000 Y42.500 Z-12.000 F900.000
G1 X-42.500 Y42.500 Z-12.000 F900.000
G1 X-42.500 Y-42.500 Z-12.000 F900.000
G1 X42.500 Y-42.500 Z-12.000 F900.000
G1 X42.500 Y42.500 Z-12.000 F900.000
G1 X0.000 Y42.500 Z-12.000 F900.000
G1 X0.000 Y39.500 Z-12.000 F900.000
G1 X-39.500 Y39.500 Z-12.000 F900.000
G1 X-39.500 Y-39.500 Z-12.000 F900.000
G1 X39.500 Y-39.500 Z-12.000 F900.000
G1 X39.500 Y39.500 Z-12.000 F900.000
G1 X0.000 Y39.500 Z-12.000 F900.000
G1 X0.000 Y36.500 Z-12.000 F900.000
G1 X-36.500 Y36.500 Z-12.000 F900.000
G1 X-36.500 Y-36.500 Z-12.000 F900.000
G1 X36.500 Y-36.500 Z-12.000 F900.000
G1 X36.500 Y36.500 Z-12.000 F900.000
G1 X0.000 Y36.500 Z-12.000 F900.000
G1 X0.000 Y33.500 Z-12.000 F900.000
G1 X-33.500 Y33.500 Z-12.000 F900.000
G1 X-33.500 Y-33.500 Z-12.000 F900.000
G1 X33.500 Y-33.500 Z-12.000 F900.000
G1 X33.500 Y33.500 Z-12.000 F900.000
G1 X0.000 Y33.500 Z-12.000 F900.000
G1 X0.000 Y30.500 Z-12.000 F900.000
G1 X-30.500 Y30.500 Z-12.000 F900.000
G1 X-30.500 Y-30.500 Z-12.000 F900.000
G1 X30.500 Y-30.500 Z-12.000 F900.000
G1 X30.500 Y30.500 Z-12.000 F900.000
G1 X0.000 Y30.500 Z-12.000 F900.000
G1 X0.000 Y27.500 Z-12.000 F900.000
G1 X-27.500 Y27.500 Z-12.000 F900.000
G1 X-27.500 Y-27.500 Z-12.000 F900.000
G1 X27.500 Y-27.500 Z-12.000 F900.000
G1 X27.500 Y27.500 Z-12.000 F900.000
G1 X0.000 Y27.500 Z-12.000 F900.000
G1 X0.000 Y24.500 Z-12.000 F900.000
G1 X-24.500 Y24.500 Z-12.000 F900.000
G1 X-24.500 Y-24.500 Z-12.000 F900.000
G1 X24.500 Y-24.500 Z-12.000 F900.000
G1 X24.500 Y24.500 Z-12.000 F900.000
G1 X0.000 Y24.500 Z-12.000 F900.000
G1 X0.000 Y21.500 Z-12.000 F900.000
G1 X-21.500 Y21.500 Z-12.000 F900.000
G1 X-21.500 Y-21.500 Z-12.000 F900.000
G1 X21.500 Y-21.500 Z-12.000 F900.000
G1 X21.500 Y21.500 Z-12.000 F900.000
G1 X0.000 Y21.500 Z-12.000 F900.000
G1 X0.000 Y18.500 Z-12.000 F900.000
G1 X-18.500 Y18.500 Z-12.000 F900.000
G1 X-18.500 Y-18.500 Z-12.000 F900.000
G1 X18.500 Y-18.500 Z-12.000 F900.000
G1 X18.500 Y18.500 Z-12.000 F900.000
G1 X0.000 Y18.500 Z-12.000 F900.000
G1 X0.000 Y15.500 Z-12.000 F900.000
G1 X-15.500 Y15.500 Z-12.000 F900.000
G1 X-15.500 Y-15.500 Z-12.000 F900.000
G1 X15.500 Y-15.500 Z-12.000 F900.000
G1 X15.500 Y15.500 Z-12.000 F900.000
G1 X0.000 Y15.500 Z-12.000 F900.000
G1 X0.000 Y12.500 Z-12.000 F900.000
G1 X-12.500 Y12.500 Z-12.000 F900.000
G1 X-12.500 Y-12.500 Z-12.000 F900.000
G1 X12.500 Y-12.500 Z-12.000 F900.000
G1 X12.500 Y12.500 Z-12.000 F900.000
G1 X0.000 Y12.500 Z-12.000 F900.000
G1 X0.000 Y9.500 Z-12.000 F900.000
G1 X-9.500 Y9.500 Z-12.000 F900.000
G1 X-9.500 Y-9.500 Z-12.000 F900.000
G1 X9.500 Y-9.500 Z-12.000 F900.000
G1 X9.500 Y9.500 Z-12.000 F900.000
G1 X0.000 Y9.500 Z-12.000 F900.000
G1 X0.000 Y9.500 Z-15.000 F900.000
G1 X-9.500 Y9.500 Z-15.000 F900.000
G1 X-9.500 Y-9.500 Z-15.000 F900.000
G1 X9.500 Y-9.500 Z-15.000 F900.000
G1 X9.500 Y9.500 Z-15.000 F900.000
G1 X0.000 Y9.500 Z-15.000 F900.000
G1 X0.000 Y12.500 Z-15.000 F900.000
G1 X-12.500 Y12.500 Z-15.000 F900.000
G1 X-12.500 Y-12.500 Z-15.000 F900.000
G1 X12.500 Y-12.500 Z-15.000 F900.000
G1 X12.500 Y12.500 Z-15.000 F900.000
G1 X0.000 Y12.500 Z-15.000 F900.000
G1 X0.000 Y15.500 Z-15.000 F900.000
G1 X-15.500 Y15.500 Z-15.000 F900.000
G1 X-15.500 Y-15.500 Z-15.000 F900.000
G1 X15.500 Y-15.500 Z-15.000 F900.000
G1 X15.500 Y15.500 Z-15.000 F900.000
G1 X0.000 Y15.500 Z-15.000 F900.000
G1 X0.000 Y18.500 Z-15.000 F900.000
G1 X-18.500 Y18.500 Z-15.000 F900.000
G1 X-18.500 Y-18.500 Z-15.000 F900.000
G1 X18.500 Y-18.500 Z-15.000 F900.000
G1 X18.500 Y18.500 Z-15.000 F900.000
G1 X0.000 Y18.500 Z-15.000 F900.000
G1 X0.000 Y21.500 Z-15.000 F900.000
G1 X-21.500 Y21.500 Z-15.000 F900.000
G1 X-21.500 Y-21.500 Z-15.000 F900.000
G1 X21.500 Y-21.500 Z-15.000 F900.000
G1 X21.500 Y21.500 Z-15.000 F900.000
G1 X0.000 Y21.500 Z-15.000 F900.000
G1 X0.000 Y24.500 Z-15.000 F900.000
G1 X-24.500 Y24.500 Z-15.000 F900.000
G1 X-24.500 Y-24.500 Z-15.000 F900.000
G1 X24.500 Y-24.500 Z-15.000 F900.000
G1 X24.500 Y24.500 Z-15.000 F900.000
G1 X0.000 Y24.500 Z-15.000 F900.000
G1 X0.000 Y27.500 Z-15.000 F900.000
G1 X-27.500 Y27.500 Z-15.000 F900.000
G1 X-27.500 Y-27.500 Z-15.000 F900.000
G1 X27.500 Y-27.500 Z-15.000 F900.000
G1 X27.500 Y27.500 Z-15.000 F900.000
G1 X0.000 Y27.500 Z-15.000 F900.000
G1 X0.000 Y30.500 Z-15.000 F900.000
G1 X-30.500 Y30.500 Z-15.000 F900.000
G1 X-30.500 Y-30.500 Z-15.000 F900.000
G1 X30.500 Y-30.500 Z-15.000 F900.000
G1 X30.500 Y30.500 Z-15.000 F900.000
G1 X0.000 Y30.500 Z-15.000 F900.000
G1 X0.000 Y33.500 Z-15.000 F900.000
G1 X-33.500 Y33.500 Z-15.000 F900.000
G1 X-33.500 Y-33.500 Z-15.000 F900.000
G1 X33.500 Y-33.500 Z-15.000 F900.000
G1 X33.500 Y33.500 Z-15.000 F900.000
G1 X0.000 Y33.500 Z-15.000 F900.000
G1 X0.000 Y36.500 Z-15.000 F900.000
G1 X-36.500 Y36.500 Z-15.000 F900.000
G1 X-36.500 Y-36.500 Z-15.000 F900.000
G1 X36.500 Y-36.500 Z-15.000 F900.000
G1 X36.500 Y36.500 Z-15.000 F900.000
G1 X0.000 Y36.500 Z-15.000 F900.000
G1 X0.000 Y39.500 Z-15.000 F900.000
G1 X-39.500 Y39.500 Z-15.000 F900.000
G1 X-39.500 Y-39.500 Z-15.000 F900.000
G1 X39.500 Y-39.500 Z-15.000 F900.000
G1 X39.500 Y39.500 Z-15.000 F900.000
G1 X0.000 Y39.500 Z-15.000 F900.000
G1 X0.000 Y42.500 Z-15.000 F900.000
G1 X-42.500 Y42.500 Z-15.000 F900.000
G1 X-42.500 Y-42.500 Z-15.000 F900.000
G1 X42.500 Y-42.500 Z-15.000 F900.000
G1 X42.500 Y42.500 Z-15.000 F900.000
G1 X0.000 Y42.500 Z-15.000 F900.000
G1 X0.000 Y45.500 Z-15.000 F900.000
G1 X-45.500 Y45.500 Z-15.000 F900.000
G1 X-45.500 Y-45.500 Z-15.000 F900.000
G1 X45.500 Y-45.500 Z-15.000 F900.000
G1 X45.500 Y45.500 Z-15.000 F900.000
G1 X0.000 Y45.500 Z-15.000 F900.000
G1 X0.000 Y48.500 Z-15.000 F900.000
G1 X-48.500 Y48.500 Z-15.000 F900.000
G1 X-48.500 Y-48.500 Z-15.000 F900.000
G1 X48.500 Y-48.500 Z-15.000 F900.000
G1 X48.500 Y48.500 Z-15.000 F900.000
G1 X0.000 Y48.500 Z-15.000 F900.000
G1 X0.000 Y48.500 Z-18.000 F900.000
G1 X-48.500 Y48.500 Z-18.000 F900.000
G1 X-48.500 Y-48.500 Z-18.000 F900.000
G1 X48.500 Y-48.500 Z-18.000 F900.000
G1 X48.500 Y48.500 Z-18.000 F900.000
G1 X0.000 Y48.500 Z-18.000 F900.000
G1 X0.000 Y45.500 Z-18.000 F900.000
G1 X-45.500 Y45.500 Z-18.000 F900.000
G1 X-45.500 Y-45.500 Z-18.000 F900.000
G1 X45.500 Y-45.500 Z-18.000 F900.000
G1 X45.500 Y45.500 Z-18.000 F900.000
G1 X0.000 Y45.500 Z-18.000 F900.000
G1 X0.000 Y42.500 Z-18.000 F900.000
G1 X-42.500 Y42.500 Z-18.000 F900.000
G1 X-42.500 Y-42.500 Z-18.000 F900.000
G1 X42.500 Y-42.500 Z-18.000 F900.000
G1 X42.500 Y42.500 Z-18.000 F900.000
G1 X0.000 Y42.500 Z-18.000 F900.000
G1 X0.000 Y39.500 Z-18.000 F900.000
G1 X-39.500 Y39.500 Z-18.000 F900.000
G1 X-39.500 Y-39.500 Z-18.000 F900.000
G1 X39.500 Y-39.500 Z-18.000 F900.000
G1 X39.500 Y39.500 Z-18.000 F900.000
G1 X0.000 Y39.500 Z-18.000 F900.000
G1 X0.000 Y36.500 Z-18.000 F900.000
G1 X-36.500 Y36.500 Z-18.000 F900.000
G1 X-36.500 Y-36.500 Z-18.000 F900.000
G1 X36.500 Y-36.500 Z-18.000 F900.000
G1 X36.500 Y36.500 Z-18.000 F900.000
G1 X0.000 Y36.500 Z-18.000 F900.000
G1 X0.000 Y33.500 Z-18.000 F900.000
G1 X-33.500 Y33.500 Z-18.000 F900.000
G1 X-33.500 Y-33.500 Z-18.000 F900.000
G1 X33.500 Y-33.500 Z-18.000 F900.000
G1 X33.500 Y33.500 Z-18.000 F900.000
G1 X0.000 Y33.500 Z-18.000 F900.000
G1 X0.000 Y30.500 Z-18.000 F900.000
G1 X-30.500 Y30.500 Z-18.000 F900.000
G1 X-30.500 Y-30.500 Z-18.000 F900.000
G1 X30.500 Y-30.500 Z-18.000 F900.000
G1 X30.500 Y30.500 Z-18.000 F900.000
G1 X0.000 Y30.500 Z-18.000 F900.000
G1 X0.000 Y27.500 Z-18.000 F900.000
G1 X-27.500 Y27.500 Z-18.000 F900.000
G1 X-27.500 Y-27.500 Z-18.000 F900.000
G1 X27.500 Y-27.500 Z-18.000 F900.000
G1 X27.500 Y27.500 Z-18.000 F900.000
G1 X0.000 Y27.500 Z-18.000 F900.000
G1 X0.000 Y24.500 Z-18.000 F900.000
G1 X-24.500 Y24.500 Z-18.000 F900.000
G1 X-24.500 Y-24.500 Z-18.000 F900.000
G1 X24.500 Y-24.500 Z-18.000 F900.000
G1 X24.500 Y24.500 Z-18.000 F900.000
G1 X0.000 Y24.500 Z-18.000 F900.000
G1 X0.000 Y21.500 Z-18.000 F900.000
G1 X-21.500 Y21.500 Z-18.000 F900.000
G1 X-21.500 Y-21.500 Z-18.000 F900.000
G1 X21.500 Y-21.500 Z-18.000 F900.000
G1 X21.500 Y21.500 Z-18.000 F900.000
G1 X0.000 Y21.500 Z-18.000 F900.000
G1 X0.000 Y18.500 Z-18.000 F900.000
G1 X-18.500 Y18.500 Z-18.000 F900.000
G1 X-18.500 Y-18.500 Z-18.000 F900.000
G1 X18.500 Y-18.500 Z-18.000 F900.000
G1 X18.500 Y18.500 Z-18.000 F900.000
G1 X0.000 Y18.500 Z-18.000 F900.000
G1 X0.000 Y15.500 Z-18.000 F900.000
G1 X-15.500 Y15.500 Z-18.000 F900.000
G1 X-15.500 Y-15.500 Z-18.000 F900.000
G1 X15.500 Y-15.500 Z-18.000 F900.000
G1 X15.500 Y15.500 Z-18.000 F900.000
G1 X0.000 Y15.500 Z-18.000 F900.000
G1 X0.000 Y12.500 Z-18.000 F900.000
G1 X-12.500 Y12.500 Z-18.000 F900.000
G1 X-12.500 Y-12.500 Z-18.000 F900.000
G1 X12.500 Y-12.500 Z-18.000 F900.000
G1 X12.500 Y12.500 Z-18.000 F900.000
G1 X0.000 Y12.500 Z-18.000 F900.000
G1 X0.000 Y9.500 Z-18.000 F900.000
G1 X-9.500 Y9.500 Z-18.000 F900.000
G1 X-9.500 Y-9.500 Z-18.000 F900.000
G1 X9.500 Y-9.500 Z-18.000 F900.000
G1 X9.500 Y9.500 Z-18.000 F900.000
G1 X0.000 Y9.500 Z-18.000 F900.000
G1 X0.000 Y9.500 Z-20.000 F900.000
G1 X-9.500 Y9.500 Z-20.000 F900.000
G1 X-9.500 Y-9.500 Z-20.000 F900.000
G1 X9.500 Y-9.500 Z-20.000 F900.000
G1 X9.500 Y9.500 Z-20.000 F900.000
G1 X0.000 Y9.500 Z-20.000 F900.000
G1 X0.000 Y12.500 Z-20.000 F900.000
G1 X-12.500 Y12.500 Z-20.000 F900.000
G1 X-12.500 Y-12.500 Z-20.000 F900.000
G1 X12.500 Y-12.500 Z-20.000 F900.000
G1 X12.500 Y12.500 Z-20.000 F900.000
G1 X0.000 Y12.500 Z-20.000 F900.000
G1 X0.000 Y15.500 Z-20.000 F900.000
G1 X-15.500 Y15.500 Z-20.000 F900.000
G1 X-15.500 Y-15.500 Z-20.000 F900.000
G1 X15.500 Y-15.500 Z-20.000 F900.000
G1 X15.500 Y15.500 Z-20.000 F900.000
G1 X0.000 Y15.500 Z-20.000 F900.000
G1 X0.000 Y18.500 Z-20.000 F900.000
G1 X-18.500 Y18.500 Z-20.000 F900.000
G1 X-18.500 Y-18.500 Z-20.000 F900.000
G1 X18.500 Y-18.500 Z-20.000 F900.000
G1 X18.500 Y18.500 Z-20.000 F900.000
G1 X0.000 Y18.500 Z-20.000 F900.000
G1 X0.000 Y21.500 Z-20.000 F900.000
G1 X-21.500 Y21.500 Z-20.000 F900.000
G1 X-21.500 Y-21.500 Z-20.000 F900.000
G1 X21.500 Y-21.500 Z-20.000 F900.000
G1 X21.500 Y21.500 Z-20.000 F900.000
G1 X0.000 Y21.500 Z-20.000 F900.000
G1 X0.000 Y24.500 Z-20.000 F900.000
G1 X-24.500 Y24.500 Z-20.000 F900.000
G1 X-24.500 Y-24.500 Z-20.000 F900.000
G1 X24.500 Y-24.500 Z-20.000 F900.000
G1 X24.500 Y24.500 Z-20.000 F900.000
G1 X0.000 Y24.500 Z-20.000 F900.000
G1 X0.000 Y27.500 Z-20.000 F900.000
G1 X-27.500 Y27.500 Z-20.000 F900.000
G1 X-27.500 Y-27.500 Z-20.000 F900.000
G1 X27.500 Y-27.500 Z-20.000 F900.000
G1 X27.500 Y27.500 Z-20.000 F900.000
G1 X0.000 Y27.500 Z-20.000 F900.000
G1 X0.000 Y30.500 Z-20.000 F900.000
G1 X-30.500 Y30.500 Z-20.000 F900.000
G1 X-30.500 Y-30.500 Z-20.000 F900.000
G1 X30.500 Y-30.500 Z-20.000 F900.000
G1 X30.500 Y30.500 Z-20.000 F900.000
G1 X0.000 Y30.500 Z-20.000 F900.000
G1 X0.000 Y33.500 Z-20.000 F900.000
G1 X-33.500 Y33.500 Z-20.000 F900.000
G1 X-33.500 Y-33.500 Z-20.000 F900.000
G1 X33.500 Y-33.500 Z-20.000 F900.000
G1 X33.500 Y33.500 Z-20.000 F900.000
G1 X0.000 Y33.500 Z-20.000 F900.000
G1 X0.000 Y36.500 Z-20.000 F900.000
G1 X-36.500 Y36.500 Z-20.000 F900.000
G1 X-36.500 Y-36.500 Z-20.000 F900.000
G1 X36.500 Y-36.500 Z-20.000 F900.000
G1 X36.500 Y36.500 Z-20.000 F900.000
G1 X0.000 Y36.500 Z-20.000 F900.000
G1 X0.000 Y39.500 Z-20.000 F900.000
G1 X-39.500 Y39.500 Z-20.000 F900.000
G1 X-39.500 Y-39.500 Z-20.000 F900.000
G1 X39.500 Y-39.500 Z-20.000 F900.000
G1 X39.500 Y39.500 Z-20.000 F900.000
G1 X0.000 Y39.500 Z-20.000 F900.000
G1 X0.000 Y42.500 Z-20.000 F900.000
G1 X-42.500 Y42.500 Z-20.000 F900.000
G1 X-42.500 Y-42.500 Z-20.000 F900.000
G1 X42.500 Y-42.500 Z-20.000 F900.000
G1 X42.500 Y42.500 Z-20.000 F900.000
G1 X0.000 Y42.500 Z-20.000 F900.000
G1 X0.000 Y45.500 Z-20.000 F900.000
G1 X-45.500 Y45.500 Z-20.000 F900.000
G1 X-45.500 Y-45.500 Z-20.000 F900.000
G1 X45.500 Y-45.500 Z-20.000 F900.000
G1 X45.500 Y45.500 Z-20.000 F900.000
G1 X0.000 Y45.500 Z-20.000 F900.000
G1 X0.000 Y48.500 Z-20.000 F900.000
G1 X-48.500 Y48.500 Z-20.000 F900.000
G1 X-48.500 Y-48.500 Z-20.000 F900.000
G1 X48.500 Y-48.500 Z-20.000 F900.000
G1 X48.500 Y48.500 Z-20.000 F900.000
G1 X0.000 Y48.500 Z-20.000 F900.000
G0 Z5.000
G0 Z5.000
(Finish operation: Pocket_Shape)
(Begin postamble)
M5
G17 G90
M2
