(Exported by FreeCAD)
(Post Processor: script_module)
(Output Time:2025-03-16 18:24:24.238298)
(Begin preamble)
G17 G90
G21
(Begin operation: Fixture)
(Path: Fixture)
G54
(Finish operation: Fixture)
(Begin operation: 1.5mm_Endmill001)
(Path: 1.5mm_Endmill001)
(1.5mm_Endmill001)
(Begin toolchange)
( M6 T2 )
M3 S13000
(Finish operation: 1.5mm_Endmill001)
(Begin operation: Pocket_Shape)
(Path: Pocket_Shape)
(Pocket_Shape)
G0 Z5.000
G0 X0.000 Y0.000
G0 X42.366 Y-20.211
G0 X42.366 Y-20.211 Z3.000
G1 X42.366 Y-20.211 Z-1.500 F600.000
G3 X42.708 Y-20.526 Z-1.500 I0.220 J-0.105 K0.000 F600.000
G3 X42.464 Y-20.105 Z-1.500 I-0.122 J0.211 K0.000 F600.000
G3 X42.366 Y-20.211 Z-1.500 I0.122 J-0.211 K0.000 F600.000
G1 X42.366 Y-20.211 Z-3.000 F600.000
G3 X42.708 Y-20.526 Z-3.000 I0.220 J-0.105 K0.000 F600.000
G3 X42.464 Y-20.105 Z-3.000 I-0.122 J0.211 K0.000 F600.000
G3 X42.366 Y-20.211 Z-3.000 I0.122 J-0.211 K0.000 F600.000
G1 X42.366 Y-20.211 Z-4.500 F600.000
G3 X42.708 Y-20.526 Z-4.500 I0.220 J-0.105 K0.000 F600.000
G3 X42.464 Y-20.105 Z-4.500 I-0.122 J0.211 K0.000 F600.000
G3 X42.366 Y-20.211 Z-4.500 I0.122 J-0.211 K0.000 F600.000
G1 X42.366 Y-20.211 Z-6.000 F600.000
G3 X42.708 Y-20.526 Z-6.000 I0.220 J-0.105 K0.000 F600.000
G3 X42.464 Y-20.105 Z-6.000 I-0.122 J0.211 K0.000 F600.000
G3 X42.366 Y-20.211 Z-6.000 I0.122 J-0.211 K0.000 F600.000
G1 X42.366 Y-20.211 Z-7.500 F600.000
G3 X42.708 Y-20.526 Z-7.500 I0.220 J-0.105 K0.000 F600.000
G3 X42.464 Y-20.105 Z-7.500 I-0.122 J0.211 K0.000 F600.000
G3 X42.366 Y-20.211 Z-7.500 I0.122 J-0.211 K0.000 F600.000
G1 X42.366 Y-20.211 Z-8.000 F600.000
G3 X42.708 Y-20.526 Z-8.000 I0.220 J-0.105 K0.000 F600.000
G3 X42.464 Y-20.105 Z-8.000 I-0.122 J0.211 K0.000 F600.000
G3 X42.366 Y-20.211 Z-8.000 I0.122 J-0.211 K0.000 F600.000
G0 Z5.000
G0 Z5.000
G0 X42.366 Y-20.211
G0 X91.342 Y-20.315
G0 X91.342 Y-20.315 Z3.000
G1 X91.342 Y-20.315 Z-1.500 F600.000
G3 X91.708 Y-20.526 Z-1.500 I0.244 J-0.001 K0.000 F600.000
G3 X91.464 Y-20.105 Z-1.500 I-0.122 J0.211 K0.000 F600.000
G3 X91.342 Y-20.315 Z-1.500 I0.122 J-0.211 K0.000 F600.000
G1 X91.342 Y-20.315 Z-3.000 F600.000
G3 X91.708 Y-20.526 Z-3.000 I0.244 J-0.001 K0.000 F600.000
G3 X91.464 Y-20.105 Z-3.000 I-0.122 J0.211 K0.000 F600.000
G3 X91.342 Y-20.315 Z-3.000 I0.122 J-0.211 K0.000 F600.000
G1 X91.342 Y-20.315 Z-4.500 F600.000
G3 X91.708 Y-20.526 Z-4.500 I0.244 J-0.001 K0.000 F600.000
G3 X91.464 Y-20.105 Z-4.500 I-0.122 J0.211 K0.000 F600.000
G3 X91.342 Y-20.315 Z-4.500 I0.122 J-0.211 K0.000 F600.000
G1 X91.342 Y-20.315 Z-6.000 F600.000
G3 X91.708 Y-20.526 Z-6.000 I0.244 J-0.001 K0.000 F600.000
G3 X91.464 Y-20.105 Z-6.000 I-0.122 J0.211 K0.000 F600.000
G3 X91.342 Y-20.315 Z-6.000 I0.122 J-0.211 K0.000 F600.000
G1 X91.342 Y-20.315 Z-7.500 F600.000
G3 X91.708 Y-20.526 Z-7.500 I0.244 J-0.001 K0.000 F600.000
G3 X91.464 Y-20.105 Z-7.500 I-0.122 J0.211 K0.000 F600.000
G3 X91.342 Y-20.315 Z-7.500 I0.122 J-0.211 K0.000 F600.000
G1 X91.342 Y-20.315 Z-8.000 F600.000
G3 X91.708 Y-20.526 Z-8.000 I0.244 J-0.001 K0.000 F600.000
G3 X91.464 Y-20.105 Z-8.000 I-0.122 J0.211 K0.000 F600.000
G3 X91.342 Y-20.315 Z-8.000 I0.122 J-0.211 K0.000 F600.000
G0 Z5.000
G0 Z5.000
G0 X91.342 Y-20.315
G0 X140.342 Y-20.316
G0 X140.342 Y-20.316 Z3.000
G1 X140.342 Y-20.316 Z-1.500 F600.000
G3 X140.708 Y-20.526 Z-1.500 I0.244 J-0.000 K0.000 F600.000
G3 X140.797 Y-20.194 Z-1.500 I-0.122 J0.211 K0.000 F600.000
G3 X140.464 Y-20.105 Z-1.500 I-0.211 J-0.122 K0.000 F600.000
G3 X140.342 Y-20.316 Z-1.500 I0.122 J-0.211 K0.000 F600.000
G1 X140.342 Y-20.316 Z-3.000 F600.000
G3 X140.708 Y-20.526 Z-3.000 I0.244 J-0.000 K0.000 F600.000
G3 X140.797 Y-20.194 Z-3.000 I-0.122 J0.211 K0.000 F600.000
G3 X140.464 Y-20.105 Z-3.000 I-0.211 J-0.122 K0.000 F600.000
G3 X140.342 Y-20.316 Z-3.000 I0.122 J-0.211 K0.000 F600.000
G1 X140.342 Y-20.316 Z-4.500 F600.000
G3 X140.708 Y-20.526 Z-4.500 I0.244 J-0.000 K0.000 F600.000
G3 X140.797 Y-20.194 Z-4.500 I-0.122 J0.211 K0.000 F600.000
G3 X140.464 Y-20.105 Z-4.500 I-0.211 J-0.122 K0.000 F600.000
G3 X140.342 Y-20.316 Z-4.500 I0.122 J-0.211 K0.000 F600.000
G1 X140.342 Y-20.316 Z-6.000 F600.000
G3 X140.708 Y-20.526 Z-6.000 I0.244 J-0.000 K0.000 F600.000
G3 X140.797 Y-20.194 Z-6.000 I-0.122 J0.211 K0.000 F600.000
G3 X140.464 Y-20.105 Z-6.000 I-0.211 J-0.122 K0.000 F600.000
G3 X140.342 Y-20.316 Z-6.000 I0.122 J-0.211 K0.000 F600.000
G1 X140.342 Y-20.316 Z-7.500 F600.000
G3 X140.708 Y-20.526 Z-7.500 I0.244 J-0.000 K0.000 F600.000
G3 X140.797 Y-20.194 Z-7.500 I-0.122 J0.211 K0.000 F600.000
G3 X140.464 Y-20.105 Z-7.500 I-0.211 J-0.122 K0.000 F600.000
G3 X140.342 Y-20.316 Z-7.500 I0.122 J-0.211 K0.000 F600.000
G1 X140.342 Y-20.316 Z-8.000 F600.000
G3 X140.708 Y-20.526 Z-8.000 I0.244 J-0.000 K0.000 F600.000
G3 X140.797 Y-20.194 Z-8.000 I-0.122 J0.211 K0.000 F600.000
G3 X140.464 Y-20.105 Z-8.000 I-0.211 J-0.122 K0.000 F600.000
G3 X140.342 Y-20.316 Z-8.000 I0.122 J-0.211 K0.000 F600.000
G0 Z5.000
G0 Z5.000
G0 X140.342 Y-20.316
G0 X189.342 Y-20.316
G0 X189.342 Y-20.316 Z3.000
G1 X189.342 Y-20.316 Z-1.500 F600.000
G3 X189.708 Y-20.526 Z-1.500 I0.244 J0.000 K0.000 F600.000
G3 X189.797 Y-20.194 Z-1.500 I-0.122 J0.211 K0.000 F600.000
G3 X189.464 Y-20.105 Z-1.500 I-0.211 J-0.122 K0.000 F600.000
G3 X189.342 Y-20.316 Z-1.500 I0.122 J-0.211 K0.000 F600.000
G1 X189.342 Y-20.316 Z-3.000 F600.000
G3 X189.708 Y-20.526 Z-3.000 I0.244 J0.000 K0.000 F600.000
G3 X189.797 Y-20.194 Z-3.000 I-0.122 J0.211 K0.000 F600.000
G3 X189.464 Y-20.105 Z-3.000 I-0.211 J-0.122 K0.000 F600.000
G3 X189.342 Y-20.316 Z-3.000 I0.122 J-0.211 K0.000 F600.000
G1 X189.342 Y-20.316 Z-4.500 F600.000
G3 X189.708 Y-20.526 Z-4.500 I0.244 J0.000 K0.000 F600.000
G3 X189.797 Y-20.194 Z-4.500 I-0.122 J0.211 K0.000 F600.000
G3 X189.464 Y-20.105 Z-4.500 I-0.211 J-0.122 K0.000 F600.000
G3 X189.342 Y-20.316 Z-4.500 I0.122 J-0.211 K0.000 F600.000
G1 X189.342 Y-20.316 Z-6.000 F600.000
G3 X189.708 Y-20.526 Z-6.000 I0.244 J0.000 K0.000 F600.000
G3 X189.797 Y-20.194 Z-6.000 I-0.122 J0.211 K0.000 F600.000
G3 X189.464 Y-20.105 Z-6.000 I-0.211 J-0.122 K0.000 F600.000
G3 X189.342 Y-20.316 Z-6.000 I0.122 J-0.211 K0.000 F600.000
G1 X189.342 Y-20.316 Z-7.500 F600.000
G3 X189.708 Y-20.526 Z-7.500 I0.244 J0.000 K0.000 F600.000
G3 X189.797 Y-20.194 Z-7.500 I-0.122 J0.211 K0.000 F600.000
G3 X189.464 Y-20.105 Z-7.500 I-0.211 J-0.122 K0.000 F600.000
G3 X189.342 Y-20.316 Z-7.500 I0.122 J-0.211 K0.000 F600.000
G1 X189.342 Y-20.316 Z-8.000 F600.000
G3 X189.708 Y-20.526 Z-8.000 I0.244 J0.000 K0.000 F600.000
G3 X189.797 Y-20.194 Z-8.000 I-0.122 J0.211 K0.000 F600.000
G3 X189.464 Y-20.105 Z-8.000 I-0.211 J-0.122 K0.000 F600.000
G3 X189.342 Y-20.316 Z-8.000 I0.122 J-0.211 K0.000 F600.000
G0 Z5.000
G0 Z5.000
G0 X189.342 Y-20.316
G0 X238.342
G0 X238.342 Z3.000
G1 X238.342 Y-20.316 Z-1.500 F600.000
G3 X238.708 Y-20.526 Z-1.500 I0.244 J0.000 K0.000 F600.000
G3 X238.797 Y-20.194 Z-1.500 I-0.122 J0.211 K0.000 F600.000
G3 X238.464 Y-20.105 Z-1.500 I-0.211 J-0.122 K0.000 F600.000
G3 X238.342 Y-20.316 Z-1.500 I0.122 J-0.211 K0.000 F600.000
G1 X238.342 Y-20.316 Z-3.000 F600.000
G3 X238.708 Y-20.526 Z-3.000 I0.244 J0.000 K0.000 F600.000
G3 X238.797 Y-20.194 Z-3.000 I-0.122 J0.211 K0.000 F600.000
G3 X238.464 Y-20.105 Z-3.000 I-0.211 J-0.122 K0.000 F600.000
G3 X238.342 Y-20.316 Z-3.000 I0.122 J-0.211 K0.000 F600.000
G1 X238.342 Y-20.316 Z-4.500 F600.000
G3 X238.708 Y-20.526 Z-4.500 I0.244 J0.000 K0.000 F600.000
G3 X238.797 Y-20.194 Z-4.500 I-0.122 J0.211 K0.000 F600.000
G3 X238.464 Y-20.105 Z-4.500 I-0.211 J-0.122 K0.000 F600.000
G3 X238.342 Y-20.316 Z-4.500 I0.122 J-0.211 K0.000 F600.000
G1 X238.342 Y-20.316 Z-6.000 F600.000
G3 X238.708 Y-20.526 Z-6.000 I0.244 J0.000 K0.000 F600.000
G3 X238.797 Y-20.194 Z-6.000 I-0.122 J0.211 K0.000 F600.000
G3 X238.464 Y-20.105 Z-6.000 I-0.211 J-0.122 K0.000 F600.000
G3 X238.342 Y-20.316 Z-6.000 I0.122 J-0.211 K0.000 F600.000
G1 X238.342 Y-20.316 Z-7.500 F600.000
G3 X238.708 Y-20.526 Z-7.500 I0.244 J0.000 K0.000 F600.000
G3 X238.797 Y-20.194 Z-7.500 I-0.122 J0.211 K0.000 F600.000
G3 X238.464 Y-20.105 Z-7.500 I-0.211 J-0.122 K0.000 F600.000
G3 X238.342 Y-20.316 Z-7.500 I0.122 J-0.211 K0.000 F600.000
G1 X238.342 Y-20.316 Z-8.000 F600.000
G3 X238.708 Y-20.526 Z-8.000 I0.244 J0.000 K0.000 F600.000
G3 X238.797 Y-20.194 Z-8.000 I-0.122 J0.211 K0.000 F600.000
G3 X238.464 Y-20.105 Z-8.000 I-0.211 J-0.122 K0.000 F600.000
G3 X238.342 Y-20.316 Z-8.000 I0.122 J-0.211 K0.000 F600.000
G0 Z5.000
G0 Z5.000
G0 X238.342 Y-20.316
G0 X238.585 Y53.441
G0 X238.585 Y53.441 Z3.000
G1 X238.585 Y53.441 Z-1.500 F600.000
G3 X238.708 Y53.474 Z-1.500 I0.001 J0.244 K0.000 F600.000
G3 X238.797 Y53.806 Z-1.500 I-0.122 J0.211 K0.000 F600.000
G3 X238.464 Y53.895 Z-1.500 I-0.211 J-0.122 K0.000 F600.000
G3 X238.585 Y53.441 Z-1.500 I0.122 J-0.211 K0.000 F600.000
G1 X238.585 Y53.441 Z-3.000 F600.000
G3 X238.708 Y53.474 Z-3.000 I0.001 J0.244 K0.000 F600.000
G3 X238.797 Y53.806 Z-3.000 I-0.122 J0.211 K0.000 F600.000
G3 X238.464 Y53.895 Z-3.000 I-0.211 J-0.122 K0.000 F600.000
G3 X238.585 Y53.441 Z-3.000 I0.122 J-0.211 K0.000 F600.000
G1 X238.585 Y53.441 Z-4.500 F600.000
G3 X238.708 Y53.474 Z-4.500 I0.001 J0.244 K0.000 F600.000
G3 X238.797 Y53.806 Z-4.500 I-0.122 J0.211 K0.000 F600.000
G3 X238.464 Y53.895 Z-4.500 I-0.211 J-0.122 K0.000 F600.000
G3 X238.585 Y53.441 Z-4.500 I0.122 J-0.211 K0.000 F600.000
G1 X238.585 Y53.441 Z-6.000 F600.000
G3 X238.708 Y53.474 Z-6.000 I0.001 J0.244 K0.000 F600.000
G3 X238.797 Y53.806 Z-6.000 I-0.122 J0.211 K0.000 F600.000
G3 X238.464 Y53.895 Z-6.000 I-0.211 J-0.122 K0.000 F600.000
G3 X238.585 Y53.441 Z-6.000 I0.122 J-0.211 K0.000 F600.000
G1 X238.585 Y53.441 Z-7.500 F600.000
G3 X238.708 Y53.474 Z-7.500 I0.001 J0.244 K0.000 F600.000
G3 X238.797 Y53.806 Z-7.500 I-0.122 J0.211 K0.000 F600.000
G3 X238.464 Y53.895 Z-7.500 I-0.211 J-0.122 K0.000 F600.000
G3 X238.585 Y53.441 Z-7.500 I0.122 J-0.211 K0.000 F600.000
G1 X238.585 Y53.441 Z-8.000 F600.000
G3 X238.708 Y53.474 Z-8.000 I0.001 J0.244 K0.000 F600.000
G3 X238.797 Y53.806 Z-8.000 I-0.122 J0.211 K0.000 F600.000
G3 X238.464 Y53.895 Z-8.000 I-0.211 J-0.122 K0.000 F600.000
G3 X238.585 Y53.441 Z-8.000 I0.122 J-0.211 K0.000 F600.000
G0 Z5.000
G0 Z5.000
G0 X238.585 Y53.441
G0 X189.829 Y53.683
G0 X189.829 Y53.683 Z3.000
G1 X189.829 Y53.683 Z-1.500 F600.000
G3 X189.464 Y53.895 Z-1.500 I-0.244 J0.001 K0.000 F600.000
G3 X189.708 Y53.474 Z-1.500 I0.122 J-0.211 K0.000 F600.000
G3 X189.829 Y53.683 Z-1.500 I-0.122 J0.211 K0.000 F600.000
G1 X189.829 Y53.683 Z-3.000 F600.000
G3 X189.464 Y53.895 Z-3.000 I-0.244 J0.001 K0.000 F600.000
G3 X189.708 Y53.474 Z-3.000 I0.122 J-0.211 K0.000 F600.000
G3 X189.829 Y53.683 Z-3.000 I-0.122 J0.211 K0.000 F600.000
G1 X189.829 Y53.683 Z-4.500 F600.000
G3 X189.464 Y53.895 Z-4.500 I-0.244 J0.001 K0.000 F600.000
G3 X189.708 Y53.474 Z-4.500 I0.122 J-0.211 K0.000 F600.000
G3 X189.829 Y53.683 Z-4.500 I-0.122 J0.211 K0.000 F600.000
G1 X189.829 Y53.683 Z-6.000 F600.000
G3 X189.464 Y53.895 Z-6.000 I-0.244 J0.001 K0.000 F600.000
G3 X189.708 Y53.474 Z-6.000 I0.122 J-0.211 K0.000 F600.000
G3 X189.829 Y53.683 Z-6.000 I-0.122 J0.211 K0.000 F600.000
G1 X189.829 Y53.683 Z-7.500 F600.000
G3 X189.464 Y53.895 Z-7.500 I-0.244 J0.001 K0.000 F600.000
G3 X189.708 Y53.474 Z-7.500 I0.122 J-0.211 K0.000 F600.000
G3 X189.829 Y53.683 Z-7.500 I-0.122 J0.211 K0.000 F600.000
G1 X189.829 Y53.683 Z-8.000 F600.000
G3 X189.464 Y53.895 Z-8.000 I-0.244 J0.001 K0.000 F600.000
G3 X189.708 Y53.474 Z-8.000 I0.122 J-0.211 K0.000 F600.000
G3 X189.829 Y53.683 Z-8.000 I-0.122 J0.211 K0.000 F600.000
G0 Z5.000
G0 Z5.000
G0 X189.829 Y53.683
G0 X140.829 Y53.684
G0 X140.829 Y53.684 Z3.000
G1 X140.829 Y53.684 Z-1.500 F600.000
G3 X140.464 Y53.895 Z-1.500 I-0.244 J0.000 K0.000 F600.000
G3 X140.375 Y53.563 Z-1.500 I0.122 J-0.211 K0.000 F600.000
G3 X140.708 Y53.474 Z-1.500 I0.211 J0.122 K0.000 F600.000
G3 X140.829 Y53.684 Z-1.500 I-0.122 J0.211 K0.000 F600.000
G1 X140.829 Y53.684 Z-3.000 F600.000
G3 X140.464 Y53.895 Z-3.000 I-0.244 J0.000 K0.000 F600.000
G3 X140.375 Y53.563 Z-3.000 I0.122 J-0.211 K0.000 F600.000
G3 X140.708 Y53.474 Z-3.000 I0.211 J0.122 K0.000 F600.000
G3 X140.829 Y53.684 Z-3.000 I-0.122 J0.211 K0.000 F600.000
G1 X140.829 Y53.684 Z-4.500 F600.000
G3 X140.464 Y53.895 Z-4.500 I-0.244 J0.000 K0.000 F600.000
G3 X140.375 Y53.563 Z-4.500 I0.122 J-0.211 K0.000 F600.000
G3 X140.708 Y53.474 Z-4.500 I0.211 J0.122 K0.000 F600.000
G3 X140.829 Y53.684 Z-4.500 I-0.122 J0.211 K0.000 F600.000
G1 X140.829 Y53.684 Z-6.000 F600.000
G3 X140.464 Y53.895 Z-6.000 I-0.244 J0.000 K0.000 F600.000
G3 X140.375 Y53.563 Z-6.000 I0.122 J-0.211 K0.000 F600.000
G3 X140.708 Y53.474 Z-6.000 I0.211 J0.122 K0.000 F600.000
G3 X140.829 Y53.684 Z-6.000 I-0.122 J0.211 K0.000 F600.000
G1 X140.829 Y53.684 Z-7.500 F600.000
G3 X140.464 Y53.895 Z-7.500 I-0.244 J0.000 K0.000 F600.000
G3 X140.375 Y53.563 Z-7.500 I0.122 J-0.211 K0.000 F600.000
G3 X140.708 Y53.474 Z-7.500 I0.211 J0.122 K0.000 F600.000
G3 X140.829 Y53.684 Z-7.500 I-0.122 J0.211 K0.000 F600.000
G1 X140.829 Y53.684 Z-8.000 F600.000
G3 X140.464 Y53.895 Z-8.000 I-0.244 J0.000 K0.000 F600.000
G3 X140.375 Y53.563 Z-8.000 I0.122 J-0.211 K0.000 F600.000
G3 X140.708 Y53.474 Z-8.000 I0.211 J0.122 K0.000 F600.000
G3 X140.829 Y53.684 Z-8.000 I-0.122 J0.211 K0.000 F600.000
G0 Z5.000
G0 Z5.000
G0 X140.829 Y53.684
G0 X91.829 Y53.684
G0 X91.829 Y53.684 Z3.000
G1 X91.829 Y53.684 Z-1.500 F600.000
G3 X91.464 Y53.895 Z-1.500 I-0.244 J0.000 K0.000 F600.000
G3 X91.375 Y53.563 Z-1.500 I0.122 J-0.211 K0.000 F600.000
G3 X91.708 Y53.474 Z-1.500 I0.211 J0.122 K0.000 F600.000
G3 X91.829 Y53.684 Z-1.500 I-0.122 J0.211 K0.000 F600.000
G1 X91.829 Y53.684 Z-3.000 F600.000
G3 X91.464 Y53.895 Z-3.000 I-0.244 J0.000 K0.000 F600.000
G3 X91.375 Y53.563 Z-3.000 I0.122 J-0.211 K0.000 F600.000
G3 X91.708 Y53.474 Z-3.000 I0.211 J0.122 K0.000 F600.000
G3 X91.829 Y53.684 Z-3.000 I-0.122 J0.211 K0.000 F600.000
G1 X91.829 Y53.684 Z-4.500 F600.000
G3 X91.464 Y53.895 Z-4.500 I-0.244 J0.000 K0.000 F600.000
G3 X91.375 Y53.563 Z-4.500 I0.122 J-0.211 K0.000 F600.000
G3 X91.708 Y53.474 Z-4.500 I0.211 J0.122 K0.000 F600.000
G3 X91.829 Y53.684 Z-4.500 I-0.122 J0.211 K0.000 F600.000
G1 X91.829 Y53.684 Z-6.000 F600.000
G3 X91.464 Y53.895 Z-6.000 I-0.244 J0.000 K0.000 F600.000
G3 X91.375 Y53.563 Z-6.000 I0.122 J-0.211 K0.000 F600.000
G3 X91.708 Y53.474 Z-6.000 I0.211 J0.122 K0.000 F600.000
G3 X91.829 Y53.684 Z-6.000 I-0.122 J0.211 K0.000 F600.000
G1 X91.829 Y53.684 Z-7.500 F600.000
G3 X91.464 Y53.895 Z-7.500 I-0.244 J0.000 K0.000 F600.000
G3 X91.375 Y53.563 Z-7.500 I0.122 J-0.211 K0.000 F600.000
G3 X91.708 Y53.474 Z-7.500 I0.211 J0.122 K0.000 F600.000
G3 X91.829 Y53.684 Z-7.500 I-0.122 J0.211 K0.000 F600.000
G1 X91.829 Y53.684 Z-8.000 F600.000
G3 X91.464 Y53.895 Z-8.000 I-0.244 J0.000 K0.000 F600.000
G3 X91.375 Y53.563 Z-8.000 I0.122 J-0.211 K0.000 F600.000
G3 X91.708 Y53.474 Z-8.000 I0.211 J0.122 K0.000 F600.000
G3 X91.829 Y53.684 Z-8.000 I-0.122 J0.211 K0.000 F600.000
G0 Z5.000
G0 Z5.000
G0 X91.829 Y53.684
G0 X42.829
G0 X42.829 Z3.000
G1 X42.829 Y53.684 Z-1.500 F600.000
G3 X42.464 Y53.895 Z-1.500 I-0.244 J0.000 K0.000 F600.000
G3 X42.708 Y53.474 Z-1.500 I0.122 J-0.211 K0.000 F600.000
G3 X42.829 Y53.684 Z-1.500 I-0.122 J0.211 K0.000 F600.000
G1 X42.829 Y53.684 Z-3.000 F600.000
G3 X42.464 Y53.895 Z-3.000 I-0.244 J0.000 K0.000 F600.000
G3 X42.708 Y53.474 Z-3.000 I0.122 J-0.211 K0.000 F600.000
G3 X42.829 Y53.684 Z-3.000 I-0.122 J0.211 K0.000 F600.000
G1 X42.829 Y53.684 Z-4.500 F600.000
G3 X42.464 Y53.895 Z-4.500 I-0.244 J0.000 K0.000 F600.000
G3 X42.708 Y53.474 Z-4.500 I0.122 J-0.211 K0.000 F600.000
G3 X42.829 Y53.684 Z-4.500 I-0.122 J0.211 K0.000 F600.000
G1 X42.829 Y53.684 Z-6.000 F600.000
G3 X42.464 Y53.895 Z-6.000 I-0.244 J0.000 K0.000 F600.000
G3 X42.708 Y53.474 Z-6.000 I0.122 J-0.211 K0.000 F600.000
G3 X42.829 Y53.684 Z-6.000 I-0.122 J0.211 K0.000 F600.000
G1 X42.829 Y53.684 Z-7.500 F600.000
G3 X42.464 Y53.895 Z-7.500 I-0.244 J0.000 K0.000 F600.000
G3 X42.708 Y53.474 Z-7.500 I0.122 J-0.211 K0.000 F600.000
G3 X42.829 Y53.684 Z-7.500 I-0.122 J0.211 K0.000 F600.000
G1 X42.829 Y53.684 Z-8.000 F600.000
G3 X42.464 Y53.895 Z-8.000 I-0.244 J0.000 K0.000 F600.000
G3 X42.708 Y53.474 Z-8.000 I0.122 J-0.211 K0.000 F600.000
G3 X42.829 Y53.684 Z-8.000 I-0.122 J0.211 K0.000 F600.000
G0 Z5.000
G0 Z5.000
(Finish operation: Pocket_Shape)
(Begin operation: Profile)
(Path: Profile)
(Profile)
(Compensated Tool Path. Diameter: 1.5)
G0 Z5.000
G0 X0.000 Y0.000
G0 X6.956 Y13.449
G0 X6.956 Y13.449 Z3.000
G1 X6.956 Y13.449 Z-1.500 F600.000
G2 X6.532 Y13.819 Z-1.500 I0.543 J1.050 K0.000 F600.000
G2 X6.380 Y14.429 Z-1.500 I1.851 J0.787 K0.000 F600.000
G2 X6.362 Y16.270 Z-1.500 I21.327 J1.125 K0.000 F600.000
G2 X6.741 Y17.792 Z-1.500 I2.330 J0.229 K0.000 F600.000
G3 X6.477 Y18.216 Z-1.500 I-2.817 J-1.454 K0.000 F600.000
G2 X5.264 Y20.546 Z-1.500 I36.701 J20.589 K0.000 F600.000
G2 X4.562 Y22.157 Z-1.500 I6.672 J3.865 K0.000 F600.000
G2 X5.268 Y23.511 Z-1.500 I1.055 J0.311 K0.000 F600.000
G2 X9.891 Y23.629 Z-1.500 I2.739 J-16.655 K0.000 F600.000
G2 X12.614 Y23.023 Z-1.500 I-0.657 J-9.368 K0.000 F600.000
G2 X15.043 Y21.648 Z-1.500 I-6.522 J-14.358 K0.000 F600.000
G2 X16.359 Y20.590 Z-1.500 I-3.054 J-5.144 K0.000 F600.000
G2 X15.956 Y19.168 Z-1.500 I-0.654 J-0.583 K0.000 F600.000
G3 X14.145 Y18.829 Z-1.500 I4.050 J-26.619 K0.000 F600.000
G3 X12.094 Y17.758 Z-1.500 I0.486 J-3.431 K0.000 F600.000
G3 X12.570 Y17.484 Z-1.500 I2.605 J3.973 K0.000 F600.000
G3 X14.453 Y16.617 Z-1.500 I86.681 J185.824 K0.000 F600.000
G3 X17.438 Y15.345 Z-1.500 I6.873 J11.992 K0.000 F600.000
G3 X24.640 Y13.606 Z-1.500 I10.420 J27.365 K0.000 F600.000
G2 X25.444 Y13.076 Z-1.500 I0.104 J-0.717 K0.000 F600.000
G1 X26.155 Y10.590 Z-1.500 F600.000
G1 X26.184 Y10.384 Z-1.500 F600.000
G1 X26.184 Y8.842 Z-1.500 F600.000
G1 X27.726 Y8.842 Z-1.500 F600.000
G2 X28.476 Y8.092 Z-1.500 I-0.000 J-0.750 K0.000 F600.000
G1 X28.476 Y3.508 Z-1.500 F600.000
G2 X27.726 Y2.758 Z-1.500 I-0.750 J0.000 K0.000 F600.000
G1 X17.412 Y2.758 Z-1.500 F600.000
G2 X16.662 Y3.508 Z-1.500 I0.000 J0.750 K0.000 F600.000
G1 X16.662 Y8.092 Z-1.500 F600.000
G2 X17.412 Y8.842 Z-1.500 I0.750 J-0.000 K0.000 F600.000
G1 X18.632 Y8.842 Z-1.500 F600.000
G1 X18.632 Y10.478 Z-1.500 F600.000
G1 X18.454 Y10.613 Z-1.500 F600.000
G3 X16.516 Y11.298 Z-1.500 I-11.467 J-29.359 K0.000 F600.000
G3 X10.661 Y12.684 Z-1.500 I-15.889 J-54.061 K0.000 F600.000
G2 X7.266 Y13.340 Z-1.500 I4.677 J33.309 K0.000 F600.000
G2 X6.956 Y13.449 Z-1.500 I0.233 J1.159 K0.000 F600.000
G0 Z5.000
G0 X22.787 Y21.416 Z5.000
G0 X22.787 Y21.416 Z3.000
G1 X22.787 Y21.416 Z-1.500 F600.000
G2 X22.477 Y22.776 Z-1.500 I2.598 J1.308 K0.000 F600.000
G2 X24.107 Y25.569 Z-1.500 I4.923 J-1.001 K0.000 F600.000
G2 X28.940 Y27.005 Z-1.500 I4.349 J-5.788 K0.000 F600.000
G2 X32.732 Y25.910 Z-1.500 I-1.294 J-11.599 K0.000 F600.000
G1 X34.250 Y25.910 Z-1.500 F600.000
G1 X34.250 Y27.000 Z-1.500 F600.000
G2 X35.000 Y27.750 Z-1.500 I0.750 J-0.000 K0.000 F600.000
G1 X40.000 Y27.750 Z-1.500 F600.000
G2 X40.750 Y27.000 Z-1.500 I-0.000 J-0.750 K0.000 F600.000
G1 X40.750 Y19.000 Z-1.500 F600.000
G2 X40.000 Y18.250 Z-1.500 I-0.750 J0.000 K0.000 F600.000
G1 X39.000 Y18.250 Z-1.500 F600.000
G2 X38.470 Y18.470 Z-1.500 I-0.000 J0.750 K0.000 F600.000
G1 X37.689 Y19.250 Z-1.500 F600.000
G1 X34.959 Y19.250 Z-1.500 F600.000
G2 X34.560 Y19.375 Z-1.500 I-0.024 J0.623 K0.000 F600.000
G2 X32.735 Y19.110 Z-1.500 I-2.121 J8.175 K0.000 F600.000
G2 X25.166 Y19.590 Z-1.500 I-2.427 J21.645 K0.000 F600.000
G2 X23.036 Y21.008 Z-1.500 I0.805 J3.517 K0.000 F600.000
G2 X22.787 Y21.416 Z-1.500 I2.349 J1.715 K0.000 F600.000
G0 Z5.000
G0 X32.449 Y12.508 Z5.000
G0 X32.449 Y12.508 Z3.000
G1 X32.449 Y12.508 Z-1.500 F600.000
G2 X33.000 Y12.750 Z-1.500 I0.551 J-0.508 K0.000 F600.000
G1 X37.980 Y12.750 Z-1.500 F600.000
G2 X38.540 Y12.546 Z-1.500 I-0.166 J-1.325 K0.000 F600.000
G3 X43.751 Y12.468 Z-1.500 I5.941 J223.047 K0.000 F600.000
G1 X43.801 Y12.605 Z-1.500 F600.000
G2 X45.816 Y14.716 Z-1.500 I2.635 J-0.499 K0.000 F600.000
G2 X48.144 Y13.629 Z-1.500 I0.547 J-1.866 K0.000 F600.000
G2 X48.701 Y13.439 Z-1.500 I-0.574 J-2.600 K0.000 F600.000
G2 X49.674 Y10.720 Z-1.500 I-0.769 J-1.809 K0.000 F600.000
G2 X48.562 Y9.863 Z-1.500 I-1.807 J1.193 K0.000 F600.000
G2 X47.639 Y8.265 Z-1.500 I-1.596 J-0.143 K0.000 F600.000
G2 X45.037 Y8.338 Z-1.500 I-1.205 J3.460 K0.000 F600.000
G2 X44.249 Y8.785 Z-1.500 I0.577 J1.933 K0.000 F600.000
G2 X42.309 Y7.385 Z-1.500 I-31.799 J42.002 K0.000 F600.000
G2 X41.880 Y7.250 Z-1.500 I-0.429 J0.615 K0.000 F600.000
G1 X39.750 Y7.250 Z-1.500 F600.000
G1 X39.750 Y3.000 Z-1.500 F600.000
G2 X39.000 Y2.250 Z-1.500 I-0.750 J-0.000 K0.000 F600.000
G1 X33.000 Y2.250 Z-1.500 F600.000
G2 X32.250 Y3.000 Z-1.500 I0.000 J0.750 K0.000 F600.000
G1 X32.250 Y12.000 Z-1.500 F600.000
G2 X32.449 Y12.508 Z-1.500 I0.750 J-0.000 K0.000 F600.000
G0 Z5.000
G0 X30.485 Y-2.735 Z5.000
G0 X30.485 Y-2.735 Z3.000
G1 X30.485 Y-2.735 Z-1.500 F600.000
G2 X31.421 Y-2.969 Z-1.500 I-0.528 J-4.101 K0.000 F600.000
G2 X33.923 Y-5.455 Z-1.500 I-1.645 J-4.156 K0.000 F600.000
G2 X34.503 Y-8.463 Z-1.500 I-8.653 J-3.230 K0.000 F600.000
G3 X35.306 Y-8.449 Z-1.500 I0.230 J9.843 K0.000 F600.000
G3 X36.359 Y-8.088 Z-1.500 I-1.387 J5.759 K0.000 F600.000
G2 X41.058 Y-9.555 Z-1.500 I1.513 J-3.410 K0.000 F600.000
G3 X42.107 Y-10.119 Z-1.500 I0.825 J0.277 K0.000 F600.000
G2 X43.846 Y-9.654 Z-1.500 I2.264 J-4.985 K0.000 F600.000
G2 X46.295 Y-12.257 Z-1.500 I0.236 J-2.232 K0.000 F600.000
G2 X45.643 Y-14.288 Z-1.500 I-6.936 J1.106 K0.000 F600.000
G3 X45.791 Y-14.621 Z-1.500 I3.649 J1.426 K0.000 F600.000
G2 X47.393 Y-19.981 Z-1.500 I-10.704 J-6.120 K0.000 F600.000
G2 X46.087 Y-26.331 Z-1.500 I-12.906 J-0.653 K0.000 F600.000
G2 X46.855 Y-29.699 Z-1.500 I-3.805 J-2.640 K0.000 F600.000
G2 X45.065 Y-31.774 Z-1.500 I-2.357 J0.224 K0.000 F600.000
G2 X41.259 Y-30.915 Z-1.500 I-0.954 J4.634 K0.000 F600.000
G1 X40.697 Y-31.121 Z-1.500 F600.000
G2 X35.618 Y-31.929 Z-1.500 I-4.599 J12.550 K0.000 F600.000
G3 X35.501 Y-31.933 Z-1.500 I-0.051 J-0.239 K0.000 F600.000
G2 X34.348 Y-31.296 Z-1.500 I-0.399 J0.640 K0.000 F600.000
G1 X34.348 Y-27.066 Z-1.500 F600.000
G1 X26.848 Y-27.066 Z-1.500 F600.000
G1 X26.848 Y-31.566 Z-1.500 F600.000
G1 X31.098 Y-31.566 Z-1.500 F600.000
G2 X31.848 Y-32.316 Z-1.500 I-0.000 J-0.750 K0.000 F600.000
G1 X31.848 Y-35.196 Z-1.500 F600.000
G2 X31.483 Y-35.840 Z-1.500 I-0.750 J0.000 K0.000 F600.000
G2 X30.529 Y-36.095 Z-1.500 I-1.283 J2.884 K0.000 F600.000
G2 X29.206 Y-36.827 Z-1.500 I-9.476 J15.573 K0.000 F600.000
G2 X23.976 Y-37.919 Z-1.500 I-4.333 J7.681 K0.000 F600.000
G3 X23.434 Y-38.104 Z-1.500 I0.224 J-1.543 K0.000 F600.000
G3 X20.810 Y-39.352 Z-1.500 I24.823 J-55.596 K0.000 F600.000
G2 X19.952 Y-39.642 Z-1.500 I-1.691 J3.587 K0.000 F600.000
G2 X17.236 Y-39.392 Z-1.500 I-0.849 J5.665 K0.000 F600.000
G2 X16.508 Y-38.638 Z-1.500 I0.033 J0.760 K0.000 F600.000
G1 X16.508 Y-36.316 Z-1.500 F600.000
G2 X17.258 Y-35.566 Z-1.500 I0.750 J-0.000 K0.000 F600.000
G1 X18.348 Y-35.566 Z-1.500 F600.000
G1 X18.348 Y-32.066 Z-1.500 F600.000
G1 X11.909 Y-32.066 Z-1.500 F600.000
G1 X12.628 Y-32.785 Z-1.500 F600.000
G2 X12.848 Y-33.316 Z-1.500 I-0.530 J-0.530 K0.000 F600.000
G1 X12.848 Y-36.356 Z-1.500 F600.000
G2 X11.984 Y-37.097 Z-1.500 I-0.750 J0.000 K0.000 F600.000
G2 X10.190 Y-36.049 Z-1.500 I2.068 J5.594 K0.000 F600.000
G2 X6.609 Y-30.776 Z-1.500 I8.918 J9.909 K0.000 F600.000
G2 X6.352 Y-29.576 Z-1.500 I3.159 J1.304 K0.000 F600.000
G2 X6.816 Y-27.962 Z-1.500 I2.192 J0.244 K0.000 F600.000
G2 X6.683 Y-26.737 Z-1.500 I1.943 J0.830 K0.000 F600.000
G2 X9.755 Y-24.800 Z-1.500 I2.210 J-0.101 K0.000 F600.000
G2 X9.786 Y-24.238 Z-1.500 I4.933 J0.008 K0.000 F600.000
G2 X9.114 Y-24.230 Z-1.500 I-0.301 J3.233 K0.000 F600.000
G2 X7.676 Y-23.388 Z-1.500 I0.050 J1.734 K0.000 F600.000
G2 X7.374 Y-21.015 Z-1.500 I4.157 J1.735 K0.000 F600.000
G2 X7.192 Y-20.718 Z-1.500 I0.651 J0.603 K0.000 F600.000
G2 X6.948 Y-18.281 Z-1.500 I4.068 J1.639 K0.000 F600.000
G2 X9.209 Y-13.515 Z-1.500 I13.405 J-3.441 K0.000 F600.000
G2 X11.637 Y-11.091 Z-1.500 I6.633 J-4.215 K0.000 F600.000
G2 X13.597 Y-10.802 Z-1.500 I1.339 J-2.289 K0.000 F600.000
G3 X14.877 Y-9.933 Z-1.500 I-27.432 J41.812 K0.000 F600.000
G2 X20.274 Y-8.522 Z-1.500 I5.612 J-10.435 K0.000 F600.000
G3 X21.972 Y-8.498 Z-1.500 I0.687 J11.476 K0.000 F600.000
G2 X22.972 Y-9.202 Z-1.500 I0.254 J-0.701 K0.000 F600.000
G1 X22.972 Y-11.961 Z-1.500 F600.000
G2 X22.222 Y-12.711 Z-1.500 I-0.750 J0.000 K0.000 F600.000
G1 X21.002 Y-12.711 Z-1.500 F600.000
G1 X21.002 Y-15.795 Z-1.500 F600.000
G1 X29.816 Y-15.795 Z-1.500 F600.000
G1 X29.816 Y-12.711 Z-1.500 F600.000
G1 X28.274 Y-12.711 Z-1.500 F600.000
G2 X27.524 Y-11.961 Z-1.500 I0.000 J0.750 K0.000 F600.000
G1 X27.524 Y-9.774 Z-1.500 F600.000
G1 X26.842 Y-7.390 Z-1.500 F600.000
G1 X26.815 Y-7.239 Z-1.500 F600.000
G2 X26.983 Y-6.358 Z-1.500 I3.134 J-0.140 K0.000 F600.000
G2 X27.533 Y-4.298 Z-1.500 I7.996 J-1.033 K0.000 F600.000
G2 X29.544 Y-2.721 Z-1.500 I2.319 J-0.887 K0.000 F600.000
G2 X30.485 Y-2.735 Z-1.500 I0.412 J-4.115 K0.000 F600.000
G0 Z5.000
G0 X56.918 Y-15.647 Z5.000
G0 X56.918 Y-15.647 Z3.000
G1 X56.918 Y-15.647 Z-1.500 F600.000
G2 X58.209 Y-13.515 Z-1.500 I12.435 J-6.074 K0.000 F600.000
G2 X60.637 Y-11.091 Z-1.500 I6.633 J-4.215 K0.000 F600.000
G2 X62.597 Y-10.802 Z-1.500 I1.339 J-2.289 K0.000 F600.000
G3 X63.877 Y-9.933 Z-1.500 I-27.432 J41.812 K0.000 F600.000
G2 X69.274 Y-8.522 Z-1.500 I5.612 J-10.435 K0.000 F600.000
G3 X70.972 Y-8.498 Z-1.500 I0.687 J11.476 K0.000 F600.000
G2 X71.972 Y-9.202 Z-1.500 I0.254 J-0.701 K0.000 F600.000
G1 X71.972 Y-11.961 Z-1.500 F600.000
G2 X71.222 Y-12.711 Z-1.500 I-0.750 J0.000 K0.000 F600.000
G1 X70.002 Y-12.711 Z-1.500 F600.000
G1 X70.002 Y-15.795 Z-1.500 F600.000
G1 X78.816 Y-15.795 Z-1.500 F600.000
G1 X78.816 Y-12.711 Z-1.500 F600.000
G1 X77.274 Y-12.711 Z-1.500 F600.000
G2 X76.524 Y-11.961 Z-1.500 I0.000 J0.750 K0.000 F600.000
G1 X76.524 Y-9.774 Z-1.500 F600.000
G1 X75.842 Y-7.390 Z-1.500 F600.000
G1 X75.815 Y-7.239 Z-1.500 F600.000
G2 X75.983 Y-6.358 Z-1.500 I3.134 J-0.140 K0.000 F600.000
G2 X76.533 Y-4.298 Z-1.500 I7.996 J-1.033 K0.000 F600.000
G2 X78.544 Y-2.721 Z-1.500 I2.319 J-0.887 K0.000 F600.000
G2 X80.421 Y-2.969 Z-1.500 I0.412 J-4.115 K0.000 F600.000
G2 X82.923 Y-5.455 Z-1.500 I-1.645 J-4.156 K0.000 F600.000
G2 X83.503 Y-8.463 Z-1.500 I-8.653 J-3.230 K0.000 F600.000
G3 X84.306 Y-8.449 Z-1.500 I0.230 J9.843 K0.000 F600.000
G3 X85.359 Y-8.088 Z-1.500 I-1.387 J5.759 K0.000 F600.000
G2 X90.058 Y-9.555 Z-1.500 I1.513 J-3.410 K0.000 F600.000
G3 X91.107 Y-10.119 Z-1.500 I0.825 J0.277 K0.000 F600.000
G2 X92.846 Y-9.654 Z-1.500 I2.264 J-4.985 K0.000 F600.000
G2 X95.295 Y-12.257 Z-1.500 I0.236 J-2.232 K0.000 F600.000
G2 X94.643 Y-14.288 Z-1.500 I-6.936 J1.106 K0.000 F600.000
G3 X94.791 Y-14.621 Z-1.500 I3.649 J1.426 K0.000 F600.000
G2 X96.393 Y-19.981 Z-1.500 I-10.704 J-6.120 K0.000 F600.000
G2 X95.087 Y-26.331 Z-1.500 I-12.906 J-0.653 K0.000 F600.000
G2 X95.855 Y-29.699 Z-1.500 I-3.805 J-2.640 K0.000 F600.000
G2 X94.065 Y-31.774 Z-1.500 I-2.357 J0.224 K0.000 F600.000
G2 X90.259 Y-30.915 Z-1.500 I-0.954 J4.634 K0.000 F600.000
G1 X89.697 Y-31.121 Z-1.500 F600.000
G2 X84.618 Y-31.929 Z-1.500 I-4.599 J12.550 K0.000 F600.000
G3 X84.501 Y-31.933 Z-1.500 I-0.051 J-0.239 K0.000 F600.000
G2 X83.348 Y-31.296 Z-1.500 I-0.399 J0.640 K0.000 F600.000
G1 X83.348 Y-27.066 Z-1.500 F600.000
G1 X75.848 Y-27.066 Z-1.500 F600.000
G1 X75.848 Y-31.566 Z-1.500 F600.000
G1 X80.098 Y-31.566 Z-1.500 F600.000
G2 X80.848 Y-32.316 Z-1.500 I-0.000 J-0.750 K0.000 F600.000
G1 X80.848 Y-35.196 Z-1.500 F600.000
G2 X80.483 Y-35.840 Z-1.500 I-0.750 J0.000 K0.000 F600.000
G2 X79.529 Y-36.095 Z-1.500 I-1.283 J2.884 K0.000 F600.000
G2 X78.206 Y-36.827 Z-1.500 I-9.476 J15.573 K0.000 F600.000
G2 X72.976 Y-37.919 Z-1.500 I-4.333 J7.681 K0.000 F600.000
G3 X72.434 Y-38.104 Z-1.500 I0.224 J-1.543 K0.000 F600.000
G3 X69.810 Y-39.352 Z-1.500 I24.823 J-55.596 K0.000 F600.000
G2 X68.952 Y-39.642 Z-1.500 I-1.691 J3.587 K0.000 F600.000
G2 X66.236 Y-39.392 Z-1.500 I-0.849 J5.665 K0.000 F600.000
G2 X65.508 Y-38.638 Z-1.500 I0.033 J0.760 K0.000 F600.000
G1 X65.508 Y-36.316 Z-1.500 F600.000
G2 X66.258 Y-35.566 Z-1.500 I0.750 J-0.000 K0.000 F600.000
G1 X67.348 Y-35.566 Z-1.500 F600.000
G1 X67.348 Y-32.066 Z-1.500 F600.000
G1 X60.909 Y-32.066 Z-1.500 F600.000
G1 X61.628 Y-32.785 Z-1.500 F600.000
G2 X61.848 Y-33.316 Z-1.500 I-0.530 J-0.530 K0.000 F600.000
G1 X61.848 Y-36.356 Z-1.500 F600.000
G2 X60.984 Y-37.097 Z-1.500 I-0.750 J0.000 K0.000 F600.000
G2 X59.190 Y-36.049 Z-1.500 I2.068 J5.594 K0.000 F600.000
G2 X55.609 Y-30.776 Z-1.500 I8.918 J9.909 K0.000 F600.000
G2 X55.352 Y-29.576 Z-1.500 I3.159 J1.304 K0.000 F600.000
G2 X55.816 Y-27.962 Z-1.500 I2.192 J0.244 K0.000 F600.000
G2 X55.683 Y-26.737 Z-1.500 I1.943 J0.830 K0.000 F600.000
G2 X58.755 Y-24.800 Z-1.500 I2.210 J-0.101 K0.000 F600.000
G2 X58.786 Y-24.238 Z-1.500 I4.933 J0.008 K0.000 F600.000
G2 X58.114 Y-24.230 Z-1.500 I-0.301 J3.233 K0.000 F600.000
G2 X56.676 Y-23.388 Z-1.500 I0.050 J1.734 K0.000 F600.000
G2 X56.374 Y-21.015 Z-1.500 I4.157 J1.735 K0.000 F600.000
G2 X56.192 Y-20.718 Z-1.500 I0.651 J0.603 K0.000 F600.000
G2 X55.948 Y-18.281 Z-1.500 I4.068 J1.639 K0.000 F600.000
G2 X56.918 Y-15.647 Z-1.500 I13.405 J-3.441 K0.000 F600.000
G0 Z5.000
G0 X66.079 Y2.836 Z5.000
G0 X66.079 Y2.836 Z3.000
G1 X66.079 Y2.836 Z-1.500 F600.000
G2 X65.662 Y3.508 Z-1.500 I0.333 J0.672 K0.000 F600.000
G1 X65.662 Y8.092 Z-1.500 F600.000
G2 X66.412 Y8.842 Z-1.500 I0.750 J-0.000 K0.000 F600.000
G1 X67.632 Y8.842 Z-1.500 F600.000
G1 X67.632 Y10.478 Z-1.500 F600.000
G1 X67.454 Y10.613 Z-1.500 F600.000
G3 X65.516 Y11.298 Z-1.500 I-11.467 J-29.359 K0.000 F600.000
G3 X59.661 Y12.684 Z-1.500 I-15.889 J-54.061 K0.000 F600.000
G2 X56.266 Y13.340 Z-1.500 I4.677 J33.309 K0.000 F600.000
G2 X55.532 Y13.819 Z-1.500 I0.233 J1.159 K0.000 F600.000
G2 X55.380 Y14.429 Z-1.500 I1.851 J0.787 K0.000 F600.000
G2 X55.362 Y16.270 Z-1.500 I21.327 J1.125 K0.000 F600.000
G2 X55.741 Y17.792 Z-1.500 I2.330 J0.229 K0.000 F600.000
G3 X55.477 Y18.216 Z-1.500 I-2.817 J-1.454 K0.000 F600.000
G2 X54.264 Y20.546 Z-1.500 I36.701 J20.589 K0.000 F600.000
G2 X53.562 Y22.157 Z-1.500 I6.672 J3.865 K0.000 F600.000
G2 X54.268 Y23.511 Z-1.500 I1.055 J0.311 K0.000 F600.000
G2 X58.891 Y23.629 Z-1.500 I2.739 J-16.655 K0.000 F600.000
G2 X61.614 Y23.023 Z-1.500 I-0.657 J-9.368 K0.000 F600.000
G2 X64.043 Y21.648 Z-1.500 I-6.522 J-14.358 K0.000 F600.000
G2 X65.359 Y20.590 Z-1.500 I-3.054 J-5.144 K0.000 F600.000
G2 X64.956 Y19.168 Z-1.500 I-0.654 J-0.583 K0.000 F600.000
G3 X63.145 Y18.829 Z-1.500 I4.050 J-26.619 K0.000 F600.000
G3 X61.094 Y17.758 Z-1.500 I0.486 J-3.431 K0.000 F600.000
G3 X61.570 Y17.484 Z-1.500 I2.605 J3.973 K0.000 F600.000
G3 X63.453 Y16.617 Z-1.500 I86.681 J185.824 K0.000 F600.000
G3 X66.438 Y15.345 Z-1.500 I6.873 J11.992 K0.000 F600.000
G3 X73.640 Y13.606 Z-1.500 I10.420 J27.365 K0.000 F600.000
G2 X74.444 Y13.076 Z-1.500 I0.104 J-0.717 K0.000 F600.000
G1 X75.155 Y10.590 Z-1.500 F600.000
G1 X75.184 Y10.384 Z-1.500 F600.000
G1 X75.184 Y8.842 Z-1.500 F600.000
G1 X76.726 Y8.842 Z-1.500 F600.000
G2 X77.476 Y8.092 Z-1.500 I-0.000 J-0.750 K0.000 F600.000
G1 X77.476 Y3.508 Z-1.500 F600.000
G2 X76.726 Y2.758 Z-1.500 I-0.750 J0.000 K0.000 F600.000
G1 X66.412 Y2.758 Z-1.500 F600.000
G2 X66.079 Y2.836 Z-1.500 I0.000 J0.750 K0.000 F600.000
G0 Z5.000
G0 X81.250 Y3.000 Z5.000
G0 X81.250 Y3.000 Z3.000
G1 X81.250 Y3.000 Z-1.500 F600.000
G1 X81.250 Y12.000 Z-1.500 F600.000
G2 X82.000 Y12.750 Z-1.500 I0.750 J-0.000 K0.000 F600.000
G1 X86.980 Y12.750 Z-1.500 F600.000
G2 X87.540 Y12.546 Z-1.500 I-0.166 J-1.325 K0.000 F600.000
G3 X92.751 Y12.468 Z-1.500 I5.941 J223.047 K0.000 F600.000
G1 X92.801 Y12.605 Z-1.500 F600.000
G2 X94.816 Y14.716 Z-1.500 I2.635 J-0.499 K0.000 F600.000
G2 X97.144 Y13.629 Z-1.500 I0.547 J-1.866 K0.000 F600.000
G2 X97.701 Y13.439 Z-1.500 I-0.574 J-2.600 K0.000 F600.000
G2 X98.674 Y10.720 Z-1.500 I-0.769 J-1.809 K0.000 F600.000
G2 X97.562 Y9.863 Z-1.500 I-1.807 J1.193 K0.000 F600.000
G2 X96.639 Y8.265 Z-1.500 I-1.596 J-0.143 K0.000 F600.000
G2 X94.037 Y8.338 Z-1.500 I-1.205 J3.460 K0.000 F600.000
G2 X93.249 Y8.785 Z-1.500 I0.577 J1.933 K0.000 F600.000
G2 X91.309 Y7.385 Z-1.500 I-31.799 J42.003 K0.000 F600.000
G2 X90.880 Y7.250 Z-1.500 I-0.429 J0.615 K0.000 F600.000
G1 X88.750 Y7.250 Z-1.500 F600.000
G1 X88.750 Y3.000 Z-1.500 F600.000
G2 X88.000 Y2.250 Z-1.500 I-0.750 J-0.000 K0.000 F600.000
G1 X82.000 Y2.250 Z-1.500 F600.000
G2 X81.250 Y3.000 Z-1.500 I0.000 J0.750 K0.000 F600.000
G0 Z5.000
G0 X80.427 Y19.003 Z5.000
G0 X80.427 Y19.003 Z3.000
G1 X80.427 Y19.003 Z-1.500 F600.000
G2 X74.166 Y19.590 Z-1.500 I-1.119 J21.752 K0.000 F600.000
G2 X72.036 Y21.008 Z-1.500 I0.805 J3.517 K0.000 F600.000
G2 X71.477 Y22.776 Z-1.500 I2.349 J1.715 K0.000 F600.000
G2 X73.107 Y25.569 Z-1.500 I4.923 J-1.001 K0.000 F600.000
G2 X77.940 Y27.005 Z-1.500 I4.349 J-5.788 K0.000 F600.000
G2 X81.732 Y25.910 Z-1.500 I-1.294 J-11.599 K0.000 F600.000
G1 X83.250 Y25.910 Z-1.500 F600.000
G1 X83.250 Y27.000 Z-1.500 F600.000
G2 X84.000 Y27.750 Z-1.500 I0.750 J-0.000 K0.000 F600.000
G1 X89.000 Y27.750 Z-1.500 F600.000
G2 X89.750 Y27.000 Z-1.500 I-0.000 J-0.750 K0.000 F600.000
G1 X89.750 Y19.000 Z-1.500 F600.000
G2 X89.000 Y18.250 Z-1.500 I-0.750 J0.000 K0.000 F600.000
G1 X88.000 Y18.250 Z-1.500 F600.000
G2 X87.470 Y18.470 Z-1.500 I-0.000 J0.750 K0.000 F600.000
G1 X86.689 Y19.250 Z-1.500 F600.000
G1 X83.959 Y19.250 Z-1.500 F600.000
G2 X83.560 Y19.375 Z-1.500 I-0.024 J0.623 K0.000 F600.000
G2 X81.735 Y19.110 Z-1.500 I-2.121 J8.175 K0.000 F600.000
G2 X80.427 Y19.003 Z-1.500 I-2.427 J21.645 K0.000 F600.000
G0 Z5.000
G0 X76.040 Y36.306 Z5.000
G0 X76.040 Y36.306 Z3.000
G1 X76.040 Y36.306 Z-1.500 F600.000
G2 X72.976 Y36.081 Z-1.500 I-2.167 J8.548 K0.000 F600.000
G3 X72.434 Y35.896 Z-1.500 I0.224 J-1.543 K0.000 F600.000
G3 X69.810 Y34.648 Z-1.500 I24.823 J-55.596 K0.000 F600.000
G2 X68.952 Y34.358 Z-1.500 I-1.691 J3.587 K0.000 F600.000
G2 X66.236 Y34.608 Z-1.500 I-0.849 J5.665 K0.000 F600.000
G2 X65.508 Y35.362 Z-1.500 I0.033 J0.760 K0.000 F600.000
G1 X65.508 Y37.684 Z-1.500 F600.000
G2 X66.258 Y38.434 Z-1.500 I0.750 J-0.000 K0.000 F600.000
G1 X67.348 Y38.434 Z-1.500 F600.000
G1 X67.348 Y41.934 Z-1.500 F600.000
G1 X60.909 Y41.934 Z-1.500 F600.000
G1 X61.628 Y41.215 Z-1.500 F600.000
G2 X61.848 Y40.684 Z-1.500 I-0.530 J-0.530 K0.000 F600.000
G1 X61.848 Y37.644 Z-1.500 F600.000
G2 X60.984 Y36.903 Z-1.500 I-0.750 J0.000 K0.000 F600.000
G2 X59.190 Y37.951 Z-1.500 I2.068 J5.594 K0.000 F600.000
G2 X55.609 Y43.224 Z-1.500 I8.918 J9.909 K0.000 F600.000
G2 X55.352 Y44.424 Z-1.500 I3.159 J1.304 K0.000 F600.000
G2 X55.816 Y46.038 Z-1.500 I2.192 J0.244 K0.000 F600.000
G2 X55.683 Y47.263 Z-1.500 I1.943 J0.830 K0.000 F600.000
G2 X58.755 Y49.200 Z-1.500 I2.210 J-0.101 K0.000 F600.000
G2 X58.786 Y49.762 Z-1.500 I4.933 J0.008 K0.000 F600.000
G2 X58.114 Y49.770 Z-1.500 I-0.301 J3.233 K0.000 F600.000
G2 X56.676 Y50.612 Z-1.500 I0.050 J1.734 K0.000 F600.000
G2 X56.374 Y52.985 Z-1.500 I4.157 J1.735 K0.000 F600.000
G2 X56.192 Y53.282 Z-1.500 I0.651 J0.603 K0.000 F600.000
G2 X55.948 Y55.719 Z-1.500 I4.068 J1.639 K0.000 F600.000
G2 X58.209 Y60.485 Z-1.500 I13.405 J-3.441 K0.000 F600.000
G2 X60.637 Y62.909 Z-1.500 I6.633 J-4.215 K0.000 F600.000
G2 X62.597 Y63.198 Z-1.500 I1.339 J-2.289 K0.000 F600.000
G3 X63.877 Y64.067 Z-1.500 I-27.432 J41.812 K0.000 F600.000
G2 X69.274 Y65.478 Z-1.500 I5.612 J-10.435 K0.000 F600.000
G3 X70.972 Y65.502 Z-1.500 I0.687 J11.476 K0.000 F600.000
G2 X71.972 Y64.798 Z-1.500 I0.254 J-0.701 K0.000 F600.000
G1 X71.972 Y62.039 Z-1.500 F600.000
G2 X71.222 Y61.289 Z-1.500 I-0.750 J0.000 K0.000 F600.000
G1 X70.002 Y61.289 Z-1.500 F600.000
G1 X70.002 Y58.205 Z-1.500 F600.000
G1 X78.816 Y58.205 Z-1.500 F600.000
G1 X78.816 Y61.289 Z-1.500 F600.000
G1 X77.274 Y61.289 Z-1.500 F600.000
G2 X76.524 Y62.039 Z-1.500 I0.000 J0.750 K0.000 F600.000
G1 X76.524 Y64.226 Z-1.500 F600.000
G1 X75.842 Y66.610 Z-1.500 F600.000
G1 X75.815 Y66.761 Z-1.500 F600.000
G2 X75.983 Y67.642 Z-1.500 I3.134 J-0.140 K0.000 F600.000
G2 X76.533 Y69.702 Z-1.500 I7.996 J-1.033 K0.000 F600.000
G2 X78.544 Y71.279 Z-1.500 I2.319 J-0.887 K0.000 F600.000
G2 X80.421 Y71.031 Z-1.500 I0.412 J-4.115 K0.000 F600.000
G2 X82.923 Y68.545 Z-1.500 I-1.645 J-4.156 K0.000 F600.000
G2 X83.503 Y65.537 Z-1.500 I-8.653 J-3.230 K0.000 F600.000
G3 X84.306 Y65.551 Z-1.500 I0.230 J9.843 K0.000 F600.000
G3 X85.359 Y65.912 Z-1.500 I-1.387 J5.759 K0.000 F600.000
G2 X90.058 Y64.445 Z-1.500 I1.513 J-3.410 K0.000 F600.000
G3 X91.107 Y63.881 Z-1.500 I0.825 J0.277 K0.000 F600.000
G2 X92.846 Y64.346 Z-1.500 I2.264 J-4.985 K0.000 F600.000
G2 X95.295 Y61.743 Z-1.500 I0.236 J-2.232 K0.000 F600.000
G2 X94.643 Y59.712 Z-1.500 I-6.936 J1.106 K0.000 F600.000
G3 X94.791 Y59.379 Z-1.500 I3.649 J1.426 K0.000 F600.000
G2 X96.393 Y54.019 Z-1.500 I-10.704 J-6.120 K0.000 F600.000
G2 X95.087 Y47.669 Z-1.500 I-12.906 J-0.653 K0.000 F600.000
G2 X95.855 Y44.301 Z-1.500 I-3.805 J-2.640 K0.000 F600.000
G2 X94.065 Y42.226 Z-1.500 I-2.357 J0.224 K0.000 F600.000
G2 X90.259 Y43.085 Z-1.500 I-0.954 J4.634 K0.000 F600.000
G1 X89.697 Y42.879 Z-1.500 F600.000
G2 X84.618 Y42.071 Z-1.500 I-4.599 J12.550 K0.000 F600.000
G3 X84.501 Y42.067 Z-1.500 I-0.051 J-0.239 K0.000 F600.000
G2 X83.348 Y42.704 Z-1.500 I-0.399 J0.640 K0.000 F600.000
G1 X83.348 Y46.934 Z-1.500 F600.000
G1 X75.848 Y46.934 Z-1.500 F600.000
G1 X75.848 Y42.434 Z-1.500 F600.000
G1 X80.098 Y42.434 Z-1.500 F600.000
G2 X80.848 Y41.684 Z-1.500 I-0.000 J-0.750 K0.000 F600.000
G1 X80.848 Y38.804 Z-1.500 F600.000
G2 X80.483 Y38.160 Z-1.500 I-0.750 J0.000 K0.000 F600.000
G2 X79.529 Y37.905 Z-1.500 I-1.283 J2.884 K0.000 F600.000
G2 X78.206 Y37.173 Z-1.500 I-9.476 J15.573 K0.000 F600.000
G2 X76.040 Y36.306 Z-1.500 I-4.333 J7.681 K0.000 F600.000
G0 Z5.000
G0 X104.460 Y43.671 Z5.000
G0 X104.460 Y43.671 Z3.000
G1 X104.460 Y43.671 Z-1.500 F600.000
G2 X104.352 Y44.424 Z-1.500 I3.309 J0.857 K0.000 F600.000
G2 X104.816 Y46.038 Z-1.500 I2.192 J0.244 K0.000 F600.000
G2 X104.683 Y47.263 Z-1.500 I1.943 J0.830 K0.000 F600.000
G2 X107.755 Y49.200 Z-1.500 I2.210 J-0.101 K0.000 F600.000
G2 X107.786 Y49.762 Z-1.500 I4.933 J0.008 K0.000 F600.000
G2 X107.114 Y49.770 Z-1.500 I-0.301 J3.233 K0.000 F600.000
G2 X105.676 Y50.612 Z-1.500 I0.050 J1.734 K0.000 F600.000
G2 X105.374 Y52.985 Z-1.500 I4.157 J1.735 K0.000 F600.000
G2 X105.192 Y53.282 Z-1.500 I0.651 J0.603 K0.000 F600.000
G2 X104.948 Y55.719 Z-1.500 I4.068 J1.639 K0.000 F600.000
G2 X107.209 Y60.485 Z-1.500 I13.405 J-3.441 K0.000 F600.000
G2 X109.637 Y62.909 Z-1.500 I6.633 J-4.215 K0.000 F600.000
G2 X111.597 Y63.198 Z-1.500 I1.339 J-2.289 K0.000 F600.000
G3 X112.877 Y64.067 Z-1.500 I-27.432 J41.812 K0.000 F600.000
G2 X118.274 Y65.478 Z-1.500 I5.612 J-10.435 K0.000 F600.000
G3 X119.972 Y65.502 Z-1.500 I0.687 J11.476 K0.000 F600.000
G2 X120.972 Y64.798 Z-1.500 I0.254 J-0.701 K0.000 F600.000
G1 X120.972 Y62.039 Z-1.500 F600.000
G2 X120.222 Y61.289 Z-1.500 I-0.750 J0.000 K0.000 F600.000
G1 X119.002 Y61.289 Z-1.500 F600.000
G1 X119.002 Y58.205 Z-1.500 F600.000
G1 X127.816 Y58.205 Z-1.500 F600.000
G1 X127.816 Y61.289 Z-1.500 F600.000
G1 X126.274 Y61.289 Z-1.500 F600.000
G2 X125.524 Y62.039 Z-1.500 I0.000 J0.750 K0.000 F600.000
G1 X125.524 Y64.226 Z-1.500 F600.000
G1 X124.842 Y66.610 Z-1.500 F600.000
G1 X124.815 Y66.761 Z-1.500 F600.000
G2 X124.983 Y67.642 Z-1.500 I3.134 J-0.140 K0.000 F600.000
G2 X125.533 Y69.702 Z-1.500 I7.996 J-1.033 K0.000 F600.000
G2 X127.544 Y71.279 Z-1.500 I2.319 J-0.887 K0.000 F600.000
G2 X129.421 Y71.031 Z-1.500 I0.412 J-4.115 K0.000 F600.000
G2 X131.923 Y68.545 Z-1.500 I-1.645 J-4.156 K0.000 F600.000
G2 X132.503 Y65.537 Z-1.500 I-8.653 J-3.230 K0.000 F600.000
G3 X133.306 Y65.551 Z-1.500 I0.230 J9.843 K0.000 F600.000
G3 X134.359 Y65.912 Z-1.500 I-1.387 J5.759 K0.000 F600.000
G2 X139.058 Y64.445 Z-1.500 I1.513 J-3.410 K0.000 F600.000
G3 X140.107 Y63.881 Z-1.500 I0.825 J0.277 K0.000 F600.000
G2 X141.846 Y64.346 Z-1.500 I2.264 J-4.985 K0.000 F600.000
G2 X144.295 Y61.743 Z-1.500 I0.236 J-2.232 K0.000 F600.000
G2 X143.643 Y59.712 Z-1.500 I-6.936 J1.106 K0.000 F600.000
G3 X143.791 Y59.379 Z-1.500 I3.649 J1.426 K0.000 F600.000
G2 X145.393 Y54.019 Z-1.500 I-10.704 J-6.120 K0.000 F600.000
G2 X144.087 Y47.669 Z-1.500 I-12.906 J-0.653 K0.000 F600.000
G2 X144.855 Y44.301 Z-1.500 I-3.805 J-2.640 K0.000 F600.000
G2 X143.065 Y42.226 Z-1.500 I-2.357 J0.224 K0.000 F600.000
G2 X139.259 Y43.085 Z-1.500 I-0.954 J4.634 K0.000 F600.000
G1 X138.697 Y42.879 Z-1.500 F600.000
G2 X133.618 Y42.071 Z-1.500 I-4.599 J12.550 K0.000 F600.000
G3 X133.501 Y42.067 Z-1.500 I-0.051 J-0.239 K0.000 F600.000
G2 X132.348 Y42.704 Z-1.500 I-0.399 J0.640 K0.000 F600.000
G1 X132.348 Y46.934 Z-1.500 F600.000
G1 X124.848 Y46.934 Z-1.500 F600.000
G1 X124.848 Y42.434 Z-1.500 F600.000
G1 X129.098 Y42.434 Z-1.500 F600.000
G2 X129.848 Y41.684 Z-1.500 I-0.000 J-0.750 K0.000 F600.000
G1 X129.848 Y38.804 Z-1.500 F600.000
G2 X129.483 Y38.160 Z-1.500 I-0.750 J0.000 K0.000 F600.000
G2 X128.529 Y37.905 Z-1.500 I-1.283 J2.884 K0.000 F600.000
G2 X127.206 Y37.173 Z-1.500 I-9.476 J15.573 K0.000 F600.000
G2 X121.976 Y36.081 Z-1.500 I-4.333 J7.681 K0.000 F600.000
G3 X121.434 Y35.896 Z-1.500 I0.224 J-1.543 K0.000 F600.000
G3 X118.810 Y34.648 Z-1.500 I24.823 J-55.596 K0.000 F600.000
G2 X117.952 Y34.358 Z-1.500 I-1.691 J3.587 K0.000 F600.000
G2 X115.236 Y34.608 Z-1.500 I-0.849 J5.665 K0.000 F600.000
G2 X114.508 Y35.362 Z-1.500 I0.033 J0.760 K0.000 F600.000
G1 X114.508 Y37.684 Z-1.500 F600.000
G2 X115.258 Y38.434 Z-1.500 I0.750 J-0.000 K0.000 F600.000
G1 X116.348 Y38.434 Z-1.500 F600.000
G1 X116.348 Y41.934 Z-1.500 F600.000
G1 X109.909 Y41.934 Z-1.500 F600.000
G1 X110.628 Y41.215 Z-1.500 F600.000
G2 X110.848 Y40.684 Z-1.500 I-0.530 J-0.530 K0.000 F600.000
G1 X110.848 Y37.644 Z-1.500 F600.000
G2 X109.984 Y36.903 Z-1.500 I-0.750 J0.000 K0.000 F600.000
G2 X108.190 Y37.951 Z-1.500 I2.068 J5.594 K0.000 F600.000
G2 X104.609 Y43.224 Z-1.500 I8.918 J9.909 K0.000 F600.000
G2 X104.460 Y43.671 Z-1.500 I3.159 J1.304 K0.000 F600.000
G0 Z5.000
G0 X105.298 Y23.720 Z5.000
G0 X105.298 Y23.720 Z3.000
G1 X105.298 Y23.720 Z-1.500 F600.000
G2 X107.891 Y23.629 Z-1.500 I0.709 J-16.864 K0.000 F600.000
G2 X110.614 Y23.023 Z-1.500 I-0.657 J-9.368 K0.000 F600.000
G2 X113.043 Y21.648 Z-1.500 I-6.522 J-14.358 K0.000 F600.000
G2 X114.359 Y20.590 Z-1.500 I-3.054 J-5.144 K0.000 F600.000
G2 X113.956 Y19.168 Z-1.500 I-0.654 J-0.583 K0.000 F600.000
G3 X112.145 Y18.829 Z-1.500 I4.050 J-26.619 K0.000 F600.000
G3 X110.094 Y17.758 Z-1.500 I0.486 J-3.431 K0.000 F600.000
G3 X110.570 Y17.484 Z-1.500 I2.605 J3.973 K0.000 F600.000
G3 X112.453 Y16.617 Z-1.500 I86.681 J185.824 K0.000 F600.000
G3 X115.438 Y15.345 Z-1.500 I6.873 J11.992 K0.000 F600.000
G3 X122.640 Y13.606 Z-1.500 I10.420 J27.365 K0.000 F600.000
G2 X123.444 Y13.076 Z-1.500 I0.104 J-0.717 K0.000 F600.000
G1 X124.155 Y10.590 Z-1.500 F600.000
G1 X124.184 Y10.384 Z-1.500 F600.000
G1 X124.184 Y8.842 Z-1.500 F600.000
G1 X125.726 Y8.842 Z-1.500 F600.000
G2 X126.476 Y8.092 Z-1.500 I-0.000 J-0.750 K0.000 F600.000
G1 X126.476 Y3.508 Z-1.500 F600.000
G2 X125.726 Y2.758 Z-1.500 I-0.750 J0.000 K0.000 F600.000
G1 X115.412 Y2.758 Z-1.500 F600.000
G2 X114.662 Y3.508 Z-1.500 I0.000 J0.750 K0.000 F600.000
G1 X114.662 Y8.092 Z-1.500 F600.000
G2 X115.412 Y8.842 Z-1.500 I0.750 J-0.000 K0.000 F600.000
G1 X116.632 Y8.842 Z-1.500 F600.000
G1 X116.632 Y10.478 Z-1.500 F600.000
G1 X116.454 Y10.613 Z-1.500 F600.000
G3 X114.516 Y11.298 Z-1.500 I-11.467 J-29.359 K0.000 F600.000
G3 X108.661 Y12.684 Z-1.500 I-15.889 J-54.061 K0.000 F600.000
G2 X105.266 Y13.340 Z-1.500 I4.677 J33.309 K0.000 F600.000
G2 X104.532 Y13.819 Z-1.500 I0.233 J1.159 K0.000 F600.000
G2 X104.380 Y14.429 Z-1.500 I1.851 J0.787 K0.000 F600.000
G2 X104.362 Y16.270 Z-1.500 I21.327 J1.125 K0.000 F600.000
G2 X104.741 Y17.792 Z-1.500 I2.330 J0.229 K0.000 F600.000
G3 X104.477 Y18.216 Z-1.500 I-2.817 J-1.454 K0.000 F600.000
G2 X103.264 Y20.546 Z-1.500 I36.701 J20.589 K0.000 F600.000
G2 X102.562 Y22.157 Z-1.500 I6.672 J3.866 K0.000 F600.000
G2 X103.268 Y23.511 Z-1.500 I1.055 J0.311 K0.000 F600.000
G2 X105.298 Y23.720 Z-1.500 I2.739 J-16.655 K0.000 F600.000
G0 Z5.000
G0 X120.477 Y22.776 Z5.000
G0 X120.477 Y22.776 Z3.000
G1 X120.477 Y22.776 Z-1.500 F600.000
G2 X122.107 Y25.569 Z-1.500 I4.923 J-1.001 K0.000 F600.000
G2 X126.940 Y27.005 Z-1.500 I4.349 J-5.788 K0.000 F600.000
G2 X130.732 Y25.910 Z-1.500 I-1.294 J-11.599 K0.000 F600.000
G1 X132.250 Y25.910 Z-1.500 F600.000
G1 X132.250 Y27.000 Z-1.500 F600.000
G2 X133.000 Y27.750 Z-1.500 I0.750 J-0.000 K0.000 F600.000
G1 X138.000 Y27.750 Z-1.500 F600.000
G2 X138.750 Y27.000 Z-1.500 I-0.000 J-0.750 K0.000 F600.000
G1 X138.750 Y19.000 Z-1.500 F600.000
G2 X138.000 Y18.250 Z-1.500 I-0.750 J0.000 K0.000 F600.000
G1 X137.000 Y18.250 Z-1.500 F600.000
G2 X136.470 Y18.470 Z-1.500 I-0.000 J0.750 K0.000 F600.000
G1 X135.689 Y19.250 Z-1.500 F600.000
G1 X132.959 Y19.250 Z-1.500 F600.000
G2 X132.560 Y19.375 Z-1.500 I-0.024 J0.623 K0.000 F600.000
G2 X130.735 Y19.110 Z-1.500 I-2.121 J8.175 K0.000 F600.000
G2 X123.166 Y19.590 Z-1.500 I-2.427 J21.645 K0.000 F600.000
G2 X121.036 Y21.008 Z-1.500 I0.805 J3.517 K0.000 F600.000
G2 X120.477 Y22.776 Z-1.500 I2.349 J1.715 K0.000 F600.000
G0 Z5.000
G0 X130.476 Y12.537 Z5.000
G0 X130.476 Y12.537 Z3.000
G1 X130.476 Y12.537 Z-1.500 F600.000
G2 X131.000 Y12.750 Z-1.500 I0.524 J-0.537 K0.000 F600.000
G1 X135.980 Y12.750 Z-1.500 F600.000
G2 X136.540 Y12.546 Z-1.500 I-0.166 J-1.325 K0.000 F600.000
G3 X141.751 Y12.468 Z-1.500 I5.941 J223.047 K0.000 F600.000
G1 X141.801 Y12.605 Z-1.500 F600.000
G2 X143.816 Y14.716 Z-1.500 I2.635 J-0.499 K0.000 F600.000
G2 X146.144 Y13.629 Z-1.500 I0.547 J-1.866 K0.000 F600.000
G2 X146.701 Y13.439 Z-1.500 I-0.574 J-2.600 K0.000 F600.000
G2 X147.674 Y10.720 Z-1.500 I-0.769 J-1.809 K0.000 F600.000
G2 X146.562 Y9.863 Z-1.500 I-1.807 J1.193 K0.000 F600.000
G2 X145.639 Y8.265 Z-1.500 I-1.596 J-0.143 K0.000 F600.000
G2 X143.037 Y8.338 Z-1.500 I-1.205 J3.460 K0.000 F600.000
G2 X142.249 Y8.785 Z-1.500 I0.577 J1.933 K0.000 F600.000
G2 X140.309 Y7.385 Z-1.500 I-31.799 J42.003 K0.000 F600.000
G2 X139.880 Y7.250 Z-1.500 I-0.429 J0.615 K0.000 F600.000
G1 X137.750 Y7.250 Z-1.500 F600.000
G1 X137.750 Y3.000 Z-1.500 F600.000
G2 X137.000 Y2.250 Z-1.500 I-0.750 J-0.000 K0.000 F600.000
G1 X131.000 Y2.250 Z-1.500 F600.000
G2 X130.250 Y3.000 Z-1.500 I0.000 J0.750 K0.000 F600.000
G1 X130.250 Y12.000 Z-1.500 F600.000
G2 X130.476 Y12.537 Z-1.500 I0.750 J-0.000 K0.000 F600.000
G0 Z5.000
G0 X128.489 Y-2.735 Z5.000
G0 X128.489 Y-2.735 Z3.000
G1 X128.489 Y-2.735 Z-1.500 F600.000
G2 X129.421 Y-2.969 Z-1.500 I-0.533 J-4.101 K0.000 F600.000
G2 X131.923 Y-5.455 Z-1.500 I-1.645 J-4.156 K0.000 F600.000
G2 X132.503 Y-8.463 Z-1.500 I-8.653 J-3.230 K0.000 F600.000
G3 X133.306 Y-8.449 Z-1.500 I0.230 J9.843 K0.000 F600.000
G3 X134.359 Y-8.088 Z-1.500 I-1.387 J5.759 K0.000 F600.000
G2 X139.058 Y-9.555 Z-1.500 I1.513 J-3.410 K0.000 F600.000
G3 X140.107 Y-10.119 Z-1.500 I0.825 J0.277 K0.000 F600.000
G2 X141.846 Y-9.654 Z-1.500 I2.264 J-4.985 K0.000 F600.000
G2 X144.295 Y-12.257 Z-1.500 I0.236 J-2.232 K0.000 F600.000
G2 X143.643 Y-14.288 Z-1.500 I-6.936 J1.106 K0.000 F600.000
G3 X143.791 Y-14.621 Z-1.500 I3.649 J1.426 K0.000 F600.000
G2 X145.393 Y-19.981 Z-1.500 I-10.704 J-6.120 K0.000 F600.000
G2 X144.087 Y-26.331 Z-1.500 I-12.906 J-0.653 K0.000 F600.000
G2 X144.855 Y-29.699 Z-1.500 I-3.805 J-2.640 K0.000 F600.000
G2 X143.065 Y-31.774 Z-1.500 I-2.357 J0.224 K0.000 F600.000
G2 X139.259 Y-30.915 Z-1.500 I-0.954 J4.634 K0.000 F600.000
G1 X138.697 Y-31.121 Z-1.500 F600.000
G2 X133.618 Y-31.929 Z-1.500 I-4.599 J12.550 K0.000 F600.000
G3 X133.501 Y-31.933 Z-1.500 I-0.051 J-0.239 K0.000 F600.000
G2 X132.348 Y-31.296 Z-1.500 I-0.399 J0.640 K0.000 F600.000
G1 X132.348 Y-27.066 Z-1.500 F600.000
G1 X124.848 Y-27.066 Z-1.500 F600.000
G1 X124.848 Y-31.566 Z-1.500 F600.000
G1 X129.098 Y-31.566 Z-1.500 F600.000
G2 X129.848 Y-32.316 Z-1.500 I-0.000 J-0.750 K0.000 F600.000
G1 X129.848 Y-35.196 Z-1.500 F600.000
G2 X129.483 Y-35.840 Z-1.500 I-0.750 J0.000 K0.000 F600.000
G2 X128.529 Y-36.095 Z-1.500 I-1.283 J2.884 K0.000 F600.000
G2 X127.206 Y-36.827 Z-1.500 I-9.476 J15.573 K0.000 F600.000
G2 X121.976 Y-37.919 Z-1.500 I-4.333 J7.681 K0.000 F600.000
G3 X121.434 Y-38.104 Z-1.500 I0.224 J-1.543 K0.000 F600.000
G3 X118.810 Y-39.352 Z-1.500 I24.823 J-55.596 K0.000 F600.000
G2 X117.952 Y-39.642 Z-1.500 I-1.691 J3.587 K0.000 F600.000
G2 X115.236 Y-39.392 Z-1.500 I-0.849 J5.665 K0.000 F600.000
G2 X114.508 Y-38.638 Z-1.500 I0.033 J0.760 K0.000 F600.000
G1 X114.508 Y-36.316 Z-1.500 F600.000
G2 X115.258 Y-35.566 Z-1.500 I0.750 J-0.000 K0.000 F600.000
G1 X116.348 Y-35.566 Z-1.500 F600.000
G1 X116.348 Y-32.066 Z-1.500 F600.000
G1 X109.909 Y-32.066 Z-1.500 F600.000
G1 X110.628 Y-32.785 Z-1.500 F600.000
G2 X110.848 Y-33.316 Z-1.500 I-0.530 J-0.530 K0.000 F600.000
G1 X110.848 Y-36.356 Z-1.500 F600.000
G2 X109.984 Y-37.097 Z-1.500 I-0.750 J0.000 K0.000 F600.000
G2 X108.190 Y-36.049 Z-1.500 I2.068 J5.594 K0.000 F600.000
G2 X104.609 Y-30.776 Z-1.500 I8.918 J9.909 K0.000 F600.000
G2 X104.352 Y-29.576 Z-1.500 I3.159 J1.304 K0.000 F600.000
G2 X104.816 Y-27.962 Z-1.500 I2.192 J0.244 K0.000 F600.000
G2 X104.683 Y-26.737 Z-1.500 I1.943 J0.830 K0.000 F600.000
G2 X107.755 Y-24.800 Z-1.500 I2.210 J-0.101 K0.000 F600.000
G2 X107.786 Y-24.238 Z-1.500 I4.933 J0.008 K0.000 F600.000
G2 X107.114 Y-24.230 Z-1.500 I-0.301 J3.233 K0.000 F600.000
G2 X105.676 Y-23.388 Z-1.500 I0.050 J1.734 K0.000 F600.000
G2 X105.374 Y-21.015 Z-1.500 I4.157 J1.735 K0.000 F600.000
G2 X105.192 Y-20.718 Z-1.500 I0.651 J0.603 K0.000 F600.000
G2 X104.948 Y-18.281 Z-1.500 I4.068 J1.639 K0.000 F600.000
G2 X107.209 Y-13.515 Z-1.500 I13.405 J-3.441 K0.000 F600.000
G2 X109.637 Y-11.091 Z-1.500 I6.633 J-4.215 K0.000 F600.000
G2 X111.597 Y-10.802 Z-1.500 I1.339 J-2.289 K0.000 F600.000
G3 X112.877 Y-9.933 Z-1.500 I-27.432 J41.812 K0.000 F600.000
G2 X118.274 Y-8.522 Z-1.500 I5.612 J-10.435 K0.000 F600.000
G3 X119.972 Y-8.498 Z-1.500 I0.687 J11.476 K0.000 F600.000
G2 X120.972 Y-9.202 Z-1.500 I0.254 J-0.701 K0.000 F600.000
G1 X120.972 Y-11.961 Z-1.500 F600.000
G2 X120.222 Y-12.711 Z-1.500 I-0.750 J0.000 K0.000 F600.000
G1 X119.002 Y-12.711 Z-1.500 F600.000
G1 X119.002 Y-15.795 Z-1.500 F600.000
G1 X127.816 Y-15.795 Z-1.500 F600.000
G1 X127.816 Y-12.711 Z-1.500 F600.000
G1 X126.274 Y-12.711 Z-1.500 F600.000
G2 X125.524 Y-11.961 Z-1.500 I0.000 J0.750 K0.000 F600.000
G1 X125.524 Y-9.774 Z-1.500 F600.000
G1 X124.842 Y-7.390 Z-1.500 F600.000
G1 X124.815 Y-7.239 Z-1.500 F600.000
G2 X124.983 Y-6.358 Z-1.500 I3.134 J-0.140 K0.000 F600.000
G2 X125.533 Y-4.298 Z-1.500 I7.996 J-1.033 K0.000 F600.000
G2 X127.544 Y-2.721 Z-1.500 I2.319 J-0.887 K0.000 F600.000
G2 X128.489 Y-2.735 Z-1.500 I0.412 J-4.115 K0.000 F600.000
G0 Z5.000
G0 X154.918 Y-15.647 Z5.000
G0 X154.918 Y-15.647 Z3.000
G1 X154.918 Y-15.647 Z-1.500 F600.000
G2 X156.209 Y-13.515 Z-1.500 I12.435 J-6.075 K0.000 F600.000
G2 X158.637 Y-11.091 Z-1.500 I6.633 J-4.215 K0.000 F600.000
G2 X160.597 Y-10.802 Z-1.500 I1.339 J-2.289 K0.000 F600.000
G3 X161.877 Y-9.933 Z-1.500 I-27.432 J41.812 K0.000 F600.000
G2 X167.274 Y-8.522 Z-1.500 I5.612 J-10.435 K0.000 F600.000
G3 X168.972 Y-8.498 Z-1.500 I0.687 J11.476 K0.000 F600.000
G2 X169.972 Y-9.202 Z-1.500 I0.254 J-0.701 K0.000 F600.000
G1 X169.972 Y-11.961 Z-1.500 F600.000
G2 X169.222 Y-12.711 Z-1.500 I-0.750 J0.000 K0.000 F600.000
G1 X168.002 Y-12.711 Z-1.500 F600.000
G1 X168.002 Y-15.795 Z-1.500 F600.000
G1 X176.816 Y-15.795 Z-1.500 F600.000
G1 X176.816 Y-12.711 Z-1.500 F600.000
G1 X175.274 Y-12.711 Z-1.500 F600.000
G2 X174.524 Y-11.961 Z-1.500 I0.000 J0.750 K0.000 F600.000
G1 X174.524 Y-9.774 Z-1.500 F600.000
G1 X173.842 Y-7.390 Z-1.500 F600.000
G1 X173.815 Y-7.239 Z-1.500 F600.000
G2 X173.983 Y-6.358 Z-1.500 I3.134 J-0.140 K0.000 F600.000
G2 X174.533 Y-4.298 Z-1.500 I7.996 J-1.033 K0.000 F600.000
G2 X176.544 Y-2.721 Z-1.500 I2.319 J-0.887 K0.000 F600.000
G2 X178.421 Y-2.969 Z-1.500 I0.412 J-4.115 K0.000 F600.000
G2 X180.923 Y-5.455 Z-1.500 I-1.645 J-4.156 K0.000 F600.000
G2 X181.503 Y-8.463 Z-1.500 I-8.653 J-3.230 K0.000 F600.000
G3 X182.306 Y-8.449 Z-1.500 I0.230 J9.843 K0.000 F600.000
G3 X183.359 Y-8.088 Z-1.500 I-1.387 J5.759 K0.000 F600.000
G2 X188.058 Y-9.555 Z-1.500 I1.513 J-3.410 K0.000 F600.000
G3 X189.107 Y-10.119 Z-1.500 I0.825 J0.277 K0.000 F600.000
G2 X190.846 Y-9.654 Z-1.500 I2.264 J-4.985 K0.000 F600.000
G2 X193.295 Y-12.257 Z-1.500 I0.236 J-2.232 K0.000 F600.000
G2 X192.643 Y-14.288 Z-1.500 I-6.936 J1.106 K0.000 F600.000
G3 X192.791 Y-14.621 Z-1.500 I3.649 J1.426 K0.000 F600.000
G2 X194.393 Y-19.981 Z-1.500 I-10.704 J-6.120 K0.000 F600.000
G2 X193.087 Y-26.331 Z-1.500 I-12.906 J-0.653 K0.000 F600.000
G2 X193.855 Y-29.699 Z-1.500 I-3.805 J-2.640 K0.000 F600.000
G2 X192.065 Y-31.774 Z-1.500 I-2.357 J0.224 K0.000 F600.000
G2 X188.259 Y-30.915 Z-1.500 I-0.954 J4.634 K0.000 F600.000
G1 X187.697 Y-31.121 Z-1.500 F600.000
G2 X182.618 Y-31.929 Z-1.500 I-4.599 J12.550 K0.000 F600.000
G3 X182.501 Y-31.933 Z-1.500 I-0.051 J-0.239 K0.000 F600.000
G2 X181.348 Y-31.296 Z-1.500 I-0.399 J0.640 K0.000 F600.000
G1 X181.348 Y-27.066 Z-1.500 F600.000
G1 X173.848 Y-27.066 Z-1.500 F600.000
G1 X173.848 Y-31.566 Z-1.500 F600.000
G1 X178.098 Y-31.566 Z-1.500 F600.000
G2 X178.848 Y-32.316 Z-1.500 I-0.000 J-0.750 K0.000 F600.000
G1 X178.848 Y-35.196 Z-1.500 F600.000
G2 X178.483 Y-35.840 Z-1.500 I-0.750 J0.000 K0.000 F600.000
G2 X177.529 Y-36.095 Z-1.500 I-1.283 J2.884 K0.000 F600.000
G2 X176.206 Y-36.827 Z-1.500 I-9.476 J15.573 K0.000 F600.000
G2 X170.976 Y-37.919 Z-1.500 I-4.333 J7.681 K0.000 F600.000
G3 X170.434 Y-38.104 Z-1.500 I0.224 J-1.543 K0.000 F600.000
G3 X167.810 Y-39.352 Z-1.500 I24.823 J-55.596 K0.000 F600.000
G2 X166.952 Y-39.642 Z-1.500 I-1.691 J3.587 K0.000 F600.000
G2 X164.236 Y-39.392 Z-1.500 I-0.849 J5.665 K0.000 F600.000
G2 X163.508 Y-38.638 Z-1.500 I0.033 J0.760 K0.000 F600.000
G1 X163.508 Y-36.316 Z-1.500 F600.000
G2 X164.258 Y-35.566 Z-1.500 I0.750 J-0.000 K0.000 F600.000
G1 X165.348 Y-35.566 Z-1.500 F600.000
G1 X165.348 Y-32.066 Z-1.500 F600.000
G1 X158.909 Y-32.066 Z-1.500 F600.000
G1 X159.628 Y-32.785 Z-1.500 F600.000
G2 X159.848 Y-33.316 Z-1.500 I-0.530 J-0.530 K0.000 F600.000
G1 X159.848 Y-36.356 Z-1.500 F600.000
G2 X158.984 Y-37.097 Z-1.500 I-0.750 J0.000 K0.000 F600.000
G2 X157.190 Y-36.049 Z-1.500 I2.068 J5.594 K0.000 F600.000
G2 X153.609 Y-30.776 Z-1.500 I8.918 J9.909 K0.000 F600.000
G2 X153.352 Y-29.576 Z-1.500 I3.159 J1.304 K0.000 F600.000
G2 X153.816 Y-27.962 Z-1.500 I2.192 J0.244 K0.000 F600.000
G2 X153.683 Y-26.737 Z-1.500 I1.943 J0.830 K0.000 F600.000
G2 X156.755 Y-24.800 Z-1.500 I2.210 J-0.101 K0.000 F600.000
G2 X156.786 Y-24.238 Z-1.500 I4.933 J0.008 K0.000 F600.000
G2 X156.114 Y-24.230 Z-1.500 I-0.301 J3.233 K0.000 F600.000
G2 X154.676 Y-23.388 Z-1.500 I0.050 J1.734 K0.000 F600.000
G2 X154.374 Y-21.015 Z-1.500 I4.157 J1.735 K0.000 F600.000
G2 X154.192 Y-20.718 Z-1.500 I0.651 J0.603 K0.000 F600.000
G2 X153.948 Y-18.281 Z-1.500 I4.068 J1.639 K0.000 F600.000
G2 X154.918 Y-15.647 Z-1.500 I13.405 J-3.441 K0.000 F600.000
G0 Z5.000
G0 X164.079 Y2.836 Z5.000
G0 X164.079 Y2.836 Z3.000
G1 X164.079 Y2.836 Z-1.500 F600.000
G2 X163.662 Y3.508 Z-1.500 I0.333 J0.672 K0.000 F600.000
G1 X163.662 Y8.092 Z-1.500 F600.000
G2 X164.412 Y8.842 Z-1.500 I0.750 J-0.000 K0.000 F600.000
G1 X165.632 Y8.842 Z-1.500 F600.000
G1 X165.632 Y10.478 Z-1.500 F600.000
G1 X165.454 Y10.613 Z-1.500 F600.000
G3 X163.516 Y11.298 Z-1.500 I-11.467 J-29.359 K0.000 F600.000
G3 X157.661 Y12.684 Z-1.500 I-15.889 J-54.061 K0.000 F600.000
G2 X154.266 Y13.340 Z-1.500 I4.677 J33.309 K0.000 F600.000
G2 X153.532 Y13.819 Z-1.500 I0.233 J1.159 K0.000 F600.000
G2 X153.380 Y14.429 Z-1.500 I1.851 J0.787 K0.000 F600.000
G2 X153.362 Y16.270 Z-1.500 I21.327 J1.125 K0.000 F600.000
G2 X153.741 Y17.792 Z-1.500 I2.330 J0.229 K0.000 F600.000
G3 X153.477 Y18.216 Z-1.500 I-2.817 J-1.454 K0.000 F600.000
G2 X152.264 Y20.546 Z-1.500 I36.701 J20.589 K0.000 F600.000
G2 X151.562 Y22.157 Z-1.500 I6.672 J3.865 K0.000 F600.000
G2 X152.268 Y23.511 Z-1.500 I1.055 J0.311 K0.000 F600.000
G2 X156.891 Y23.629 Z-1.500 I2.739 J-16.655 K0.000 F600.000
G2 X159.614 Y23.023 Z-1.500 I-0.657 J-9.368 K0.000 F600.000
G2 X162.043 Y21.648 Z-1.500 I-6.522 J-14.358 K0.000 F600.000
G2 X163.359 Y20.590 Z-1.500 I-3.054 J-5.144 K0.000 F600.000
G2 X162.956 Y19.168 Z-1.500 I-0.654 J-0.583 K0.000 F600.000
G3 X161.145 Y18.829 Z-1.500 I4.050 J-26.619 K0.000 F600.000
G3 X159.094 Y17.758 Z-1.500 I0.486 J-3.431 K0.000 F600.000
G3 X159.570 Y17.484 Z-1.500 I2.605 J3.973 K0.000 F600.000
G3 X161.453 Y16.617 Z-1.500 I86.684 J185.831 K0.000 F600.000
G3 X164.438 Y15.345 Z-1.500 I6.873 J11.992 K0.000 F600.000
G3 X171.640 Y13.606 Z-1.500 I10.420 J27.365 K0.000 F600.000
G2 X172.444 Y13.076 Z-1.500 I0.104 J-0.717 K0.000 F600.000
G1 X173.155 Y10.590 Z-1.500 F600.000
G1 X173.184 Y10.384 Z-1.500 F600.000
G1 X173.184 Y8.842 Z-1.500 F600.000
G1 X174.726 Y8.842 Z-1.500 F600.000
G2 X175.476 Y8.092 Z-1.500 I-0.000 J-0.750 K0.000 F600.000
G1 X175.476 Y3.508 Z-1.500 F600.000
G2 X174.726 Y2.758 Z-1.500 I-0.750 J0.000 K0.000 F600.000
G1 X164.412 Y2.758 Z-1.500 F600.000
G2 X164.079 Y2.836 Z-1.500 I0.000 J0.750 K0.000 F600.000
G0 Z5.000
G0 X179.250 Y3.000 Z5.000
G0 X179.250 Y3.000 Z3.000
G1 X179.250 Y3.000 Z-1.500 F600.000
G1 X179.250 Y12.000 Z-1.500 F600.000
G2 X180.000 Y12.750 Z-1.500 I0.750 J-0.000 K0.000 F600.000
G1 X184.980 Y12.750 Z-1.500 F600.000
G2 X185.540 Y12.546 Z-1.500 I-0.166 J-1.325 K0.000 F600.000
G3 X190.751 Y12.468 Z-1.500 I5.941 J223.047 K0.000 F600.000
G1 X190.801 Y12.605 Z-1.500 F600.000
G2 X192.816 Y14.716 Z-1.500 I2.635 J-0.499 K0.000 F600.000
G2 X195.144 Y13.629 Z-1.500 I0.547 J-1.866 K0.000 F600.000
G2 X195.701 Y13.439 Z-1.500 I-0.574 J-2.600 K0.000 F600.000
G2 X196.674 Y10.720 Z-1.500 I-0.769 J-1.809 K0.000 F600.000
G2 X195.562 Y9.863 Z-1.500 I-1.807 J1.193 K0.000 F600.000
G2 X194.639 Y8.265 Z-1.500 I-1.596 J-0.143 K0.000 F600.000
G2 X192.037 Y8.338 Z-1.500 I-1.205 J3.460 K0.000 F600.000
G2 X191.249 Y8.785 Z-1.500 I0.577 J1.933 K0.000 F600.000
G2 X189.309 Y7.385 Z-1.500 I-31.799 J42.003 K0.000 F600.000
G2 X188.880 Y7.250 Z-1.500 I-0.429 J0.615 K0.000 F600.000
G1 X186.750 Y7.250 Z-1.500 F600.000
G1 X186.750 Y3.000 Z-1.500 F600.000
G2 X186.000 Y2.250 Z-1.500 I-0.750 J-0.000 K0.000 F600.000
G1 X180.000 Y2.250 Z-1.500 F600.000
G2 X179.250 Y3.000 Z-1.500 I0.000 J0.750 K0.000 F600.000
G0 Z5.000
G0 X178.427 Y19.003 Z5.000
G0 X178.427 Y19.003 Z3.000
G1 X178.427 Y19.003 Z-1.500 F600.000
G2 X172.166 Y19.590 Z-1.500 I-1.119 J21.752 K0.000 F600.000
G2 X170.036 Y21.008 Z-1.500 I0.805 J3.517 K0.000 F600.000
G2 X169.477 Y22.776 Z-1.500 I2.349 J1.715 K0.000 F600.000
G2 X171.107 Y25.569 Z-1.500 I4.923 J-1.001 K0.000 F600.000
G2 X175.940 Y27.005 Z-1.500 I4.349 J-5.788 K0.000 F600.000
G2 X179.732 Y25.910 Z-1.500 I-1.294 J-11.599 K0.000 F600.000
G1 X181.250 Y25.910 Z-1.500 F600.000
G1 X181.250 Y27.000 Z-1.500 F600.000
G2 X182.000 Y27.750 Z-1.500 I0.750 J-0.000 K0.000 F600.000
G1 X187.000 Y27.750 Z-1.500 F600.000
G2 X187.750 Y27.000 Z-1.500 I-0.000 J-0.750 K0.000 F600.000
G1 X187.750 Y19.000 Z-1.500 F600.000
G2 X187.000 Y18.250 Z-1.500 I-0.750 J0.000 K0.000 F600.000
G1 X186.000 Y18.250 Z-1.500 F600.000
G2 X185.470 Y18.470 Z-1.500 I-0.000 J0.750 K0.000 F600.000
G1 X184.689 Y19.250 Z-1.500 F600.000
G1 X181.959 Y19.250 Z-1.500 F600.000
G2 X181.560 Y19.375 Z-1.500 I-0.024 J0.623 K0.000 F600.000
G2 X179.735 Y19.110 Z-1.500 I-2.121 J8.175 K0.000 F600.000
G2 X178.427 Y19.003 Z-1.500 I-2.427 J21.645 K0.000 F600.000
G0 Z5.000
G0 X174.040 Y36.306 Z5.000
G0 X174.040 Y36.306 Z3.000
G1 X174.040 Y36.306 Z-1.500 F600.000
G2 X170.976 Y36.081 Z-1.500 I-2.167 J8.548 K0.000 F600.000
G3 X170.434 Y35.896 Z-1.500 I0.224 J-1.543 K0.000 F600.000
G3 X167.810 Y34.648 Z-1.500 I24.823 J-55.596 K0.000 F600.000
G2 X166.952 Y34.358 Z-1.500 I-1.691 J3.587 K0.000 F600.000
G2 X164.236 Y34.608 Z-1.500 I-0.849 J5.665 K0.000 F600.000
G2 X163.508 Y35.362 Z-1.500 I0.033 J0.760 K0.000 F600.000
G1 X163.508 Y37.684 Z-1.500 F600.000
G2 X164.258 Y38.434 Z-1.500 I0.750 J-0.000 K0.000 F600.000
G1 X165.348 Y38.434 Z-1.500 F600.000
G1 X165.348 Y41.934 Z-1.500 F600.000
G1 X158.909 Y41.934 Z-1.500 F600.000
G1 X159.628 Y41.215 Z-1.500 F600.000
G2 X159.848 Y40.684 Z-1.500 I-0.530 J-0.530 K0.000 F600.000
G1 X159.848 Y37.644 Z-1.500 F600.000
G2 X158.984 Y36.903 Z-1.500 I-0.750 J0.000 K0.000 F600.000
G2 X157.190 Y37.951 Z-1.500 I2.068 J5.594 K0.000 F600.000
G2 X153.609 Y43.224 Z-1.500 I8.918 J9.909 K0.000 F600.000
G2 X153.352 Y44.424 Z-1.500 I3.159 J1.304 K0.000 F600.000
G2 X153.816 Y46.038 Z-1.500 I2.192 J0.244 K0.000 F600.000
G2 X153.683 Y47.263 Z-1.500 I1.943 J0.830 K0.000 F600.000
G2 X156.755 Y49.200 Z-1.500 I2.210 J-0.101 K0.000 F600.000
G2 X156.786 Y49.762 Z-1.500 I4.933 J0.008 K0.000 F600.000
G2 X156.114 Y49.770 Z-1.500 I-0.301 J3.233 K0.000 F600.000
G2 X154.676 Y50.612 Z-1.500 I0.050 J1.734 K0.000 F600.000
G2 X154.374 Y52.985 Z-1.500 I4.157 J1.735 K0.000 F600.000
G2 X154.192 Y53.282 Z-1.500 I0.651 J0.603 K0.000 F600.000
G2 X153.948 Y55.719 Z-1.500 I4.068 J1.639 K0.000 F600.000
G2 X156.209 Y60.485 Z-1.500 I13.405 J-3.441 K0.000 F600.000
G2 X158.637 Y62.909 Z-1.500 I6.633 J-4.215 K0.000 F600.000
G2 X160.597 Y63.198 Z-1.500 I1.339 J-2.289 K0.000 F600.000
G3 X161.877 Y64.067 Z-1.500 I-27.432 J41.812 K0.000 F600.000
G2 X167.274 Y65.478 Z-1.500 I5.612 J-10.435 K0.000 F600.000
G3 X168.972 Y65.502 Z-1.500 I0.687 J11.476 K0.000 F600.000
G2 X169.972 Y64.798 Z-1.500 I0.254 J-0.701 K0.000 F600.000
G1 X169.972 Y62.039 Z-1.500 F600.000
G2 X169.222 Y61.289 Z-1.500 I-0.750 J0.000 K0.000 F600.000
G1 X168.002 Y61.289 Z-1.500 F600.000
G1 X168.002 Y58.205 Z-1.500 F600.000
G1 X176.816 Y58.205 Z-1.500 F600.000
G1 X176.816 Y61.289 Z-1.500 F600.000
G1 X175.274 Y61.289 Z-1.500 F600.000
G2 X174.524 Y62.039 Z-1.500 I0.000 J0.750 K0.000 F600.000
G1 X174.524 Y64.226 Z-1.500 F600.000
G1 X173.842 Y66.610 Z-1.500 F600.000
G1 X173.815 Y66.761 Z-1.500 F600.000
G2 X173.983 Y67.642 Z-1.500 I3.134 J-0.140 K0.000 F600.000
G2 X174.533 Y69.702 Z-1.500 I7.996 J-1.033 K0.000 F600.000
G2 X176.544 Y71.279 Z-1.500 I2.319 J-0.887 K0.000 F600.000
G2 X178.421 Y71.031 Z-1.500 I0.412 J-4.115 K0.000 F600.000
G2 X180.923 Y68.545 Z-1.500 I-1.645 J-4.156 K0.000 F600.000
G2 X181.503 Y65.537 Z-1.500 I-8.653 J-3.230 K0.000 F600.000
G3 X182.306 Y65.551 Z-1.500 I0.230 J9.843 K0.000 F600.000
G3 X183.359 Y65.912 Z-1.500 I-1.387 J5.759 K0.000 F600.000
G2 X188.058 Y64.445 Z-1.500 I1.513 J-3.410 K0.000 F600.000
G3 X189.107 Y63.881 Z-1.500 I0.825 J0.277 K0.000 F600.000
G2 X190.846 Y64.346 Z-1.500 I2.264 J-4.985 K0.000 F600.000
G2 X193.295 Y61.743 Z-1.500 I0.236 J-2.232 K0.000 F600.000
G2 X192.643 Y59.712 Z-1.500 I-6.936 J1.106 K0.000 F600.000
G3 X192.791 Y59.379 Z-1.500 I3.649 J1.426 K0.000 F600.000
G2 X194.393 Y54.019 Z-1.500 I-10.704 J-6.120 K0.000 F600.000
G2 X193.087 Y47.669 Z-1.500 I-12.906 J-0.653 K0.000 F600.000
G2 X193.855 Y44.301 Z-1.500 I-3.805 J-2.640 K0.000 F600.000
G2 X192.065 Y42.226 Z-1.500 I-2.357 J0.224 K0.000 F600.000
G2 X188.259 Y43.085 Z-1.500 I-0.954 J4.634 K0.000 F600.000
G1 X187.697 Y42.879 Z-1.500 F600.000
G2 X182.618 Y42.071 Z-1.500 I-4.599 J12.550 K0.000 F600.000
G3 X182.501 Y42.067 Z-1.500 I-0.051 J-0.239 K0.000 F600.000
G2 X181.348 Y42.704 Z-1.500 I-0.399 J0.640 K0.000 F600.000
G1 X181.348 Y46.934 Z-1.500 F600.000
G1 X173.848 Y46.934 Z-1.500 F600.000
G1 X173.848 Y42.434 Z-1.500 F600.000
G1 X178.098 Y42.434 Z-1.500 F600.000
G2 X178.848 Y41.684 Z-1.500 I-0.000 J-0.750 K0.000 F600.000
G1 X178.848 Y38.804 Z-1.500 F600.000
G2 X178.483 Y38.160 Z-1.500 I-0.750 J0.000 K0.000 F600.000
G2 X177.529 Y37.905 Z-1.500 I-1.283 J2.884 K0.000 F600.000
G2 X176.206 Y37.173 Z-1.500 I-9.476 J15.573 K0.000 F600.000
G2 X174.040 Y36.306 Z-1.500 I-4.333 J7.681 K0.000 F600.000
G0 Z5.000
G0 X202.460 Y43.671 Z5.000
G0 X202.460 Y43.671 Z3.000
G1 X202.460 Y43.671 Z-1.500 F600.000
G2 X202.352 Y44.424 Z-1.500 I3.309 J0.857 K0.000 F600.000
G2 X202.816 Y46.038 Z-1.500 I2.192 J0.244 K0.000 F600.000
G2 X202.683 Y47.263 Z-1.500 I1.943 J0.830 K0.000 F600.000
G2 X205.755 Y49.200 Z-1.500 I2.210 J-0.101 K0.000 F600.000
G2 X205.786 Y49.762 Z-1.500 I4.933 J0.008 K0.000 F600.000
G2 X205.114 Y49.770 Z-1.500 I-0.301 J3.233 K0.000 F600.000
G2 X203.676 Y50.612 Z-1.500 I0.050 J1.734 K0.000 F600.000
G2 X203.374 Y52.985 Z-1.500 I4.157 J1.735 K0.000 F600.000
G2 X203.192 Y53.282 Z-1.500 I0.651 J0.603 K0.000 F600.000
G2 X202.948 Y55.719 Z-1.500 I4.068 J1.639 K0.000 F600.000
G2 X205.209 Y60.485 Z-1.500 I13.405 J-3.441 K0.000 F600.000
G2 X207.637 Y62.909 Z-1.500 I6.633 J-4.215 K0.000 F600.000
G2 X209.597 Y63.198 Z-1.500 I1.339 J-2.289 K0.000 F600.000
G3 X210.877 Y64.067 Z-1.500 I-27.432 J41.812 K0.000 F600.000
G2 X216.274 Y65.478 Z-1.500 I5.612 J-10.435 K0.000 F600.000
G3 X217.972 Y65.502 Z-1.500 I0.687 J11.476 K0.000 F600.000
G2 X218.972 Y64.798 Z-1.500 I0.254 J-0.701 K0.000 F600.000
G1 X218.972 Y62.039 Z-1.500 F600.000
G2 X218.222 Y61.289 Z-1.500 I-0.750 J0.000 K0.000 F600.000
G1 X217.002 Y61.289 Z-1.500 F600.000
G1 X217.002 Y58.205 Z-1.500 F600.000
G1 X225.816 Y58.205 Z-1.500 F600.000
G1 X225.816 Y61.289 Z-1.500 F600.000
G1 X224.274 Y61.289 Z-1.500 F600.000
G2 X223.524 Y62.039 Z-1.500 I0.000 J0.750 K0.000 F600.000
G1 X223.524 Y64.226 Z-1.500 F600.000
G1 X222.842 Y66.610 Z-1.500 F600.000
G1 X222.815 Y66.761 Z-1.500 F600.000
G2 X222.983 Y67.642 Z-1.500 I3.134 J-0.140 K0.000 F600.000
G2 X223.533 Y69.702 Z-1.500 I7.996 J-1.033 K0.000 F600.000
G2 X225.544 Y71.279 Z-1.500 I2.319 J-0.887 K0.000 F600.000
G2 X227.421 Y71.031 Z-1.500 I0.412 J-4.115 K0.000 F600.000
G2 X229.923 Y68.545 Z-1.500 I-1.645 J-4.156 K0.000 F600.000
G2 X230.503 Y65.537 Z-1.500 I-8.653 J-3.230 K0.000 F600.000
G3 X231.306 Y65.551 Z-1.500 I0.230 J9.843 K0.000 F600.000
G3 X232.359 Y65.912 Z-1.500 I-1.387 J5.759 K0.000 F600.000
G2 X237.058 Y64.445 Z-1.500 I1.513 J-3.410 K0.000 F600.000
G3 X238.107 Y63.881 Z-1.500 I0.825 J0.277 K0.000 F600.000
G2 X239.846 Y64.346 Z-1.500 I2.264 J-4.985 K0.000 F600.000
G2 X242.295 Y61.743 Z-1.500 I0.236 J-2.232 K0.000 F600.000
G2 X241.643 Y59.712 Z-1.500 I-6.936 J1.106 K0.000 F600.000
G3 X241.791 Y59.379 Z-1.500 I3.649 J1.426 K0.000 F600.000
G2 X243.393 Y54.019 Z-1.500 I-10.704 J-6.120 K0.000 F600.000
G2 X242.087 Y47.669 Z-1.500 I-12.906 J-0.653 K0.000 F600.000
G2 X242.855 Y44.301 Z-1.500 I-3.805 J-2.640 K0.000 F600.000
G2 X241.065 Y42.226 Z-1.500 I-2.357 J0.224 K0.000 F600.000
G2 X237.259 Y43.085 Z-1.500 I-0.954 J4.634 K0.000 F600.000
G1 X236.697 Y42.879 Z-1.500 F600.000
G2 X231.618 Y42.071 Z-1.500 I-4.599 J12.550 K0.000 F600.000
G3 X231.501 Y42.067 Z-1.500 I-0.051 J-0.239 K0.000 F600.000
G2 X230.348 Y42.704 Z-1.500 I-0.399 J0.640 K0.000 F600.000
G1 X230.348 Y46.934 Z-1.500 F600.000
G1 X222.848 Y46.934 Z-1.500 F600.000
G1 X222.848 Y42.434 Z-1.500 F600.000
G1 X227.098 Y42.434 Z-1.500 F600.000
G2 X227.848 Y41.684 Z-1.500 I-0.000 J-0.750 K0.000 F600.000
G1 X227.848 Y38.804 Z-1.500 F600.000
G2 X227.483 Y38.160 Z-1.500 I-0.750 J0.000 K0.000 F600.000
G2 X226.529 Y37.905 Z-1.500 I-1.283 J2.884 K0.000 F600.000
G2 X225.206 Y37.173 Z-1.500 I-9.476 J15.573 K0.000 F600.000
G2 X219.976 Y36.081 Z-1.500 I-4.333 J7.681 K0.000 F600.000
G3 X219.434 Y35.896 Z-1.500 I0.224 J-1.543 K0.000 F600.000
G3 X216.810 Y34.648 Z-1.500 I24.823 J-55.595 K0.000 F600.000
G2 X215.952 Y34.358 Z-1.500 I-1.691 J3.587 K0.000 F600.000
G2 X213.236 Y34.608 Z-1.500 I-0.849 J5.665 K0.000 F600.000
G2 X212.508 Y35.362 Z-1.500 I0.033 J0.760 K0.000 F600.000
G1 X212.508 Y37.684 Z-1.500 F600.000
G2 X213.258 Y38.434 Z-1.500 I0.750 J-0.000 K0.000 F600.000
G1 X214.348 Y38.434 Z-1.500 F600.000
G1 X214.348 Y41.934 Z-1.500 F600.000
G1 X207.909 Y41.934 Z-1.500 F600.000
G1 X208.628 Y41.215 Z-1.500 F600.000
G2 X208.848 Y40.684 Z-1.500 I-0.530 J-0.530 K0.000 F600.000
G1 X208.848 Y37.644 Z-1.500 F600.000
G2 X207.984 Y36.903 Z-1.500 I-0.750 J0.000 K0.000 F600.000
G2 X206.190 Y37.951 Z-1.500 I2.068 J5.594 K0.000 F600.000
G2 X202.609 Y43.224 Z-1.500 I8.918 J9.909 K0.000 F600.000
G2 X202.460 Y43.671 Z-1.500 I3.159 J1.304 K0.000 F600.000
G0 Z5.000
G0 X203.298 Y23.720 Z5.000
G0 X203.298 Y23.720 Z3.000
G1 X203.298 Y23.720 Z-1.500 F600.000
G2 X205.891 Y23.629 Z-1.500 I0.709 J-16.864 K0.000 F600.000
G2 X208.614 Y23.023 Z-1.500 I-0.657 J-9.368 K0.000 F600.000
G2 X211.043 Y21.648 Z-1.500 I-6.522 J-14.358 K0.000 F600.000
G2 X212.359 Y20.590 Z-1.500 I-3.054 J-5.144 K0.000 F600.000
G2 X211.956 Y19.168 Z-1.500 I-0.654 J-0.583 K0.000 F600.000
G3 X210.145 Y18.829 Z-1.500 I4.050 J-26.619 K0.000 F600.000
G3 X208.094 Y17.758 Z-1.500 I0.486 J-3.431 K0.000 F600.000
G3 X208.570 Y17.484 Z-1.500 I2.605 J3.973 K0.000 F600.000
G3 X210.453 Y16.617 Z-1.500 I86.681 J185.824 K0.000 F600.000
G3 X213.438 Y15.345 Z-1.500 I6.873 J11.992 K0.000 F600.000
G3 X220.640 Y13.606 Z-1.500 I10.420 J27.365 K0.000 F600.000
G2 X221.444 Y13.076 Z-1.500 I0.104 J-0.717 K0.000 F600.000
G1 X222.155 Y10.590 Z-1.500 F600.000
G1 X222.184 Y10.384 Z-1.500 F600.000
G1 X222.184 Y8.842 Z-1.500 F600.000
G1 X223.726 Y8.842 Z-1.500 F600.000
G2 X224.476 Y8.092 Z-1.500 I-0.000 J-0.750 K0.000 F600.000
G1 X224.476 Y3.508 Z-1.500 F600.000
G2 X223.726 Y2.758 Z-1.500 I-0.750 J0.000 K0.000 F600.000
G1 X213.412 Y2.758 Z-1.500 F600.000
G2 X212.662 Y3.508 Z-1.500 I0.000 J0.750 K0.000 F600.000
G1 X212.662 Y8.092 Z-1.500 F600.000
G2 X213.412 Y8.842 Z-1.500 I0.750 J-0.000 K0.000 F600.000
G1 X214.632 Y8.842 Z-1.500 F600.000
G1 X214.632 Y10.478 Z-1.500 F600.000
G1 X214.454 Y10.613 Z-1.500 F600.000
G3 X212.516 Y11.298 Z-1.500 I-11.467 J-29.359 K0.000 F600.000
G3 X206.661 Y12.684 Z-1.500 I-15.889 J-54.061 K0.000 F600.000
G2 X203.266 Y13.340 Z-1.500 I4.677 J33.309 K0.000 F600.000
G2 X202.532 Y13.819 Z-1.500 I0.233 J1.159 K0.000 F600.000
G2 X202.380 Y14.429 Z-1.500 I1.851 J0.787 K0.000 F600.000
G2 X202.362 Y16.270 Z-1.500 I21.327 J1.125 K0.000 F600.000
G2 X202.741 Y17.792 Z-1.500 I2.330 J0.229 K0.000 F600.000
G3 X202.477 Y18.216 Z-1.500 I-2.817 J-1.454 K0.000 F600.000
G2 X201.264 Y20.546 Z-1.500 I36.701 J20.589 K0.000 F600.000
G2 X200.562 Y22.157 Z-1.500 I6.672 J3.865 K0.000 F600.000
G2 X201.268 Y23.511 Z-1.500 I1.055 J0.311 K0.000 F600.000
G2 X203.298 Y23.720 Z-1.500 I2.739 J-16.655 K0.000 F600.000
G0 Z5.000
G0 X218.477 Y22.776 Z5.000
G0 X218.477 Y22.776 Z3.000
G1 X218.477 Y22.776 Z-1.500 F600.000
G2 X220.107 Y25.569 Z-1.500 I4.923 J-1.001 K0.000 F600.000
G2 X224.940 Y27.005 Z-1.500 I4.349 J-5.788 K0.000 F600.000
G2 X228.732 Y25.910 Z-1.500 I-1.294 J-11.599 K0.000 F600.000
G1 X230.250 Y25.910 Z-1.500 F600.000
G1 X230.250 Y27.000 Z-1.500 F600.000
G2 X231.000 Y27.750 Z-1.500 I0.750 J-0.000 K0.000 F600.000
G1 X236.000 Y27.750 Z-1.500 F600.000
G2 X236.750 Y27.000 Z-1.500 I-0.000 J-0.750 K0.000 F600.000
G1 X236.750 Y19.000 Z-1.500 F600.000
G2 X236.000 Y18.250 Z-1.500 I-0.750 J0.000 K0.000 F600.000
G1 X235.000 Y18.250 Z-1.500 F600.000
G2 X234.470 Y18.470 Z-1.500 I-0.000 J0.750 K0.000 F600.000
G1 X233.689 Y19.250 Z-1.500 F600.000
G1 X230.959 Y19.250 Z-1.500 F600.000
G2 X230.560 Y19.375 Z-1.500 I-0.024 J0.623 K0.000 F600.000
G2 X228.735 Y19.110 Z-1.500 I-2.121 J8.175 K0.000 F600.000
G2 X221.166 Y19.590 Z-1.500 I-2.427 J21.645 K0.000 F600.000
G2 X219.036 Y21.008 Z-1.500 I0.805 J3.517 K0.000 F600.000
G2 X218.477 Y22.776 Z-1.500 I2.349 J1.715 K0.000 F600.000
G0 Z5.000
G0 X228.476 Y12.537 Z5.000
G0 X228.476 Y12.537 Z3.000
G1 X228.476 Y12.537 Z-1.500 F600.000
G2 X229.000 Y12.750 Z-1.500 I0.524 J-0.537 K0.000 F600.000
G1 X233.980 Y12.750 Z-1.500 F600.000
G2 X234.540 Y12.546 Z-1.500 I-0.166 J-1.325 K0.000 F600.000
G3 X239.751 Y12.468 Z-1.500 I5.941 J223.047 K0.000 F600.000
G1 X239.801 Y12.605 Z-1.500 F600.000
G2 X241.816 Y14.716 Z-1.500 I2.635 J-0.499 K0.000 F600.000
G2 X244.144 Y13.629 Z-1.500 I0.547 J-1.866 K0.000 F600.000
G2 X244.701 Y13.439 Z-1.500 I-0.574 J-2.600 K0.000 F600.000
G2 X245.674 Y10.720 Z-1.500 I-0.769 J-1.809 K0.000 F600.000
G2 X244.562 Y9.863 Z-1.500 I-1.807 J1.193 K0.000 F600.000
G2 X243.639 Y8.265 Z-1.500 I-1.596 J-0.143 K0.000 F600.000
G2 X241.037 Y8.338 Z-1.500 I-1.205 J3.460 K0.000 F600.000
G2 X240.249 Y8.785 Z-1.500 I0.577 J1.933 K0.000 F600.000
G2 X238.309 Y7.385 Z-1.500 I-31.799 J42.003 K0.000 F600.000
G2 X237.880 Y7.250 Z-1.500 I-0.429 J0.615 K0.000 F600.000
G1 X235.750 Y7.250 Z-1.500 F600.000
G1 X235.750 Y3.000 Z-1.500 F600.000
G2 X235.000 Y2.250 Z-1.500 I-0.750 J-0.000 K0.000 F600.000
G1 X229.000 Y2.250 Z-1.500 F600.000
G2 X228.250 Y3.000 Z-1.500 I0.000 J0.750 K0.000 F600.000
G1 X228.250 Y12.000 Z-1.500 F600.000
G2 X228.476 Y12.537 Z-1.500 I0.750 J-0.000 K0.000 F600.000
G0 Z5.000
G0 X226.489 Y-2.735 Z5.000
G0 X226.489 Y-2.735 Z3.000
G1 X226.489 Y-2.735 Z-1.500 F600.000
G2 X227.421 Y-2.969 Z-1.500 I-0.533 J-4.101 K0.000 F600.000
G2 X229.923 Y-5.455 Z-1.500 I-1.645 J-4.156 K0.000 F600.000
G2 X230.503 Y-8.463 Z-1.500 I-8.653 J-3.230 K0.000 F600.000
G3 X231.306 Y-8.449 Z-1.500 I0.230 J9.843 K0.000 F600.000
G3 X232.359 Y-8.088 Z-1.500 I-1.387 J5.759 K0.000 F600.000
G2 X237.058 Y-9.555 Z-1.500 I1.513 J-3.410 K0.000 F600.000
G3 X238.107 Y-10.119 Z-1.500 I0.825 J0.277 K0.000 F600.000
G2 X239.846 Y-9.654 Z-1.500 I2.264 J-4.985 K0.000 F600.000
G2 X242.295 Y-12.257 Z-1.500 I0.236 J-2.232 K0.000 F600.000
G2 X241.643 Y-14.288 Z-1.500 I-6.936 J1.106 K0.000 F600.000
G3 X241.791 Y-14.621 Z-1.500 I3.649 J1.426 K0.000 F600.000
G2 X243.393 Y-19.981 Z-1.500 I-10.704 J-6.120 K0.000 F600.000
G2 X242.087 Y-26.331 Z-1.500 I-12.906 J-0.653 K0.000 F600.000
G2 X242.855 Y-29.699 Z-1.500 I-3.805 J-2.640 K0.000 F600.000
G2 X241.065 Y-31.774 Z-1.500 I-2.357 J0.224 K0.000 F600.000
G2 X237.259 Y-30.915 Z-1.500 I-0.954 J4.634 K0.000 F600.000
G1 X236.697 Y-31.121 Z-1.500 F600.000
G2 X231.618 Y-31.929 Z-1.500 I-4.599 J12.550 K0.000 F600.000
G3 X231.501 Y-31.933 Z-1.500 I-0.051 J-0.239 K0.000 F600.000
G2 X230.348 Y-31.296 Z-1.500 I-0.399 J0.640 K0.000 F600.000
G1 X230.348 Y-27.066 Z-1.500 F600.000
G1 X222.848 Y-27.066 Z-1.500 F600.000
G1 X222.848 Y-31.566 Z-1.500 F600.000
G1 X227.098 Y-31.566 Z-1.500 F600.000
G2 X227.848 Y-32.316 Z-1.500 I-0.000 J-0.750 K0.000 F600.000
G1 X227.848 Y-35.196 Z-1.500 F600.000
G2 X227.483 Y-35.840 Z-1.500 I-0.750 J0.000 K0.000 F600.000
G2 X226.529 Y-36.095 Z-1.500 I-1.283 J2.884 K0.000 F600.000
G2 X225.206 Y-36.827 Z-1.500 I-9.476 J15.573 K0.000 F600.000
G2 X219.976 Y-37.919 Z-1.500 I-4.333 J7.681 K0.000 F600.000
G3 X219.434 Y-38.104 Z-1.500 I0.224 J-1.543 K0.000 F600.000
G3 X216.810 Y-39.352 Z-1.500 I24.823 J-55.595 K0.000 F600.000
G2 X215.952 Y-39.642 Z-1.500 I-1.691 J3.587 K0.000 F600.000
G2 X213.236 Y-39.392 Z-1.500 I-0.849 J5.665 K0.000 F600.000
G2 X212.508 Y-38.638 Z-1.500 I0.033 J0.760 K0.000 F600.000
G1 X212.508 Y-36.316 Z-1.500 F600.000
G2 X213.258 Y-35.566 Z-1.500 I0.750 J-0.000 K0.000 F600.000
G1 X214.348 Y-35.566 Z-1.500 F600.000
G1 X214.348 Y-32.066 Z-1.500 F600.000
G1 X207.909 Y-32.066 Z-1.500 F600.000
G1 X208.628 Y-32.785 Z-1.500 F600.000
G2 X208.848 Y-33.316 Z-1.500 I-0.530 J-0.530 K0.000 F600.000
G1 X208.848 Y-36.356 Z-1.500 F600.000
G2 X207.984 Y-37.097 Z-1.500 I-0.750 J0.000 K0.000 F600.000
G2 X206.190 Y-36.049 Z-1.500 I2.068 J5.594 K0.000 F600.000
G2 X202.609 Y-30.776 Z-1.500 I8.918 J9.909 K0.000 F600.000
G2 X202.352 Y-29.576 Z-1.500 I3.159 J1.304 K0.000 F600.000
G2 X202.816 Y-27.962 Z-1.500 I2.192 J0.244 K0.000 F600.000
G2 X202.683 Y-26.737 Z-1.500 I1.943 J0.830 K0.000 F600.000
G2 X205.755 Y-24.800 Z-1.500 I2.210 J-0.101 K0.000 F600.000
G2 X205.786 Y-24.238 Z-1.500 I4.933 J0.008 K0.000 F600.000
G2 X205.114 Y-24.230 Z-1.500 I-0.301 J3.233 K0.000 F600.000
G2 X203.676 Y-23.388 Z-1.500 I0.050 J1.734 K0.000 F600.000
G2 X203.374 Y-21.015 Z-1.500 I4.157 J1.735 K0.000 F600.000
G2 X203.192 Y-20.718 Z-1.500 I0.651 J0.603 K0.000 F600.000
G2 X202.948 Y-18.281 Z-1.500 I4.068 J1.639 K0.000 F600.000
G2 X205.209 Y-13.515 Z-1.500 I13.405 J-3.441 K0.000 F600.000
G2 X207.637 Y-11.091 Z-1.500 I6.633 J-4.215 K0.000 F600.000
G2 X209.597 Y-10.802 Z-1.500 I1.339 J-2.289 K0.000 F600.000
G3 X210.877 Y-9.933 Z-1.500 I-27.432 J41.812 K0.000 F600.000
G2 X216.274 Y-8.522 Z-1.500 I5.612 J-10.435 K0.000 F600.000
G3 X217.972 Y-8.498 Z-1.500 I0.687 J11.476 K0.000 F600.000
G2 X218.972 Y-9.202 Z-1.500 I0.254 J-0.701 K0.000 F600.000
G1 X218.972 Y-11.961 Z-1.500 F600.000
G2 X218.222 Y-12.711 Z-1.500 I-0.750 J0.000 K0.000 F600.000
G1 X217.002 Y-12.711 Z-1.500 F600.000
G1 X217.002 Y-15.795 Z-1.500 F600.000
G1 X225.816 Y-15.795 Z-1.500 F600.000
G1 X225.816 Y-12.711 Z-1.500 F600.000
G1 X224.274 Y-12.711 Z-1.500 F600.000
G2 X223.524 Y-11.961 Z-1.500 I0.000 J0.750 K0.000 F600.000
G1 X223.524 Y-9.774 Z-1.500 F600.000
G1 X222.842 Y-7.390 Z-1.500 F600.000
G1 X222.815 Y-7.239 Z-1.500 F600.000
G2 X222.983 Y-6.358 Z-1.500 I3.134 J-0.140 K0.000 F600.000
G2 X223.533 Y-4.298 Z-1.500 I7.996 J-1.033 K0.000 F600.000
G2 X225.544 Y-2.721 Z-1.500 I2.319 J-0.887 K0.000 F600.000
G2 X226.489 Y-2.735 Z-1.500 I0.412 J-4.115 K0.000 F600.000
G0 Z5.000
G0 X230.924 Y-46.254 Z5.000
G0 X230.924 Y-46.254 Z3.000
G1 X230.924 Y-46.254 Z-1.500 F600.000
G2 X231.000 Y-46.250 Z-1.500 I0.076 J-0.746 K0.000 F600.000
G1 X236.000 Y-46.250 Z-1.500 F600.000
G2 X236.750 Y-47.000 Z-1.500 I-0.000 J-0.750 K0.000 F600.000
G1 X236.750 Y-55.000 Z-1.500 F600.000
G2 X236.000 Y-55.750 Z-1.500 I-0.750 J0.000 K0.000 F600.000
G1 X235.000 Y-55.750 Z-1.500 F600.000
G2 X234.470 Y-55.530 Z-1.500 I-0.000 J0.750 K0.000 F600.000
G1 X233.689 Y-54.750 Z-1.500 F600.000
G1 X230.959 Y-54.750 Z-1.500 F600.000
G2 X230.560 Y-54.625 Z-1.500 I-0.024 J0.623 K0.000 F600.000
G2 X228.735 Y-54.890 Z-1.500 I-2.121 J8.175 K0.000 F600.000
G2 X221.166 Y-54.410 Z-1.500 I-2.427 J21.645 K0.000 F600.000
G2 X219.036 Y-52.992 Z-1.500 I0.805 J3.517 K0.000 F600.000
G2 X218.477 Y-51.224 Z-1.500 I2.349 J1.715 K0.000 F600.000
G2 X220.107 Y-48.431 Z-1.500 I4.923 J-1.001 K0.000 F600.000
G2 X224.940 Y-46.995 Z-1.500 I4.349 J-5.788 K0.000 F600.000
G2 X228.732 Y-48.090 Z-1.500 I-1.294 J-11.599 K0.000 F600.000
G1 X230.250 Y-48.090 Z-1.500 F600.000
G1 X230.250 Y-47.000 Z-1.500 F600.000
G2 X230.924 Y-46.254 Z-1.500 I0.750 J-0.000 K0.000 F600.000
G0 Z5.000
G0 Y-61.250 Z5.000
G0 Y-61.250 Z3.000
G1 X230.924 Y-61.250 Z-1.500 F600.000
G1 X233.980 Y-61.250 Z-1.500 F600.000
G2 X234.540 Y-61.454 Z-1.500 I-0.166 J-1.325 K0.000 F600.000
G3 X239.751 Y-61.532 Z-1.500 I5.941 J223.046 K0.000 F600.000
G1 X239.801 Y-61.395 Z-1.500 F600.000
G2 X241.816 Y-59.284 Z-1.500 I2.635 J-0.499 K0.000 F600.000
G2 X244.144 Y-60.371 Z-1.500 I0.547 J-1.866 K0.000 F600.000
G2 X244.701 Y-60.561 Z-1.500 I-0.574 J-2.600 K0.000 F600.000
G2 X245.674 Y-63.280 Z-1.500 I-0.769 J-1.809 K0.000 F600.000
G2 X244.562 Y-64.137 Z-1.500 I-1.807 J1.193 K0.000 F600.000
G2 X243.639 Y-65.735 Z-1.500 I-1.596 J-0.143 K0.000 F600.000
G2 X241.037 Y-65.662 Z-1.500 I-1.205 J3.460 K0.000 F600.000
G2 X240.249 Y-65.215 Z-1.500 I0.577 J1.933 K0.000 F600.000
G2 X238.309 Y-66.615 Z-1.500 I-31.799 J42.002 K0.000 F600.000
G2 X237.880 Y-66.750 Z-1.500 I-0.429 J0.615 K0.000 F600.000
G1 X235.750 Y-66.750 Z-1.500 F600.000
G1 X235.750 Y-71.000 Z-1.500 F600.000
G2 X235.000 Y-71.750 Z-1.500 I-0.750 J0.000 K0.000 F600.000
G1 X229.000 Y-71.750 Z-1.500 F600.000
G2 X228.250 Y-71.000 Z-1.500 I0.000 J0.750 K0.000 F600.000
G1 X228.250 Y-62.000 Z-1.500 F600.000
G2 X229.000 Y-61.250 Z-1.500 I0.750 J-0.000 K0.000 F600.000
G1 X230.924 Y-61.250 Z-1.500 F600.000
G0 Z5.000
G0 X224.355 Y-65.501 Z5.000
G0 X224.355 Y-65.501 Z3.000
G1 X224.355 Y-65.501 Z-1.500 F600.000
G2 X224.476 Y-65.908 Z-1.500 I-0.630 J-0.407 K0.000 F600.000
G1 X224.476 Y-70.492 Z-1.500 F600.000
G2 X223.726 Y-71.242 Z-1.500 I-0.750 J0.000 K0.000 F600.000
G1 X213.412 Y-71.242 Z-1.500 F600.000
G2 X212.662 Y-70.492 Z-1.500 I0.000 J0.750 K0.000 F600.000
G1 X212.662 Y-65.908 Z-1.500 F600.000
G2 X213.412 Y-65.158 Z-1.500 I0.750 J-0.000 K0.000 F600.000
G1 X214.632 Y-65.158 Z-1.500 F600.000
G1 X214.632 Y-63.522 Z-1.500 F600.000
G1 X214.454 Y-63.387 Z-1.500 F600.000
G3 X212.516 Y-62.702 Z-1.500 I-11.467 J-29.359 K0.000 F600.000
G3 X206.661 Y-61.316 Z-1.500 I-15.889 J-54.061 K0.000 F600.000
G2 X203.266 Y-60.660 Z-1.500 I4.677 J33.309 K0.000 F600.000
G2 X202.532 Y-60.181 Z-1.500 I0.233 J1.159 K0.000 F600.000
G2 X202.380 Y-59.571 Z-1.500 I1.851 J0.787 K0.000 F600.000
G2 X202.362 Y-57.730 Z-1.500 I21.327 J1.125 K0.000 F600.000
G2 X202.741 Y-56.208 Z-1.500 I2.330 J0.229 K0.000 F600.000
G3 X202.477 Y-55.784 Z-1.500 I-2.817 J-1.454 K0.000 F600.000
G2 X201.264 Y-53.454 Z-1.500 I36.701 J20.588 K0.000 F600.000
G2 X200.562 Y-51.843 Z-1.500 I6.673 J3.866 K0.000 F600.000
G2 X201.268 Y-50.489 Z-1.500 I1.055 J0.311 K0.000 F600.000
G2 X205.891 Y-50.371 Z-1.500 I2.739 J-16.655 K0.000 F600.000
G2 X208.614 Y-50.977 Z-1.500 I-0.657 J-9.368 K0.000 F600.000
G2 X211.043 Y-52.352 Z-1.500 I-6.522 J-14.358 K0.000 F600.000
G2 X212.359 Y-53.410 Z-1.500 I-3.054 J-5.144 K0.000 F600.000
G2 X211.956 Y-54.832 Z-1.500 I-0.654 J-0.583 K0.000 F600.000
G3 X210.145 Y-55.171 Z-1.500 I4.050 J-26.619 K0.000 F600.000
G3 X208.094 Y-56.242 Z-1.500 I0.486 J-3.431 K0.000 F600.000
G3 X208.570 Y-56.516 Z-1.500 I2.605 J3.973 K0.000 F600.000
G3 X210.453 Y-57.383 Z-1.500 I86.678 J185.818 K0.000 F600.000
G3 X213.438 Y-58.655 Z-1.500 I6.873 J11.992 K0.000 F600.000
G3 X220.640 Y-60.394 Z-1.500 I10.420 J27.365 K0.000 F600.000
G2 X221.444 Y-60.924 Z-1.500 I0.104 J-0.717 K0.000 F600.000
G1 X222.155 Y-63.410 Z-1.500 F600.000
G1 X222.184 Y-63.616 Z-1.500 F600.000
G1 X222.184 Y-65.158 Z-1.500 F600.000
G1 X223.726 Y-65.158 Z-1.500 F600.000
G2 X224.355 Y-65.501 Z-1.500 I-0.000 J-0.750 K0.000 F600.000
G0 Z5.000
G0 X196.887 Y-62.578 Z5.000
G0 X196.887 Y-62.578 Z3.000
G1 X196.887 Y-62.578 Z-1.500 F600.000
G2 X196.674 Y-63.280 Z-1.500 I-1.955 J0.208 K0.000 F600.000
G2 X195.562 Y-64.137 Z-1.500 I-1.807 J1.193 K0.000 F600.000
G2 X194.639 Y-65.735 Z-1.500 I-1.596 J-0.143 K0.000 F600.000
G2 X192.037 Y-65.662 Z-1.500 I-1.205 J3.460 K0.000 F600.000
G2 X191.249 Y-65.215 Z-1.500 I0.577 J1.933 K0.000 F600.000
G2 X189.309 Y-66.615 Z-1.500 I-31.799 J42.002 K0.000 F600.000
G2 X188.880 Y-66.750 Z-1.500 I-0.429 J0.615 K0.000 F600.000
G1 X186.750 Y-66.750 Z-1.500 F600.000
G1 X186.750 Y-71.000 Z-1.500 F600.000
G2 X186.000 Y-71.750 Z-1.500 I-0.750 J0.000 K0.000 F600.000
G1 X180.000 Y-71.750 Z-1.500 F600.000
G2 X179.250 Y-71.000 Z-1.500 I0.000 J0.750 K0.000 F600.000
G1 X179.250 Y-62.000 Z-1.500 F600.000
G2 X180.000 Y-61.250 Z-1.500 I0.750 J-0.000 K0.000 F600.000
G1 X184.980 Y-61.250 Z-1.500 F600.000
G2 X185.540 Y-61.454 Z-1.500 I-0.166 J-1.325 K0.000 F600.000
G3 X190.751 Y-61.532 Z-1.500 I5.941 J223.046 K0.000 F600.000
G1 X190.801 Y-61.395 Z-1.500 F600.000
G2 X192.816 Y-59.284 Z-1.500 I2.635 J-0.499 K0.000 F600.000
G2 X195.144 Y-60.371 Z-1.500 I0.547 J-1.866 K0.000 F600.000
G2 X195.701 Y-60.561 Z-1.500 I-0.574 J-2.600 K0.000 F600.000
G2 X196.887 Y-62.578 Z-1.500 I-0.769 J-1.809 K0.000 F600.000
G0 Z5.000
G0 X187.595 Y-55.456 Z5.000
G0 X187.595 Y-55.456 Z3.000
G1 X187.595 Y-55.456 Z-1.500 F600.000
G2 X187.000 Y-55.750 Z-1.500 I-0.595 J0.456 K0.000 F600.000
G1 X186.000 Y-55.750 Z-1.500 F600.000
G2 X185.470 Y-55.530 Z-1.500 I-0.000 J0.750 K0.000 F600.000
G1 X184.689 Y-54.750 Z-1.500 F600.000
G1 X181.959 Y-54.750 Z-1.500 F600.000
G2 X181.560 Y-54.625 Z-1.500 I-0.024 J0.623 K0.000 F600.000
G2 X179.735 Y-54.890 Z-1.500 I-2.121 J8.175 K0.000 F600.000
G2 X172.166 Y-54.410 Z-1.500 I-2.427 J21.645 K0.000 F600.000
G2 X170.036 Y-52.992 Z-1.500 I0.805 J3.517 K0.000 F600.000
G2 X169.477 Y-51.224 Z-1.500 I2.349 J1.715 K0.000 F600.000
G2 X171.107 Y-48.431 Z-1.500 I4.923 J-1.001 K0.000 F600.000
G2 X175.940 Y-46.995 Z-1.500 I4.349 J-5.788 K0.000 F600.000
G2 X179.732 Y-48.090 Z-1.500 I-1.294 J-11.599 K0.000 F600.000
G1 X181.250 Y-48.090 Z-1.500 F600.000
G1 X181.250 Y-47.000 Z-1.500 F600.000
G2 X182.000 Y-46.250 Z-1.500 I0.750 J-0.000 K0.000 F600.000
G1 X187.000 Y-46.250 Z-1.500 F600.000
G2 X187.750 Y-47.000 Z-1.500 I-0.000 J-0.750 K0.000 F600.000
G1 X187.750 Y-55.000 Z-1.500 F600.000
G2 X187.595 Y-55.456 Z-1.500 I-0.750 J0.000 K0.000 F600.000
G0 Z5.000
G0 X175.308 Y-65.435 Z5.000
G0 X175.308 Y-65.435 Z3.000
G1 X175.308 Y-65.435 Z-1.500 F600.000
G2 X175.476 Y-65.908 Z-1.500 I-0.582 J-0.473 K0.000 F600.000
G1 X175.476 Y-70.492 Z-1.500 F600.000
G2 X174.726 Y-71.242 Z-1.500 I-0.750 J0.000 K0.000 F600.000
G1 X164.412 Y-71.242 Z-1.500 F600.000
G2 X163.662 Y-70.492 Z-1.500 I0.000 J0.750 K0.000 F600.000
G1 X163.662 Y-65.908 Z-1.500 F600.000
G2 X164.412 Y-65.158 Z-1.500 I0.750 J-0.000 K0.000 F600.000
G1 X165.632 Y-65.158 Z-1.500 F600.000
G1 X165.632 Y-63.522 Z-1.500 F600.000
G1 X165.454 Y-63.387 Z-1.500 F600.000
G3 X163.516 Y-62.702 Z-1.500 I-11.467 J-29.359 K0.000 F600.000
G3 X157.661 Y-61.316 Z-1.500 I-15.889 J-54.061 K0.000 F600.000
G2 X154.266 Y-60.660 Z-1.500 I4.677 J33.309 K0.000 F600.000
G2 X153.532 Y-60.181 Z-1.500 I0.233 J1.159 K0.000 F600.000
G2 X153.380 Y-59.571 Z-1.500 I1.851 J0.787 K0.000 F600.000
G2 X153.362 Y-57.730 Z-1.500 I21.327 J1.125 K0.000 F600.000
G2 X153.741 Y-56.208 Z-1.500 I2.330 J0.229 K0.000 F600.000
G3 X153.477 Y-55.784 Z-1.500 I-2.817 J-1.454 K0.000 F600.000
G2 X152.264 Y-53.454 Z-1.500 I36.701 J20.588 K0.000 F600.000
G2 X151.562 Y-51.843 Z-1.500 I6.673 J3.866 K0.000 F600.000
G2 X152.268 Y-50.489 Z-1.500 I1.055 J0.311 K0.000 F600.000
G2 X156.891 Y-50.371 Z-1.500 I2.739 J-16.655 K0.000 F600.000
G2 X159.614 Y-50.977 Z-1.500 I-0.657 J-9.368 K0.000 F600.000
G2 X162.043 Y-52.352 Z-1.500 I-6.522 J-14.358 K0.000 F600.000
G2 X163.359 Y-53.410 Z-1.500 I-3.054 J-5.144 K0.000 F600.000
G2 X162.956 Y-54.832 Z-1.500 I-0.654 J-0.583 K0.000 F600.000
G3 X161.145 Y-55.171 Z-1.500 I4.050 J-26.619 K0.000 F600.000
G3 X159.094 Y-56.242 Z-1.500 I0.486 J-3.431 K0.000 F600.000
G3 X159.570 Y-56.516 Z-1.500 I2.605 J3.973 K0.000 F600.000
G3 X161.453 Y-57.383 Z-1.500 I86.679 J185.821 K0.000 F600.000
G3 X164.438 Y-58.655 Z-1.500 I6.873 J11.992 K0.000 F600.000
G3 X171.640 Y-60.394 Z-1.500 I10.420 J27.365 K0.000 F600.000
G2 X172.444 Y-60.924 Z-1.500 I0.104 J-0.717 K0.000 F600.000
G1 X173.155 Y-63.410 Z-1.500 F600.000
G1 X173.184 Y-63.616 Z-1.500 F600.000
G1 X173.184 Y-65.158 Z-1.500 F600.000
G1 X174.726 Y-65.158 Z-1.500 F600.000
G2 X175.308 Y-65.435 Z-1.500 I-0.000 J-0.750 K0.000 F600.000
G0 Z5.000
G0 X147.887 Y-62.574 Z5.000
G0 X147.887 Y-62.574 Z3.000
G1 X147.887 Y-62.574 Z-1.500 F600.000
G2 X147.674 Y-63.280 Z-1.500 I-1.955 J0.204 K0.000 F600.000
G2 X146.562 Y-64.137 Z-1.500 I-1.807 J1.193 K0.000 F600.000
G2 X145.639 Y-65.735 Z-1.500 I-1.596 J-0.143 K0.000 F600.000
G2 X143.037 Y-65.662 Z-1.500 I-1.205 J3.460 K0.000 F600.000
G2 X142.249 Y-65.215 Z-1.500 I0.577 J1.933 K0.000 F600.000
G2 X140.309 Y-66.615 Z-1.500 I-31.799 J42.002 K0.000 F600.000
G2 X139.880 Y-66.750 Z-1.500 I-0.429 J0.615 K0.000 F600.000
G1 X137.750 Y-66.750 Z-1.500 F600.000
G1 X137.750 Y-71.000 Z-1.500 F600.000
G2 X137.000 Y-71.750 Z-1.500 I-0.750 J0.000 K0.000 F600.000
G1 X131.000 Y-71.750 Z-1.500 F600.000
G2 X130.250 Y-71.000 Z-1.500 I0.000 J0.750 K0.000 F600.000
G1 X130.250 Y-62.000 Z-1.500 F600.000
G2 X131.000 Y-61.250 Z-1.500 I0.750 J-0.000 K0.000 F600.000
G1 X135.980 Y-61.250 Z-1.500 F600.000
G2 X136.540 Y-61.454 Z-1.500 I-0.166 J-1.325 K0.000 F600.000
G3 X141.751 Y-61.532 Z-1.500 I5.941 J223.046 K0.000 F600.000
G1 X141.801 Y-61.395 Z-1.500 F600.000
G2 X143.816 Y-59.284 Z-1.500 I2.635 J-0.499 K0.000 F600.000
G2 X146.144 Y-60.371 Z-1.500 I0.547 J-1.866 K0.000 F600.000
G2 X146.701 Y-60.561 Z-1.500 I-0.574 J-2.600 K0.000 F600.000
G2 X147.887 Y-62.574 Z-1.500 I-0.769 J-1.809 K0.000 F600.000
G0 Z5.000
G0 X138.595 Y-55.456 Z5.000
G0 X138.595 Y-55.456 Z3.000
G1 X138.595 Y-55.456 Z-1.500 F600.000
G2 X138.000 Y-55.750 Z-1.500 I-0.595 J0.456 K0.000 F600.000
G1 X137.000 Y-55.750 Z-1.500 F600.000
G2 X136.470 Y-55.530 Z-1.500 I-0.000 J0.750 K0.000 F600.000
G1 X135.689 Y-54.750 Z-1.500 F600.000
G1 X132.959 Y-54.750 Z-1.500 F600.000
G2 X132.560 Y-54.625 Z-1.500 I-0.024 J0.623 K0.000 F600.000
G2 X130.735 Y-54.890 Z-1.500 I-2.121 J8.175 K0.000 F600.000
G2 X123.166 Y-54.410 Z-1.500 I-2.427 J21.645 K0.000 F600.000
G2 X121.036 Y-52.992 Z-1.500 I0.805 J3.517 K0.000 F600.000
G2 X120.477 Y-51.224 Z-1.500 I2.349 J1.715 K0.000 F600.000
G2 X122.107 Y-48.431 Z-1.500 I4.923 J-1.001 K0.000 F600.000
G2 X126.940 Y-46.995 Z-1.500 I4.349 J-5.788 K0.000 F600.000
G2 X130.732 Y-48.090 Z-1.500 I-1.294 J-11.599 K0.000 F600.000
G1 X132.250 Y-48.090 Z-1.500 F600.000
G1 X132.250 Y-47.000 Z-1.500 F600.000
G2 X133.000 Y-46.250 Z-1.500 I0.750 J-0.000 K0.000 F600.000
G1 X138.000 Y-46.250 Z-1.500 F600.000
G2 X138.750 Y-47.000 Z-1.500 I-0.000 J-0.750 K0.000 F600.000
G1 X138.750 Y-55.000 Z-1.500 F600.000
G2 X138.595 Y-55.456 Z-1.500 I-0.750 J0.000 K0.000 F600.000
G0 Z5.000
G0 X126.308 Y-65.435 Z5.000
G0 X126.308 Y-65.435 Z3.000
G1 X126.308 Y-65.435 Z-1.500 F600.000
G2 X126.476 Y-65.908 Z-1.500 I-0.582 J-0.473 K0.000 F600.000
G1 X126.476 Y-70.492 Z-1.500 F600.000
G2 X125.726 Y-71.242 Z-1.500 I-0.750 J0.000 K0.000 F600.000
G1 X115.412 Y-71.242 Z-1.500 F600.000
G2 X114.662 Y-70.492 Z-1.500 I0.000 J0.750 K0.000 F600.000
G1 X114.662 Y-65.908 Z-1.500 F600.000
G2 X115.412 Y-65.158 Z-1.500 I0.750 J-0.000 K0.000 F600.000
G1 X116.632 Y-65.158 Z-1.500 F600.000
G1 X116.632 Y-63.522 Z-1.500 F600.000
G1 X116.454 Y-63.387 Z-1.500 F600.000
G3 X114.516 Y-62.702 Z-1.500 I-11.467 J-29.359 K0.000 F600.000
G3 X108.661 Y-61.316 Z-1.500 I-15.889 J-54.061 K0.000 F600.000
G2 X105.266 Y-60.660 Z-1.500 I4.677 J33.309 K0.000 F600.000
G2 X104.532 Y-60.181 Z-1.500 I0.233 J1.159 K0.000 F600.000
G2 X104.380 Y-59.571 Z-1.500 I1.851 J0.787 K0.000 F600.000
G2 X104.362 Y-57.730 Z-1.500 I21.327 J1.125 K0.000 F600.000
G2 X104.741 Y-56.208 Z-1.500 I2.330 J0.229 K0.000 F600.000
G3 X104.477 Y-55.784 Z-1.500 I-2.817 J-1.454 K0.000 F600.000
G2 X103.264 Y-53.454 Z-1.500 I36.701 J20.588 K0.000 F600.000
G2 X102.562 Y-51.843 Z-1.500 I6.672 J3.866 K0.000 F600.000
G2 X103.268 Y-50.489 Z-1.500 I1.055 J0.311 K0.000 F600.000
G2 X107.891 Y-50.371 Z-1.500 I2.739 J-16.655 K0.000 F600.000
G2 X110.614 Y-50.977 Z-1.500 I-0.657 J-9.368 K0.000 F600.000
G2 X113.043 Y-52.352 Z-1.500 I-6.522 J-14.358 K0.000 F600.000
G2 X114.359 Y-53.410 Z-1.500 I-3.054 J-5.144 K0.000 F600.000
G2 X113.956 Y-54.832 Z-1.500 I-0.654 J-0.583 K0.000 F600.000
G3 X112.145 Y-55.171 Z-1.500 I4.050 J-26.619 K0.000 F600.000
G3 X110.094 Y-56.242 Z-1.500 I0.486 J-3.431 K0.000 F600.000
G3 X110.570 Y-56.516 Z-1.500 I2.605 J3.973 K0.000 F600.000
G3 X112.453 Y-57.383 Z-1.500 I86.678 J185.818 K0.000 F600.000
G3 X115.438 Y-58.655 Z-1.500 I6.873 J11.992 K0.000 F600.000
G3 X122.640 Y-60.394 Z-1.500 I10.420 J27.365 K0.000 F600.000
G2 X123.444 Y-60.924 Z-1.500 I0.104 J-0.717 K0.000 F600.000
G1 X124.155 Y-63.410 Z-1.500 F600.000
G1 X124.184 Y-63.616 Z-1.500 F600.000
G1 X124.184 Y-65.158 Z-1.500 F600.000
G1 X125.726 Y-65.158 Z-1.500 F600.000
G2 X126.308 Y-65.435 Z-1.500 I-0.000 J-0.750 K0.000 F600.000
G0 Z5.000
G0 X98.887 Y-62.574 Z5.000
G0 X98.887 Y-62.574 Z3.000
G1 X98.887 Y-62.574 Z-1.500 F600.000
G2 X98.674 Y-63.280 Z-1.500 I-1.955 J0.204 K0.000 F600.000
G2 X97.562 Y-64.137 Z-1.500 I-1.807 J1.193 K0.000 F600.000
G2 X96.639 Y-65.735 Z-1.500 I-1.596 J-0.143 K0.000 F600.000
G2 X94.037 Y-65.662 Z-1.500 I-1.205 J3.460 K0.000 F600.000
G2 X93.249 Y-65.215 Z-1.500 I0.577 J1.933 K0.000 F600.000
G2 X91.309 Y-66.615 Z-1.500 I-31.799 J42.002 K0.000 F600.000
G2 X90.880 Y-66.750 Z-1.500 I-0.429 J0.615 K0.000 F600.000
G1 X88.750 Y-66.750 Z-1.500 F600.000
G1 X88.750 Y-71.000 Z-1.500 F600.000
G2 X88.000 Y-71.750 Z-1.500 I-0.750 J0.000 K0.000 F600.000
G1 X82.000 Y-71.750 Z-1.500 F600.000
G2 X81.250 Y-71.000 Z-1.500 I0.000 J0.750 K0.000 F600.000
G1 X81.250 Y-62.000 Z-1.500 F600.000
G2 X82.000 Y-61.250 Z-1.500 I0.750 J-0.000 K0.000 F600.000
G1 X86.980 Y-61.250 Z-1.500 F600.000
G2 X87.540 Y-61.454 Z-1.500 I-0.166 J-1.325 K0.000 F600.000
G3 X92.751 Y-61.532 Z-1.500 I5.941 J223.046 K0.000 F600.000
G1 X92.801 Y-61.395 Z-1.500 F600.000
G2 X94.816 Y-59.284 Z-1.500 I2.635 J-0.499 K0.000 F600.000
G2 X97.144 Y-60.371 Z-1.500 I0.547 J-1.866 K0.000 F600.000
G2 X97.701 Y-60.561 Z-1.500 I-0.574 J-2.600 K0.000 F600.000
G2 X98.887 Y-62.574 Z-1.500 I-0.769 J-1.809 K0.000 F600.000
G0 Z5.000
G0 X89.595 Y-55.456 Z5.000
G0 X89.595 Y-55.456 Z3.000
G1 X89.595 Y-55.456 Z-1.500 F600.000
G2 X89.000 Y-55.750 Z-1.500 I-0.595 J0.456 K0.000 F600.000
G1 X88.000 Y-55.750 Z-1.500 F600.000
G2 X87.470 Y-55.530 Z-1.500 I-0.000 J0.750 K0.000 F600.000
G1 X86.689 Y-54.750 Z-1.500 F600.000
G1 X83.959 Y-54.750 Z-1.500 F600.000
G2 X83.560 Y-54.625 Z-1.500 I-0.024 J0.623 K0.000 F600.000
G2 X81.735 Y-54.890 Z-1.500 I-2.121 J8.175 K0.000 F600.000
G2 X74.166 Y-54.410 Z-1.500 I-2.427 J21.645 K0.000 F600.000
G2 X72.036 Y-52.992 Z-1.500 I0.805 J3.517 K0.000 F600.000
G2 X71.477 Y-51.224 Z-1.500 I2.349 J1.715 K0.000 F600.000
G2 X73.107 Y-48.431 Z-1.500 I4.923 J-1.001 K0.000 F600.000
G2 X77.940 Y-46.995 Z-1.500 I4.349 J-5.788 K0.000 F600.000
G2 X81.732 Y-48.090 Z-1.500 I-1.294 J-11.599 K0.000 F600.000
G1 X83.250 Y-48.090 Z-1.500 F600.000
G1 X83.250 Y-47.000 Z-1.500 F600.000
G2 X84.000 Y-46.250 Z-1.500 I0.750 J-0.000 K0.000 F600.000
G1 X89.000 Y-46.250 Z-1.500 F600.000
G2 X89.750 Y-47.000 Z-1.500 I-0.000 J-0.750 K0.000 F600.000
G1 X89.750 Y-55.000 Z-1.500 F600.000
G2 X89.595 Y-55.456 Z-1.500 I-0.750 J0.000 K0.000 F600.000
G0 Z5.000
G0 X77.308 Y-65.435 Z5.000
G0 X77.308 Y-65.435 Z3.000
G1 X77.308 Y-65.435 Z-1.500 F600.000
G2 X77.476 Y-65.908 Z-1.500 I-0.582 J-0.473 K0.000 F600.000
G1 X77.476 Y-70.492 Z-1.500 F600.000
G2 X76.726 Y-71.242 Z-1.500 I-0.750 J0.000 K0.000 F600.000
G1 X66.412 Y-71.242 Z-1.500 F600.000
G2 X65.662 Y-70.492 Z-1.500 I0.000 J0.750 K0.000 F600.000
G1 X65.662 Y-65.908 Z-1.500 F600.000
G2 X66.412 Y-65.158 Z-1.500 I0.750 J-0.000 K0.000 F600.000
G1 X67.632 Y-65.158 Z-1.500 F600.000
G1 X67.632 Y-63.522 Z-1.500 F600.000
G1 X67.454 Y-63.387 Z-1.500 F600.000
G3 X65.516 Y-62.702 Z-1.500 I-11.467 J-29.359 K0.000 F600.000
G3 X59.661 Y-61.316 Z-1.500 I-15.889 J-54.061 K0.000 F600.000
G2 X56.266 Y-60.660 Z-1.500 I4.677 J33.309 K0.000 F600.000
G2 X55.532 Y-60.181 Z-1.500 I0.233 J1.159 K0.000 F600.000
G2 X55.380 Y-59.571 Z-1.500 I1.851 J0.787 K0.000 F600.000
G2 X55.362 Y-57.730 Z-1.500 I21.327 J1.125 K0.000 F600.000
G2 X55.741 Y-56.208 Z-1.500 I2.330 J0.229 K0.000 F600.000
G3 X55.477 Y-55.784 Z-1.500 I-2.817 J-1.454 K0.000 F600.000
G2 X54.264 Y-53.454 Z-1.500 I36.701 J20.588 K0.000 F600.000
G2 X53.562 Y-51.843 Z-1.500 I6.673 J3.866 K0.000 F600.000
G2 X54.268 Y-50.489 Z-1.500 I1.055 J0.311 K0.000 F600.000
G2 X58.891 Y-50.371 Z-1.500 I2.739 J-16.655 K0.000 F600.000
G2 X61.614 Y-50.977 Z-1.500 I-0.657 J-9.368 K0.000 F600.000
G2 X64.043 Y-52.352 Z-1.500 I-6.522 J-14.358 K0.000 F600.000
G2 X65.359 Y-53.410 Z-1.500 I-3.054 J-5.144 K0.000 F600.000
G2 X64.956 Y-54.832 Z-1.500 I-0.654 J-0.583 K0.000 F600.000
G3 X63.145 Y-55.171 Z-1.500 I4.050 J-26.619 K0.000 F600.000
G3 X61.094 Y-56.242 Z-1.500 I0.486 J-3.431 K0.000 F600.000
G3 X61.570 Y-56.516 Z-1.500 I2.605 J3.973 K0.000 F600.000
G3 X63.453 Y-57.383 Z-1.500 I86.678 J185.818 K0.000 F600.000
G3 X66.438 Y-58.655 Z-1.500 I6.873 J11.992 K0.000 F600.000
G3 X73.640 Y-60.394 Z-1.500 I10.420 J27.365 K0.000 F600.000
G2 X74.444 Y-60.924 Z-1.500 I0.104 J-0.717 K0.000 F600.000
G1 X75.155 Y-63.410 Z-1.500 F600.000
G1 X75.184 Y-63.616 Z-1.500 F600.000
G1 X75.184 Y-65.158 Z-1.500 F600.000
G1 X76.726 Y-65.158 Z-1.500 F600.000
G2 X77.308 Y-65.435 Z-1.500 I-0.000 J-0.750 K0.000 F600.000
G0 Z5.000
G0 X49.887 Y-62.574 Z5.000
G0 X49.887 Y-62.574 Z3.000
G1 X49.887 Y-62.574 Z-1.500 F600.000
G2 X49.674 Y-63.280 Z-1.500 I-1.955 J0.204 K0.000 F600.000
G2 X48.562 Y-64.137 Z-1.500 I-1.807 J1.193 K0.000 F600.000
G2 X47.639 Y-65.735 Z-1.500 I-1.596 J-0.143 K0.000 F600.000
G2 X45.037 Y-65.662 Z-1.500 I-1.205 J3.460 K0.000 F600.000
G2 X44.249 Y-65.215 Z-1.500 I0.577 J1.933 K0.000 F600.000
G2 X42.309 Y-66.615 Z-1.500 I-31.799 J42.002 K0.000 F600.000
G2 X41.880 Y-66.750 Z-1.500 I-0.429 J0.615 K0.000 F600.000
G1 X39.750 Y-66.750 Z-1.500 F600.000
G1 X39.750 Y-71.000 Z-1.500 F600.000
G2 X39.000 Y-71.750 Z-1.500 I-0.750 J0.000 K0.000 F600.000
G1 X33.000 Y-71.750 Z-1.500 F600.000
G2 X32.250 Y-71.000 Z-1.500 I0.000 J0.750 K0.000 F600.000
G1 X32.250 Y-62.000 Z-1.500 F600.000
G2 X33.000 Y-61.250 Z-1.500 I0.750 J-0.000 K0.000 F600.000
G1 X37.980 Y-61.250 Z-1.500 F600.000
G2 X38.540 Y-61.454 Z-1.500 I-0.166 J-1.325 K0.000 F600.000
G3 X43.751 Y-61.532 Z-1.500 I5.941 J223.046 K0.000 F600.000
G1 X43.801 Y-61.395 Z-1.500 F600.000
G2 X45.816 Y-59.284 Z-1.500 I2.635 J-0.499 K0.000 F600.000
G2 X48.144 Y-60.371 Z-1.500 I0.547 J-1.866 K0.000 F600.000
G2 X48.701 Y-60.561 Z-1.500 I-0.574 J-2.600 K0.000 F600.000
G2 X49.887 Y-62.574 Z-1.500 I-0.769 J-1.809 K0.000 F600.000
G0 Z5.000
G0 X40.595 Y-55.456 Z5.000
G0 X40.595 Y-55.456 Z3.000
G1 X40.595 Y-55.456 Z-1.500 F600.000
G2 X40.000 Y-55.750 Z-1.500 I-0.595 J0.456 K0.000 F600.000
G1 X39.000 Y-55.750 Z-1.500 F600.000
G2 X38.470 Y-55.530 Z-1.500 I-0.000 J0.750 K0.000 F600.000
G1 X37.689 Y-54.750 Z-1.500 F600.000
G1 X34.959 Y-54.750 Z-1.500 F600.000
G2 X34.560 Y-54.625 Z-1.500 I-0.024 J0.623 K0.000 F600.000
G2 X32.735 Y-54.890 Z-1.500 I-2.121 J8.175 K0.000 F600.000
G2 X25.166 Y-54.410 Z-1.500 I-2.427 J21.645 K0.000 F600.000
G2 X23.036 Y-52.992 Z-1.500 I0.805 J3.517 K0.000 F600.000
G2 X22.477 Y-51.224 Z-1.500 I2.349 J1.715 K0.000 F600.000
G2 X24.107 Y-48.431 Z-1.500 I4.923 J-1.001 K0.000 F600.000
G2 X28.940 Y-46.995 Z-1.500 I4.349 J-5.788 K0.000 F600.000
G2 X32.732 Y-48.090 Z-1.500 I-1.294 J-11.599 K0.000 F600.000
G1 X34.250 Y-48.090 Z-1.500 F600.000
G1 X34.250 Y-47.000 Z-1.500 F600.000
G2 X35.000 Y-46.250 Z-1.500 I0.750 J-0.000 K0.000 F600.000
G1 X40.000 Y-46.250 Z-1.500 F600.000
G2 X40.750 Y-47.000 Z-1.500 I-0.000 J-0.750 K0.000 F600.000
G1 X40.750 Y-55.000 Z-1.500 F600.000
G2 X40.595 Y-55.456 Z-1.500 I-0.750 J0.000 K0.000 F600.000
G0 Z5.000
G0 X28.308 Y-65.435 Z5.000
G0 X28.308 Y-65.435 Z3.000
G1 X28.308 Y-65.435 Z-1.500 F600.000
G2 X28.476 Y-65.908 Z-1.500 I-0.582 J-0.473 K0.000 F600.000
G1 X28.476 Y-70.492 Z-1.500 F600.000
G2 X27.726 Y-71.242 Z-1.500 I-0.750 J0.000 K0.000 F600.000
G1 X17.412 Y-71.242 Z-1.500 F600.000
G2 X16.662 Y-70.492 Z-1.500 I0.000 J0.750 K0.000 F600.000
G1 X16.662 Y-65.908 Z-1.500 F600.000
G2 X17.412 Y-65.158 Z-1.500 I0.750 J-0.000 K0.000 F600.000
