(Exported by FreeCAD)
(Post Processor: script_module)
(Output Time:2025-03-21 16:20:29.017606)
(Begin preamble)
G17 G90
G21
(Begin operation: Fixture)
(Path: Fixture)
G54
(Finish operation: Fixture)
(Begin operation: 2mm_Endmill001)
(Path: 2mm_Endmill001)
(2mm_Endmill001)
(Begin toolchange)
( M6 T2 )
M3 S13000
(Finish operation: 2mm_Endmill001)
(Begin operation: Pocket_Shape)
(Path: Pocket_Shape)
(Pocket_Shape)
G0 Z5.000
(Finish operation: Pocket_Shape)
(Begin operation: 1.5mm_Endmill001)
(Path: 1.5mm_Endmill001)
(1.5mm_Endmill001)
(Begin toolchange)
( M6 T3 )
M3 S13000
(Finish operation: 1.5mm_Endmill001)
(Begin operation: Pocket_Shape001)
(Path: Pocket_Shape001)
(Pocket_Shape001)
G0 Z5.000
G0 X56.647 Y-2.384
G0 Z3.000
G1 X56.647 Y-2.384 Z-1.500 F600.000
G2 X56.604 Y-2.484 Z-1.500 I-0.114 J-0.010 K0.000 F600.000
G2 X56.345 Y-2.593 Z-1.500 I-1.559 J3.332 K0.000 F600.000
G2 X56.581 Y-2.498 Z-1.500 I3.030 J-7.172 K0.000 F600.000
G3 X56.647 Y-2.384 Z-1.500 I-0.048 J0.104 K0.000 F600.000
G1 X56.598 Y-2.340 Z-1.500 F600.000
G1 X56.345 Y-2.593 Z-1.500 F600.000
G2 X54.616 Y-2.899 Z-1.500 I-1.617 J4.095 K0.000 F600.000
G3 X53.870 Y-3.704 Z-1.500 I0.002 J-0.750 K0.000 F600.000
G2 X53.967 Y-7.196 Z-1.500 I-32.672 J-2.663 K0.000 F600.000
G3 X54.737 Y-7.958 Z-1.500 I0.750 J-0.012 K0.000 F600.000
G3 X56.142 Y-7.532 Z-1.500 I-0.405 J3.863 K0.000 F600.000
G2 X58.192 Y-6.708 Z-1.500 I35.421 J-85.159 K0.000 F600.000
G2 X58.203 Y-6.715 Z-1.500 I-0.013 J-0.034 K0.000 F600.000
G2 X58.297 Y-8.989 Z-1.500 I-4.502 J-1.324 K0.000 F600.000
G2 X58.223 Y-9.040 Z-1.500 I-0.129 J0.107 K0.000 F600.000
G2 X56.428 Y-9.232 Z-1.500 I-2.052 J10.713 K0.000 F600.000
G3 X54.637 Y-9.253 Z-1.500 I2.619 J-290.073 K0.000 F600.000
G2 X49.971 Y-9.095 Z-1.500 I-0.548 J52.826 K0.000 F600.000
G2 X48.933 Y-8.701 Z-1.500 I0.419 J2.666 K0.000 F600.000
G1 X48.969 Y-8.669 Z-1.500 F600.000
G2 X49.471 Y-8.373 Z-1.500 I0.772 J-0.734 K0.000 F600.000
G2 X52.175 Y-8.211 Z-1.500 I2.114 J-12.630 K0.000 F600.000
G3 X52.947 Y-7.457 Z-1.500 I0.022 J0.750 K0.000 F600.000
G2 X53.031 Y-3.709 Z-1.500 I54.434 J0.661 K0.000 F600.000
G3 X52.309 Y-2.923 Z-1.500 I-0.749 J0.037 K0.000 F600.000
G2 X51.004 Y-2.829 Z-1.500 I0.347 J14.030 K0.000 F600.000
G2 X50.196 Y-2.416 Z-1.500 I0.252 J1.489 K0.000 F600.000
G2 X50.198 Y-2.381 Z-1.500 I0.020 J0.017 K0.000 F600.000
G2 X50.257 Y-2.327 Z-1.500 I0.118 J-0.070 K0.000 F600.000
G2 X50.857 Y-2.000 Z-1.500 I0.939 J-1.011 K0.000 F600.000
G2 X55.849 Y-1.970 Z-1.500 I2.641 J-24.055 K0.000 F600.000
G2 X56.647 Y-2.384 Z-1.500 I-0.319 J-1.593 K0.000 F600.000
G0 Z5.000
G0 X56.598 Y-2.340 Z5.000
G0 X56.598 Y-2.340 Z3.000
G1 X56.598 Y-2.340 Z-1.500 F600.000
G1 X56.345 Y-2.593 Z-1.500 F600.000
G2 X54.616 Y-2.899 Z-1.500 I-1.617 J4.095 K0.000 F600.000
G3 X53.870 Y-3.704 Z-1.500 I0.002 J-0.750 K0.000 F600.000
G2 X53.948 Y-4.990 Z-1.500 I-30.885 J-2.532 K0.000 F600.000
G1 X52.949 Y-5.989 Z-1.500 F600.000
G2 X53.027 Y-3.790 Z-1.500 I52.793 J-0.757 K0.000 F600.000
G1 X54.918 Y-1.899 Z-1.500 F600.000
G3 X52.829 Y-1.867 Z-1.500 I-1.392 J-22.668 K0.000 F600.000
G1 X51.796 Y-2.899 Z-1.500 F600.000
G2 X51.004 Y-2.829 Z-1.500 I0.614 J11.432 K0.000 F600.000
G2 X50.196 Y-2.416 Z-1.500 I0.252 J1.489 K0.000 F600.000
G2 X50.214 Y-2.361 Z-1.500 I0.044 J0.017 K0.000 F600.000
G0 Z5.000
G0 X50.710 Y-8.228 Z5.000
G0 X50.710 Y-8.228 Z3.000
G1 X50.710 Y-8.228 Z-1.500 F600.000
G3 X49.471 Y-8.373 Z-1.500 I0.781 J-12.075 K0.000 F600.000
G3 X48.969 Y-8.669 Z-1.500 I0.271 J-1.031 K0.000 F600.000
G1 X48.933 Y-8.701 Z-1.500 F600.000
G3 X49.862 Y-9.076 Z-1.500 I1.451 J2.261 K0.000 F600.000
G1 X50.710 Y-8.228 Z-1.500 F600.000
G2 X52.175 Y-8.211 Z-1.500 I0.882 J-12.470 K0.000 F600.000
G3 X52.947 Y-7.457 Z-1.500 I0.022 J0.750 K0.000 F600.000
G2 X52.949 Y-5.989 Z-1.500 I53.378 J0.654 K0.000 F600.000
G1 X53.948 Y-4.990 Z-1.500 F600.000
G2 X53.969 Y-7.090 Z-1.500 I-31.241 J-1.363 K0.000 F600.000
G1 X51.852 Y-9.207 Z-1.500 F600.000
G3 X53.925 Y-9.255 Z-1.500 I2.161 J48.536 K0.000 F600.000
G1 X55.333 Y-7.848 Z-1.500 F600.000
G3 X56.142 Y-7.532 Z-1.500 I-0.991 J3.733 K0.000 F600.000
G2 X58.193 Y-6.709 Z-1.500 I29.408 J-70.293 K0.000 F600.000
G2 X58.209 Y-6.720 Z-1.500 I-0.019 J-0.042 K0.000 F600.000
G2 X58.283 Y-7.019 Z-1.500 I-3.180 J-0.952 K0.000 F600.000
G2 X58.297 Y-8.989 Z-1.500 I-4.655 J-1.017 K0.000 F600.000
G2 X58.223 Y-9.040 Z-1.500 I-0.129 J0.107 K0.000 F600.000
G2 X56.771 Y-9.218 Z-1.500 I-2.041 J10.654 K0.000 F600.000
G2 X56.067 Y-9.235 Z-1.500 I-1.054 J28.496 K0.000 F600.000
G1 X58.283 Y-7.019 Z-1.500 F600.000
G1 X58.283 Y-7.019 Z-2.000 F600.000
G1 X56.067 Y-9.235 Z-2.000 F600.000
G3 X56.771 Y-9.218 Z-2.000 I-0.350 J28.513 K0.000 F600.000
G3 X58.223 Y-9.040 Z-2.000 I-0.589 J10.832 K0.000 F600.000
G3 X58.297 Y-8.989 Z-2.000 I-0.055 J0.158 K0.000 F600.000
G3 X58.283 Y-7.019 Z-2.000 I-4.668 J0.953 K0.000 F600.000
G3 X58.209 Y-6.720 Z-2.000 I-3.255 J-0.653 K0.000 F600.000
G3 X58.193 Y-6.709 Z-2.000 I-0.035 J-0.030 K0.000 F600.000
G3 X56.142 Y-7.532 Z-2.000 I27.357 J-71.117 K0.000 F600.000
G2 X55.333 Y-7.848 Z-2.000 I-1.800 J3.417 K0.000 F600.000
G1 X53.925 Y-9.255 Z-2.000 F600.000
G2 X51.852 Y-9.207 Z-2.000 I0.088 J48.584 K0.000 F600.000
G1 X53.969 Y-7.090 Z-2.000 F600.000
G3 X53.948 Y-4.990 Z-2.000 I-31.262 J0.738 K0.000 F600.000
G1 X52.949 Y-5.989 Z-2.000 F600.000
G3 X52.947 Y-7.457 Z-2.000 I53.376 J-0.814 K0.000 F600.000
G2 X52.175 Y-8.211 Z-2.000 I-0.750 J-0.004 K0.000 F600.000
G3 X50.710 Y-8.228 Z-2.000 I-0.583 J-12.488 K0.000 F600.000
G1 X49.862 Y-9.076 Z-2.000 F600.000
G2 X48.933 Y-8.701 Z-2.000 I0.522 J2.636 K0.000 F600.000
G1 X48.969 Y-8.669 Z-2.000 F600.000
G2 X49.471 Y-8.373 Z-2.000 I0.772 J-0.734 K0.000 F600.000
G2 X50.710 Y-8.228 Z-2.000 I2.020 J-11.930 K0.000 F600.000
G0 Z5.000
G0 X50.710 Y-8.227 Z5.000
G0 X50.710 Y-8.227 Z3.000
G1 X50.710 Y-8.227 Z-2.000 F600.000
G2 X52.175 Y-8.211 Z-2.000 I0.875 J-12.776 K0.000 F600.000
G3 X52.947 Y-7.457 Z-2.000 I0.022 J0.750 K0.000 F600.000
G2 X53.031 Y-3.709 Z-2.000 I54.434 J0.661 K0.000 F600.000
G3 X52.309 Y-2.923 Z-2.000 I-0.749 J0.037 K0.000 F600.000
G2 X51.004 Y-2.829 Z-2.000 I0.347 J14.030 K0.000 F600.000
G2 X50.196 Y-2.416 Z-2.000 I0.252 J1.489 K0.000 F600.000
G2 X50.198 Y-2.381 Z-2.000 I0.020 J0.017 K0.000 F600.000
G2 X50.257 Y-2.327 Z-2.000 I0.118 J-0.070 K0.000 F600.000
G2 X50.857 Y-2.000 Z-2.000 I0.939 J-1.011 K0.000 F600.000
G2 X55.849 Y-1.970 Z-2.000 I2.641 J-24.055 K0.000 F600.000
G2 X56.647 Y-2.384 Z-2.000 I-0.319 J-1.593 K0.000 F600.000
G2 X56.604 Y-2.484 Z-2.000 I-0.114 J-0.010 K0.000 F600.000
G2 X56.345 Y-2.593 Z-2.000 I-1.559 J3.332 K0.000 F600.000
G2 X56.581 Y-2.498 Z-2.000 I3.030 J-7.172 K0.000 F600.000
G3 X56.647 Y-2.384 Z-2.000 I-0.048 J0.104 K0.000 F600.000
G1 X56.598 Y-2.340 Z-2.000 F600.000
G1 X56.345 Y-2.593 Z-2.000 F600.000
G2 X54.616 Y-2.899 Z-2.000 I-1.617 J4.095 K0.000 F600.000
G3 X53.870 Y-3.704 Z-2.000 I0.002 J-0.750 K0.000 F600.000
G2 X53.967 Y-7.196 Z-2.000 I-32.672 J-2.663 K0.000 F600.000
G3 X54.737 Y-7.958 Z-2.000 I0.750 J-0.012 K0.000 F600.000
G3 X56.142 Y-7.532 Z-2.000 I-0.405 J3.863 K0.000 F600.000
G2 X58.192 Y-6.708 Z-2.000 I35.421 J-85.159 K0.000 F600.000
G2 X58.203 Y-6.715 Z-2.000 I-0.013 J-0.034 K0.000 F600.000
G2 X58.297 Y-8.989 Z-2.000 I-4.502 J-1.324 K0.000 F600.000
G2 X58.223 Y-9.040 Z-2.000 I-0.129 J0.107 K0.000 F600.000
G2 X56.428 Y-9.232 Z-2.000 I-2.052 J10.713 K0.000 F600.000
G3 X54.637 Y-9.253 Z-2.000 I2.619 J-290.073 K0.000 F600.000
G2 X49.971 Y-9.095 Z-2.000 I-0.548 J52.826 K0.000 F600.000
G2 X48.933 Y-8.701 Z-2.000 I0.419 J2.666 K0.000 F600.000
G1 X48.969 Y-8.669 Z-2.000 F600.000
G2 X49.471 Y-8.373 Z-2.000 I0.772 J-0.734 K0.000 F600.000
G2 X50.710 Y-8.227 Z-2.000 I2.114 J-12.630 K0.000 F600.000
G0 Z5.000
G0 X50.214 Y-2.361 Z5.000
G0 X50.214 Y-2.361 Z3.000
G1 X50.214 Y-2.361 Z-2.000 F600.000
G3 X50.196 Y-2.416 Z-2.000 I0.027 J-0.039 K0.000 F600.000
G3 X51.004 Y-2.829 Z-2.000 I1.060 J1.076 K0.000 F600.000
G3 X51.796 Y-2.899 Z-2.000 I1.406 J11.361 K0.000 F600.000
G1 X52.829 Y-1.867 Z-2.000 F600.000
G2 X54.918 Y-1.899 Z-2.000 I0.697 J-22.700 K0.000 F600.000
G1 X53.027 Y-3.790 Z-2.000 F600.000
G3 X52.949 Y-5.989 Z-2.000 I52.716 J-2.956 K0.000 F600.000
G1 X53.948 Y-4.990 Z-2.000 F600.000
G3 X53.870 Y-3.704 Z-2.000 I-30.964 J-1.246 K0.000 F600.000
G2 X54.616 Y-2.899 Z-2.000 I0.748 J0.054 K0.000 F600.000
G3 X56.345 Y-2.593 Z-2.000 I0.113 J4.401 K0.000 F600.000
G1 X56.598 Y-2.340 Z-2.000 F600.000
G0 Z5.000
G0 Z5.000
G0 X56.598 Y-2.340
G0 X57.246 Y3.749
G0 X57.246 Y3.749 Z3.000
G1 X57.246 Y3.749 Z-1.500 F600.000
G3 X57.823 Y4.011 Z-1.500 I-1.929 J5.003 K0.000 F600.000
G3 X57.842 Y4.000 Z-1.500 I0.692 J1.171 K0.000 F600.000
G2 X58.243 Y3.033 Z-1.500 I-0.285 J-0.684 K0.000 F600.000
G2 X56.777 Y2.142 Z-1.500 I-1.417 J0.679 K0.000 F600.000
G3 X56.577 Y2.154 Z-1.500 I-0.232 J-2.227 K0.000 F600.000
G1 X49.779 Y2.126 Z-1.500 F600.000
G3 X48.219 Y1.577 Z-1.500 I0.025 J-2.562 K0.000 F600.000
G3 X47.071 Y0.109 Z-1.500 I2.955 J-3.493 K0.000 F600.000
G3 X45.694 Y-5.852 Z-1.500 I13.741 J-6.315 K0.000 F600.000
G2 X45.402 Y-7.532 Z-1.500 I-10.463 J0.952 K0.000 F600.000
G2 X43.925 Y-8.755 Z-1.500 I-1.724 J0.578 K0.000 F600.000
G2 X41.268 Y-9.117 Z-1.500 I-2.989 J12.031 K0.000 F600.000
G2 X39.373 Y-9.015 Z-1.500 I-0.389 J10.449 K0.000 F600.000
G2 X38.492 Y-8.770 Z-1.500 I0.358 J2.991 K0.000 F600.000
G2 X38.666 Y-8.395 Z-1.500 I0.813 J-0.151 K0.000 F600.000
G2 X42.621 Y-4.738 Z-1.500 I36.848 J-35.877 K0.000 F600.000
G3 X46.388 Y0.169 Z-1.500 I-11.765 J12.930 K0.000 F600.000
G3 X46.559 Y1.395 Z-1.500 I-1.406 J0.821 K0.000 F600.000
G3 X45.703 Y2.112 Z-1.500 I-1.022 J-0.349 K0.000 F600.000
G3 X43.660 Y2.193 Z-1.500 I-4.317 J-83.297 K0.000 F600.000
G2 X42.371 Y2.926 Z-1.500 I0.095 J1.667 K0.000 F600.000
G2 X41.412 Y4.886 Z-1.500 I3.889 J3.117 K0.000 F600.000
G2 X44.128 Y3.672 Z-1.500 I-8.041 J-21.637 K0.000 F600.000
G3 X47.246 Y3.238 Z-1.500 I2.257 J4.794 K0.000 F600.000
G3 X48.429 Y4.442 Z-1.500 I-0.263 J1.442 K0.000 F600.000
G3 X48.481 Y8.166 Z-1.500 I-48.751 J2.542 K0.000 F600.000
G2 X48.499 Y8.215 Z-1.500 I0.055 J0.008 K0.000 F600.000
G2 X48.566 Y8.236 Z-1.500 I0.066 J-0.097 K0.000 F600.000
G2 X48.759 Y8.267 Z-1.500 I0.289 J-1.188 K0.000 F600.000
G3 X48.973 Y8.262 Z-1.500 I0.134 J1.085 K0.000 F600.000
G2 X50.662 Y7.338 Z-1.500 I0.235 J-1.575 K0.000 F600.000
G2 X50.592 Y6.653 Z-1.500 I-0.932 J-0.252 K0.000 F600.000
G2 X50.284 Y6.286 Z-1.500 I-0.976 J0.506 K0.000 F600.000
G3 X49.562 Y4.552 Z-1.500 I2.344 J-1.994 K0.000 F600.000
G3 X50.646 Y3.244 Z-1.500 I1.337 J0.005 K0.000 F600.000
G3 X55.530 Y3.314 Z-1.500 I2.020 J29.542 K0.000 F600.000
G3 X57.823 Y4.011 Z-1.500 I-0.762 J6.622 K0.000 F600.000
G3 X57.842 Y4.000 Z-1.500 I0.693 J1.172 K0.000 F600.000
G2 X58.243 Y3.033 Z-1.500 I-0.285 J-0.684 K0.000 F600.000
G2 X56.777 Y2.142 Z-1.500 I-1.417 J0.679 K0.000 F600.000
G3 X56.591 Y2.154 Z-1.500 I-0.258 J-2.607 K0.000 F600.000
G3 X55.647 Y2.150 Z-1.500 I-0.264 J-51.745 K0.000 F600.000
G1 X57.246 Y3.749 Z-1.500 F600.000
G2 X55.572 Y3.319 Z-1.500 I-2.468 J6.133 K0.000 F600.000
G2 X54.617 Y3.242 Z-1.500 I-2.292 J22.362 K0.000 F600.000
G1 X53.517 Y2.141 Z-1.500 F600.000
G1 X51.387 Y2.132 Z-1.500 F600.000
G1 X52.430 Y3.176 Z-1.500 F600.000
G2 X50.733 Y3.234 Z-1.500 I0.135 J28.703 K0.000 F600.000
G2 X50.436 Y3.303 Z-1.500 I0.080 J1.032 K0.000 F600.000
G1 X49.182 Y2.049 Z-1.500 F600.000
G0 Z5.000
G0 X50.436 Y3.303 Z5.000
G0 X50.436 Y3.303 Z3.000
G1 X50.436 Y3.303 Z-1.500 F600.000
G1 X49.182 Y2.049 Z-1.500 F600.000
G3 X47.907 Y1.285 Z-1.500 I0.612 J-2.469 K0.000 F600.000
G3 X46.935 Y-0.198 Z-1.500 I3.201 J-3.157 K0.000 F600.000
G1 X44.854 Y-2.279 Z-1.500 F600.000
G3 X46.388 Y0.169 Z-1.500 I-13.940 J10.437 K0.000 F600.000
G3 X46.610 Y1.022 Z-1.500 I-1.397 J0.820 K0.000 F600.000
G3 X46.517 Y1.506 Z-1.500 I-1.372 J-0.013 K0.000 F600.000
G1 X49.562 Y4.552 Z-1.500 F600.000
G2 X50.106 Y6.059 Z-1.500 I3.104 J-0.269 K0.000 F600.000
G2 X50.313 Y6.313 Z-1.500 I1.097 J-0.683 K0.000 F600.000
G3 X50.673 Y7.294 Z-1.500 I-0.598 J0.776 K0.000 F600.000
G3 X50.504 Y7.614 Z-1.500 I-0.972 J-0.310 K0.000 F600.000
G1 X48.474 Y5.584 Z-1.500 F600.000
G2 X48.433 Y4.490 Z-1.500 I-36.945 J0.851 K0.000 F600.000
G1 X48.429 Y4.442 Z-1.500 F600.000
G2 X47.334 Y3.256 Z-1.500 I-1.450 J0.240 K0.000 F600.000
G2 X46.068 Y3.178 Z-1.500 I-0.944 J4.997 K0.000 F600.000
G1 X45.035 Y2.145 Z-1.500 F600.000
G3 X43.660 Y2.193 Z-1.500 I-3.856 J-89.593 K0.000 F600.000
G2 X43.096 Y2.327 Z-1.500 I0.091 J1.634 K0.000 F600.000
G1 X44.346 Y3.577 Z-1.500 F600.000
G2 X44.139 Y3.667 Z-1.500 I1.280 J3.223 K0.000 F600.000
G3 X42.913 Y4.266 Z-1.500 I-10.492 J-19.925 K0.000 F600.000
G1 X42.041 Y3.393 Z-1.500 F600.000
G2 X41.412 Y4.886 Z-1.500 I4.136 J2.620 K0.000 F600.000
G0 Z5.000
G0 X48.489 Y7.720 Z5.000
G0 X48.489 Y7.720 Z3.000
G1 X48.489 Y7.720 Z-1.500 F600.000
G1 X48.481 Y8.166 Z-1.500 F600.000
G2 X48.515 Y8.223 Z-1.500 I0.050 J0.010 K0.000 F600.000
G2 X48.708 Y8.265 Z-1.500 I0.722 J-2.882 K0.000 F600.000
G3 X48.912 Y8.258 Z-1.500 I1.029 J27.787 K0.000 F600.000
G3 X49.036 Y8.267 Z-1.500 I-0.048 J1.512 K0.000 F600.000
G1 X48.489 Y7.720 Z-1.500 F600.000
G2 X48.474 Y5.584 Z-1.500 I-44.844 J-0.764 K0.000 F600.000
G1 X50.504 Y7.614 Z-1.500 F600.000
G0 Z5.000
G0 X40.854 Y-6.279 Z5.000
G0 X40.854 Y-6.279 Z3.000
G1 X40.854 Y-6.279 Z-1.500 F600.000
G3 X38.666 Y-8.395 Z-1.500 I31.126 J-34.361 K0.000 F600.000
G3 X38.550 Y-8.582 Z-1.500 I0.601 J-0.502 K0.000 F600.000
G1 X40.854 Y-6.279 Z-1.500 F600.000
G2 X42.636 Y-4.725 Z-1.500 I36.000 J-39.487 K0.000 F600.000
G3 X44.854 Y-2.279 Z-1.500 I-11.771 J12.902 K0.000 F600.000
G1 X46.935 Y-0.198 Z-1.500 F600.000
G3 X45.976 Y-3.279 Z-1.500 I13.792 J-5.984 K0.000 F600.000
G1 X40.156 Y-9.098 Z-1.500 F600.000
G3 X42.332 Y-9.043 Z-1.500 I0.768 J12.665 K0.000 F600.000
G1 X45.700 Y-5.676 Z-1.500 F600.000
G2 X45.658 Y-6.186 Z-1.500 I-3.622 J0.041 K0.000 F600.000
G2 X45.402 Y-7.532 Z-1.500 I-10.418 J1.285 K0.000 F600.000
G2 X43.902 Y-8.760 Z-1.500 I-1.731 J0.584 K0.000 F600.000
G2 X42.332 Y-9.043 Z-1.500 I-2.897 J11.574 K0.000 F600.000
G1 X42.332 Y-9.043 Z-2.000 F600.000
G3 X43.902 Y-8.760 Z-2.000 I-1.327 J11.857 K0.000 F600.000
G3 X45.402 Y-7.532 Z-2.000 I-0.231 J1.812 K0.000 F600.000
G3 X45.658 Y-6.186 Z-2.000 I-10.162 J2.631 K0.000 F600.000
G3 X45.700 Y-5.676 Z-2.000 I-3.580 J0.552 K0.000 F600.000
G1 X42.332 Y-9.043 Z-2.000 F600.000
G2 X40.156 Y-9.098 Z-2.000 I-1.409 J12.609 K0.000 F600.000
G1 X45.976 Y-3.279 Z-2.000 F600.000
G2 X46.935 Y-0.198 Z-2.000 I14.751 J-2.903 K0.000 F600.000
G1 X44.854 Y-2.279 Z-2.000 F600.000
G2 X42.636 Y-4.725 Z-2.000 I-13.989 J10.456 K0.000 F600.000
G3 X40.854 Y-6.279 Z-2.000 I34.218 J-41.041 K0.000 F600.000
G1 X38.550 Y-8.582 Z-2.000 F600.000
G2 X38.666 Y-8.395 Z-2.000 I0.717 J-0.315 K0.000 F600.000
G2 X40.854 Y-6.279 Z-2.000 I33.313 J-32.245 K0.000 F600.000
G0 Z5.000
G0 X41.412 Y4.886 Z5.000
G0 X41.412 Y4.886 Z3.000
G1 X41.412 Y4.886 Z-2.000 F600.000
G3 X42.041 Y3.393 Z-2.000 I4.764 J1.127 K0.000 F600.000
G1 X42.913 Y4.266 Z-2.000 F600.000
G2 X44.139 Y3.667 Z-2.000 I-9.266 J-20.523 K0.000 F600.000
G3 X44.346 Y3.577 Z-2.000 I1.487 J3.133 K0.000 F600.000
G1 X43.096 Y2.327 Z-2.000 F600.000
G3 X43.660 Y2.193 Z-2.000 I0.655 J1.500 K0.000 F600.000
G2 X45.035 Y2.145 Z-2.000 I-2.482 J-89.642 K0.000 F600.000
G1 X46.068 Y3.178 Z-2.000 F600.000
G3 X47.334 Y3.256 Z-2.000 I0.322 J5.076 K0.000 F600.000
G3 X48.429 Y4.442 Z-2.000 I-0.355 J1.426 K0.000 F600.000
G1 X48.433 Y4.490 Z-2.000 F600.000
G3 X48.474 Y5.584 Z-2.000 I-36.904 J1.944 K0.000 F600.000
G1 X50.504 Y7.614 Z-2.000 F600.000
G2 X50.673 Y7.294 Z-2.000 I-0.803 J-0.629 K0.000 F600.000
G2 X50.313 Y6.313 Z-2.000 I-0.958 J-0.205 K0.000 F600.000
G3 X50.106 Y6.059 Z-2.000 I0.890 J-0.937 K0.000 F600.000
G3 X49.562 Y4.552 Z-2.000 I2.560 J-1.776 K0.000 F600.000
G1 X46.517 Y1.506 Z-2.000 F600.000
G2 X46.610 Y1.022 Z-2.000 I-1.279 J-0.497 K0.000 F600.000
G2 X46.388 Y0.169 Z-2.000 I-1.620 J-0.033 K0.000 F600.000
G2 X44.854 Y-2.279 Z-2.000 I-15.474 J7.990 K0.000 F600.000
G1 X46.935 Y-0.198 Z-2.000 F600.000
G2 X47.907 Y1.285 Z-2.000 I4.173 J-1.674 K0.000 F600.000
G2 X49.182 Y2.049 Z-2.000 I1.887 J-1.706 K0.000 F600.000
G1 X50.436 Y3.303 Z-2.000 F600.000
G0 Z5.000
G0 X49.182 Y2.049 Z5.000
G0 X49.182 Y2.049 Z3.000
G1 X49.182 Y2.049 Z-2.000 F600.000
G1 X50.436 Y3.303 Z-2.000 F600.000
G3 X50.733 Y3.234 Z-2.000 I0.377 J0.963 K0.000 F600.000
G3 X52.430 Y3.176 Z-2.000 I1.832 J28.645 K0.000 F600.000
G1 X51.387 Y2.132 Z-2.000 F600.000
G1 X53.517 Y2.141 Z-2.000 F600.000
G1 X54.617 Y3.242 Z-2.000 F600.000
G3 X55.572 Y3.319 Z-2.000 I-1.338 J22.440 K0.000 F600.000
G3 X57.246 Y3.749 Z-2.000 I-0.794 J6.563 K0.000 F600.000
G1 X55.647 Y2.150 Z-2.000 F600.000
G2 X56.591 Y2.154 Z-2.000 I0.680 J-51.741 K0.000 F600.000
G2 X56.777 Y2.142 Z-2.000 I-0.071 J-2.618 K0.000 F600.000
G3 X58.243 Y3.033 Z-2.000 I0.049 J1.570 K0.000 F600.000
G3 X57.842 Y4.000 Z-2.000 I-0.685 J0.282 K0.000 F600.000
G2 X57.823 Y4.011 Z-2.000 I0.673 J1.183 K0.000 F600.000
G2 X55.530 Y3.314 Z-2.000 I-3.055 J5.925 K0.000 F600.000
G2 X50.646 Y3.244 Z-2.000 I-2.864 J29.472 K0.000 F600.000
G2 X49.562 Y4.552 Z-2.000 I0.252 J1.313 K0.000 F600.000
G2 X50.284 Y6.286 Z-2.000 I3.066 J-0.260 K0.000 F600.000
G3 X50.592 Y6.653 Z-2.000 I-0.668 J0.873 K0.000 F600.000
G3 X50.662 Y7.338 Z-2.000 I-0.863 J0.434 K0.000 F600.000
G3 X48.973 Y8.262 Z-2.000 I-1.453 J-0.651 K0.000 F600.000
G2 X48.759 Y8.267 Z-2.000 I-0.081 J1.090 K0.000 F600.000
G3 X48.566 Y8.236 Z-2.000 I0.096 J-1.219 K0.000 F600.000
G3 X48.499 Y8.215 Z-2.000 I-0.001 J-0.117 K0.000 F600.000
G3 X48.481 Y8.166 Z-2.000 I0.036 J-0.041 K0.000 F600.000
G2 X48.429 Y4.442 Z-2.000 I-48.803 J-1.181 K0.000 F600.000
G2 X47.246 Y3.238 Z-2.000 I-1.447 J0.239 K0.000 F600.000
G2 X44.128 Y3.672 Z-2.000 I-0.861 J5.228 K0.000 F600.000
G3 X41.412 Y4.886 Z-2.000 I-10.757 J-20.423 K0.000 F600.000
G3 X42.371 Y2.926 Z-2.000 I4.848 J1.158 K0.000 F600.000
G3 X43.660 Y2.193 Z-2.000 I1.385 J0.934 K0.000 F600.000
G2 X45.703 Y2.112 Z-2.000 I-2.274 J-83.378 K0.000 F600.000
G2 X46.559 Y1.395 Z-2.000 I-0.166 J-1.067 K0.000 F600.000
G2 X46.388 Y0.169 Z-2.000 I-1.577 J-0.404 K0.000 F600.000
G2 X42.621 Y-4.738 Z-2.000 I-15.531 J8.022 K0.000 F600.000
G3 X38.666 Y-8.395 Z-2.000 I32.893 J-39.534 K0.000 F600.000
G3 X38.492 Y-8.770 Z-2.000 I0.638 J-0.525 K0.000 F600.000
G3 X39.373 Y-9.015 Z-2.000 I1.240 J2.746 K0.000 F600.000
G3 X41.268 Y-9.117 Z-2.000 I1.506 J10.347 K0.000 F600.000
G3 X43.925 Y-8.755 Z-2.000 I-0.333 J12.392 K0.000 F600.000
G3 X45.402 Y-7.532 Z-2.000 I-0.247 J1.802 K0.000 F600.000
G3 X45.694 Y-5.852 Z-2.000 I-10.171 J2.632 K0.000 F600.000
G2 X47.071 Y0.109 Z-2.000 I15.119 J-0.354 K0.000 F600.000
G2 X48.219 Y1.577 Z-2.000 I4.103 J-2.025 K0.000 F600.000
G2 X49.779 Y2.126 Z-2.000 I1.585 J-2.013 K0.000 F600.000
G1 X56.577 Y2.154 Z-2.000 F600.000
G2 X56.777 Y2.142 Z-2.000 I-0.031 J-2.239 K0.000 F600.000
G3 X58.243 Y3.033 Z-2.000 I0.049 J1.570 K0.000 F600.000
G3 X57.842 Y4.000 Z-2.000 I-0.685 J0.282 K0.000 F600.000
G2 X57.823 Y4.011 Z-2.000 I0.673 J1.182 K0.000 F600.000
G2 X57.246 Y3.749 Z-2.000 I-2.506 J4.740 K0.000 F600.000
G0 Z5.000
G0 X50.504 Y7.614 Z5.000
G0 X50.504 Y7.614 Z3.000
G1 X50.504 Y7.614 Z-2.000 F600.000
G1 X48.474 Y5.584 Z-2.000 F600.000
G3 X48.489 Y7.720 Z-2.000 I-44.830 J1.372 K0.000 F600.000
G1 X49.036 Y8.267 Z-2.000 F600.000
G2 X48.912 Y8.258 Z-2.000 I-0.172 J1.503 K0.000 F600.000
G2 X48.708 Y8.265 Z-2.000 I0.826 J27.794 K0.000 F600.000
G3 X48.515 Y8.223 Z-2.000 I0.529 J-2.924 K0.000 F600.000
G3 X48.481 Y8.166 Z-2.000 I0.017 J-0.048 K0.000 F600.000
G1 X48.489 Y7.720 Z-2.000 F600.000
G0 Z5.000
G0 Z5.000
G0 X48.489 Y7.720
G0 X66.764 Y2.878
G0 X66.764 Y2.878 Z3.000
G1 X66.764 Y2.878 Z-1.500 F600.000
G3 X66.609 Y2.699 Z-1.500 I16.696 J-14.667 K0.000 F600.000
G1 X66.590 Y2.678 Z-1.500 F600.000
G3 X67.675 Y2.185 Z-1.500 I1.213 J1.228 K0.000 F600.000
G2 X68.181 Y2.174 Z-1.500 I-0.253 J-24.598 K0.000 F600.000
G1 X69.184 Y3.177 Z-1.500 F600.000
G3 X71.197 Y3.306 Z-1.500 I-1.031 J31.784 K0.000 F600.000
G3 X71.567 Y3.438 Z-1.500 I-0.262 J1.315 K0.000 F600.000
G1 X70.087 Y1.959 Z-1.500 F600.000
G0 Z5.000
G0 X70.230 Y-2.141 Z5.000
G0 X70.230 Y-2.141 Z3.000
G1 X70.230 Y-2.141 Z-1.500 F600.000
G1 X65.710 Y-6.661 Z-1.500 F600.000
G3 X65.515 Y-7.688 Z-1.500 I1.442 J-0.806 K0.000 F600.000
G3 X65.970 Y-8.522 Z-1.500 I1.846 J0.466 K0.000 F600.000
G1 X69.774 Y-4.719 Z-1.500 F600.000
G3 X69.739 Y-5.429 Z-1.500 I10.986 J-0.891 K0.000 F600.000
G2 X69.477 Y-7.136 Z-1.500 I-10.312 J0.707 K0.000 F600.000
G1 X67.472 Y-9.142 Z-1.500 F600.000
G3 X69.176 Y-8.164 Z-1.500 I0.072 J1.848 K0.000 F600.000
G3 X69.739 Y-5.429 Z-1.500 I-9.856 J3.455 K0.000 F600.000
G2 X71.410 Y0.695 Z-1.500 I13.007 J-0.259 K0.000 F600.000
G2 X73.766 Y2.125 Z-1.500 I2.476 J-1.424 K0.000 F600.000
G1 X80.641 Y2.155 Z-1.500 F600.000
G2 X80.836 Y2.143 Z-1.500 I-0.029 J-2.132 K0.000 F600.000
G3 X81.827 Y2.489 Z-1.500 I0.048 J1.454 K0.000 F600.000
G3 X82.955 Y5.881 Z-1.500 I-3.333 J2.993 K0.000 F600.000
G3 X82.757 Y5.978 Z-1.500 I-0.139 J-0.035 K0.000 F600.000
G2 X80.422 Y4.833 Z-1.500 I-16.231 J30.150 K0.000 F600.000
G2 X76.072 Y3.417 Z-1.500 I-15.605 J40.549 K0.000 F600.000
G2 X75.122 Y3.260 Z-1.500 I-1.359 J5.259 K0.000 F600.000
G2 X73.584 Y4.304 Z-1.500 I-0.227 J1.320 K0.000 F600.000
G2 X73.649 Y5.071 Z-1.500 I2.448 J0.179 K0.000 F600.000
G2 X74.202 Y6.165 Z-1.500 I2.559 J-0.606 K0.000 F600.000
G3 X74.692 Y7.043 Z-1.500 I-1.031 J1.152 K0.000 F600.000
G3 X74.027 Y8.064 Z-1.500 I-1.296 J-0.117 K0.000 F600.000
G3 X72.504 Y8.212 Z-1.500 I-1.006 J-2.450 K0.000 F600.000
G1 X72.502 Y8.201 Z-1.500 F600.000
G3 X72.456 Y4.690 Z-1.500 I243.271 J-4.943 K0.000 F600.000
G2 X71.197 Y3.306 Z-1.500 I-1.626 J0.215 K0.000 F600.000
G1 X71.146 Y3.300 Z-1.500 F600.000
G2 X67.342 Y3.167 Z-1.500 I-3.048 J32.778 K0.000 F600.000
G3 X66.614 Y2.705 Z-1.500 I0.188 J-1.100 K0.000 F600.000
G2 X66.590 Y2.678 Z-1.500 I-2.478 J2.176 K0.000 F600.000
G3 X67.675 Y2.185 Z-1.500 I1.213 J1.228 K0.000 F600.000
G2 X69.715 Y2.107 Z-1.500 I-0.569 J-41.762 K0.000 F600.000
G2 X70.545 Y1.416 Z-1.500 I-0.234 J-1.125 K0.000 F600.000
G2 X70.492 Y0.404 Z-1.500 I-1.084 J-0.450 K0.000 F600.000
G2 X68.477 Y-2.981 Z-1.500 I-22.507 J11.100 K0.000 F600.000
G2 X65.919 Y-6.367 Z-1.500 I-15.498 J9.051 K0.000 F600.000
G3 X65.515 Y-7.688 Z-1.500 I1.237 J-1.101 K0.000 F600.000
G3 X67.426 Y-9.141 Z-1.500 I1.873 J0.479 K0.000 F600.000
G3 X69.176 Y-8.164 Z-1.500 I0.115 J1.851 K0.000 F600.000
G3 X69.477 Y-7.136 Z-1.500 I-9.332 J3.294 K0.000 F600.000
G0 Z5.000
G0 X80.879 Y2.144 Z5.000
G0 X80.879 Y2.144 Z3.000
G1 X80.879 Y2.144 Z-1.500 F600.000
G3 X81.827 Y2.489 Z-1.500 I0.009 J1.446 K0.000 F600.000
G3 X82.711 Y3.976 Z-1.500 I-3.317 J2.981 K0.000 F600.000
G1 X80.879 Y2.144 Z-1.500 F600.000
G3 X80.641 Y2.155 Z-1.500 I-0.313 J-4.054 K0.000 F600.000
G1 X78.761 Y2.147 Z-1.500 F600.000
G1 X82.409 Y5.795 Z-1.500 F600.000
G2 X80.470 Y4.853 Z-1.500 I-15.380 J29.181 K0.000 F600.000
G2 X78.707 Y4.215 Z-1.500 I-13.410 J34.289 K0.000 F600.000
G1 X76.630 Y2.137 Z-1.500 F600.000
G1 X74.499 Y2.128 Z-1.500 F600.000
G1 X75.709 Y3.338 Z-1.500 F600.000
G2 X75.122 Y3.260 Z-1.500 I-0.917 J4.659 K0.000 F600.000
G2 X73.915 Y3.666 Z-1.500 I-0.226 J1.327 K0.000 F600.000
G1 X70.325 Y0.075 Z-1.500 F600.000
G1 X70.492 Y0.404 Z-1.500 F600.000
G3 X70.087 Y1.959 Z-1.500 I-1.027 J0.562 K0.000 F600.000
G1 X71.567 Y3.438 Z-1.500 F600.000
G3 X72.291 Y4.163 Z-1.500 I-0.722 J1.447 K0.000 F600.000
G1 X73.963 Y5.835 Z-1.500 F600.000
G2 X74.202 Y6.165 Z-1.500 I1.790 J-1.040 K0.000 F600.000
G3 X74.692 Y7.043 Z-1.500 I-1.035 J1.155 K0.000 F600.000
G3 X74.055 Y8.048 Z-1.500 I-1.295 J-0.117 K0.000 F600.000
G1 X72.472 Y6.464 Z-1.500 F600.000
G2 X72.502 Y8.201 Z-1.500 I99.519 J-0.904 K0.000 F600.000
G1 X72.504 Y8.212 Z-1.500 F600.000
G2 X74.027 Y8.064 Z-1.500 I0.517 J-2.597 K0.000 F600.000
G1 X74.055 Y8.048 Z-1.500 F600.000
G1 X74.055 Y8.048 Z-2.000 F600.000
G1 X74.027 Y8.064 Z-2.000 F600.000
G3 X72.504 Y8.212 Z-2.000 I-1.006 J-2.450 K0.000 F600.000
G1 X72.502 Y8.201 Z-2.000 F600.000
G3 X72.472 Y6.464 Z-2.000 I99.488 J-2.640 K0.000 F600.000
G1 X74.055 Y8.048 Z-2.000 F600.000
G2 X74.692 Y7.043 Z-2.000 I-0.658 J-1.122 K0.000 F600.000
G2 X74.202 Y6.165 Z-2.000 I-1.526 J0.277 K0.000 F600.000
G3 X73.963 Y5.835 Z-2.000 I1.551 J-1.370 K0.000 F600.000
G1 X72.291 Y4.163 Z-2.000 F600.000
G2 X71.567 Y3.438 Z-2.000 I-1.447 J0.722 K0.000 F600.000
G1 X70.087 Y1.959 Z-2.000 F600.000
G2 X70.492 Y0.404 Z-2.000 I-0.623 J-0.992 K0.000 F600.000
G1 X70.325 Y0.075 Z-2.000 F600.000
G1 X73.915 Y3.666 Z-2.000 F600.000
G3 X75.122 Y3.260 Z-2.000 I0.981 J0.921 K0.000 F600.000
G3 X75.709 Y3.338 Z-2.000 I-0.330 J4.737 K0.000 F600.000
G1 X74.499 Y2.128 Z-2.000 F600.000
G1 X76.630 Y2.137 Z-2.000 F600.000
G1 X78.707 Y4.215 Z-2.000 F600.000
G3 X80.470 Y4.853 Z-2.000 I-11.648 J34.927 K0.000 F600.000
G3 X82.409 Y5.795 Z-2.000 I-13.441 J30.124 K0.000 F600.000
G1 X78.761 Y2.147 Z-2.000 F600.000
G1 X80.641 Y2.155 Z-2.000 F600.000
G2 X80.879 Y2.144 Z-2.000 I-0.075 J-4.065 K0.000 F600.000
G1 X82.711 Y3.976 Z-2.000 F600.000
G2 X81.827 Y2.489 Z-2.000 I-4.202 J1.494 K0.000 F600.000
G2 X80.879 Y2.144 Z-2.000 I-0.938 J1.100 K0.000 F600.000
G0 Z5.000
G0 X70.087 Y1.959 Z5.000
G0 X70.087 Y1.959 Z3.000
G1 X70.087 Y1.959 Z-2.000 F600.000
G1 X71.567 Y3.438 Z-2.000 F600.000
G2 X71.197 Y3.306 Z-2.000 I-0.631 J1.183 K0.000 F600.000
G2 X69.184 Y3.177 Z-2.000 I-3.044 J31.655 K0.000 F600.000
G1 X68.181 Y2.174 Z-2.000 F600.000
G3 X67.675 Y2.185 Z-2.000 I-0.759 J-24.587 K0.000 F600.000
G2 X66.590 Y2.678 Z-2.000 I0.128 J1.721 K0.000 F600.000
G1 X66.609 Y2.699 Z-2.000 F600.000
G2 X66.764 Y2.878 Z-2.000 I16.852 J-14.488 K0.000 F600.000
G0 Z5.000
G0 X70.230 Y-2.141 Z5.000
G0 X70.230 Y-2.141 Z3.000
G1 X70.230 Y-2.141 Z-2.000 F600.000
G1 X65.710 Y-6.661 Z-2.000 F600.000
G3 X65.515 Y-7.688 Z-2.000 I1.442 J-0.806 K0.000 F600.000
G3 X65.970 Y-8.522 Z-2.000 I1.846 J0.466 K0.000 F600.000
G1 X69.774 Y-4.719 Z-2.000 F600.000
G3 X69.739 Y-5.429 Z-2.000 I10.986 J-0.891 K0.000 F600.000
G2 X69.477 Y-7.136 Z-2.000 I-10.312 J0.707 K0.000 F600.000
G1 X67.472 Y-9.142 Z-2.000 F600.000
G3 X69.176 Y-8.164 Z-2.000 I0.072 J1.848 K0.000 F600.000
G3 X69.739 Y-5.429 Z-2.000 I-9.856 J3.455 K0.000 F600.000
G2 X71.410 Y0.695 Z-2.000 I13.007 J-0.259 K0.000 F600.000
G2 X73.766 Y2.125 Z-2.000 I2.476 J-1.424 K0.000 F600.000
G1 X80.641 Y2.155 Z-2.000 F600.000
G2 X80.836 Y2.143 Z-2.000 I-0.029 J-2.132 K0.000 F600.000
G3 X81.827 Y2.489 Z-2.000 I0.048 J1.454 K0.000 F600.000
G3 X82.955 Y5.881 Z-2.000 I-3.333 J2.993 K0.000 F600.000
G3 X82.757 Y5.978 Z-2.000 I-0.139 J-0.035 K0.000 F600.000
G2 X80.422 Y4.833 Z-2.000 I-16.231 J30.150 K0.000 F600.000
G2 X76.072 Y3.417 Z-2.000 I-15.605 J40.549 K0.000 F600.000
G2 X75.122 Y3.260 Z-2.000 I-1.359 J5.259 K0.000 F600.000
G2 X73.584 Y4.304 Z-2.000 I-0.227 J1.320 K0.000 F600.000
G2 X73.649 Y5.071 Z-2.000 I2.448 J0.179 K0.000 F600.000
G2 X74.202 Y6.165 Z-2.000 I2.559 J-0.606 K0.000 F600.000
G3 X74.692 Y7.043 Z-2.000 I-1.031 J1.152 K0.000 F600.000
G3 X74.027 Y8.064 Z-2.000 I-1.296 J-0.117 K0.000 F600.000
G3 X72.504 Y8.212 Z-2.000 I-1.006 J-2.450 K0.000 F600.000
G1 X72.502 Y8.201 Z-2.000 F600.000
G3 X72.456 Y4.690 Z-2.000 I243.271 J-4.943 K0.000 F600.000
G2 X71.197 Y3.306 Z-2.000 I-1.626 J0.215 K0.000 F600.000
G1 X71.146 Y3.300 Z-2.000 F600.000
G2 X67.342 Y3.167 Z-2.000 I-3.048 J32.778 K0.000 F600.000
G3 X66.614 Y2.705 Z-2.000 I0.188 J-1.100 K0.000 F600.000
G2 X66.590 Y2.678 Z-2.000 I-2.478 J2.176 K0.000 F600.000
G3 X67.675 Y2.185 Z-2.000 I1.213 J1.228 K0.000 F600.000
G2 X69.715 Y2.107 Z-2.000 I-0.569 J-41.762 K0.000 F600.000
G2 X70.545 Y1.416 Z-2.000 I-0.234 J-1.125 K0.000 F600.000
G2 X70.492 Y0.404 Z-2.000 I-1.084 J-0.450 K0.000 F600.000
G2 X68.477 Y-2.981 Z-2.000 I-22.507 J11.100 K0.000 F600.000
G2 X65.919 Y-6.367 Z-2.000 I-15.498 J9.051 K0.000 F600.000
G3 X65.515 Y-7.688 Z-2.000 I1.237 J-1.101 K0.000 F600.000
G3 X67.426 Y-9.141 Z-2.000 I1.873 J0.479 K0.000 F600.000
G3 X69.176 Y-8.164 Z-2.000 I0.115 J1.851 K0.000 F600.000
G3 X69.477 Y-7.136 Z-2.000 I-9.332 J3.294 K0.000 F600.000
G0 Z5.000
G0 Z5.000
G0 X69.477 Y-7.136
G0 X80.784 Y-2.096
G0 X80.784 Y-2.096 Z3.000
G1 X80.784 Y-2.096 Z-1.500 F600.000
G2 X80.825 Y-1.842 Z-1.500 I0.215 J0.096 K0.000 F600.000
G2 X80.865 Y-1.807 Z-1.500 I0.175 J-0.158 K0.000 F600.000
G2 X81.140 Y-2.190 Z-1.500 I0.135 J-0.193 K0.000 F600.000
G2 X80.844 Y-1.823 Z-1.500 I-0.140 J0.190 K0.000 F600.000
G2 X81.161 Y-2.172 Z-1.500 I0.156 J-0.177 K0.000 F600.000
G2 X80.784 Y-2.096 Z-1.500 I-0.161 J0.172 K0.000 F600.000
G1 X80.784 Y-2.096 Z-2.000 F600.000
G2 X80.825 Y-1.842 Z-2.000 I0.215 J0.096 K0.000 F600.000
G2 X80.865 Y-1.807 Z-2.000 I0.175 J-0.158 K0.000 F600.000
G2 X81.140 Y-2.190 Z-2.000 I0.135 J-0.193 K0.000 F600.000
G2 X80.844 Y-1.823 Z-2.000 I-0.140 J0.190 K0.000 F600.000
G2 X81.161 Y-2.172 Z-2.000 I0.156 J-0.177 K0.000 F600.000
G2 X80.784 Y-2.096 Z-2.000 I-0.161 J0.172 K0.000 F600.000
G0 Z5.000
G0 Z5.000
G0 X80.784 Y-2.096
G0 X78.689 Y-2.925
G0 X78.689 Y-2.925 Z3.000
G1 X78.689 Y-2.925 Z-1.500 F600.000
G2 X80.306 Y-8.656 Z-1.500 I-27.251 J-10.781 K0.000 F600.000
G3 X80.623 Y-9.244 Z-1.500 I1.284 J0.312 K0.000 F600.000
G2 X80.593 Y-9.250 Z-1.500 I-0.021 J0.026 K0.000 F600.000
G1 X74.645 Y-9.250 Z-1.500 F600.000
G1 X74.626 Y-9.249 Z-1.500 F600.000
G2 X74.669 Y-9.201 Z-1.500 I0.177 J-0.118 K0.000 F600.000
G3 X74.837 Y-9.079 Z-1.500 I-1.398 J2.100 K0.000 F600.000
G3 X75.258 Y-7.263 Z-1.500 I-1.185 J1.231 K0.000 F600.000
G2 X75.352 Y-6.203 Z-1.500 I2.058 J0.351 K0.000 F600.000
G2 X76.501 Y-4.551 Z-1.500 I4.035 J-1.579 K0.000 F600.000
G3 X76.039 Y-3.258 Z-1.500 I-0.515 J0.545 K0.000 F600.000
G2 X74.833 Y-2.685 Z-1.500 I0.033 J1.626 K0.000 F600.000
G2 X74.868 Y-2.414 Z-1.500 I0.245 J0.106 K0.000 F600.000
G2 X75.501 Y-1.886 Z-1.500 I0.930 J-0.471 K0.000 F600.000
G2 X76.962 Y-1.733 Z-1.500 I1.463 J-6.938 K0.000 F600.000
G2 X78.277 Y-1.855 Z-1.500 I0.012 J-7.001 K0.000 F600.000
G2 X78.366 Y-2.016 Z-1.500 I-0.318 J-0.282 K0.000 F600.000
G3 X78.421 Y-2.269 Z-1.500 I2.260 J0.353 K0.000 F600.000
G2 X78.689 Y-2.925 Z-1.500 I-26.982 J-11.438 K0.000 F600.000
G0 Z5.000
G0 X75.083 Y-2.127 Z5.000
G0 X75.083 Y-2.127 Z3.000
G1 X75.083 Y-2.127 Z-1.500 F600.000
G3 X74.818 Y-2.523 Z-1.500 I0.797 J-0.819 K0.000 F600.000
G3 X74.872 Y-2.731 Z-1.500 I0.201 J-0.058 K0.000 F600.000
G3 X76.039 Y-3.258 Z-1.500 I1.202 J1.107 K0.000 F600.000
G1 X76.069 Y-3.262 Z-1.500 F600.000
G1 X77.572 Y-1.759 Z-1.500 F600.000
G2 X78.277 Y-1.855 Z-1.500 I-0.417 J-5.669 K0.000 F600.000
G2 X78.388 Y-2.137 Z-1.500 I-0.352 J-0.302 K0.000 F600.000
G3 X78.437 Y-2.311 Z-1.500 I0.742 J0.110 K0.000 F600.000
G1 X78.642 Y-2.811 Z-1.500 F600.000
G1 X75.425 Y-6.027 Z-1.500 F600.000
G3 X75.258 Y-7.263 Z-1.500 I1.895 J-0.885 K0.000 F600.000
G2 X75.308 Y-8.266 Z-1.500 I-1.579 J-0.581 K0.000 F600.000
G1 X79.213 Y-4.361 Z-1.500 F600.000
G2 X79.708 Y-5.987 Z-1.500 I-24.618 J-8.392 K0.000 F600.000
G1 X76.445 Y-9.250 Z-1.500 F600.000
G1 X78.566 Y-9.250 Z-1.500 F600.000
G1 X80.593 Y-9.250 Z-1.500 F600.000
G3 X80.622 Y-9.244 Z-1.500 I0.008 J0.039 K0.000 F600.000
G2 X80.306 Y-8.656 Z-1.500 I1.010 J0.921 K0.000 F600.000
G3 X80.120 Y-7.696 Z-1.500 I-23.344 J-4.021 K0.000 F600.000
G1 X78.566 Y-9.250 Z-1.500 F600.000
G0 Z5.000
G0 X82.540 Y-9.228 Z5.000
G0 X82.540 Y-9.228 Z3.000
G1 X82.540 Y-9.228 Z-1.500 F600.000
G3 X82.738 Y-9.125 Z-1.500 I-0.407 J1.032 K0.000 F600.000
G2 X84.851 Y-7.455 Z-1.500 I38.079 J-46.009 K0.000 F600.000
G2 X85.434 Y-7.298 Z-1.500 I0.633 J-1.190 K0.000 F600.000
G1 X85.474 Y-7.298 Z-1.500 F600.000
G2 X86.317 Y-8.299 Z-1.500 I-0.313 J-1.119 K0.000 F600.000
G2 X86.170 Y-8.503 Z-1.500 I-0.325 J0.080 K0.000 F600.000
G2 X82.546 Y-9.248 Z-1.500 I-3.462 J7.653 K0.000 F600.000
G2 X82.540 Y-9.228 Z-1.500 I0.001 J0.011 K0.000 F600.000
G0 Z5.000
G0 X83.768 Y-8.291 Z5.000
G0 X83.768 Y-8.291 Z3.000
G1 X83.768 Y-8.291 Z-1.500 F600.000
G3 X82.782 Y-9.092 Z-1.500 I30.540 J-38.615 K0.000 F600.000
G2 X82.539 Y-9.229 Z-1.500 I-0.658 J0.883 K0.000 F600.000
G3 X82.546 Y-9.248 Z-1.500 I0.009 J-0.007 K0.000 F600.000
G3 X82.811 Y-9.248 Z-1.500 I0.138 J2.779 K0.000 F600.000
G1 X83.768 Y-8.291 Z-1.500 F600.000
G2 X84.851 Y-7.455 Z-1.500 I29.753 J-37.434 K0.000 F600.000
G2 X85.474 Y-7.298 Z-1.500 I0.628 J-1.175 K0.000 F600.000
G2 X86.226 Y-7.954 Z-1.500 I-0.310 J-1.115 K0.000 F600.000
G2 X86.317 Y-8.299 Z-1.500 I-0.995 J-0.447 K0.000 F600.000
G2 X86.170 Y-8.503 Z-1.500 I-0.325 J0.080 K0.000 F600.000
G2 X85.360 Y-8.820 Z-1.500 I-2.830 J6.027 K0.000 F600.000
G1 X86.226 Y-7.954 Z-1.500 F600.000
G0 Z5.000
G0 X73.293 Y-9.251 Z5.000
G0 X73.293 Y-9.251 Z3.000
G1 X73.293 Y-9.251 Z-1.500 F600.000
G2 X73.234 Y-9.271 Z-1.500 I-0.070 J0.110 K0.000 F600.000
G3 X72.992 Y-9.268 Z-1.500 I-0.134 J-1.271 K0.000 F600.000
G2 X72.965 Y-9.256 Z-1.500 I0.000 J0.037 K0.000 F600.000
G2 X73.293 Y-9.251 Z-1.500 I0.166 J-0.117 K0.000 F600.000
G0 Z5.000
G0 Z5.000
G0 Z3.000
G1 X73.293 Y-9.251 Z-1.500 F600.000
G2 X73.234 Y-9.271 Z-1.500 I-0.070 J0.110 K0.000 F600.000
G3 X72.992 Y-9.268 Z-1.500 I-0.134 J-1.271 K0.000 F600.000
G2 X72.965 Y-9.257 Z-1.500 I0.000 J0.037 K0.000 F600.000
G2 X73.141 Y-9.170 Z-1.500 I0.165 J-0.113 K0.000 F600.000
G2 X73.293 Y-9.251 Z-1.500 I-0.006 J-0.194 K0.000 F600.000
G0 Z5.000
G0 Z5.000
(Finish operation: Pocket_Shape001)
(Begin operation: Profile)
(Path: Profile)
(Profile)
(Compensated Tool Path. Diameter: 1.5)
G0 Z5.000
G0 X0.000 Y0.000
G0 X14.527 Y-9.875
G0 X14.527 Y-9.875 Z3.000
G1 X14.527 Y-9.875 Z-1.500 F600.000
G2 X15.439 Y-8.777 Z-1.500 I6.143 J-4.175 K0.000 F600.000
G2 X17.004 Y-9.372 Z-1.500 I0.637 J-0.681 K0.000 F600.000
G3 X17.486 Y-11.775 Z-1.500 I8.874 J0.530 K0.000 F600.000
G3 X18.570 Y-13.499 Z-1.500 I3.620 J1.074 K0.000 F600.000
G3 X18.961 Y-12.819 Z-1.500 I-6.283 J4.065 K0.000 F600.000
G2 X19.906 Y-10.768 Z-1.500 I2812.326 J-1293.653 K0.000 F600.000
G3 X21.173 Y-7.831 Z-1.500 I-11.132 J6.545 K0.000 F600.000
G3 X23.147 Y-0.061 Z-1.500 I-30.664 J11.927 K0.000 F600.000
G2 X20.571 Y0.684 Z-1.500 I1.028 J8.377 K0.000 F600.000
G2 X19.134 Y2.523 Z-1.500 I1.140 J2.372 K0.000 F600.000
G2 X19.375 Y4.758 Z-1.500 I4.298 J0.668 K0.000 F600.000
G2 X21.878 Y7.379 Z-1.500 I4.490 J-1.782 K0.000 F600.000
G2 X25.424 Y8.110 Z-1.500 I3.676 J-8.865 K0.000 F600.000
G1 X25.426 Y8.308 Z-1.500 F600.000
G3 X25.295 Y9.576 Z-1.500 I-2.969 J0.334 K0.000 F600.000
G2 X24.697 Y11.515 Z-1.500 I4.505 J2.450 K0.000 F600.000
G2 X26.755 Y15.409 Z-1.500 I3.909 J0.425 K0.000 F600.000
G3 X27.213 Y16.681 Z-1.500 I-0.444 J0.879 K0.000 F600.000
G2 X26.745 Y18.738 Z-1.500 I4.606 J2.130 K0.000 F600.000
G2 X27.772 Y20.705 Z-1.500 I2.264 J0.070 K0.000 F600.000
G2 X29.811 Y21.062 Z-1.500 I1.503 J-2.579 K0.000 F600.000
G2 X31.766 Y20.358 Z-1.500 I-2.023 J-8.675 K0.000 F600.000
G2 X38.125 Y22.305 Z-1.500 I7.616 J-13.512 K0.000 F600.000
G2 X45.008 Y20.843 Z-1.500 I0.642 J-13.912 K0.000 F600.000
G2 X49.298 Y21.550 Z-1.500 I2.877 J-4.088 K0.000 F600.000
G2 X50.951 Y19.750 Z-1.500 I-0.626 J-2.233 K0.000 F600.000
G1 X93.000 Y19.750 Z-1.500 F600.000
G2 X97.748 Y15.049 Z-1.500 I-0.002 J-4.751 K0.000 F600.000
G1 X97.750 Y-17.000 Z-1.500 F600.000
G2 X93.049 Y-21.748 Z-1.500 I-4.751 J0.002 K0.000 F600.000
G1 X51.328 Y-21.750 Z-1.500 F600.000
G1 X47.339 Y-21.813 Z-1.500 F600.000
G2 X46.381 Y-22.374 Z-1.500 I-1.209 J0.967 K0.000 F600.000
G2 X45.543 Y-22.386 Z-1.500 I-0.474 J3.709 K0.000 F600.000
G2 X43.468 Y-18.997 Z-1.500 I0.041 J2.355 K0.000 F600.000
G2 X42.640 Y-18.968 Z-1.500 I-0.144 J7.744 K0.000 F600.000
G2 X42.596 Y-20.039 Z-1.500 I-2.762 J-0.422 K0.000 F600.000
G2 X41.599 Y-21.377 Z-1.500 I-1.759 J0.270 K0.000 F600.000
G2 X39.194 Y-21.623 Z-1.500 I-1.723 J4.962 K0.000 F600.000
G2 X36.039 Y-22.060 Z-1.500 I-2.132 J3.785 K0.000 F600.000
G2 X29.501 Y-18.440 Z-1.500 I4.032 J14.996 K0.000 F600.000
G2 X28.206 Y-16.730 Z-1.500 I3.590 J4.065 K0.000 F600.000
G2 X28.030 Y-14.873 Z-1.500 I2.211 J1.147 K0.000 F600.000
G3 X27.798 Y-14.505 Z-1.500 I-4.788 J-2.755 K0.000 F600.000
G2 X26.702 Y-12.774 Z-1.500 I8.229 J6.422 K0.000 F600.000
G2 X25.584 Y-8.532 Z-1.500 I11.925 J5.411 K0.000 F600.000
G3 X23.887 Y-15.820 Z-1.500 I77.494 J-21.888 K0.000 F600.000
G2 X23.312 Y-18.802 Z-1.500 I-17.992 J1.925 K0.000 F600.000
G2 X22.395 Y-19.587 Z-1.500 I-0.993 J0.231 K0.000 F600.000
G2 X19.883 Y-19.602 Z-1.500 I-1.874 J109.440 K0.000 F600.000
G2 X18.530 Y-19.181 Z-1.500 I-0.019 J2.328 K0.000 F600.000
G1 X18.526 Y-19.182 Z-1.500 F600.000
G2 X16.125 Y-20.464 Z-1.500 I-11.918 J19.426 K0.000 F600.000
G2 X13.993 Y-21.507 Z-1.500 I-7.560 J12.759 K0.000 F600.000
G2 X12.282 Y-20.812 Z-1.500 I-0.568 J1.054 K0.000 F600.000
G2 X12.189 Y-15.693 Z-1.500 I19.067 J2.909 K0.000 F600.000
G2 X12.847 Y-12.799 Z-1.500 I9.646 J-0.672 K0.000 F600.000
G2 X14.308 Y-10.217 Z-1.500 I15.580 J-7.112 K0.000 F600.000
G2 X14.527 Y-9.875 Z-1.500 I6.362 J-3.833 K0.000 F600.000
G1 X14.527 Y-9.875 Z-3.000 F600.000
G2 X15.439 Y-8.777 Z-3.000 I6.143 J-4.175 K0.000 F600.000
G2 X17.004 Y-9.372 Z-3.000 I0.637 J-0.681 K0.000 F600.000
G3 X17.486 Y-11.775 Z-3.000 I8.874 J0.530 K0.000 F600.000
G3 X18.570 Y-13.499 Z-3.000 I3.620 J1.074 K0.000 F600.000
G3 X18.961 Y-12.819 Z-3.000 I-6.283 J4.065 K0.000 F600.000
G2 X19.906 Y-10.768 Z-3.000 I2812.326 J-1293.653 K0.000 F600.000
G3 X21.173 Y-7.831 Z-3.000 I-11.132 J6.545 K0.000 F600.000
G3 X23.147 Y-0.061 Z-3.000 I-30.664 J11.927 K0.000 F600.000
G2 X20.571 Y0.684 Z-3.000 I1.028 J8.377 K0.000 F600.000
G2 X19.134 Y2.523 Z-3.000 I1.140 J2.372 K0.000 F600.000
G2 X19.375 Y4.758 Z-3.000 I4.298 J0.668 K0.000 F600.000
G2 X21.878 Y7.379 Z-3.000 I4.490 J-1.782 K0.000 F600.000
G2 X25.424 Y8.110 Z-3.000 I3.676 J-8.865 K0.000 F600.000
G1 X25.426 Y8.308 Z-3.000 F600.000
G3 X25.295 Y9.576 Z-3.000 I-2.969 J0.334 K0.000 F600.000
G2 X24.697 Y11.515 Z-3.000 I4.505 J2.450 K0.000 F600.000
G2 X26.755 Y15.409 Z-3.000 I3.909 J0.425 K0.000 F600.000
G3 X27.213 Y16.681 Z-3.000 I-0.444 J0.879 K0.000 F600.000
G2 X26.745 Y18.738 Z-3.000 I4.606 J2.130 K0.000 F600.000
G2 X27.772 Y20.705 Z-3.000 I2.264 J0.070 K0.000 F600.000
G2 X29.811 Y21.062 Z-3.000 I1.503 J-2.579 K0.000 F600.000
G2 X31.766 Y20.358 Z-3.000 I-2.023 J-8.675 K0.000 F600.000
G2 X38.125 Y22.305 Z-3.000 I7.616 J-13.512 K0.000 F600.000
G2 X45.008 Y20.843 Z-3.000 I0.642 J-13.912 K0.000 F600.000
G2 X49.298 Y21.550 Z-3.000 I2.877 J-4.088 K0.000 F600.000
G2 X50.951 Y19.750 Z-3.000 I-0.626 J-2.233 K0.000 F600.000
G1 X93.000 Y19.750 Z-3.000 F600.000
G2 X97.748 Y15.049 Z-3.000 I-0.002 J-4.751 K0.000 F600.000
G1 X97.750 Y-17.000 Z-3.000 F600.000
G2 X93.049 Y-21.748 Z-3.000 I-4.751 J0.002 K0.000 F600.000
G1 X51.328 Y-21.750 Z-3.000 F600.000
G1 X47.339 Y-21.813 Z-3.000 F600.000
G2 X46.381 Y-22.374 Z-3.000 I-1.209 J0.967 K0.000 F600.000
G2 X45.543 Y-22.386 Z-3.000 I-0.474 J3.709 K0.000 F600.000
G2 X43.468 Y-18.997 Z-3.000 I0.041 J2.355 K0.000 F600.000
G2 X42.640 Y-18.968 Z-3.000 I-0.144 J7.744 K0.000 F600.000
G2 X42.596 Y-20.039 Z-3.000 I-2.762 J-0.422 K0.000 F600.000
G2 X41.599 Y-21.377 Z-3.000 I-1.759 J0.270 K0.000 F600.000
G2 X39.194 Y-21.623 Z-3.000 I-1.723 J4.962 K0.000 F600.000
G2 X36.039 Y-22.060 Z-3.000 I-2.132 J3.785 K0.000 F600.000
G2 X29.501 Y-18.440 Z-3.000 I4.032 J14.996 K0.000 F600.000
G2 X28.206 Y-16.730 Z-3.000 I3.590 J4.065 K0.000 F600.000
G2 X28.030 Y-14.873 Z-3.000 I2.211 J1.147 K0.000 F600.000
G3 X27.798 Y-14.505 Z-3.000 I-4.788 J-2.755 K0.000 F600.000
G2 X26.702 Y-12.774 Z-3.000 I8.229 J6.422 K0.000 F600.000
G2 X25.584 Y-8.532 Z-3.000 I11.925 J5.411 K0.000 F600.000
G3 X23.887 Y-15.820 Z-3.000 I77.494 J-21.888 K0.000 F600.000
G2 X23.312 Y-18.802 Z-3.000 I-17.992 J1.925 K0.000 F600.000
G2 X22.395 Y-19.587 Z-3.000 I-0.993 J0.231 K0.000 F600.000
G2 X19.883 Y-19.602 Z-3.000 I-1.874 J109.440 K0.000 F600.000
G2 X18.530 Y-19.181 Z-3.000 I-0.019 J2.328 K0.000 F600.000
G1 X18.526 Y-19.182 Z-3.000 F600.000
G2 X16.125 Y-20.464 Z-3.000 I-11.918 J19.426 K0.000 F600.000
G2 X13.993 Y-21.507 Z-3.000 I-7.560 J12.759 K0.000 F600.000
G2 X12.282 Y-20.812 Z-3.000 I-0.568 J1.054 K0.000 F600.000
G2 X12.189 Y-15.693 Z-3.000 I19.067 J2.909 K0.000 F600.000
G2 X12.847 Y-12.799 Z-3.000 I9.646 J-0.672 K0.000 F600.000
G2 X14.308 Y-10.217 Z-3.000 I15.580 J-7.112 K0.000 F600.000
G2 X14.527 Y-9.875 Z-3.000 I6.362 J-3.833 K0.000 F600.000
G1 X14.527 Y-9.875 Z-4.500 F600.000
G2 X15.439 Y-8.777 Z-4.500 I6.143 J-4.175 K0.000 F600.000
G2 X17.004 Y-9.372 Z-4.500 I0.637 J-0.681 K0.000 F600.000
G3 X17.486 Y-11.775 Z-4.500 I8.874 J0.530 K0.000 F600.000
G3 X18.570 Y-13.499 Z-4.500 I3.620 J1.074 K0.000 F600.000
G3 X18.961 Y-12.819 Z-4.500 I-6.283 J4.065 K0.000 F600.000
G2 X19.906 Y-10.768 Z-4.500 I2812.326 J-1293.653 K0.000 F600.000
G3 X21.173 Y-7.831 Z-4.500 I-11.132 J6.545 K0.000 F600.000
G3 X23.147 Y-0.061 Z-4.500 I-30.664 J11.927 K0.000 F600.000
G2 X20.571 Y0.684 Z-4.500 I1.028 J8.377 K0.000 F600.000
G2 X19.134 Y2.523 Z-4.500 I1.140 J2.372 K0.000 F600.000
G2 X19.375 Y4.758 Z-4.500 I4.298 J0.668 K0.000 F600.000
G2 X21.878 Y7.379 Z-4.500 I4.490 J-1.782 K0.000 F600.000
G2 X25.424 Y8.110 Z-4.500 I3.676 J-8.865 K0.000 F600.000
G1 X25.426 Y8.308 Z-4.500 F600.000
G3 X25.295 Y9.576 Z-4.500 I-2.969 J0.334 K0.000 F600.000
G2 X24.697 Y11.515 Z-4.500 I4.505 J2.450 K0.000 F600.000
G2 X26.755 Y15.409 Z-4.500 I3.909 J0.425 K0.000 F600.000
G3 X27.213 Y16.681 Z-4.500 I-0.444 J0.879 K0.000 F600.000
G2 X26.745 Y18.738 Z-4.500 I4.606 J2.130 K0.000 F600.000
G2 X27.772 Y20.705 Z-4.500 I2.264 J0.070 K0.000 F600.000
G2 X29.811 Y21.062 Z-4.500 I1.503 J-2.579 K0.000 F600.000
G2 X31.766 Y20.358 Z-4.500 I-2.023 J-8.675 K0.000 F600.000
G2 X38.125 Y22.305 Z-4.500 I7.616 J-13.512 K0.000 F600.000
G2 X45.008 Y20.843 Z-4.500 I0.642 J-13.912 K0.000 F600.000
G2 X49.298 Y21.550 Z-4.500 I2.877 J-4.088 K0.000 F600.000
G2 X50.951 Y19.750 Z-4.500 I-0.626 J-2.233 K0.000 F600.000
G1 X93.000 Y19.750 Z-4.500 F600.000
G2 X97.748 Y15.049 Z-4.500 I-0.002 J-4.751 K0.000 F600.000
G1 X97.750 Y-17.000 Z-4.500 F600.000
G2 X93.049 Y-21.748 Z-4.500 I-4.751 J0.002 K0.000 F600.000
G1 X51.328 Y-21.750 Z-4.500 F600.000
G1 X47.339 Y-21.813 Z-4.500 F600.000
G2 X46.381 Y-22.374 Z-4.500 I-1.209 J0.967 K0.000 F600.000
G2 X45.543 Y-22.386 Z-4.500 I-0.474 J3.709 K0.000 F600.000
G2 X43.468 Y-18.997 Z-4.500 I0.041 J2.355 K0.000 F600.000
G2 X42.640 Y-18.968 Z-4.500 I-0.144 J7.744 K0.000 F600.000
G2 X42.596 Y-20.039 Z-4.500 I-2.762 J-0.422 K0.000 F600.000
G2 X41.599 Y-21.377 Z-4.500 I-1.759 J0.270 K0.000 F600.000
G2 X39.194 Y-21.623 Z-4.500 I-1.723 J4.962 K0.000 F600.000
G2 X36.039 Y-22.060 Z-4.500 I-2.132 J3.785 K0.000 F600.000
G2 X29.501 Y-18.440 Z-4.500 I4.032 J14.996 K0.000 F600.000
G2 X28.206 Y-16.730 Z-4.500 I3.590 J4.065 K0.000 F600.000
G2 X28.030 Y-14.873 Z-4.500 I2.211 J1.147 K0.000 F600.000
G3 X27.798 Y-14.505 Z-4.500 I-4.788 J-2.755 K0.000 F600.000
G2 X26.702 Y-12.774 Z-4.500 I8.229 J6.422 K0.000 F600.000
G2 X25.584 Y-8.532 Z-4.500 I11.925 J5.411 K0.000 F600.000
G3 X23.887 Y-15.820 Z-4.500 I77.494 J-21.888 K0.000 F600.000
G2 X23.312 Y-18.802 Z-4.500 I-17.992 J1.925 K0.000 F600.000
G2 X22.395 Y-19.587 Z-4.500 I-0.993 J0.231 K0.000 F600.000
G2 X19.883 Y-19.602 Z-4.500 I-1.874 J109.440 K0.000 F600.000
G2 X18.530 Y-19.181 Z-4.500 I-0.019 J2.328 K0.000 F600.000
G1 X18.526 Y-19.182 Z-4.500 F600.000
G2 X16.125 Y-20.464 Z-4.500 I-11.918 J19.426 K0.000 F600.000
G2 X13.993 Y-21.507 Z-4.500 I-7.560 J12.759 K0.000 F600.000
G2 X12.282 Y-20.812 Z-4.500 I-0.568 J1.054 K0.000 F600.000
G2 X12.189 Y-15.693 Z-4.500 I19.067 J2.909 K0.000 F600.000
G2 X12.847 Y-12.799 Z-4.500 I9.646 J-0.672 K0.000 F600.000
G2 X14.308 Y-10.217 Z-4.500 I15.580 J-7.112 K0.000 F600.000
G2 X14.527 Y-9.875 Z-4.500 I6.362 J-3.833 K0.000 F600.000
G1 X14.527 Y-9.875 Z-5.000 F600.000
G2 X15.439 Y-8.777 Z-5.000 I6.143 J-4.175 K0.000 F600.000
G2 X17.004 Y-9.372 Z-5.000 I0.637 J-0.681 K0.000 F600.000
G3 X17.486 Y-11.775 Z-5.000 I8.874 J0.530 K0.000 F600.000
G3 X18.570 Y-13.499 Z-5.000 I3.620 J1.074 K0.000 F600.000
G3 X18.961 Y-12.819 Z-5.000 I-6.283 J4.065 K0.000 F600.000
G2 X19.906 Y-10.768 Z-5.000 I2812.326 J-1293.653 K0.000 F600.000
G3 X21.173 Y-7.831 Z-5.000 I-11.132 J6.545 K0.000 F600.000
G3 X23.147 Y-0.061 Z-5.000 I-30.664 J11.927 K0.000 F600.000
G2 X20.571 Y0.684 Z-5.000 I1.028 J8.377 K0.000 F600.000
G2 X19.134 Y2.523 Z-5.000 I1.140 J2.372 K0.000 F600.000
G2 X19.375 Y4.758 Z-5.000 I4.298 J0.668 K0.000 F600.000
G2 X21.878 Y7.379 Z-5.000 I4.490 J-1.782 K0.000 F600.000
G2 X25.424 Y8.110 Z-5.000 I3.676 J-8.865 K0.000 F600.000
G1 X25.426 Y8.308 Z-5.000 F600.000
G3 X25.295 Y9.576 Z-5.000 I-2.969 J0.334 K0.000 F600.000
G2 X24.697 Y11.515 Z-5.000 I4.505 J2.450 K0.000 F600.000
G2 X26.755 Y15.409 Z-5.000 I3.909 J0.425 K0.000 F600.000
G3 X27.213 Y16.681 Z-5.000 I-0.444 J0.879 K0.000 F600.000
G2 X26.745 Y18.738 Z-5.000 I4.606 J2.130 K0.000 F600.000
G2 X27.772 Y20.705 Z-5.000 I2.264 J0.070 K0.000 F600.000
G2 X29.811 Y21.062 Z-5.000 I1.503 J-2.579 K0.000 F600.000
G2 X31.766 Y20.358 Z-5.000 I-2.023 J-8.675 K0.000 F600.000
G2 X38.125 Y22.305 Z-5.000 I7.616 J-13.512 K0.000 F600.000
G2 X45.008 Y20.843 Z-5.000 I0.642 J-13.912 K0.000 F600.000
G2 X49.298 Y21.550 Z-5.000 I2.877 J-4.088 K0.000 F600.000
G2 X50.951 Y19.750 Z-5.000 I-0.626 J-2.233 K0.000 F600.000
G1 X93.000 Y19.750 Z-5.000 F600.000
G2 X97.748 Y15.049 Z-5.000 I-0.002 J-4.751 K0.000 F600.000
G1 X97.750 Y-17.000 Z-5.000 F600.000
G2 X93.049 Y-21.748 Z-5.000 I-4.751 J0.002 K0.000 F600.000
G1 X51.328 Y-21.750 Z-5.000 F600.000
G1 X47.339 Y-21.813 Z-5.000 F600.000
G2 X46.381 Y-22.374 Z-5.000 I-1.209 J0.967 K0.000 F600.000
G2 X45.543 Y-22.386 Z-5.000 I-0.474 J3.709 K0.000 F600.000
G2 X43.468 Y-18.997 Z-5.000 I0.041 J2.355 K0.000 F600.000
G2 X42.640 Y-18.968 Z-5.000 I-0.144 J7.744 K0.000 F600.000
G2 X42.596 Y-20.039 Z-5.000 I-2.762 J-0.422 K0.000 F600.000
G2 X41.599 Y-21.377 Z-5.000 I-1.759 J0.270 K0.000 F600.000
G2 X39.194 Y-21.623 Z-5.000 I-1.723 J4.962 K0.000 F600.000
G2 X36.039 Y-22.060 Z-5.000 I-2.132 J3.785 K0.000 F600.000
G2 X29.501 Y-18.440 Z-5.000 I4.032 J14.996 K0.000 F600.000
G2 X28.206 Y-16.730 Z-5.000 I3.590 J4.065 K0.000 F600.000
G2 X28.030 Y-14.873 Z-5.000 I2.211 J1.147 K0.000 F600.000
G3 X27.798 Y-14.505 Z-5.000 I-4.788 J-2.755 K0.000 F600.000
G2 X26.702 Y-12.774 Z-5.000 I8.229 J6.422 K0.000 F600.000
G2 X25.584 Y-8.532 Z-5.000 I11.925 J5.411 K0.000 F600.000
G3 X23.887 Y-15.820 Z-5.000 I77.494 J-21.888 K0.000 F600.000
G2 X23.312 Y-18.802 Z-5.000 I-17.992 J1.925 K0.000 F600.000
G2 X22.395 Y-19.587 Z-5.000 I-0.993 J0.231 K0.000 F600.000
G2 X19.883 Y-19.602 Z-5.000 I-1.874 J109.440 K0.000 F600.000
G2 X18.530 Y-19.181 Z-5.000 I-0.019 J2.328 K0.000 F600.000
G1 X18.526 Y-19.182 Z-5.000 F600.000
G2 X16.125 Y-20.464 Z-5.000 I-11.918 J19.426 K0.000 F600.000
G2 X13.993 Y-21.507 Z-5.000 I-7.560 J12.759 K0.000 F600.000
G2 X12.282 Y-20.812 Z-5.000 I-0.568 J1.054 K0.000 F600.000
G2 X12.189 Y-15.693 Z-5.000 I19.067 J2.909 K0.000 F600.000
G2 X12.847 Y-12.799 Z-5.000 I9.646 J-0.672 K0.000 F600.000
G2 X14.308 Y-10.217 Z-5.000 I15.580 J-7.112 K0.000 F600.000
G2 X14.527 Y-9.875 Z-5.000 I6.362 J-3.833 K0.000 F600.000
G0 Z5.000
G0 Z5.000
(Finish operation: Profile)
(Begin postamble)
M5
G17 G90
M2
