(Exported by FreeCAD)
(Post Processor: script_module)
(Output Time:2025-08-14 18:40:34.230671)
(Begin preamble)
G17 G90
G21
(Begin operation: Fixture)
(Path: Fixture)
G54
(Finish operation: Fixture)
(Begin operation: 3mm_Endmill001)
(Path: 3mm_Endmill001)
(3mm_Endmill001)
(Begin toolchange)
( M6 T2 )
M3 S10000
(Finish operation: 3mm_Endmill001)
(Begin operation: Pocket_Shape)
(Path: Pocket_Shape)
(Pocket_Shape)
G0 Z25.000
G0 X-1.691 Y7.676
G0 Z23.000
G1 X-1.691 Y7.676 Z17.000 F600.000
G1 X-7.676 Y1.691 Z17.000 F600.000
G1 X-5.923 Y5.923 Z17.000 F600.000
G1 X-1.691 Y7.676 Z17.000 F600.000
G1 X-0.000 Y8.376 Z17.000 F600.000
G1 X5.923 Y5.923 Z17.000 F600.000
G1 X8.376 Y0.000 Z17.000 F600.000
G1 X5.923 Y-5.923 Z17.000 F600.000
G1 X-0.000 Y-8.376 Z17.000 F600.000
G1 X-5.923 Y-5.923 Z17.000 F600.000
G1 X-8.376 Y0.000 Z17.000 F600.000
G1 X-5.923 Y5.923 Z17.000 F600.000
G1 X-1.691 Y7.676 Z17.000 F600.000
G1 X0.000 Y8.376 Z17.000 F600.000
G1 X2.299 Y7.424 Z17.000 F600.000
G1 X-7.424 Y-2.299 Z17.000 F600.000
G1 X-6.181 Y-5.299 Z17.000 F600.000
G1 X5.299 Y6.181 Z17.000 F600.000
G1 X5.923 Y5.923 Z17.000 F600.000
G1 X6.907 Y3.547 Z17.000 F600.000
G1 X-3.547 Y-6.907 Z17.000 F600.000
G1 X-0.547 Y-8.150 Z17.000 F600.000
G1 X8.150 Y0.547 Z17.000 F600.000
G1 X8.376 Y-0.000 Z17.000 F600.000
G1 X5.923 Y-5.923 Z17.000 F600.000
G1 X5.923 Y-5.923 Z15.000 F600.000
G1 X8.376 Y-0.000 Z15.000 F600.000
G1 X8.150 Y0.547 Z15.000 F600.000
G1 X-0.547 Y-8.150 Z15.000 F600.000
G1 X-3.547 Y-6.907 Z15.000 F600.000
G1 X6.907 Y3.547 Z15.000 F600.000
G1 X5.923 Y5.923 Z15.000 F600.000
G1 X5.299 Y6.181 Z15.000 F600.000
G1 X-6.181 Y-5.299 Z15.000 F600.000
G1 X-7.424 Y-2.299 Z15.000 F600.000
G1 X2.299 Y7.424 Z15.000 F600.000
G1 X0.000 Y8.376 Z15.000 F600.000
G1 X-1.691 Y7.676 Z15.000 F600.000
G1 X-5.923 Y5.923 Z15.000 F600.000
G1 X-8.376 Y0.000 Z15.000 F600.000
G1 X-5.923 Y-5.923 Z15.000 F600.000
G1 X-0.000 Y-8.376 Z15.000 F600.000
G1 X5.923 Y-5.923 Z15.000 F600.000
G1 X8.376 Y0.000 Z15.000 F600.000
G1 X5.923 Y5.923 Z15.000 F600.000
G1 X-0.000 Y8.376 Z15.000 F600.000
G1 X-1.691 Y7.676 Z15.000 F600.000
G1 X-5.923 Y5.923 Z15.000 F600.000
G1 X-7.676 Y1.691 Z15.000 F600.000
G1 X-1.691 Y7.676 Z15.000 F600.000
G0 Z25.000
G0 Z25.000
(Finish operation: Pocket_Shape)
(Begin operation: Pocket_Shape001)
(Path: Pocket_Shape001)
(Pocket_Shape001)
G0 Z25.000
G0 X0.505 Y1.927
G0 Z23.000
G1 X0.505 Y1.927 Z17.000 F600.000
G3 X-1.926 Y-0.504 Z17.000 I-0.510 J-1.921 K0.000 F600.000
G1 X0.505 Y1.927 Z17.000 F600.000
G1 X0.729 Y1.858 Z17.000 F600.000
G2 X-0.729 Y-1.858 Z17.000 I-0.729 J-1.858 K0.000 F600.000
G2 X0.505 Y1.927 Z17.000 I0.727 J1.857 K0.000 F600.000
G2 X1.463 Y-1.357 Z17.000 I-0.501 J-1.928 K0.000 F600.000
G1 X1.463 Y-1.357 Z14.000 F600.000
G3 X0.505 Y1.927 Z14.000 I-1.459 J1.356 K0.000 F600.000
G3 X-0.729 Y-1.858 Z14.000 I-0.507 J-1.928 K0.000 F600.000
G3 X0.729 Y1.858 Z14.000 I0.729 J1.858 K0.000 F600.000
G1 X0.505 Y1.927 Z14.000 F600.000
G1 X-1.926 Y-0.504 Z14.000 F600.000
G2 X0.505 Y1.927 Z14.000 I1.921 J0.510 K0.000 F600.000
G1 X0.505 Y1.927 Z11.000 F600.000
G3 X-1.926 Y-0.504 Z11.000 I-0.510 J-1.921 K0.000 F600.000
G1 X0.505 Y1.927 Z11.000 F600.000
G1 X0.729 Y1.858 Z11.000 F600.000
G2 X-0.729 Y-1.858 Z11.000 I-0.729 J-1.858 K0.000 F600.000
G2 X0.505 Y1.927 Z11.000 I0.727 J1.857 K0.000 F600.000
G2 X1.463 Y-1.357 Z11.000 I-0.501 J-1.928 K0.000 F600.000
G1 X1.463 Y-1.357 Z10.000 F600.000
G3 X0.505 Y1.927 Z10.000 I-1.459 J1.356 K0.000 F600.000
G3 X-0.729 Y-1.858 Z10.000 I-0.507 J-1.928 K0.000 F600.000
G3 X0.729 Y1.858 Z10.000 I0.729 J1.858 K0.000 F600.000
G1 X0.505 Y1.927 Z10.000 F600.000
G1 X-1.926 Y-0.504 Z10.000 F600.000
G2 X0.505 Y1.927 Z10.000 I1.921 J0.510 K0.000 F600.000
G0 Z25.000
G0 Z25.000
(Finish operation: Pocket_Shape001)
(Begin operation: Profile)
(Path: Profile)
(Profile)
(Compensated Tool Path. Diameter: 3.0)
G0 Z25.000
G0 X8.132 Y8.132
G0 Z23.000
G1 X8.132 Y8.132 Z17.000 F600.000
G2 X8.457 Y7.645 Z17.000 I-1.061 J-1.061 K0.000 F600.000
G1 X11.386 Y0.574 Z17.000 F600.000
G2 X11.386 Y-0.574 Z17.000 I-1.386 J-0.574 K0.000 F600.000
G1 X8.457 Y-7.645 Z17.000 F600.000
G2 X7.645 Y-8.457 Z17.000 I-1.386 J0.574 K0.000 F600.000
G1 X0.574 Y-11.386 Z17.000 F600.000
G2 X-0.574 Y-11.386 Z17.000 I-0.574 J1.386 K0.000 F600.000
G1 X-7.645 Y-8.457 Z17.000 F600.000
G2 X-8.457 Y-7.645 Z17.000 I0.574 J1.386 K0.000 F600.000
G1 X-11.386 Y-0.574 Z17.000 F600.000
G2 X-11.386 Y0.574 Z17.000 I1.386 J0.574 K0.000 F600.000
G1 X-8.457 Y7.645 Z17.000 F600.000
G2 X-7.645 Y8.457 Z17.000 I1.386 J-0.574 K0.000 F600.000
G1 X-0.574 Y11.386 Z17.000 F600.000
G2 X0.574 Y11.386 Z17.000 I0.574 J-1.386 K0.000 F600.000
G1 X7.645 Y8.457 Z17.000 F600.000
G2 X8.132 Y8.132 Z17.000 I-0.574 J-1.386 K0.000 F600.000
G1 X8.132 Y8.132 Z14.000 F600.000
G2 X8.457 Y7.645 Z14.000 I-1.061 J-1.061 K0.000 F600.000
G1 X11.386 Y0.574 Z14.000 F600.000
G2 X11.386 Y-0.574 Z14.000 I-1.386 J-0.574 K0.000 F600.000
G1 X8.457 Y-7.645 Z14.000 F600.000
G2 X7.645 Y-8.457 Z14.000 I-1.386 J0.574 K0.000 F600.000
G1 X0.574 Y-11.386 Z14.000 F600.000
G2 X-0.574 Y-11.386 Z14.000 I-0.574 J1.386 K0.000 F600.000
G1 X-7.645 Y-8.457 Z14.000 F600.000
G2 X-8.457 Y-7.645 Z14.000 I0.574 J1.386 K0.000 F600.000
G1 X-11.386 Y-0.574 Z14.000 F600.000
G2 X-11.386 Y0.574 Z14.000 I1.386 J0.574 K0.000 F600.000
G1 X-8.457 Y7.645 Z14.000 F600.000
G2 X-7.645 Y8.457 Z14.000 I1.386 J-0.574 K0.000 F600.000
G1 X-0.574 Y11.386 Z14.000 F600.000
G2 X0.574 Y11.386 Z14.000 I0.574 J-1.386 K0.000 F600.000
G1 X7.645 Y8.457 Z14.000 F600.000
G2 X8.132 Y8.132 Z14.000 I-0.574 J-1.386 K0.000 F600.000
G1 X8.132 Y8.132 Z11.000 F600.000
G2 X8.457 Y7.645 Z11.000 I-1.061 J-1.061 K0.000 F600.000
G1 X11.386 Y0.574 Z11.000 F600.000
G2 X11.386 Y-0.574 Z11.000 I-1.386 J-0.574 K0.000 F600.000
G1 X8.457 Y-7.645 Z11.000 F600.000
G2 X7.645 Y-8.457 Z11.000 I-1.386 J0.574 K0.000 F600.000
G1 X0.574 Y-11.386 Z11.000 F600.000
G2 X-0.574 Y-11.386 Z11.000 I-0.574 J1.386 K0.000 F600.000
G1 X-7.645 Y-8.457 Z11.000 F600.000
G2 X-8.457 Y-7.645 Z11.000 I0.574 J1.386 K0.000 F600.000
G1 X-11.386 Y-0.574 Z11.000 F600.000
G2 X-11.386 Y0.574 Z11.000 I1.386 J0.574 K0.000 F600.000
G1 X-8.457 Y7.645 Z11.000 F600.000
G2 X-7.645 Y8.457 Z11.000 I1.386 J-0.574 K0.000 F600.000
G1 X-0.574 Y11.386 Z11.000 F600.000
G2 X0.574 Y11.386 Z11.000 I0.574 J-1.386 K0.000 F600.000
G1 X7.645 Y8.457 Z11.000 F600.000
G2 X8.132 Y8.132 Z11.000 I-0.574 J-1.386 K0.000 F600.000
G1 X8.132 Y8.132 Z8.000 F600.000
G2 X8.457 Y7.645 Z8.000 I-1.061 J-1.061 K0.000 F600.000
G1 X11.386 Y0.574 Z8.000 F600.000
G2 X11.386 Y-0.574 Z8.000 I-1.386 J-0.574 K0.000 F600.000
G1 X8.457 Y-7.645 Z8.000 F600.000
G2 X7.645 Y-8.457 Z8.000 I-1.386 J0.574 K0.000 F600.000
G1 X0.574 Y-11.386 Z8.000 F600.000
G2 X-0.574 Y-11.386 Z8.000 I-0.574 J1.386 K0.000 F600.000
G1 X-7.645 Y-8.457 Z8.000 F600.000
G2 X-8.457 Y-7.645 Z8.000 I0.574 J1.386 K0.000 F600.000
G1 X-11.386 Y-0.574 Z8.000 F600.000
G2 X-11.386 Y0.574 Z8.000 I1.386 J0.574 K0.000 F600.000
G1 X-8.457 Y7.645 Z8.000 F600.000
G2 X-7.645 Y8.457 Z8.000 I1.386 J-0.574 K0.000 F600.000
G1 X-0.574 Y11.386 Z8.000 F600.000
G2 X0.574 Y11.386 Z8.000 I0.574 J-1.386 K0.000 F600.000
G1 X7.645 Y8.457 Z8.000 F600.000
G2 X8.132 Y8.132 Z8.000 I-0.574 J-1.386 K0.000 F600.000
G1 X8.132 Y8.132 Z5.000 F600.000
G2 X8.457 Y7.645 Z5.000 I-1.061 J-1.061 K0.000 F600.000
G1 X11.386 Y0.574 Z5.000 F600.000
G2 X11.386 Y-0.574 Z5.000 I-1.386 J-0.574 K0.000 F600.000
G1 X8.457 Y-7.645 Z5.000 F600.000
G2 X7.645 Y-8.457 Z5.000 I-1.386 J0.574 K0.000 F600.000
G1 X0.574 Y-11.386 Z5.000 F600.000
G2 X-0.574 Y-11.386 Z5.000 I-0.574 J1.386 K0.000 F600.000
G1 X-7.645 Y-8.457 Z5.000 F600.000
G2 X-8.457 Y-7.645 Z5.000 I0.574 J1.386 K0.000 F600.000
G1 X-11.386 Y-0.574 Z5.000 F600.000
G2 X-11.386 Y0.574 Z5.000 I1.386 J0.574 K0.000 F600.000
G1 X-8.457 Y7.645 Z5.000 F600.000
G2 X-7.645 Y8.457 Z5.000 I1.386 J-0.574 K0.000 F600.000
G1 X-0.574 Y11.386 Z5.000 F600.000
G2 X0.574 Y11.386 Z5.000 I0.574 J-1.386 K0.000 F600.000
G1 X7.645 Y8.457 Z5.000 F600.000
G2 X8.132 Y8.132 Z5.000 I-0.574 J-1.386 K0.000 F600.000
G1 X8.132 Y8.132 Z2.000 F600.000
G2 X8.457 Y7.645 Z2.000 I-1.061 J-1.061 K0.000 F600.000
G1 X11.386 Y0.574 Z2.000 F600.000
G2 X11.386 Y-0.574 Z2.000 I-1.386 J-0.574 K0.000 F600.000
G1 X8.457 Y-7.645 Z2.000 F600.000
G2 X7.645 Y-8.457 Z2.000 I-1.386 J0.574 K0.000 F600.000
G1 X0.574 Y-11.386 Z2.000 F600.000
G2 X-0.574 Y-11.386 Z2.000 I-0.574 J1.386 K0.000 F600.000
G1 X-7.645 Y-8.457 Z2.000 F600.000
G2 X-8.457 Y-7.645 Z2.000 I0.574 J1.386 K0.000 F600.000
G1 X-11.386 Y-0.574 Z2.000 F600.000
G2 X-11.386 Y0.574 Z2.000 I1.386 J0.574 K0.000 F600.000
G1 X-8.457 Y7.645 Z2.000 F600.000
G2 X-7.645 Y8.457 Z2.000 I1.386 J-0.574 K0.000 F600.000
G1 X-0.574 Y11.386 Z2.000 F600.000
G2 X0.574 Y11.386 Z2.000 I0.574 J-1.386 K0.000 F600.000
G1 X7.645 Y8.457 Z2.000 F600.000
G2 X8.132 Y8.132 Z2.000 I-0.574 J-1.386 K0.000 F600.000
G1 X8.132 Y8.132 Z0.000 F600.000
G2 X8.457 Y7.645 Z0.000 I-1.061 J-1.061 K0.000 F600.000
G1 X11.386 Y0.574 Z0.000 F600.000
G2 X11.386 Y-0.574 Z0.000 I-1.386 J-0.574 K0.000 F600.000
G1 X8.457 Y-7.645 Z0.000 F600.000
G2 X7.645 Y-8.457 Z0.000 I-1.386 J0.574 K0.000 F600.000
G1 X0.574 Y-11.386 Z0.000 F600.000
G2 X-0.574 Y-11.386 Z0.000 I-0.574 J1.386 K0.000 F600.000
G1 X-7.645 Y-8.457 Z0.000 F600.000
G2 X-8.457 Y-7.645 Z0.000 I0.574 J1.386 K0.000 F600.000
G1 X-11.386 Y-0.574 Z0.000 F600.000
G2 X-11.386 Y0.574 Z0.000 I1.386 J0.574 K0.000 F600.000
G1 X-8.457 Y7.645 Z0.000 F600.000
G2 X-7.645 Y8.457 Z0.000 I1.386 J-0.574 K0.000 F600.000
G1 X-0.574 Y11.386 Z0.000 F600.000
G2 X0.574 Y11.386 Z0.000 I0.574 J-1.386 K0.000 F600.000
G1 X7.645 Y8.457 Z0.000 F600.000
G2 X8.132 Y8.132 Z0.000 I-0.574 J-1.386 K0.000 F600.000
G0 Z25.000
G0 Z25.000
(Finish operation: Profile)
(Begin postamble)
M5
G17 G90
M2
