(Exported by FreeCAD)
(Post Processor: script_module)
(Output Time:2025-03-07 15:52:43.034963)
(Begin preamble)
G17 G90
G21
(Begin operation: Fixture)
(Path: Fixture)
G54
(Finish operation: Fixture)
(Begin operation: 2mm_Endmill001)
(Path: 2mm_Endmill001)
(2mm_Endmill001)
(Begin toolchange)
( M6 T2 )
M3 S13000
(Finish operation: 2mm_Endmill001)
(Begin operation: Profile)
(Path: Profile)
(Profile)
(Compensated Tool Path. Diameter: 2.0)
G0 Z15.000
G0 X0.000 Y0.000
G0 X0.343 Y-5.789
G0 X0.343 Y-5.789 Z13.000
G1 X0.343 Y-5.789 Z8.000 F600.000
G2 X-0.188 Y-5.814 Z8.000 I-1.433 J24.201 K0.000 F600.000
G1 X-1.509 Y-5.844 Z8.000 F600.000
G2 X-8.417 Y-5.267 Z8.000 I-1.147 J27.879 K0.000 F600.000
G2 X-10.977 Y-4.088 Z8.000 I0.393 J4.225 K0.000 F600.000
G1 X-12.097 Y-2.542 Z8.000 F600.000
G2 X-11.847 Y1.398 Z8.000 I4.346 J1.702 K0.000 F600.000
G2 X-9.296 Y5.110 Z8.000 I41.042 J-25.466 K0.000 F600.000
G2 X-3.943 Y10.382 Z8.000 I33.216 J-28.371 K0.000 F600.000
G2 X-1.179 Y12.136 Z8.000 I8.416 J-10.216 K0.000 F600.000
G2 X2.488 Y12.994 Z8.000 I3.628 J-7.241 K0.000 F600.000
G2 X5.830 Y11.961 Z8.000 I0.194 J-5.297 K0.000 F600.000
G2 X7.874 Y9.444 Z8.000 I-5.050 J-6.190 K0.000 F600.000
G1 X9.080 Y6.609 Z8.000 F600.000
G1 X9.440 Y5.920 Z8.000 F600.000
G2 X10.719 Y2.217 Z8.000 I-11.328 J-5.985 K0.000 F600.000
G2 X10.155 Y-1.406 Z8.000 I-5.323 J-1.027 K0.000 F600.000
G2 X5.703 Y-4.860 Z8.000 I-7.146 J4.615 K0.000 F600.000
G2 X0.343 Y-5.789 Z8.000 I-6.793 J23.272 K0.000 F600.000
G1 X0.343 Y-5.789 Z6.000 F600.000
G2 X-0.188 Y-5.814 Z6.000 I-1.433 J24.201 K0.000 F600.000
G1 X-1.509 Y-5.844 Z6.000 F600.000
G2 X-8.417 Y-5.267 Z6.000 I-1.147 J27.879 K0.000 F600.000
G2 X-10.977 Y-4.088 Z6.000 I0.393 J4.225 K0.000 F600.000
G1 X-12.097 Y-2.542 Z6.000 F600.000
G2 X-11.847 Y1.398 Z6.000 I4.346 J1.702 K0.000 F600.000
G2 X-9.296 Y5.110 Z6.000 I41.042 J-25.466 K0.000 F600.000
G2 X-3.943 Y10.382 Z6.000 I33.216 J-28.371 K0.000 F600.000
G2 X-1.179 Y12.136 Z6.000 I8.416 J-10.216 K0.000 F600.000
G2 X2.488 Y12.994 Z6.000 I3.628 J-7.241 K0.000 F600.000
G2 X5.830 Y11.961 Z6.000 I0.194 J-5.297 K0.000 F600.000
G2 X7.874 Y9.444 Z6.000 I-5.050 J-6.190 K0.000 F600.000
G1 X9.080 Y6.609 Z6.000 F600.000
G1 X9.440 Y5.920 Z6.000 F600.000
G2 X10.719 Y2.217 Z6.000 I-11.328 J-5.985 K0.000 F600.000
G2 X10.155 Y-1.406 Z6.000 I-5.323 J-1.027 K0.000 F600.000
G2 X5.703 Y-4.860 Z6.000 I-7.146 J4.615 K0.000 F600.000
G2 X0.343 Y-5.789 Z6.000 I-6.793 J23.272 K0.000 F600.000
G1 X0.343 Y-5.789 Z4.000 F600.000
G2 X-0.188 Y-5.814 Z4.000 I-1.433 J24.201 K0.000 F600.000
G1 X-1.509 Y-5.844 Z4.000 F600.000
G2 X-8.417 Y-5.267 Z4.000 I-1.147 J27.879 K0.000 F600.000
G2 X-10.977 Y-4.088 Z4.000 I0.393 J4.225 K0.000 F600.000
G1 X-12.097 Y-2.542 Z4.000 F600.000
G2 X-11.847 Y1.398 Z4.000 I4.346 J1.702 K0.000 F600.000
G2 X-9.296 Y5.110 Z4.000 I41.042 J-25.466 K0.000 F600.000
G2 X-3.943 Y10.382 Z4.000 I33.216 J-28.371 K0.000 F600.000
G2 X-1.179 Y12.136 Z4.000 I8.416 J-10.216 K0.000 F600.000
G2 X2.488 Y12.994 Z4.000 I3.628 J-7.241 K0.000 F600.000
G2 X5.830 Y11.961 Z4.000 I0.194 J-5.297 K0.000 F600.000
G2 X7.874 Y9.444 Z4.000 I-5.050 J-6.190 K0.000 F600.000
G1 X9.080 Y6.609 Z4.000 F600.000
G1 X9.440 Y5.920 Z4.000 F600.000
G2 X10.719 Y2.217 Z4.000 I-11.328 J-5.985 K0.000 F600.000
G2 X10.155 Y-1.406 Z4.000 I-5.323 J-1.027 K0.000 F600.000
G2 X5.703 Y-4.860 Z4.000 I-7.146 J4.615 K0.000 F600.000
G2 X0.343 Y-5.789 Z4.000 I-6.793 J23.272 K0.000 F600.000
G1 X0.343 Y-5.789 Z2.000 F600.000
G2 X-0.188 Y-5.814 Z2.000 I-1.433 J24.201 K0.000 F600.000
G1 X-1.509 Y-5.844 Z2.000 F600.000
G2 X-8.417 Y-5.267 Z2.000 I-1.147 J27.879 K0.000 F600.000
G2 X-10.977 Y-4.088 Z2.000 I0.393 J4.225 K0.000 F600.000
G1 X-12.097 Y-2.542 Z2.000 F600.000
G2 X-11.847 Y1.398 Z2.000 I4.346 J1.702 K0.000 F600.000
G2 X-9.296 Y5.110 Z2.000 I41.042 J-25.466 K0.000 F600.000
G2 X-3.943 Y10.382 Z2.000 I33.216 J-28.371 K0.000 F600.000
G2 X-1.179 Y12.136 Z2.000 I8.416 J-10.216 K0.000 F600.000
G2 X2.488 Y12.994 Z2.000 I3.628 J-7.241 K0.000 F600.000
G2 X5.830 Y11.961 Z2.000 I0.194 J-5.297 K0.000 F600.000
G2 X7.874 Y9.444 Z2.000 I-5.050 J-6.190 K0.000 F600.000
G1 X9.080 Y6.609 Z2.000 F600.000
G1 X9.440 Y5.920 Z2.000 F600.000
G2 X10.719 Y2.217 Z2.000 I-11.328 J-5.985 K0.000 F600.000
G2 X10.155 Y-1.406 Z2.000 I-5.323 J-1.027 K0.000 F600.000
G2 X5.703 Y-4.860 Z2.000 I-7.146 J4.615 K0.000 F600.000
G2 X0.343 Y-5.789 Z2.000 I-6.793 J23.272 K0.000 F600.000
G1 X0.343 Y-5.789 Z0.000 F600.000
G2 X-0.188 Y-5.814 Z0.000 I-1.433 J24.201 K0.000 F600.000
G1 X-1.509 Y-5.844 Z0.000 F600.000
G2 X-8.417 Y-5.267 Z0.000 I-1.147 J27.879 K0.000 F600.000
G2 X-10.977 Y-4.088 Z0.000 I0.393 J4.225 K0.000 F600.000
G1 X-12.097 Y-2.542 Z0.000 F600.000
G2 X-11.847 Y1.398 Z0.000 I4.346 J1.702 K0.000 F600.000
G2 X-9.296 Y5.110 Z0.000 I41.042 J-25.466 K0.000 F600.000
G2 X-3.943 Y10.382 Z0.000 I33.216 J-28.371 K0.000 F600.000
G2 X-1.179 Y12.136 Z0.000 I8.416 J-10.216 K0.000 F600.000
G2 X2.488 Y12.994 Z0.000 I3.628 J-7.241 K0.000 F600.000
G2 X5.830 Y11.961 Z0.000 I0.194 J-5.297 K0.000 F600.000
G2 X7.874 Y9.444 Z0.000 I-5.050 J-6.190 K0.000 F600.000
G1 X9.080 Y6.609 Z0.000 F600.000
G1 X9.440 Y5.920 Z0.000 F600.000
G2 X10.719 Y2.217 Z0.000 I-11.328 J-5.985 K0.000 F600.000
G2 X10.155 Y-1.406 Z0.000 I-5.323 J-1.027 K0.000 F600.000
G2 X5.703 Y-4.860 Z0.000 I-7.146 J4.615 K0.000 F600.000
G2 X0.343 Y-5.789 Z0.000 I-6.793 J23.272 K0.000 F600.000
G0 Z15.000
G0 Z15.000
(Finish operation: Profile)
(Begin operation: Profile001)
(Path: Profile001)
(Profile001)
(Compensated Tool Path. Diameter: 2.0)
G0 Z15.000
G0 X0.000 Y0.000
G0 X42.582 Y-0.757
G0 X42.582 Y-0.757 Z13.000
G1 X42.582 Y-0.757 Z8.000 F600.000
G2 X43.153 Y1.398 Z8.000 I4.666 J-0.083 K0.000 F600.000
G2 X45.704 Y5.110 Z8.000 I41.042 J-25.466 K0.000 F600.000
G2 X51.057 Y10.382 Z8.000 I33.216 J-28.371 K0.000 F600.000
G2 X53.821 Y12.136 Z8.000 I8.416 J-10.216 K0.000 F600.000
G2 X57.488 Y12.994 Z8.000 I3.628 J-7.241 K0.000 F600.000
G2 X60.830 Y11.961 Z8.000 I0.194 J-5.297 K0.000 F600.000
G2 X62.874 Y9.444 Z8.000 I-5.050 J-6.190 K0.000 F600.000
G1 X64.080 Y6.609 Z8.000 F600.000
G1 X64.440 Y5.920 Z8.000 F600.000
G2 X65.719 Y2.217 Z8.000 I-11.328 J-5.985 K0.000 F600.000
G2 X65.155 Y-1.406 Z8.000 I-5.323 J-1.027 K0.000 F600.000
G2 X60.703 Y-4.860 Z8.000 I-7.146 J4.615 K0.000 F600.000
G2 X54.812 Y-5.814 Z8.000 I-6.793 J23.272 K0.000 F600.000
G1 X53.491 Y-5.844 Z8.000 F600.000
G2 X46.583 Y-5.267 Z8.000 I-1.147 J27.879 K0.000 F600.000
G2 X44.023 Y-4.088 Z8.000 I0.393 J4.225 K0.000 F600.000
G1 X42.903 Y-2.542 Z8.000 F600.000
G2 X42.582 Y-0.757 Z8.000 I4.346 J1.702 K0.000 F600.000
G1 X42.582 Y-0.757 Z6.000 F600.000
G2 X43.153 Y1.398 Z6.000 I4.666 J-0.083 K0.000 F600.000
G2 X45.704 Y5.110 Z6.000 I41.042 J-25.466 K0.000 F600.000
G2 X51.057 Y10.382 Z6.000 I33.216 J-28.371 K0.000 F600.000
G2 X53.821 Y12.136 Z6.000 I8.416 J-10.216 K0.000 F600.000
G2 X57.488 Y12.994 Z6.000 I3.628 J-7.241 K0.000 F600.000
G2 X60.830 Y11.961 Z6.000 I0.194 J-5.297 K0.000 F600.000
G2 X62.874 Y9.444 Z6.000 I-5.050 J-6.190 K0.000 F600.000
G1 X64.080 Y6.609 Z6.000 F600.000
G1 X64.440 Y5.920 Z6.000 F600.000
G2 X65.719 Y2.217 Z6.000 I-11.328 J-5.985 K0.000 F600.000
G2 X65.155 Y-1.406 Z6.000 I-5.323 J-1.027 K0.000 F600.000
G2 X60.703 Y-4.860 Z6.000 I-7.146 J4.615 K0.000 F600.000
G2 X54.812 Y-5.814 Z6.000 I-6.793 J23.272 K0.000 F600.000
G1 X53.491 Y-5.844 Z6.000 F600.000
G2 X46.583 Y-5.267 Z6.000 I-1.147 J27.879 K0.000 F600.000
G2 X44.023 Y-4.088 Z6.000 I0.393 J4.225 K0.000 F600.000
G1 X42.903 Y-2.542 Z6.000 F600.000
G2 X42.582 Y-0.757 Z6.000 I4.346 J1.702 K0.000 F600.000
G1 X42.582 Y-0.757 Z4.000 F600.000
G2 X43.153 Y1.398 Z4.000 I4.666 J-0.083 K0.000 F600.000
G2 X45.704 Y5.110 Z4.000 I41.042 J-25.466 K0.000 F600.000
G2 X51.057 Y10.382 Z4.000 I33.216 J-28.371 K0.000 F600.000
G2 X53.821 Y12.136 Z4.000 I8.416 J-10.216 K0.000 F600.000
G2 X57.488 Y12.994 Z4.000 I3.628 J-7.241 K0.000 F600.000
G2 X60.830 Y11.961 Z4.000 I0.194 J-5.297 K0.000 F600.000
G2 X62.874 Y9.444 Z4.000 I-5.050 J-6.190 K0.000 F600.000
G1 X64.080 Y6.609 Z4.000 F600.000
G1 X64.440 Y5.920 Z4.000 F600.000
G2 X65.719 Y2.217 Z4.000 I-11.328 J-5.985 K0.000 F600.000
G2 X65.155 Y-1.406 Z4.000 I-5.323 J-1.027 K0.000 F600.000
G2 X60.703 Y-4.860 Z4.000 I-7.146 J4.615 K0.000 F600.000
G2 X54.812 Y-5.814 Z4.000 I-6.793 J23.272 K0.000 F600.000
G1 X53.491 Y-5.844 Z4.000 F600.000
G2 X46.583 Y-5.267 Z4.000 I-1.147 J27.879 K0.000 F600.000
G2 X44.023 Y-4.088 Z4.000 I0.393 J4.225 K0.000 F600.000
G1 X42.903 Y-2.542 Z4.000 F600.000
G2 X42.582 Y-0.757 Z4.000 I4.346 J1.702 K0.000 F600.000
G1 X42.582 Y-0.757 Z2.000 F600.000
G2 X43.153 Y1.398 Z2.000 I4.666 J-0.083 K0.000 F600.000
G2 X45.704 Y5.110 Z2.000 I41.042 J-25.466 K0.000 F600.000
G2 X51.057 Y10.382 Z2.000 I33.216 J-28.371 K0.000 F600.000
G2 X53.821 Y12.136 Z2.000 I8.416 J-10.216 K0.000 F600.000
G2 X57.488 Y12.994 Z2.000 I3.628 J-7.241 K0.000 F600.000
G2 X60.830 Y11.961 Z2.000 I0.194 J-5.297 K0.000 F600.000
G2 X62.874 Y9.444 Z2.000 I-5.050 J-6.190 K0.000 F600.000
G1 X64.080 Y6.609 Z2.000 F600.000
G1 X64.440 Y5.920 Z2.000 F600.000
G2 X65.719 Y2.217 Z2.000 I-11.328 J-5.985 K0.000 F600.000
G2 X65.155 Y-1.406 Z2.000 I-5.323 J-1.027 K0.000 F600.000
G2 X60.703 Y-4.860 Z2.000 I-7.146 J4.615 K0.000 F600.000
G2 X54.812 Y-5.814 Z2.000 I-6.793 J23.272 K0.000 F600.000
G1 X53.491 Y-5.844 Z2.000 F600.000
G2 X46.583 Y-5.267 Z2.000 I-1.147 J27.879 K0.000 F600.000
G2 X44.023 Y-4.088 Z2.000 I0.393 J4.225 K0.000 F600.000
G1 X42.903 Y-2.542 Z2.000 F600.000
G2 X42.582 Y-0.757 Z2.000 I4.346 J1.702 K0.000 F600.000
G1 X42.582 Y-0.757 Z0.000 F600.000
G2 X43.153 Y1.398 Z0.000 I4.666 J-0.083 K0.000 F600.000
G2 X45.704 Y5.110 Z0.000 I41.042 J-25.466 K0.000 F600.000
G2 X51.057 Y10.382 Z0.000 I33.216 J-28.371 K0.000 F600.000
G2 X53.821 Y12.136 Z0.000 I8.416 J-10.216 K0.000 F600.000
G2 X57.488 Y12.994 Z0.000 I3.628 J-7.241 K0.000 F600.000
G2 X60.830 Y11.961 Z0.000 I0.194 J-5.297 K0.000 F600.000
G2 X62.874 Y9.444 Z0.000 I-5.050 J-6.190 K0.000 F600.000
G1 X64.080 Y6.609 Z0.000 F600.000
G1 X64.440 Y5.920 Z0.000 F600.000
G2 X65.719 Y2.217 Z0.000 I-11.328 J-5.985 K0.000 F600.000
G2 X65.155 Y-1.406 Z0.000 I-5.323 J-1.027 K0.000 F600.000
G2 X60.703 Y-4.860 Z0.000 I-7.146 J4.615 K0.000 F600.000
G2 X54.812 Y-5.814 Z0.000 I-6.793 J23.272 K0.000 F600.000
G1 X53.491 Y-5.844 Z0.000 F600.000
G2 X46.583 Y-5.267 Z0.000 I-1.147 J27.879 K0.000 F600.000
G2 X44.023 Y-4.088 Z0.000 I0.393 J4.225 K0.000 F600.000
G1 X42.903 Y-2.542 Z0.000 F600.000
G2 X42.582 Y-0.757 Z0.000 I4.346 J1.702 K0.000 F600.000
G0 Z15.000
G0 Z15.000
(Finish operation: Profile001)
(Begin operation: Profile002)
(Path: Profile002)
(Profile002)
(Compensated Tool Path. Diameter: 2.0)
G0 Z15.000
G0 X0.000 Y0.000
G0 X0.004 Y-14.996
G0 X0.004 Y-14.996 Z13.000
G1 X0.004 Y-14.996 Z8.000 F600.000
G1 X-15.232 Y-15.000 Z8.000 F600.000
G2 X-17.122 Y-13.639 Z8.000 I0.010 J2.008 K0.000 F600.000
G2 X-18.987 Y-6.684 Z8.000 I557.319 J153.167 K0.000 F600.000
G2 X-20.119 Y-2.023 Z8.000 I47.676 J14.045 K0.000 F600.000
G2 X-20.091 Y3.023 Z8.000 I11.033 J2.462 K0.000 F600.000
G2 X-18.437 Y7.814 Z8.000 I59.406 J-17.835 K0.000 F600.000
G3 X-9.056 Y32.041 Z8.000 I-8584.953 J3337.882 K0.000 F600.000
G2 X-7.657 Y33.000 Z8.000 I1.412 J-0.560 K0.000 F600.000
G1 X-6.234 Y33.000 Z8.000 F600.000
G2 X-4.920 Y32.234 Z8.000 I-0.015 J-1.537 K0.000 F600.000
G1 X-0.031 Y34.629 Z8.000 F600.000
G2 X5.590 Y35.997 Z8.000 I6.267 J-13.517 K0.000 F600.000
G1 X13.576 Y36.000 Z8.000 F600.000
G2 X14.954 Y35.081 Z8.000 I-0.015 J-1.514 K0.000 F600.000
G2 X15.176 Y34.100 Z8.000 I-3.302 J-1.264 K0.000 F600.000
G2 X14.874 Y25.739 Z8.000 I-16.455 J-3.591 K0.000 F600.000
G1 X12.064 Y18.000 Z8.000 F600.000
G1 X14.691 Y18.000 Z8.000 F600.000
G2 X16.033 Y17.171 Z8.000 I-0.012 J-1.519 K0.000 F600.000
G1 X17.772 Y13.693 Z8.000 F600.000
G2 X17.774 Y12.362 Z8.000 I-1.356 J-0.668 K0.000 F600.000
G1 X15.215 Y8.082 Z8.000 F600.000
G1 X17.787 Y4.867 Z8.000 F600.000
G2 X18.851 Y1.671 Z8.000 I-3.768 J-3.029 K0.000 F600.000
G1 X18.062 Y-5.497 Z8.000 F600.000
G2 X18.829 Y-6.010 Z8.000 I-9.113 J-14.463 K0.000 F600.000
G2 X21.080 Y-8.592 Z8.000 I-4.408 J-6.116 K0.000 F600.000
G2 X22.517 Y-12.391 Z8.000 I-19.566 J-9.575 K0.000 F600.000
G2 X20.747 Y-14.991 Z8.000 I-1.908 J-0.603 K0.000 F600.000
G1 X0.004 Y-14.996 Z8.000 F600.000
G0 Z15.000
G0 X3.906 Y-24.418 Z15.000
G0 X3.906 Y-24.418 Z13.000
G1 X3.906 Y-24.418 Z8.000 F600.000
G2 X4.289 Y-24.342 Z8.000 I0.383 J-0.924 K0.000 F600.000
G1 X57.289 Y-24.342 Z8.000 F600.000
G1 X61.580 Y-24.388 Z8.000 F600.000
G2 X66.712 Y-24.883 Z8.000 I-0.462 J-31.636 K0.000 F600.000
G2 X76.802 Y-31.413 Z8.000 I-2.618 J-15.106 K0.000 F600.000
G2 X77.284 Y-38.448 Z8.000 I-6.228 J-3.961 K0.000 F600.000
G2 X71.379 Y-42.501 Z8.000 I-6.846 J3.645 K0.000 F600.000
G2 X66.919 Y-41.373 Z8.000 I-0.639 J6.855 K0.000 F600.000
G2 X64.786 Y-38.910 Z8.000 I2.954 J4.713 K0.000 F600.000
G3 X62.827 Y-34.654 Z8.000 I-43.117 J-17.264 K0.000 F600.000
G3 X60.728 Y-30.877 Z8.000 I-25.789 J-11.862 K0.000 F600.000
G3 X59.299 Y-29.700 Z8.000 I-2.712 J-1.835 K0.000 F600.000
G1 X57.204 Y-29.342 Z8.000 F600.000
G1 X10.289 Y-29.342 Z8.000 F600.000
G2 X9.842 Y-29.236 Z8.000 I-0.000 J1.000 K0.000 F600.000
G1 X3.842 Y-26.236 Z8.000 F600.000
G2 X3.906 Y-24.418 Z8.000 I0.447 J0.894 K0.000 F600.000
G0 Z15.000
G0 X-7.297 Y-29.263 Z15.000
G0 X-7.297 Y-29.263 Z13.000
G1 X-7.297 Y-29.263 Z8.000 F600.000
G3 X-5.827 Y-32.346 Z8.000 I42.629 J18.437 K0.000 F600.000
G3 X-3.728 Y-36.123 Z8.000 I25.789 J11.862 K0.000 F600.000
G3 X-2.299 Y-37.300 Z8.000 I2.712 J1.835 K0.000 F600.000
G1 X-0.204 Y-37.658 Z8.000 F600.000
G1 X46.711 Y-37.658 Z8.000 F600.000
G2 X47.158 Y-37.764 Z8.000 I0.000 J-1.000 K0.000 F600.000
G1 X53.158 Y-40.764 Z8.000 F600.000
G2 X52.711 Y-42.658 Z8.000 I-0.447 J-0.894 K0.000 F600.000
G1 X-0.289 Y-42.658 Z8.000 F600.000
G1 X-4.580 Y-42.612 Z8.000 F600.000
G2 X-9.712 Y-42.117 Z8.000 I0.462 J31.636 K0.000 F600.000
G2 X-19.802 Y-35.587 Z8.000 I2.618 J15.106 K0.000 F600.000
G2 X-20.284 Y-28.552 Z8.000 I6.228 J3.961 K0.000 F600.000
G2 X-16.731 Y-25.176 Z8.000 I6.807 J-3.607 K0.000 F600.000
G2 X-9.919 Y-25.636 Z8.000 I3.011 J-6.087 K0.000 F600.000
G2 X-7.786 Y-28.090 Z8.000 I-2.891 J-4.666 K0.000 F600.000
G3 X-7.297 Y-29.263 Z8.000 I43.117 J17.264 K0.000 F600.000
G0 Z15.000
G0 X37.878 Y-13.639 Z15.000
G0 X37.878 Y-13.639 Z13.000
G1 X37.878 Y-13.639 Z8.000 F600.000
G2 X36.013 Y-6.684 Z8.000 I557.315 J153.165 K0.000 F600.000
G2 X34.881 Y-2.023 Z8.000 I47.676 J14.045 K0.000 F600.000
G2 X34.909 Y3.023 Z8.000 I11.033 J2.462 K0.000 F600.000
G2 X36.563 Y7.814 Z8.000 I59.406 J-17.834 K0.000 F600.000
G3 X45.944 Y32.041 Z8.000 I-8584.907 J3337.864 K0.000 F600.000
G2 X47.343 Y33.000 Z8.000 I1.412 J-0.560 K0.000 F600.000
G1 X48.766 Y33.000 Z8.000 F600.000
G2 X50.080 Y32.234 Z8.000 I-0.015 J-1.537 K0.000 F600.000
G1 X54.969 Y34.629 Z8.000 F600.000
G2 X60.590 Y35.997 Z8.000 I6.267 J-13.517 K0.000 F600.000
G1 X68.576 Y36.000 Z8.000 F600.000
G2 X69.954 Y35.081 Z8.000 I-0.015 J-1.514 K0.000 F600.000
G2 X70.176 Y34.100 Z8.000 I-3.302 J-1.264 K0.000 F600.000
G2 X69.874 Y25.739 Z8.000 I-16.455 J-3.591 K0.000 F600.000
G1 X67.064 Y18.000 Z8.000 F600.000
G1 X69.691 Y18.000 Z8.000 F600.000
G2 X71.033 Y17.171 Z8.000 I-0.012 J-1.519 K0.000 F600.000
G1 X72.772 Y13.693 Z8.000 F600.000
G2 X72.774 Y12.362 Z8.000 I-1.356 J-0.668 K0.000 F600.000
G1 X70.215 Y8.082 Z8.000 F600.000
G1 X72.787 Y4.867 Z8.000 F600.000
G2 X73.851 Y1.671 Z8.000 I-3.768 J-3.029 K0.000 F600.000
G1 X73.062 Y-5.497 Z8.000 F600.000
G2 X73.829 Y-6.010 Z8.000 I-9.113 J-14.463 K0.000 F600.000
G2 X76.080 Y-8.592 Z8.000 I-4.408 J-6.116 K0.000 F600.000
G2 X77.517 Y-12.391 Z8.000 I-19.566 J-9.575 K0.000 F600.000
G2 X75.747 Y-14.991 Z8.000 I-1.908 J-0.603 K0.000 F600.000
G1 X39.768 Y-15.000 Z8.000 F600.000
G2 X37.878 Y-13.639 Z8.000 I0.010 J2.008 K0.000 F600.000
G1 X37.878 Y-13.639 Z6.000 F600.000
G2 X36.013 Y-6.684 Z6.000 I557.315 J153.165 K0.000 F600.000
G2 X34.881 Y-2.023 Z6.000 I47.676 J14.045 K0.000 F600.000
G2 X34.909 Y3.023 Z6.000 I11.033 J2.462 K0.000 F600.000
G2 X36.563 Y7.814 Z6.000 I59.406 J-17.834 K0.000 F600.000
G3 X45.944 Y32.041 Z6.000 I-8584.907 J3337.864 K0.000 F600.000
G2 X47.343 Y33.000 Z6.000 I1.412 J-0.560 K0.000 F600.000
G1 X48.766 Y33.000 Z6.000 F600.000
G2 X50.080 Y32.234 Z6.000 I-0.015 J-1.537 K0.000 F600.000
G1 X54.969 Y34.629 Z6.000 F600.000
G2 X60.590 Y35.997 Z6.000 I6.267 J-13.517 K0.000 F600.000
G1 X68.576 Y36.000 Z6.000 F600.000
G2 X69.954 Y35.081 Z6.000 I-0.015 J-1.514 K0.000 F600.000
G2 X70.176 Y34.100 Z6.000 I-3.302 J-1.264 K0.000 F600.000
G2 X69.874 Y25.739 Z6.000 I-16.455 J-3.591 K0.000 F600.000
G1 X67.064 Y18.000 Z6.000 F600.000
G1 X69.691 Y18.000 Z6.000 F600.000
G2 X71.033 Y17.171 Z6.000 I-0.012 J-1.519 K0.000 F600.000
G1 X72.772 Y13.693 Z6.000 F600.000
G2 X72.774 Y12.362 Z6.000 I-1.356 J-0.668 K0.000 F600.000
G1 X70.215 Y8.082 Z6.000 F600.000
G1 X72.787 Y4.867 Z6.000 F600.000
G2 X73.851 Y1.671 Z6.000 I-3.768 J-3.029 K0.000 F600.000
G1 X73.062 Y-5.497 Z6.000 F600.000
G2 X73.829 Y-6.010 Z6.000 I-9.113 J-14.463 K0.000 F600.000
G2 X76.080 Y-8.592 Z6.000 I-4.408 J-6.116 K0.000 F600.000
G2 X77.517 Y-12.391 Z6.000 I-19.566 J-9.575 K0.000 F600.000
G2 X75.747 Y-14.991 Z6.000 I-1.908 J-0.603 K0.000 F600.000
G1 X39.768 Y-15.000 Z6.000 F600.000
G2 X37.878 Y-13.639 Z6.000 I0.010 J2.008 K0.000 F600.000
G0 Z15.000
G0 Y-24.342 Z15.000
G0 Y-24.342 Z13.000
G1 X37.878 Y-24.342 Z6.000 F600.000
G1 X57.289 Y-24.342 Z6.000 F600.000
G1 X61.580 Y-24.388 Z6.000 F600.000
G2 X66.712 Y-24.883 Z6.000 I-0.462 J-31.636 K0.000 F600.000
G2 X76.802 Y-31.413 Z6.000 I-2.618 J-15.106 K0.000 F600.000
G2 X77.284 Y-38.448 Z6.000 I-6.228 J-3.961 K0.000 F600.000
G2 X71.379 Y-42.501 Z6.000 I-6.846 J3.645 K0.000 F600.000
G2 X66.919 Y-41.373 Z6.000 I-0.639 J6.855 K0.000 F600.000
G2 X64.786 Y-38.910 Z6.000 I2.954 J4.713 K0.000 F600.000
G3 X62.827 Y-34.654 Z6.000 I-43.117 J-17.264 K0.000 F600.000
G3 X60.728 Y-30.877 Z6.000 I-25.789 J-11.862 K0.000 F600.000
G3 X59.299 Y-29.700 Z6.000 I-2.712 J-1.835 K0.000 F600.000
G1 X57.204 Y-29.342 Z6.000 F600.000
G1 X10.289 Y-29.342 Z6.000 F600.000
G2 X9.842 Y-29.236 Z6.000 I-0.000 J1.000 K0.000 F600.000
G1 X3.842 Y-26.236 Z6.000 F600.000
G2 X4.289 Y-24.342 Z6.000 I0.447 J0.894 K0.000 F600.000
G1 X37.878 Y-24.342 Z6.000 F600.000
G0 Z15.000
G0 Y-37.658 Z15.000
G0 Y-37.658 Z13.000
G1 X37.878 Y-37.658 Z6.000 F600.000
G1 X46.711 Y-37.658 Z6.000 F600.000
G2 X47.158 Y-37.764 Z6.000 I0.000 J-1.000 K0.000 F600.000
G1 X53.158 Y-40.764 Z6.000 F600.000
G2 X52.711 Y-42.658 Z6.000 I-0.447 J-0.894 K0.000 F600.000
G1 X-0.289 Y-42.658 Z6.000 F600.000
G1 X-4.580 Y-42.612 Z6.000 F600.000
G2 X-9.712 Y-42.117 Z6.000 I0.462 J31.636 K0.000 F600.000
G2 X-19.802 Y-35.587 Z6.000 I2.618 J15.106 K0.000 F600.000
G2 X-20.284 Y-28.552 Z6.000 I6.228 J3.961 K0.000 F600.000
G2 X-16.731 Y-25.176 Z6.000 I6.807 J-3.607 K0.000 F600.000
G2 X-9.919 Y-25.636 Z6.000 I3.011 J-6.087 K0.000 F600.000
G2 X-7.786 Y-28.090 Z6.000 I-2.891 J-4.666 K0.000 F600.000
G3 X-5.827 Y-32.346 Z6.000 I43.117 J17.264 K0.000 F600.000
G3 X-3.728 Y-36.123 Z6.000 I25.789 J11.862 K0.000 F600.000
G3 X-2.299 Y-37.300 Z6.000 I2.712 J1.835 K0.000 F600.000
G1 X-0.204 Y-37.658 Z6.000 F600.000
G1 X37.878 Y-37.658 Z6.000 F600.000
G0 Z15.000
G0 X21.757 Y-14.634 Z15.000
G0 X21.757 Y-14.634 Z13.000
G1 X21.757 Y-14.634 Z6.000 F600.000
G2 X20.747 Y-14.991 Z6.000 I-1.148 J1.639 K0.000 F600.000
G1 X-15.232 Y-15.000 Z6.000 F600.000
G2 X-17.122 Y-13.639 Z6.000 I0.010 J2.008 K0.000 F600.000
G2 X-18.987 Y-6.684 Z6.000 I557.319 J153.167 K0.000 F600.000
G2 X-20.119 Y-2.023 Z6.000 I47.676 J14.045 K0.000 F600.000
G2 X-20.091 Y3.023 Z6.000 I11.033 J2.462 K0.000 F600.000
G2 X-18.437 Y7.814 Z6.000 I59.406 J-17.835 K0.000 F600.000
G3 X-9.056 Y32.041 Z6.000 I-8584.953 J3337.882 K0.000 F600.000
G2 X-7.657 Y33.000 Z6.000 I1.412 J-0.560 K0.000 F600.000
G1 X-6.234 Y33.000 Z6.000 F600.000
G2 X-4.920 Y32.234 Z6.000 I-0.015 J-1.537 K0.000 F600.000
G1 X-0.031 Y34.629 Z6.000 F600.000
G2 X5.590 Y35.997 Z6.000 I6.267 J-13.517 K0.000 F600.000
G1 X13.576 Y36.000 Z6.000 F600.000
G2 X14.954 Y35.081 Z6.000 I-0.015 J-1.514 K0.000 F600.000
G2 X15.176 Y34.100 Z6.000 I-3.302 J-1.264 K0.000 F600.000
G2 X14.874 Y25.739 Z6.000 I-16.455 J-3.591 K0.000 F600.000
G1 X12.064 Y18.000 Z6.000 F600.000
G1 X14.691 Y18.000 Z6.000 F600.000
G2 X16.033 Y17.171 Z6.000 I-0.012 J-1.519 K0.000 F600.000
G1 X17.772 Y13.693 Z6.000 F600.000
G2 X17.774 Y12.362 Z6.000 I-1.356 J-0.668 K0.000 F600.000
G1 X15.215 Y8.082 Z6.000 F600.000
G1 X17.787 Y4.867 Z6.000 F600.000
G2 X18.851 Y1.671 Z6.000 I-3.768 J-3.029 K0.000 F600.000
G1 X18.062 Y-5.497 Z6.000 F600.000
G2 X18.829 Y-6.010 Z6.000 I-9.113 J-14.463 K0.000 F600.000
G2 X21.080 Y-8.592 Z6.000 I-4.408 J-6.116 K0.000 F600.000
G2 X22.517 Y-12.391 Z6.000 I-19.566 J-9.575 K0.000 F600.000
G2 X21.757 Y-14.634 Z6.000 I-1.908 J-0.603 K0.000 F600.000
G1 X21.757 Y-14.634 Z4.000 F600.000
G2 X20.747 Y-14.991 Z4.000 I-1.148 J1.639 K0.000 F600.000
G1 X-15.232 Y-15.000 Z4.000 F600.000
G2 X-17.122 Y-13.639 Z4.000 I0.010 J2.008 K0.000 F600.000
G2 X-18.987 Y-6.684 Z4.000 I557.319 J153.167 K0.000 F600.000
G2 X-20.119 Y-2.023 Z4.000 I47.676 J14.045 K0.000 F600.000
G2 X-20.091 Y3.023 Z4.000 I11.033 J2.462 K0.000 F600.000
G2 X-18.437 Y7.814 Z4.000 I59.406 J-17.835 K0.000 F600.000
G3 X-9.056 Y32.041 Z4.000 I-8584.953 J3337.882 K0.000 F600.000
G2 X-7.657 Y33.000 Z4.000 I1.412 J-0.560 K0.000 F600.000
G1 X-6.234 Y33.000 Z4.000 F600.000
G2 X-4.920 Y32.234 Z4.000 I-0.015 J-1.537 K0.000 F600.000
G1 X-0.031 Y34.629 Z4.000 F600.000
G2 X5.590 Y35.997 Z4.000 I6.267 J-13.517 K0.000 F600.000
G1 X13.576 Y36.000 Z4.000 F600.000
G2 X14.954 Y35.081 Z4.000 I-0.015 J-1.514 K0.000 F600.000
G2 X15.176 Y34.100 Z4.000 I-3.302 J-1.264 K0.000 F600.000
G2 X14.874 Y25.739 Z4.000 I-16.455 J-3.591 K0.000 F600.000
G1 X12.064 Y18.000 Z4.000 F600.000
G1 X14.691 Y18.000 Z4.000 F600.000
G2 X16.033 Y17.171 Z4.000 I-0.012 J-1.519 K0.000 F600.000
G1 X17.772 Y13.693 Z4.000 F600.000
G2 X17.774 Y12.362 Z4.000 I-1.356 J-0.668 K0.000 F600.000
G1 X15.215 Y8.082 Z4.000 F600.000
G1 X17.787 Y4.867 Z4.000 F600.000
G2 X18.851 Y1.671 Z4.000 I-3.768 J-3.029 K0.000 F600.000
G1 X18.062 Y-5.497 Z4.000 F600.000
G2 X18.829 Y-6.010 Z4.000 I-9.113 J-14.463 K0.000 F600.000
G2 X21.080 Y-8.592 Z4.000 I-4.408 J-6.116 K0.000 F600.000
G2 X22.517 Y-12.391 Z4.000 I-19.566 J-9.575 K0.000 F600.000
G2 X21.757 Y-14.634 Z4.000 I-1.908 J-0.603 K0.000 F600.000
G0 Z15.000
G0 Y-24.342 Z15.000
G0 Y-24.342 Z13.000
G1 X21.757 Y-24.342 Z4.000 F600.000
G1 X57.289 Y-24.342 Z4.000 F600.000
G1 X61.580 Y-24.388 Z4.000 F600.000
G2 X66.712 Y-24.883 Z4.000 I-0.462 J-31.636 K0.000 F600.000
G2 X76.802 Y-31.413 Z4.000 I-2.618 J-15.106 K0.000 F600.000
G2 X77.284 Y-38.448 Z4.000 I-6.228 J-3.961 K0.000 F600.000
G2 X71.379 Y-42.501 Z4.000 I-6.846 J3.645 K0.000 F600.000
G2 X66.919 Y-41.373 Z4.000 I-0.639 J6.855 K0.000 F600.000
G2 X64.786 Y-38.910 Z4.000 I2.954 J4.713 K0.000 F600.000
G3 X62.827 Y-34.654 Z4.000 I-43.117 J-17.264 K0.000 F600.000
G3 X60.728 Y-30.877 Z4.000 I-25.789 J-11.862 K0.000 F600.000
G3 X59.299 Y-29.700 Z4.000 I-2.712 J-1.835 K0.000 F600.000
G1 X57.204 Y-29.342 Z4.000 F600.000
G1 X10.289 Y-29.342 Z4.000 F600.000
G2 X9.842 Y-29.236 Z4.000 I-0.000 J1.000 K0.000 F600.000
G1 X3.842 Y-26.236 Z4.000 F600.000
G2 X4.289 Y-24.342 Z4.000 I0.447 J0.894 K0.000 F600.000
G1 X21.757 Y-24.342 Z4.000 F600.000
G0 Z15.000
G0 Y-37.658 Z15.000
G0 Y-37.658 Z13.000
G1 X21.757 Y-37.658 Z4.000 F600.000
G1 X46.711 Y-37.658 Z4.000 F600.000
G2 X47.158 Y-37.764 Z4.000 I0.000 J-1.000 K0.000 F600.000
G1 X53.158 Y-40.764 Z4.000 F600.000
G2 X52.711 Y-42.658 Z4.000 I-0.447 J-0.894 K0.000 F600.000
G1 X-0.289 Y-42.658 Z4.000 F600.000
G1 X-4.580 Y-42.612 Z4.000 F600.000
G2 X-9.712 Y-42.117 Z4.000 I0.462 J31.636 K0.000 F600.000
G2 X-19.802 Y-35.587 Z4.000 I2.618 J15.106 K0.000 F600.000
G2 X-20.284 Y-28.552 Z4.000 I6.228 J3.961 K0.000 F600.000
G2 X-16.731 Y-25.176 Z4.000 I6.807 J-3.607 K0.000 F600.000
G2 X-9.919 Y-25.636 Z4.000 I3.011 J-6.087 K0.000 F600.000
G2 X-7.786 Y-28.090 Z4.000 I-2.891 J-4.666 K0.000 F600.000
G3 X-5.827 Y-32.346 Z4.000 I43.117 J17.264 K0.000 F600.000
G3 X-3.728 Y-36.123 Z4.000 I25.789 J11.862 K0.000 F600.000
G3 X-2.299 Y-37.300 Z4.000 I2.712 J1.835 K0.000 F600.000
G1 X-0.204 Y-37.658 Z4.000 F600.000
G1 X21.757 Y-37.658 Z4.000 F600.000
G0 Z15.000
G0 X38.594 Y-14.613 Z15.000
G0 X38.594 Y-14.613 Z13.000
G1 X38.594 Y-14.613 Z4.000 F600.000
G2 X37.878 Y-13.639 Z4.000 I1.184 J1.621 K0.000 F600.000
G2 X36.013 Y-6.684 Z4.000 I557.315 J153.165 K0.000 F600.000
G2 X34.881 Y-2.023 Z4.000 I47.676 J14.045 K0.000 F600.000
G2 X34.909 Y3.023 Z4.000 I11.033 J2.462 K0.000 F600.000
G2 X36.563 Y7.814 Z4.000 I59.406 J-17.834 K0.000 F600.000
G3 X45.944 Y32.041 Z4.000 I-8584.907 J3337.864 K0.000 F600.000
G2 X47.343 Y33.000 Z4.000 I1.412 J-0.560 K0.000 F600.000
G1 X48.766 Y33.000 Z4.000 F600.000
G2 X50.080 Y32.234 Z4.000 I-0.015 J-1.537 K0.000 F600.000
G1 X54.969 Y34.629 Z4.000 F600.000
G2 X60.590 Y35.997 Z4.000 I6.267 J-13.517 K0.000 F600.000
G1 X68.576 Y36.000 Z4.000 F600.000
G2 X69.954 Y35.081 Z4.000 I-0.015 J-1.514 K0.000 F600.000
G2 X70.176 Y34.100 Z4.000 I-3.302 J-1.264 K0.000 F600.000
G2 X69.874 Y25.739 Z4.000 I-16.455 J-3.591 K0.000 F600.000
G1 X67.064 Y18.000 Z4.000 F600.000
G1 X69.691 Y18.000 Z4.000 F600.000
G2 X71.033 Y17.171 Z4.000 I-0.012 J-1.519 K0.000 F600.000
G1 X72.772 Y13.693 Z4.000 F600.000
G2 X72.774 Y12.362 Z4.000 I-1.356 J-0.668 K0.000 F600.000
G1 X70.215 Y8.082 Z4.000 F600.000
G1 X72.787 Y4.867 Z4.000 F600.000
G2 X73.851 Y1.671 Z4.000 I-3.768 J-3.029 K0.000 F600.000
G1 X73.062 Y-5.497 Z4.000 F600.000
G2 X73.829 Y-6.010 Z4.000 I-9.113 J-14.463 K0.000 F600.000
G2 X76.080 Y-8.592 Z4.000 I-4.408 J-6.116 K0.000 F600.000
G2 X77.517 Y-12.391 Z4.000 I-19.566 J-9.575 K0.000 F600.000
G2 X75.747 Y-14.991 Z4.000 I-1.908 J-0.603 K0.000 F600.000
G1 X39.768 Y-15.000 Z4.000 F600.000
G2 X38.594 Y-14.613 Z4.000 I0.010 J2.008 K0.000 F600.000
G1 X38.594 Y-14.613 Z2.000 F600.000
G2 X37.878 Y-13.639 Z2.000 I1.184 J1.621 K0.000 F600.000
G2 X36.013 Y-6.684 Z2.000 I557.315 J153.165 K0.000 F600.000
G2 X34.881 Y-2.023 Z2.000 I47.676 J14.045 K0.000 F600.000
G2 X34.909 Y3.023 Z2.000 I11.033 J2.462 K0.000 F600.000
G2 X36.563 Y7.814 Z2.000 I59.406 J-17.834 K0.000 F600.000
G3 X45.944 Y32.041 Z2.000 I-8584.907 J3337.864 K0.000 F600.000
G2 X47.343 Y33.000 Z2.000 I1.412 J-0.560 K0.000 F600.000
G1 X48.766 Y33.000 Z2.000 F600.000
G2 X50.080 Y32.234 Z2.000 I-0.015 J-1.537 K0.000 F600.000
G1 X54.969 Y34.629 Z2.000 F600.000
G2 X60.590 Y35.997 Z2.000 I6.267 J-13.517 K0.000 F600.000
G1 X68.576 Y36.000 Z2.000 F600.000
G2 X69.954 Y35.081 Z2.000 I-0.015 J-1.514 K0.000 F600.000
G2 X70.176 Y34.100 Z2.000 I-3.302 J-1.264 K0.000 F600.000
G2 X69.874 Y25.739 Z2.000 I-16.455 J-3.591 K0.000 F600.000
G1 X67.064 Y18.000 Z2.000 F600.000
G1 X69.691 Y18.000 Z2.000 F600.000
G2 X71.033 Y17.171 Z2.000 I-0.012 J-1.519 K0.000 F600.000
G1 X72.772 Y13.693 Z2.000 F600.000
G2 X72.774 Y12.362 Z2.000 I-1.356 J-0.668 K0.000 F600.000
G1 X70.215 Y8.082 Z2.000 F600.000
G1 X72.787 Y4.867 Z2.000 F600.000
G2 X73.851 Y1.671 Z2.000 I-3.768 J-3.029 K0.000 F600.000
G1 X73.062 Y-5.497 Z2.000 F600.000
G2 X73.829 Y-6.010 Z2.000 I-9.113 J-14.463 K0.000 F600.000
G2 X76.080 Y-8.592 Z2.000 I-4.408 J-6.116 K0.000 F600.000
G2 X77.517 Y-12.391 Z2.000 I-19.566 J-9.575 K0.000 F600.000
G2 X75.747 Y-14.991 Z2.000 I-1.908 J-0.603 K0.000 F600.000
G1 X39.768 Y-15.000 Z2.000 F600.000
G2 X38.594 Y-14.613 Z2.000 I0.010 J2.008 K0.000 F600.000
G0 Z15.000
G0 Y-24.342 Z15.000
G0 Y-24.342 Z13.000
G1 X38.594 Y-24.342 Z2.000 F600.000
G1 X57.289 Y-24.342 Z2.000 F600.000
G1 X61.580 Y-24.388 Z2.000 F600.000
G2 X66.712 Y-24.883 Z2.000 I-0.462 J-31.636 K0.000 F600.000
G2 X76.802 Y-31.413 Z2.000 I-2.618 J-15.106 K0.000 F600.000
G2 X77.284 Y-38.448 Z2.000 I-6.228 J-3.961 K0.000 F600.000
G2 X71.379 Y-42.501 Z2.000 I-6.846 J3.645 K0.000 F600.000
G2 X66.919 Y-41.373 Z2.000 I-0.639 J6.855 K0.000 F600.000
G2 X64.786 Y-38.910 Z2.000 I2.954 J4.713 K0.000 F600.000
G3 X62.827 Y-34.654 Z2.000 I-43.117 J-17.264 K0.000 F600.000
G3 X60.728 Y-30.877 Z2.000 I-25.789 J-11.862 K0.000 F600.000
G3 X59.299 Y-29.700 Z2.000 I-2.712 J-1.835 K0.000 F600.000
G1 X57.204 Y-29.342 Z2.000 F600.000
G1 X10.289 Y-29.342 Z2.000 F600.000
G2 X9.842 Y-29.236 Z2.000 I-0.000 J1.000 K0.000 F600.000
G1 X3.842 Y-26.236 Z2.000 F600.000
G2 X4.289 Y-24.342 Z2.000 I0.447 J0.894 K0.000 F600.000
G1 X38.594 Y-24.342 Z2.000 F600.000
G0 Z15.000
G0 Y-37.658 Z15.000
G0 Y-37.658 Z13.000
G1 X38.594 Y-37.658 Z2.000 F600.000
G1 X46.711 Y-37.658 Z2.000 F600.000
G2 X47.158 Y-37.764 Z2.000 I0.000 J-1.000 K0.000 F600.000
G1 X53.158 Y-40.764 Z2.000 F600.000
G2 X52.711 Y-42.658 Z2.000 I-0.447 J-0.894 K0.000 F600.000
G1 X-0.289 Y-42.658 Z2.000 F600.000
G1 X-4.580 Y-42.612 Z2.000 F600.000
G2 X-9.712 Y-42.117 Z2.000 I0.462 J31.636 K0.000 F600.000
G2 X-19.802 Y-35.587 Z2.000 I2.618 J15.106 K0.000 F600.000
G2 X-20.284 Y-28.552 Z2.000 I6.228 J3.961 K0.000 F600.000
G2 X-16.731 Y-25.176 Z2.000 I6.807 J-3.607 K0.000 F600.000
G2 X-9.919 Y-25.636 Z2.000 I3.011 J-6.087 K0.000 F600.000
G2 X-7.786 Y-28.090 Z2.000 I-2.891 J-4.666 K0.000 F600.000
G3 X-5.827 Y-32.346 Z2.000 I43.117 J17.264 K0.000 F600.000
G3 X-3.728 Y-36.123 Z2.000 I25.789 J11.862 K0.000 F600.000
G3 X-2.299 Y-37.300 Z2.000 I2.712 J1.835 K0.000 F600.000
G1 X-0.204 Y-37.658 Z2.000 F600.000
G1 X38.594 Y-37.658 Z2.000 F600.000
G0 Z15.000
G0 X21.788 Y-14.611 Z15.000
G0 X21.788 Y-14.611 Z13.000
G1 X21.788 Y-14.611 Z2.000 F600.000
G2 X20.747 Y-14.991 Z2.000 I-1.179 J1.617 K0.000 F600.000
G1 X-15.232 Y-15.000 Z2.000 F600.000
G2 X-17.122 Y-13.639 Z2.000 I0.010 J2.008 K0.000 F600.000
G2 X-18.987 Y-6.684 Z2.000 I557.319 J153.167 K0.000 F600.000
G2 X-20.119 Y-2.023 Z2.000 I47.676 J14.045 K0.000 F600.000
G2 X-20.091 Y3.023 Z2.000 I11.033 J2.462 K0.000 F600.000
G2 X-18.437 Y7.814 Z2.000 I59.406 J-17.835 K0.000 F600.000
G3 X-9.056 Y32.041 Z2.000 I-8584.953 J3337.882 K0.000 F600.000
G2 X-7.657 Y33.000 Z2.000 I1.412 J-0.560 K0.000 F600.000
G1 X-6.234 Y33.000 Z2.000 F600.000
G2 X-4.920 Y32.234 Z2.000 I-0.015 J-1.537 K0.000 F600.000
G1 X-0.031 Y34.629 Z2.000 F600.000
G2 X5.590 Y35.997 Z2.000 I6.267 J-13.517 K0.000 F600.000
G1 X13.576 Y36.000 Z2.000 F600.000
G2 X14.954 Y35.081 Z2.000 I-0.015 J-1.514 K0.000 F600.000
G2 X15.176 Y34.100 Z2.000 I-3.302 J-1.264 K0.000 F600.000
G2 X14.874 Y25.739 Z2.000 I-16.455 J-3.591 K0.000 F600.000
G1 X12.064 Y18.000 Z2.000 F600.000
G1 X14.691 Y18.000 Z2.000 F600.000
G2 X16.033 Y17.171 Z2.000 I-0.012 J-1.519 K0.000 F600.000
G1 X17.772 Y13.693 Z2.000 F600.000
G2 X17.774 Y12.362 Z2.000 I-1.356 J-0.668 K0.000 F600.000
G1 X15.215 Y8.082 Z2.000 F600.000
G1 X17.787 Y4.867 Z2.000 F600.000
G2 X18.851 Y1.671 Z2.000 I-3.768 J-3.029 K0.000 F600.000
G1 X18.062 Y-5.497 Z2.000 F600.000
G2 X18.829 Y-6.010 Z2.000 I-9.113 J-14.463 K0.000 F600.000
G2 X21.080 Y-8.592 Z2.000 I-4.408 J-6.116 K0.000 F600.000
G2 X22.517 Y-12.391 Z2.000 I-19.566 J-9.575 K0.000 F600.000
G2 X21.788 Y-14.611 Z2.000 I-1.908 J-0.603 K0.000 F600.000
G1 X21.788 Y-14.611 Z0.000 F600.000
G2 X20.747 Y-14.991 Z0.000 I-1.179 J1.617 K0.000 F600.000
G1 X-15.232 Y-15.000 Z0.000 F600.000
G2 X-17.122 Y-13.639 Z0.000 I0.010 J2.008 K0.000 F600.000
G2 X-18.987 Y-6.684 Z0.000 I557.319 J153.167 K0.000 F600.000
G2 X-20.119 Y-2.023 Z0.000 I47.676 J14.045 K0.000 F600.000
G2 X-20.091 Y3.023 Z0.000 I11.033 J2.462 K0.000 F600.000
G2 X-18.437 Y7.814 Z0.000 I59.406 J-17.835 K0.000 F600.000
G3 X-9.056 Y32.041 Z0.000 I-8584.953 J3337.882 K0.000 F600.000
G2 X-7.657 Y33.000 Z0.000 I1.412 J-0.560 K0.000 F600.000
G1 X-6.234 Y33.000 Z0.000 F600.000
G2 X-4.920 Y32.234 Z0.000 I-0.015 J-1.537 K0.000 F600.000
G1 X-0.031 Y34.629 Z0.000 F600.000
G2 X5.590 Y35.997 Z0.000 I6.267 J-13.517 K0.000 F600.000
G1 X13.576 Y36.000 Z0.000 F600.000
G2 X14.954 Y35.081 Z0.000 I-0.015 J-1.514 K0.000 F600.000
G2 X15.176 Y34.100 Z0.000 I-3.302 J-1.264 K0.000 F600.000
G2 X14.874 Y25.739 Z0.000 I-16.455 J-3.591 K0.000 F600.000
G1 X12.064 Y18.000 Z0.000 F600.000
G1 X14.691 Y18.000 Z0.000 F600.000
G2 X16.033 Y17.171 Z0.000 I-0.012 J-1.519 K0.000 F600.000
G1 X17.772 Y13.693 Z0.000 F600.000
G2 X17.774 Y12.362 Z0.000 I-1.356 J-0.668 K0.000 F600.000
G1 X15.215 Y8.082 Z0.000 F600.000
G1 X17.787 Y4.867 Z0.000 F600.000
G2 X18.851 Y1.671 Z0.000 I-3.768 J-3.029 K0.000 F600.000
G1 X18.062 Y-5.497 Z0.000 F600.000
G2 X18.829 Y-6.010 Z0.000 I-9.113 J-14.463 K0.000 F600.000
G2 X21.080 Y-8.592 Z0.000 I-4.408 J-6.116 K0.000 F600.000
G2 X22.517 Y-12.391 Z0.000 I-19.566 J-9.575 K0.000 F600.000
G2 X21.788 Y-14.611 Z0.000 I-1.908 J-0.603 K0.000 F600.000
G0 Z15.000
G0 Y-24.342 Z15.000
G0 Y-24.342 Z13.000
G1 X21.788 Y-24.342 Z0.000 F600.000
G1 X57.289 Y-24.342 Z0.000 F600.000
G1 X61.580 Y-24.388 Z0.000 F600.000
G2 X66.712 Y-24.883 Z0.000 I-0.462 J-31.636 K0.000 F600.000
G2 X76.802 Y-31.413 Z0.000 I-2.618 J-15.106 K0.000 F600.000
G2 X77.284 Y-38.448 Z0.000 I-6.228 J-3.961 K0.000 F600.000
G2 X71.379 Y-42.501 Z0.000 I-6.846 J3.645 K0.000 F600.000
G2 X66.919 Y-41.373 Z0.000 I-0.639 J6.855 K0.000 F600.000
G2 X64.786 Y-38.910 Z0.000 I2.954 J4.713 K0.000 F600.000
G3 X62.827 Y-34.654 Z0.000 I-43.117 J-17.264 K0.000 F600.000
G3 X60.728 Y-30.877 Z0.000 I-25.789 J-11.862 K0.000 F600.000
G3 X59.299 Y-29.700 Z0.000 I-2.712 J-1.835 K0.000 F600.000
G1 X57.204 Y-29.342 Z0.000 F600.000
G1 X10.289 Y-29.342 Z0.000 F600.000
G2 X9.842 Y-29.236 Z0.000 I-0.000 J1.000 K0.000 F600.000
G1 X3.842 Y-26.236 Z0.000 F600.000
G2 X4.289 Y-24.342 Z0.000 I0.447 J0.894 K0.000 F600.000
G1 X21.788 Y-24.342 Z0.000 F600.000
G0 Z15.000
G0 Y-37.658 Z15.000
G0 Y-37.658 Z13.000
G1 X21.788 Y-37.658 Z0.000 F600.000
G1 X46.711 Y-37.658 Z0.000 F600.000
G2 X47.158 Y-37.764 Z0.000 I0.000 J-1.000 K0.000 F600.000
G1 X53.158 Y-40.764 Z0.000 F600.000
G2 X52.711 Y-42.658 Z0.000 I-0.447 J-0.894 K0.000 F600.000
G1 X-0.289 Y-42.658 Z0.000 F600.000
G1 X-4.580 Y-42.612 Z0.000 F600.000
G2 X-9.712 Y-42.117 Z0.000 I0.462 J31.636 K0.000 F600.000
G2 X-19.802 Y-35.587 Z0.000 I2.618 J15.106 K0.000 F600.000
G2 X-20.284 Y-28.552 Z0.000 I6.228 J3.961 K0.000 F600.000
G2 X-16.731 Y-25.176 Z0.000 I6.807 J-3.607 K0.000 F600.000
G2 X-9.919 Y-25.636 Z0.000 I3.011 J-6.087 K0.000 F600.000
G2 X-7.786 Y-28.090 Z0.000 I-2.891 J-4.666 K0.000 F600.000
G3 X-5.827 Y-32.346 Z0.000 I43.117 J17.264 K0.000 F600.000
G3 X-3.728 Y-36.123 Z0.000 I25.789 J11.862 K0.000 F600.000
G3 X-2.299 Y-37.300 Z0.000 I2.712 J1.835 K0.000 F600.000
G1 X-0.204 Y-37.658 Z0.000 F600.000
G1 X21.788 Y-37.658 Z0.000 F600.000
G0 Z15.000
G0 X38.595 Y-14.614 Z15.000
G0 X38.595 Y-14.614 Z13.000
G1 X38.595 Y-14.614 Z0.000 F600.000
G2 X37.878 Y-13.639 Z0.000 I1.183 J1.622 K0.000 F600.000
G2 X36.013 Y-6.684 Z0.000 I557.315 J153.165 K0.000 F600.000
G2 X34.881 Y-2.023 Z0.000 I47.676 J14.045 K0.000 F600.000
G2 X34.909 Y3.023 Z0.000 I11.033 J2.462 K0.000 F600.000
G2 X36.563 Y7.814 Z0.000 I59.406 J-17.834 K0.000 F600.000
G3 X45.944 Y32.041 Z0.000 I-8584.907 J3337.864 K0.000 F600.000
G2 X47.343 Y33.000 Z0.000 I1.412 J-0.560 K0.000 F600.000
G1 X48.766 Y33.000 Z0.000 F600.000
G2 X50.080 Y32.234 Z0.000 I-0.015 J-1.537 K0.000 F600.000
G1 X54.969 Y34.629 Z0.000 F600.000
G2 X60.590 Y35.997 Z0.000 I6.267 J-13.517 K0.000 F600.000
G1 X68.576 Y36.000 Z0.000 F600.000
G2 X69.954 Y35.081 Z0.000 I-0.015 J-1.514 K0.000 F600.000
G2 X70.176 Y34.100 Z0.000 I-3.302 J-1.264 K0.000 F600.000
G2 X69.874 Y25.739 Z0.000 I-16.455 J-3.591 K0.000 F600.000
G1 X67.064 Y18.000 Z0.000 F600.000
G1 X69.691 Y18.000 Z0.000 F600.000
G2 X71.033 Y17.171 Z0.000 I-0.012 J-1.519 K0.000 F600.000
G1 X72.772 Y13.693 Z0.000 F600.000
G2 X72.774 Y12.362 Z0.000 I-1.356 J-0.668 K0.000 F600.000
G1 X70.215 Y8.082 Z0.000 F600.000
G1 X72.787 Y4.867 Z0.000 F600.000
G2 X73.851 Y1.671 Z0.000 I-3.768 J-3.029 K0.000 F600.000
G1 X73.062 Y-5.497 Z0.000 F600.000
G2 X73.829 Y-6.010 Z0.000 I-9.113 J-14.463 K0.000 F600.000
G2 X76.080 Y-8.592 Z0.000 I-4.408 J-6.116 K0.000 F600.000
G2 X77.517 Y-12.391 Z0.000 I-19.566 J-9.575 K0.000 F600.000
G2 X75.747 Y-14.991 Z0.000 I-1.908 J-0.603 K0.000 F600.000
G1 X39.768 Y-15.000 Z0.000 F600.000
G2 X38.595 Y-14.614 Z0.000 I0.010 J2.008 K0.000 F600.000
G0 Z15.000
G0 Z15.000
(Finish operation: Profile002)
(Begin postamble)
M5
G17 G90
M2
