(Exported by FreeCAD)
(Post Processor: script_module)
(Output Time:2025-07-03 13:52:09.050064)
(Begin preamble)
G17 G90
G21
(Begin operation: Fixture)
(Path: Fixture)
G54
(Finish operation: Fixture)
(Begin operation: 2mm_Endmill001)
(Path: 2mm_Endmill001)
(2mm_Endmill001)
(Begin toolchange)
( M6 T2 )
M3 S10000
(Finish operation: 2mm_Endmill001)
(Begin operation: Pocket_Shape)
(Path: Pocket_Shape)
(Pocket_Shape)
G0 Z5.000
G0 X219.000 Y-1.000
G0 Z3.000
G1 X219.000 Y-1.000 Z-2.000 F600.000
G1 X1.000 Y-1.000 Z-2.000 F600.000
G1 X1.000 Y-29.000 Z-2.000 F600.000
G1 X219.000 Y-29.000 Z-2.000 F600.000
G1 X219.000 Y-1.000 Z-2.000 F600.000
G0 Z5.000
G0 X217.000 Y-3.000 Z5.000
G0 X217.000 Y-3.000 Z3.000
G1 X217.000 Y-3.000 Z-2.000 F600.000
G1 X3.000 Y-3.000 Z-2.000 F600.000
G1 X3.000 Y-27.000 Z-2.000 F600.000
G1 X217.000 Y-27.000 Z-2.000 F600.000
G1 X217.000 Y-3.000 Z-2.000 F600.000
G0 Z5.000
G0 X215.000 Y-5.000 Z5.000
G0 X215.000 Y-5.000 Z3.000
G1 X215.000 Y-5.000 Z-2.000 F600.000
G1 X5.000 Y-5.000 Z-2.000 F600.000
G1 X5.000 Y-25.000 Z-2.000 F600.000
G1 X215.000 Y-25.000 Z-2.000 F600.000
G1 X215.000 Y-5.000 Z-2.000 F600.000
G0 Z5.000
G0 X213.000 Y-7.000 Z5.000
G0 X213.000 Y-7.000 Z3.000
G1 X213.000 Y-7.000 Z-2.000 F600.000
G1 X7.000 Y-7.000 Z-2.000 F600.000
G1 X7.000 Y-23.000 Z-2.000 F600.000
G1 X213.000 Y-23.000 Z-2.000 F600.000
G1 X213.000 Y-7.000 Z-2.000 F600.000
G0 Z5.000
G0 X211.000 Y-9.000 Z5.000
G0 X211.000 Y-9.000 Z3.000
G1 X211.000 Y-9.000 Z-2.000 F600.000
G1 X9.000 Y-9.000 Z-2.000 F600.000
G1 X9.000 Y-21.000 Z-2.000 F600.000
G1 X211.000 Y-21.000 Z-2.000 F600.000
G1 X211.000 Y-9.000 Z-2.000 F600.000
G0 Z5.000
G0 X209.000 Y-11.000 Z5.000
G0 X209.000 Y-11.000 Z3.000
G1 X209.000 Y-11.000 Z-2.000 F600.000
G1 X11.000 Y-11.000 Z-2.000 F600.000
G1 X11.000 Y-19.000 Z-2.000 F600.000
G1 X209.000 Y-19.000 Z-2.000 F600.000
G1 X209.000 Y-11.000 Z-2.000 F600.000
G0 Z5.000
G0 X207.000 Y-13.000 Z5.000
G0 X207.000 Y-13.000 Z3.000
G1 X207.000 Y-13.000 Z-2.000 F600.000
G1 X13.000 Y-13.000 Z-2.000 F600.000
G1 X13.000 Y-17.000 Z-2.000 F600.000
G1 X207.000 Y-17.000 Z-2.000 F600.000
G1 X207.000 Y-13.000 Z-2.000 F600.000
G0 Z5.000
G0 X206.500 Y-13.500 Z5.000
G0 X206.500 Y-13.500 Z3.000
G1 X206.500 Y-13.500 Z-2.000 F600.000
G1 X13.500 Y-13.500 Z-2.000 F600.000
G1 X13.500 Y-16.500 Z-2.000 F600.000
G1 X206.500 Y-16.500 Z-2.000 F600.000
G1 X206.500 Y-13.500 Z-2.000 F600.000
G0 Z5.000
G0 X206.000 Y-14.000 Z5.000
G0 X206.000 Y-14.000 Z3.000
G1 X206.000 Y-14.000 Z-2.000 F600.000
G1 X14.000 Y-14.000 Z-2.000 F600.000
G1 X14.000 Y-16.000 Z-2.000 F600.000
G1 X206.000 Y-16.000 Z-2.000 F600.000
G1 X206.000 Y-14.000 Z-2.000 F600.000
G0 Z5.000
G0 X205.500 Y-14.500 Z5.000
G0 X205.500 Y-14.500 Z3.000
G1 X205.500 Y-14.500 Z-2.000 F600.000
G1 X14.500 Y-14.500 Z-2.000 F600.000
G1 X14.500 Y-15.500 Z-2.000 F600.000
G1 X205.500 Y-15.500 Z-2.000 F600.000
G1 X205.500 Y-14.500 Z-2.000 F600.000
G1 X205.500 Y-14.500 Z-4.000 F600.000
G1 X14.500 Y-14.500 Z-4.000 F600.000
G1 X14.500 Y-15.500 Z-4.000 F600.000
G1 X205.500 Y-15.500 Z-4.000 F600.000
G1 X205.500 Y-14.500 Z-4.000 F600.000
G0 Z5.000
G0 Y-14.000 Z5.000
G0 Y-14.000 Z3.000
G1 X205.500 Y-14.000 Z-4.000 F600.000
G1 X14.000 Y-14.000 Z-4.000 F600.000
G1 X14.000 Y-16.000 Z-4.000 F600.000
G1 X206.000 Y-16.000 Z-4.000 F600.000
G1 X206.000 Y-14.000 Z-4.000 F600.000
G1 X205.500 Y-14.000 Z-4.000 F600.000
G0 Z5.000
G0 Y-13.500 Z5.000
G0 Y-13.500 Z3.000
G1 X205.500 Y-13.500 Z-4.000 F600.000
G1 X13.500 Y-13.500 Z-4.000 F600.000
G1 X13.500 Y-16.500 Z-4.000 F600.000
G1 X206.500 Y-16.500 Z-4.000 F600.000
G1 X206.500 Y-13.500 Z-4.000 F600.000
G1 X205.500 Y-13.500 Z-4.000 F600.000
G0 Z5.000
G0 Y-13.000 Z5.000
G0 Y-13.000 Z3.000
G1 X205.500 Y-13.000 Z-4.000 F600.000
G1 X13.000 Y-13.000 Z-4.000 F600.000
G1 X13.000 Y-17.000 Z-4.000 F600.000
G1 X207.000 Y-17.000 Z-4.000 F600.000
G1 X207.000 Y-13.000 Z-4.000 F600.000
G1 X205.500 Y-13.000 Z-4.000 F600.000
G0 Z5.000
G0 Y-11.000 Z5.000
G0 Y-11.000 Z3.000
G1 X205.500 Y-11.000 Z-4.000 F600.000
G1 X11.000 Y-11.000 Z-4.000 F600.000
G1 X11.000 Y-19.000 Z-4.000 F600.000
G1 X209.000 Y-19.000 Z-4.000 F600.000
G1 X209.000 Y-11.000 Z-4.000 F600.000
G1 X205.500 Y-11.000 Z-4.000 F600.000
G0 Z5.000
G0 Y-9.000 Z5.000
G0 Y-9.000 Z3.000
G1 X205.500 Y-9.000 Z-4.000 F600.000
G1 X9.000 Y-9.000 Z-4.000 F600.000
G1 X9.000 Y-21.000 Z-4.000 F600.000
G1 X211.000 Y-21.000 Z-4.000 F600.000
G1 X211.000 Y-9.000 Z-4.000 F600.000
G1 X205.500 Y-9.000 Z-4.000 F600.000
G0 Z5.000
G0 Y-7.000 Z5.000
G0 Y-7.000 Z3.000
G1 X205.500 Y-7.000 Z-4.000 F600.000
G1 X7.000 Y-7.000 Z-4.000 F600.000
G1 X7.000 Y-23.000 Z-4.000 F600.000
G1 X213.000 Y-23.000 Z-4.000 F600.000
G1 X213.000 Y-7.000 Z-4.000 F600.000
G1 X205.500 Y-7.000 Z-4.000 F600.000
G0 Z5.000
G0 Y-5.000 Z5.000
G0 Y-5.000 Z3.000
G1 X205.500 Y-5.000 Z-4.000 F600.000
G1 X5.000 Y-5.000 Z-4.000 F600.000
G1 X5.000 Y-25.000 Z-4.000 F600.000
G1 X215.000 Y-25.000 Z-4.000 F600.000
G1 X215.000 Y-5.000 Z-4.000 F600.000
G1 X205.500 Y-5.000 Z-4.000 F600.000
G0 Z5.000
G0 Y-3.000 Z5.000
G0 Y-3.000 Z3.000
G1 X205.500 Y-3.000 Z-4.000 F600.000
G1 X3.000 Y-3.000 Z-4.000 F600.000
G1 X3.000 Y-27.000 Z-4.000 F600.000
G1 X217.000 Y-27.000 Z-4.000 F600.000
G1 X217.000 Y-3.000 Z-4.000 F600.000
G1 X205.500 Y-3.000 Z-4.000 F600.000
G0 Z5.000
G0 Y-1.000 Z5.000
G0 Y-1.000 Z3.000
G1 X205.500 Y-1.000 Z-4.000 F600.000
G1 X1.000 Y-1.000 Z-4.000 F600.000
G1 X1.000 Y-29.000 Z-4.000 F600.000
G1 X219.000 Y-29.000 Z-4.000 F600.000
G1 X219.000 Y-1.000 Z-4.000 F600.000
G1 X205.500 Y-1.000 Z-4.000 F600.000
G1 X205.500 Y-1.000 Z-6.000 F600.000
G1 X1.000 Y-1.000 Z-6.000 F600.000
G1 X1.000 Y-29.000 Z-6.000 F600.000
G1 X219.000 Y-29.000 Z-6.000 F600.000
G1 X219.000 Y-1.000 Z-6.000 F600.000
G1 X205.500 Y-1.000 Z-6.000 F600.000
G0 Z5.000
G0 Y-3.000 Z5.000
G0 Y-3.000 Z3.000
G1 X205.500 Y-3.000 Z-6.000 F600.000
G1 X3.000 Y-3.000 Z-6.000 F600.000
G1 X3.000 Y-27.000 Z-6.000 F600.000
G1 X217.000 Y-27.000 Z-6.000 F600.000
G1 X217.000 Y-3.000 Z-6.000 F600.000
G1 X205.500 Y-3.000 Z-6.000 F600.000
G0 Z5.000
G0 Y-5.000 Z5.000
G0 Y-5.000 Z3.000
G1 X205.500 Y-5.000 Z-6.000 F600.000
G1 X5.000 Y-5.000 Z-6.000 F600.000
G1 X5.000 Y-25.000 Z-6.000 F600.000
G1 X215.000 Y-25.000 Z-6.000 F600.000
G1 X215.000 Y-5.000 Z-6.000 F600.000
G1 X205.500 Y-5.000 Z-6.000 F600.000
G0 Z5.000
G0 Y-7.000 Z5.000
G0 Y-7.000 Z3.000
G1 X205.500 Y-7.000 Z-6.000 F600.000
G1 X7.000 Y-7.000 Z-6.000 F600.000
G1 X7.000 Y-23.000 Z-6.000 F600.000
G1 X213.000 Y-23.000 Z-6.000 F600.000
G1 X213.000 Y-7.000 Z-6.000 F600.000
G1 X205.500 Y-7.000 Z-6.000 F600.000
G0 Z5.000
G0 Y-9.000 Z5.000
G0 Y-9.000 Z3.000
G1 X205.500 Y-9.000 Z-6.000 F600.000
G1 X9.000 Y-9.000 Z-6.000 F600.000
G1 X9.000 Y-21.000 Z-6.000 F600.000
G1 X211.000 Y-21.000 Z-6.000 F600.000
G1 X211.000 Y-9.000 Z-6.000 F600.000
G1 X205.500 Y-9.000 Z-6.000 F600.000
G0 Z5.000
G0 Y-11.000 Z5.000
G0 Y-11.000 Z3.000
G1 X205.500 Y-11.000 Z-6.000 F600.000
G1 X11.000 Y-11.000 Z-6.000 F600.000
G1 X11.000 Y-19.000 Z-6.000 F600.000
G1 X209.000 Y-19.000 Z-6.000 F600.000
G1 X209.000 Y-11.000 Z-6.000 F600.000
G1 X205.500 Y-11.000 Z-6.000 F600.000
G0 Z5.000
G0 Y-13.000 Z5.000
G0 Y-13.000 Z3.000
G1 X205.500 Y-13.000 Z-6.000 F600.000
G1 X13.000 Y-13.000 Z-6.000 F600.000
G1 X13.000 Y-17.000 Z-6.000 F600.000
G1 X207.000 Y-17.000 Z-6.000 F600.000
G1 X207.000 Y-13.000 Z-6.000 F600.000
G1 X205.500 Y-13.000 Z-6.000 F600.000
G0 Z5.000
G0 Y-13.500 Z5.000
G0 Y-13.500 Z3.000
G1 X205.500 Y-13.500 Z-6.000 F600.000
G1 X13.500 Y-13.500 Z-6.000 F600.000
G1 X13.500 Y-16.500 Z-6.000 F600.000
G1 X206.500 Y-16.500 Z-6.000 F600.000
G1 X206.500 Y-13.500 Z-6.000 F600.000
G1 X205.500 Y-13.500 Z-6.000 F600.000
G0 Z5.000
G0 Y-14.000 Z5.000
G0 Y-14.000 Z3.000
G1 X205.500 Y-14.000 Z-6.000 F600.000
G1 X14.000 Y-14.000 Z-6.000 F600.000
G1 X14.000 Y-16.000 Z-6.000 F600.000
G1 X206.000 Y-16.000 Z-6.000 F600.000
G1 X206.000 Y-14.000 Z-6.000 F600.000
G1 X205.500 Y-14.000 Z-6.000 F600.000
G0 Z5.000
G0 Y-14.500 Z5.000
G0 Y-14.500 Z3.000
G1 X205.500 Y-14.500 Z-6.000 F600.000
G1 X14.500 Y-14.500 Z-6.000 F600.000
G1 X14.500 Y-15.500 Z-6.000 F600.000
G1 X205.500 Y-15.500 Z-6.000 F600.000
G1 X205.500 Y-14.500 Z-6.000 F600.000
G1 X205.500 Y-14.500 Z-8.000 F600.000
G1 X14.500 Y-14.500 Z-8.000 F600.000
G1 X14.500 Y-15.500 Z-8.000 F600.000
G1 X205.500 Y-15.500 Z-8.000 F600.000
G1 X205.500 Y-14.500 Z-8.000 F600.000
G0 Z5.000
G0 Y-14.000 Z5.000
G0 Y-14.000 Z3.000
G1 X205.500 Y-14.000 Z-8.000 F600.000
G1 X14.000 Y-14.000 Z-8.000 F600.000
G1 X14.000 Y-16.000 Z-8.000 F600.000
G1 X206.000 Y-16.000 Z-8.000 F600.000
G1 X206.000 Y-14.000 Z-8.000 F600.000
G1 X205.500 Y-14.000 Z-8.000 F600.000
G0 Z5.000
G0 Y-13.500 Z5.000
G0 Y-13.500 Z3.000
G1 X205.500 Y-13.500 Z-8.000 F600.000
G1 X13.500 Y-13.500 Z-8.000 F600.000
G1 X13.500 Y-16.500 Z-8.000 F600.000
G1 X206.500 Y-16.500 Z-8.000 F600.000
G1 X206.500 Y-13.500 Z-8.000 F600.000
G1 X205.500 Y-13.500 Z-8.000 F600.000
G0 Z5.000
G0 Y-13.000 Z5.000
G0 Y-13.000 Z3.000
G1 X205.500 Y-13.000 Z-8.000 F600.000
G1 X13.000 Y-13.000 Z-8.000 F600.000
G1 X13.000 Y-17.000 Z-8.000 F600.000
G1 X207.000 Y-17.000 Z-8.000 F600.000
G1 X207.000 Y-13.000 Z-8.000 F600.000
G1 X205.500 Y-13.000 Z-8.000 F600.000
G0 Z5.000
G0 Y-11.000 Z5.000
G0 Y-11.000 Z3.000
G1 X205.500 Y-11.000 Z-8.000 F600.000
G1 X11.000 Y-11.000 Z-8.000 F600.000
G1 X11.000 Y-19.000 Z-8.000 F600.000
G1 X209.000 Y-19.000 Z-8.000 F600.000
G1 X209.000 Y-11.000 Z-8.000 F600.000
G1 X205.500 Y-11.000 Z-8.000 F600.000
G0 Z5.000
G0 Y-9.000 Z5.000
G0 Y-9.000 Z3.000
G1 X205.500 Y-9.000 Z-8.000 F600.000
G1 X9.000 Y-9.000 Z-8.000 F600.000
G1 X9.000 Y-21.000 Z-8.000 F600.000
G1 X211.000 Y-21.000 Z-8.000 F600.000
G1 X211.000 Y-9.000 Z-8.000 F600.000
G1 X205.500 Y-9.000 Z-8.000 F600.000
G0 Z5.000
G0 Y-7.000 Z5.000
G0 Y-7.000 Z3.000
G1 X205.500 Y-7.000 Z-8.000 F600.000
G1 X7.000 Y-7.000 Z-8.000 F600.000
G1 X7.000 Y-23.000 Z-8.000 F600.000
G1 X213.000 Y-23.000 Z-8.000 F600.000
G1 X213.000 Y-7.000 Z-8.000 F600.000
G1 X205.500 Y-7.000 Z-8.000 F600.000
G0 Z5.000
G0 Y-5.000 Z5.000
G0 Y-5.000 Z3.000
G1 X205.500 Y-5.000 Z-8.000 F600.000
G1 X5.000 Y-5.000 Z-8.000 F600.000
G1 X5.000 Y-25.000 Z-8.000 F600.000
G1 X215.000 Y-25.000 Z-8.000 F600.000
G1 X215.000 Y-5.000 Z-8.000 F600.000
G1 X205.500 Y-5.000 Z-8.000 F600.000
G0 Z5.000
G0 Y-3.000 Z5.000
G0 Y-3.000 Z3.000
G1 X205.500 Y-3.000 Z-8.000 F600.000
G1 X3.000 Y-3.000 Z-8.000 F600.000
G1 X3.000 Y-27.000 Z-8.000 F600.000
G1 X217.000 Y-27.000 Z-8.000 F600.000
G1 X217.000 Y-3.000 Z-8.000 F600.000
G1 X205.500 Y-3.000 Z-8.000 F600.000
G0 Z5.000
G0 Y-1.000 Z5.000
G0 Y-1.000 Z3.000
G1 X205.500 Y-1.000 Z-8.000 F600.000
G1 X1.000 Y-1.000 Z-8.000 F600.000
G1 X1.000 Y-29.000 Z-8.000 F600.000
G1 X219.000 Y-29.000 Z-8.000 F600.000
G1 X219.000 Y-1.000 Z-8.000 F600.000
G1 X205.500 Y-1.000 Z-8.000 F600.000
G1 X205.500 Y-1.000 Z-10.000 F600.000
G1 X1.000 Y-1.000 Z-10.000 F600.000
G1 X1.000 Y-29.000 Z-10.000 F600.000
G1 X219.000 Y-29.000 Z-10.000 F600.000
G1 X219.000 Y-1.000 Z-10.000 F600.000
G1 X205.500 Y-1.000 Z-10.000 F600.000
G0 Z5.000
G0 Y-3.000 Z5.000
G0 Y-3.000 Z3.000
G1 X205.500 Y-3.000 Z-10.000 F600.000
G1 X3.000 Y-3.000 Z-10.000 F600.000
G1 X3.000 Y-27.000 Z-10.000 F600.000
G1 X217.000 Y-27.000 Z-10.000 F600.000
G1 X217.000 Y-3.000 Z-10.000 F600.000
G1 X205.500 Y-3.000 Z-10.000 F600.000
G0 Z5.000
G0 Y-5.000 Z5.000
G0 Y-5.000 Z3.000
G1 X205.500 Y-5.000 Z-10.000 F600.000
G1 X5.000 Y-5.000 Z-10.000 F600.000
G1 X5.000 Y-25.000 Z-10.000 F600.000
G1 X215.000 Y-25.000 Z-10.000 F600.000
G1 X215.000 Y-5.000 Z-10.000 F600.000
G1 X205.500 Y-5.000 Z-10.000 F600.000
G0 Z5.000
G0 Y-7.000 Z5.000
G0 Y-7.000 Z3.000
G1 X205.500 Y-7.000 Z-10.000 F600.000
G1 X7.000 Y-7.000 Z-10.000 F600.000
G1 X7.000 Y-23.000 Z-10.000 F600.000
G1 X213.000 Y-23.000 Z-10.000 F600.000
G1 X213.000 Y-7.000 Z-10.000 F600.000
G1 X205.500 Y-7.000 Z-10.000 F600.000
G0 Z5.000
G0 Y-9.000 Z5.000
G0 Y-9.000 Z3.000
G1 X205.500 Y-9.000 Z-10.000 F600.000
G1 X9.000 Y-9.000 Z-10.000 F600.000
G1 X9.000 Y-21.000 Z-10.000 F600.000
G1 X211.000 Y-21.000 Z-10.000 F600.000
G1 X211.000 Y-9.000 Z-10.000 F600.000
G1 X205.500 Y-9.000 Z-10.000 F600.000
G0 Z5.000
G0 Y-11.000 Z5.000
G0 Y-11.000 Z3.000
G1 X205.500 Y-11.000 Z-10.000 F600.000
G1 X11.000 Y-11.000 Z-10.000 F600.000
G1 X11.000 Y-19.000 Z-10.000 F600.000
G1 X209.000 Y-19.000 Z-10.000 F600.000
G1 X209.000 Y-11.000 Z-10.000 F600.000
G1 X205.500 Y-11.000 Z-10.000 F600.000
G0 Z5.000
G0 Y-13.000 Z5.000
G0 Y-13.000 Z3.000
G1 X205.500 Y-13.000 Z-10.000 F600.000
G1 X13.000 Y-13.000 Z-10.000 F600.000
G1 X13.000 Y-17.000 Z-10.000 F600.000
G1 X207.000 Y-17.000 Z-10.000 F600.000
G1 X207.000 Y-13.000 Z-10.000 F600.000
G1 X205.500 Y-13.000 Z-10.000 F600.000
G0 Z5.000
G0 Y-13.500 Z5.000
G0 Y-13.500 Z3.000
G1 X205.500 Y-13.500 Z-10.000 F600.000
G1 X13.500 Y-13.500 Z-10.000 F600.000
G1 X13.500 Y-16.500 Z-10.000 F600.000
G1 X206.500 Y-16.500 Z-10.000 F600.000
G1 X206.500 Y-13.500 Z-10.000 F600.000
G1 X205.500 Y-13.500 Z-10.000 F600.000
G0 Z5.000
G0 Y-14.000 Z5.000
G0 Y-14.000 Z3.000
G1 X205.500 Y-14.000 Z-10.000 F600.000
G1 X14.000 Y-14.000 Z-10.000 F600.000
G1 X14.000 Y-16.000 Z-10.000 F600.000
G1 X206.000 Y-16.000 Z-10.000 F600.000
G1 X206.000 Y-14.000 Z-10.000 F600.000
G1 X205.500 Y-14.000 Z-10.000 F600.000
G0 Z5.000
G0 Y-14.500 Z5.000
G0 Y-14.500 Z3.000
G1 X205.500 Y-14.500 Z-10.000 F600.000
G1 X14.500 Y-14.500 Z-10.000 F600.000
G1 X14.500 Y-15.500 Z-10.000 F600.000
G1 X205.500 Y-15.500 Z-10.000 F600.000
G1 X205.500 Y-14.500 Z-10.000 F600.000
G1 X205.500 Y-14.500 Z-12.000 F600.000
G1 X14.500 Y-14.500 Z-12.000 F600.000
G1 X14.500 Y-15.500 Z-12.000 F600.000
G1 X205.500 Y-15.500 Z-12.000 F600.000
G1 X205.500 Y-14.500 Z-12.000 F600.000
G0 Z5.000
G0 Y-14.000 Z5.000
G0 Y-14.000 Z3.000
G1 X205.500 Y-14.000 Z-12.000 F600.000
G1 X14.000 Y-14.000 Z-12.000 F600.000
G1 X14.000 Y-16.000 Z-12.000 F600.000
G1 X206.000 Y-16.000 Z-12.000 F600.000
G1 X206.000 Y-14.000 Z-12.000 F600.000
G1 X205.500 Y-14.000 Z-12.000 F600.000
G0 Z5.000
G0 Y-13.500 Z5.000
G0 Y-13.500 Z3.000
G1 X205.500 Y-13.500 Z-12.000 F600.000
G1 X13.500 Y-13.500 Z-12.000 F600.000
G1 X13.500 Y-16.500 Z-12.000 F600.000
G1 X206.500 Y-16.500 Z-12.000 F600.000
G1 X206.500 Y-13.500 Z-12.000 F600.000
G1 X205.500 Y-13.500 Z-12.000 F600.000
G0 Z5.000
G0 Y-13.000 Z5.000
G0 Y-13.000 Z3.000
G1 X205.500 Y-13.000 Z-12.000 F600.000
G1 X13.000 Y-13.000 Z-12.000 F600.000
G1 X13.000 Y-17.000 Z-12.000 F600.000
G1 X207.000 Y-17.000 Z-12.000 F600.000
G1 X207.000 Y-13.000 Z-12.000 F600.000
G1 X205.500 Y-13.000 Z-12.000 F600.000
G0 Z5.000
G0 Y-11.000 Z5.000
G0 Y-11.000 Z3.000
G1 X205.500 Y-11.000 Z-12.000 F600.000
G1 X11.000 Y-11.000 Z-12.000 F600.000
G1 X11.000 Y-19.000 Z-12.000 F600.000
G1 X209.000 Y-19.000 Z-12.000 F600.000
G1 X209.000 Y-11.000 Z-12.000 F600.000
G1 X205.500 Y-11.000 Z-12.000 F600.000
G0 Z5.000
G0 Y-9.000 Z5.000
G0 Y-9.000 Z3.000
G1 X205.500 Y-9.000 Z-12.000 F600.000
G1 X9.000 Y-9.000 Z-12.000 F600.000
G1 X9.000 Y-21.000 Z-12.000 F600.000
G1 X211.000 Y-21.000 Z-12.000 F600.000
G1 X211.000 Y-9.000 Z-12.000 F600.000
G1 X205.500 Y-9.000 Z-12.000 F600.000
G0 Z5.000
G0 Y-7.000 Z5.000
G0 Y-7.000 Z3.000
G1 X205.500 Y-7.000 Z-12.000 F600.000
G1 X7.000 Y-7.000 Z-12.000 F600.000
G1 X7.000 Y-23.000 Z-12.000 F600.000
G1 X213.000 Y-23.000 Z-12.000 F600.000
G1 X213.000 Y-7.000 Z-12.000 F600.000
G1 X205.500 Y-7.000 Z-12.000 F600.000
G0 Z5.000
G0 Y-5.000 Z5.000
G0 Y-5.000 Z3.000
G1 X205.500 Y-5.000 Z-12.000 F600.000
G1 X5.000 Y-5.000 Z-12.000 F600.000
G1 X5.000 Y-25.000 Z-12.000 F600.000
G1 X215.000 Y-25.000 Z-12.000 F600.000
G1 X215.000 Y-5.000 Z-12.000 F600.000
G1 X205.500 Y-5.000 Z-12.000 F600.000
G0 Z5.000
G0 Y-3.000 Z5.000
G0 Y-3.000 Z3.000
G1 X205.500 Y-3.000 Z-12.000 F600.000
G1 X3.000 Y-3.000 Z-12.000 F600.000
G1 X3.000 Y-27.000 Z-12.000 F600.000
G1 X217.000 Y-27.000 Z-12.000 F600.000
G1 X217.000 Y-3.000 Z-12.000 F600.000
G1 X205.500 Y-3.000 Z-12.000 F600.000
G0 Z5.000
G0 Y-1.000 Z5.000
G0 Y-1.000 Z3.000
G1 X205.500 Y-1.000 Z-12.000 F600.000
G1 X1.000 Y-1.000 Z-12.000 F600.000
G1 X1.000 Y-29.000 Z-12.000 F600.000
G1 X219.000 Y-29.000 Z-12.000 F600.000
G1 X219.000 Y-1.000 Z-12.000 F600.000
G1 X205.500 Y-1.000 Z-12.000 F600.000
G1 X205.500 Y-1.000 Z-14.000 F600.000
G1 X1.000 Y-1.000 Z-14.000 F600.000
G1 X1.000 Y-29.000 Z-14.000 F600.000
G1 X219.000 Y-29.000 Z-14.000 F600.000
G1 X219.000 Y-1.000 Z-14.000 F600.000
G1 X205.500 Y-1.000 Z-14.000 F600.000
G0 Z5.000
G0 Y-3.000 Z5.000
G0 Y-3.000 Z3.000
G1 X205.500 Y-3.000 Z-14.000 F600.000
G1 X3.000 Y-3.000 Z-14.000 F600.000
G1 X3.000 Y-27.000 Z-14.000 F600.000
G1 X217.000 Y-27.000 Z-14.000 F600.000
G1 X217.000 Y-3.000 Z-14.000 F600.000
G1 X205.500 Y-3.000 Z-14.000 F600.000
G0 Z5.000
G0 Y-5.000 Z5.000
G0 Y-5.000 Z3.000
G1 X205.500 Y-5.000 Z-14.000 F600.000
G1 X5.000 Y-5.000 Z-14.000 F600.000
G1 X5.000 Y-25.000 Z-14.000 F600.000
G1 X215.000 Y-25.000 Z-14.000 F600.000
G1 X215.000 Y-5.000 Z-14.000 F600.000
G1 X205.500 Y-5.000 Z-14.000 F600.000
G0 Z5.000
G0 Y-7.000 Z5.000
G0 Y-7.000 Z3.000
G1 X205.500 Y-7.000 Z-14.000 F600.000
G1 X7.000 Y-7.000 Z-14.000 F600.000
G1 X7.000 Y-23.000 Z-14.000 F600.000
G1 X213.000 Y-23.000 Z-14.000 F600.000
G1 X213.000 Y-7.000 Z-14.000 F600.000
G1 X205.500 Y-7.000 Z-14.000 F600.000
G0 Z5.000
G0 Y-9.000 Z5.000
G0 Y-9.000 Z3.000
G1 X205.500 Y-9.000 Z-14.000 F600.000
G1 X9.000 Y-9.000 Z-14.000 F600.000
G1 X9.000 Y-21.000 Z-14.000 F600.000
G1 X211.000 Y-21.000 Z-14.000 F600.000
G1 X211.000 Y-9.000 Z-14.000 F600.000
G1 X205.500 Y-9.000 Z-14.000 F600.000
G0 Z5.000
G0 Y-11.000 Z5.000
G0 Y-11.000 Z3.000
G1 X205.500 Y-11.000 Z-14.000 F600.000
G1 X11.000 Y-11.000 Z-14.000 F600.000
G1 X11.000 Y-19.000 Z-14.000 F600.000
G1 X209.000 Y-19.000 Z-14.000 F600.000
G1 X209.000 Y-11.000 Z-14.000 F600.000
G1 X205.500 Y-11.000 Z-14.000 F600.000
G0 Z5.000
G0 Y-13.000 Z5.000
G0 Y-13.000 Z3.000
G1 X205.500 Y-13.000 Z-14.000 F600.000
G1 X13.000 Y-13.000 Z-14.000 F600.000
G1 X13.000 Y-17.000 Z-14.000 F600.000
G1 X207.000 Y-17.000 Z-14.000 F600.000
G1 X207.000 Y-13.000 Z-14.000 F600.000
G1 X205.500 Y-13.000 Z-14.000 F600.000
G0 Z5.000
G0 Y-13.500 Z5.000
G0 Y-13.500 Z3.000
G1 X205.500 Y-13.500 Z-14.000 F600.000
G1 X13.500 Y-13.500 Z-14.000 F600.000
G1 X13.500 Y-16.500 Z-14.000 F600.000
G1 X206.500 Y-16.500 Z-14.000 F600.000
G1 X206.500 Y-13.500 Z-14.000 F600.000
G1 X205.500 Y-13.500 Z-14.000 F600.000
G0 Z5.000
G0 Y-14.000 Z5.000
G0 Y-14.000 Z3.000
G1 X205.500 Y-14.000 Z-14.000 F600.000
G1 X14.000 Y-14.000 Z-14.000 F600.000
G1 X14.000 Y-16.000 Z-14.000 F600.000
G1 X206.000 Y-16.000 Z-14.000 F600.000
G1 X206.000 Y-14.000 Z-14.000 F600.000
G1 X205.500 Y-14.000 Z-14.000 F600.000
G0 Z5.000
G0 Y-14.500 Z5.000
G0 Y-14.500 Z3.000
G1 X205.500 Y-14.500 Z-14.000 F600.000
G1 X14.500 Y-14.500 Z-14.000 F600.000
G1 X14.500 Y-15.500 Z-14.000 F600.000
G1 X205.500 Y-15.500 Z-14.000 F600.000
G1 X205.500 Y-14.500 Z-14.000 F600.000
G1 X205.500 Y-14.500 Z-15.000 F600.000
G1 X14.500 Y-14.500 Z-15.000 F600.000
G1 X14.500 Y-15.500 Z-15.000 F600.000
G1 X205.500 Y-15.500 Z-15.000 F600.000
G1 X205.500 Y-14.500 Z-15.000 F600.000
G0 Z5.000
G0 Y-14.000 Z5.000
G0 Y-14.000 Z3.000
G1 X205.500 Y-14.000 Z-15.000 F600.000
G1 X14.000 Y-14.000 Z-15.000 F600.000
G1 X14.000 Y-16.000 Z-15.000 F600.000
G1 X206.000 Y-16.000 Z-15.000 F600.000
G1 X206.000 Y-14.000 Z-15.000 F600.000
G1 X205.500 Y-14.000 Z-15.000 F600.000
G0 Z5.000
G0 Y-13.500 Z5.000
G0 Y-13.500 Z3.000
G1 X205.500 Y-13.500 Z-15.000 F600.000
G1 X13.500 Y-13.500 Z-15.000 F600.000
G1 X13.500 Y-16.500 Z-15.000 F600.000
G1 X206.500 Y-16.500 Z-15.000 F600.000
G1 X206.500 Y-13.500 Z-15.000 F600.000
G1 X205.500 Y-13.500 Z-15.000 F600.000
G0 Z5.000
G0 Y-13.000 Z5.000
G0 Y-13.000 Z3.000
G1 X205.500 Y-13.000 Z-15.000 F600.000
G1 X13.000 Y-13.000 Z-15.000 F600.000
G1 X13.000 Y-17.000 Z-15.000 F600.000
G1 X207.000 Y-17.000 Z-15.000 F600.000
G1 X207.000 Y-13.000 Z-15.000 F600.000
G1 X205.500 Y-13.000 Z-15.000 F600.000
G0 Z5.000
G0 Y-11.000 Z5.000
G0 Y-11.000 Z3.000
G1 X205.500 Y-11.000 Z-15.000 F600.000
G1 X11.000 Y-11.000 Z-15.000 F600.000
G1 X11.000 Y-19.000 Z-15.000 F600.000
G1 X209.000 Y-19.000 Z-15.000 F600.000
G1 X209.000 Y-11.000 Z-15.000 F600.000
G1 X205.500 Y-11.000 Z-15.000 F600.000
G0 Z5.000
G0 Y-9.000 Z5.000
G0 Y-9.000 Z3.000
G1 X205.500 Y-9.000 Z-15.000 F600.000
G1 X9.000 Y-9.000 Z-15.000 F600.000
G1 X9.000 Y-21.000 Z-15.000 F600.000
G1 X211.000 Y-21.000 Z-15.000 F600.000
G1 X211.000 Y-9.000 Z-15.000 F600.000
G1 X205.500 Y-9.000 Z-15.000 F600.000
G0 Z5.000
G0 Y-7.000 Z5.000
G0 Y-7.000 Z3.000
G1 X205.500 Y-7.000 Z-15.000 F600.000
G1 X7.000 Y-7.000 Z-15.000 F600.000
G1 X7.000 Y-23.000 Z-15.000 F600.000
G1 X213.000 Y-23.000 Z-15.000 F600.000
G1 X213.000 Y-7.000 Z-15.000 F600.000
G1 X205.500 Y-7.000 Z-15.000 F600.000
G0 Z5.000
G0 Y-5.000 Z5.000
G0 Y-5.000 Z3.000
G1 X205.500 Y-5.000 Z-15.000 F600.000
G1 X5.000 Y-5.000 Z-15.000 F600.000
G1 X5.000 Y-25.000 Z-15.000 F600.000
G1 X215.000 Y-25.000 Z-15.000 F600.000
G1 X215.000 Y-5.000 Z-15.000 F600.000
G1 X205.500 Y-5.000 Z-15.000 F600.000
G0 Z5.000
G0 Y-3.000 Z5.000
G0 Y-3.000 Z3.000
G1 X205.500 Y-3.000 Z-15.000 F600.000
G1 X3.000 Y-3.000 Z-15.000 F600.000
G1 X3.000 Y-27.000 Z-15.000 F600.000
G1 X217.000 Y-27.000 Z-15.000 F600.000
G1 X217.000 Y-3.000 Z-15.000 F600.000
G1 X205.500 Y-3.000 Z-15.000 F600.000
G0 Z5.000
G0 Y-1.000 Z5.000
G0 Y-1.000 Z3.000
G1 X205.500 Y-1.000 Z-15.000 F600.000
G1 X1.000 Y-1.000 Z-15.000 F600.000
G1 X1.000 Y-29.000 Z-15.000 F600.000
G1 X219.000 Y-29.000 Z-15.000 F600.000
G1 X219.000 Y-1.000 Z-15.000 F600.000
G1 X205.500 Y-1.000 Z-15.000 F600.000
G0 Z5.000
G0 Z5.000
(Finish operation: Pocket_Shape)
(Begin postamble)
M5
G17 G90
M2
