(Exported by FreeCAD)
(Post Processor: script_module)
(Output Time:2025-03-14 15:42:15.350464)
(Begin preamble)
G17 G90
G21
(Begin operation: Fixture)
(Path: Fixture)
G54
(Finish operation: Fixture)
(Begin operation: 2mm_Endmill001)
(Path: 2mm_Endmill001)
(2mm_Endmill001)
(Begin toolchange)
( M6 T2 )
M3 S13000
(Finish operation: 2mm_Endmill001)
(Begin operation: Profile)
(Path: Profile)
(Profile)
(Compensated Tool Path. Diameter: 2.0)
G0 Z5.000
G0 X0.000 Y0.000
G0 X24.000 Y0.000
G0 X24.000 Y0.000 Z3.000
G1 X24.000 Y0.000 Z-2.000 F600.000
G1 X24.000 Y60.000 Z-2.000 F600.000
G2 X25.000 Y61.000 Z-2.000 I1.000 J-0.000 K0.000 F600.000
G1 X48.000 Y61.000 Z-2.000 F600.000
G2 X48.989 Y59.851 Z-2.000 I0.000 J-1.000 K0.000 F600.000
G1 X36.000 Y-26.075 Z-2.000 F600.000
G1 X36.000 Y-38.081 Z-2.000 F600.000
G2 X40.961 Y-50.757 Z-2.000 I1.010 J-6.914 K0.000 F600.000
G2 X40.002 Y-52.000 Z-2.000 I-0.953 J-0.256 K0.000 F600.000
G2 X32.183 Y-51.996 Z-2.000 I-3.335 J1282.723 K0.000 F600.000
G2 X30.127 Y-51.903 Z-2.000 I-0.424 J13.283 K0.000 F600.000
G3 X30.917 Y-54.601 Z-2.000 I8.837 J1.124 K0.000 F600.000
G2 X30.060 Y-55.998 Z-2.000 I-0.917 J-0.399 K0.000 F600.000
G2 X26.515 Y-54.749 Z-2.000 I1.201 J9.062 K0.000 F600.000
G2 X24.001 Y-50.090 Z-2.000 I2.809 J4.524 K0.000 F600.000
G1 X24.000 Y0.000 Z-2.000 F600.000
G0 Z5.000
G0 X56.115 Y-4.854 Z5.000
G0 X56.115 Y-4.854 Z3.000
G1 X56.115 Y-4.854 Z-2.000 F600.000
G1 X62.000 Y34.075 Z-2.000 F600.000
G1 X62.000 Y46.081 Z-2.000 F600.000
G2 X57.039 Y58.757 Z-2.000 I-1.010 J6.914 K0.000 F600.000
G2 X57.998 Y60.000 Z-2.000 I0.953 J0.256 K0.000 F600.000
G2 X65.817 Y59.996 Z-2.000 I3.335 J-1282.669 K0.000 F600.000
G2 X67.873 Y59.903 Z-2.000 I0.424 J-13.283 K0.000 F600.000
G3 X67.083 Y62.601 Z-2.000 I-8.837 J-1.124 K0.000 F600.000
G2 X67.940 Y63.998 Z-2.000 I0.917 J0.399 K0.000 F600.000
G2 X71.485 Y62.749 Z-2.000 I-1.201 J-9.062 K0.000 F600.000
G2 X73.999 Y58.090 Z-2.000 I-2.809 J-4.524 K0.000 F600.000
G1 X74.000 Y-52.000 Z-2.000 F600.000
G2 X73.000 Y-53.000 Z-2.000 I-1.000 J0.000 K0.000 F600.000
G1 X50.000 Y-53.000 Z-2.000 F600.000
G2 X49.011 Y-51.851 Z-2.000 I-0.000 J1.000 K0.000 F600.000
G1 X56.115 Y-4.854 Z-2.000 F600.000
G0 Z5.000
G0 X88.526 Y-9.754 Z5.000
G0 X88.526 Y-9.754 Z3.000
G1 X88.526 Y-9.754 Z-2.000 F600.000
G1 X95.000 Y33.075 Z-2.000 F600.000
G1 X95.000 Y45.081 Z-2.000 F600.000
G2 X90.039 Y57.757 Z-2.000 I-1.010 J6.914 K0.000 F600.000
G2 X90.998 Y59.000 Z-2.000 I0.953 J0.256 K0.000 F600.000
G2 X98.817 Y58.996 Z-2.000 I3.335 J-1282.669 K0.000 F600.000
G2 X100.873 Y58.903 Z-2.000 I0.424 J-13.283 K0.000 F600.000
G3 X100.083 Y61.601 Z-2.000 I-8.837 J-1.124 K0.000 F600.000
G2 X101.000 Y63.000 Z-2.000 I0.917 J0.399 K0.000 F600.000
G1 X115.000 Y63.000 Z-2.000 F600.000
G2 X115.925 Y61.619 Z-2.000 I-0.000 J-1.000 K0.000 F600.000
G3 X115.122 Y58.899 Z-2.000 I8.473 J-3.977 K0.000 F600.000
G2 X115.938 Y58.968 Z-2.000 I1.101 J-8.146 K0.000 F600.000
G2 X125.004 Y59.000 Z-2.000 I5.819 J-362.844 K0.000 F600.000
G2 X125.962 Y57.760 Z-2.000 I0.001 J-0.989 K0.000 F600.000
G2 X121.000 Y45.084 Z-2.000 I-3.950 J-5.763 K0.000 F600.000
G1 X121.000 Y33.081 Z-2.000 F600.000
G1 X134.987 Y-52.839 Z-2.000 F600.000
G2 X134.000 Y-54.000 Z-2.000 I-0.987 J-0.161 K0.000 F600.000
G1 X83.000 Y-54.000 Z-2.000 F600.000
G2 X82.011 Y-52.851 Z-2.000 I-0.000 J1.000 K0.000 F600.000
G1 X88.526 Y-9.754 Z-2.000 F600.000
G0 Z5.000
G0 X143.069 Y11.635 Z5.000
G0 X143.069 Y11.635 Z3.000
G1 X143.069 Y11.635 Z-2.000 F600.000
G2 X144.158 Y12.987 Z-2.000 I0.931 J0.365 K0.000 F600.000
G3 X150.006 Y12.843 Z-2.000 I3.351 J17.234 K0.000 F600.000
G2 X146.254 Y14.004 Z-2.000 I4.581 J21.442 K0.000 F600.000
G2 X142.786 Y16.085 Z-2.000 I3.589 J9.914 K0.000 F600.000
G2 X141.069 Y18.634 Z-2.000 I4.007 J4.550 K0.000 F600.000
G2 X142.020 Y20.000 Z-2.000 I0.931 J0.366 K0.000 F600.000
G3 X143.331 Y20.013 Z-2.000 I0.547 J10.694 K0.000 F600.000
G3 X145.573 Y20.504 Z-2.000 I-0.211 J6.330 K0.000 F600.000
G2 X142.952 Y21.431 Z-2.000 I4.522 J16.948 K0.000 F600.000
G2 X137.976 Y25.739 Z-2.000 I4.250 J9.939 K0.000 F600.000
G3 X136.357 Y27.404 Z-2.000 I-3.312 J-1.602 K0.000 F600.000
G3 X134.652 Y28.063 Z-2.000 I-6.037 J-13.084 K0.000 F600.000
G2 X134.652 Y29.937 Z-2.000 I0.348 J0.937 K0.000 F600.000
G1 X136.013 Y30.443 Z-2.000 F600.000
G3 X137.640 Y31.724 Z-2.000 I-1.101 J3.073 K0.000 F600.000
G2 X141.587 Y35.864 Z-2.000 I9.927 J-5.513 K0.000 F600.000
G2 X145.568 Y37.495 Z-2.000 I8.044 J-13.957 K0.000 F600.000
G3 X144.871 Y37.753 Z-2.000 I-1.561 J-3.148 K0.000 F600.000
G3 X142.003 Y38.000 Z-2.000 I-2.443 J-11.586 K0.000 F600.000
G2 X141.008 Y39.122 Z-2.000 I-0.003 J1.000 K0.000 F600.000
G2 X142.531 Y41.687 Z-2.000 I5.637 J-1.614 K0.000 F600.000
G2 X145.908 Y43.867 Z-2.000 I8.280 J-9.121 K0.000 F600.000
G2 X150.069 Y45.156 Z-2.000 I8.953 J-21.546 K0.000 F600.000
G3 X144.157 Y45.012 Z-2.000 I-2.521 J-17.955 K0.000 F600.000
G2 X143.098 Y46.432 Z-2.000 I-0.157 J0.988 K0.000 F600.000
G2 X146.926 Y49.822 Z-2.000 I10.504 J-8.007 K0.000 F600.000
G2 X154.840 Y52.570 Z-2.000 I11.726 J-20.993 K0.000 F600.000
G3 X147.718 Y55.041 Z-2.000 I-22.940 J-54.634 K0.000 F600.000
G2 X147.719 Y56.960 Z-2.000 I0.282 J0.959 K0.000 F600.000
G2 X158.258 Y58.303 Z-2.000 I8.947 J-28.193 K0.000 F600.000
G3 X156.119 Y59.551 Z-2.000 I-20.034 J-31.867 K0.000 F600.000
G3 X151.472 Y61.572 Z-2.000 I-10.663 J-18.163 K0.000 F600.000
G3 X148.966 Y62.001 Z-2.000 I-2.653 J-7.972 K0.000 F600.000
G2 X148.906 Y63.996 Z-2.000 I0.034 J0.999 K0.000 F600.000
G2 X159.267 Y63.489 Z-2.000 I3.674 J-31.068 K0.000 F600.000
G2 X170.721 Y58.877 Z-2.000 I-9.417 J-39.914 K0.000 F600.000
G2 X178.337 Y53.526 Z-2.000 I-34.027 J-56.533 K0.000 F600.000
G2 X185.970 Y47.196 Z-2.000 I-743.143 J-903.800 K0.000 F600.000
G3 X192.542 Y42.591 Z-2.000 I30.528 J36.579 K0.000 F600.000
G3 X198.384 Y40.186 Z-2.000 I10.995 J18.406 K0.000 F600.000
G1 X200.034 Y40.002 Z-2.000 F600.000
G3 X206.223 Y40.840 Z-2.000 I-0.581 J27.574 K0.000 F600.000
G2 X207.924 Y40.009 Z-2.000 I0.320 J-1.503 K0.000 F600.000
G3 X208.649 Y38.065 Z-2.000 I10.958 J2.980 K0.000 F600.000
G3 X211.160 Y34.413 Z-2.000 I36.905 J22.681 K0.000 F600.000
G2 X213.349 Y31.279 Z-2.000 I-16.468 J-13.836 K0.000 F600.000
G2 X213.650 Y27.345 Z-2.000 I-3.672 J-2.260 K0.000 F600.000
G2 X211.603 Y24.160 Z-2.000 I-13.474 J6.409 K0.000 F600.000
G3 X208.843 Y20.248 Z-2.000 I42.182 J-32.692 K0.000 F600.000
G1 X207.985 Y18.170 Z-2.000 F600.000
G2 X206.375 Y17.137 Z-2.000 I-1.424 J0.449 K0.000 F600.000
G3 X199.511 Y17.977 Z-2.000 I-6.624 J-25.678 K0.000 F600.000
G3 X194.609 Y16.486 Z-2.000 I1.880 J-14.980 K0.000 F600.000
G3 X186.024 Y10.845 Z-2.000 I18.995 J-38.262 K0.000 F600.000
G2 X178.345 Y4.486 Z-2.000 I-898.451 J1077.198 K0.000 F600.000
G2 X169.563 Y-1.523 Z-2.000 I-38.114 J46.277 K0.000 F600.000
G2 X155.697 Y-6.056 Z-2.000 I-18.198 J32.194 K0.000 F600.000
G2 X151.522 Y-6.203 Z-2.000 I-3.161 J30.506 K0.000 F600.000
G1 X148.920 Y-5.997 Z-2.000 F600.000
G2 X148.925 Y-4.003 Z-2.000 I0.080 J0.997 K0.000 F600.000
G3 X151.427 Y-3.607 Z-2.000 I-0.327 J10.175 K0.000 F600.000
G3 X158.272 Y-0.307 Z-2.000 I-10.700 J30.941 K0.000 F600.000
G2 X153.747 Y-0.180 Z-2.000 I-1.335 J33.067 K0.000 F600.000
G2 X147.706 Y1.044 Z-2.000 I2.104 J25.904 K0.000 F600.000
G2 X147.725 Y2.962 Z-2.000 I0.294 J0.956 K0.000 F600.000
G3 X154.796 Y5.437 Z-2.000 I-12.909 J48.212 K0.000 F600.000
G2 X152.515 Y5.946 Z-2.000 I4.723 J26.523 K0.000 F600.000
G2 X147.181 Y8.032 Z-2.000 I4.995 J20.626 K0.000 F600.000
G2 X143.233 Y11.358 Z-2.000 I6.860 J12.150 K0.000 F600.000
G2 X143.069 Y11.635 Z-2.000 I0.767 J0.642 K0.000 F600.000
G0 Z5.000
G0 X160.177 Y-26.076 Z5.000
G0 X160.177 Y-26.076 Z3.000
G1 X160.177 Y-26.076 Z-2.000 F600.000
G2 X164.286 Y-25.020 Z-2.000 I5.050 J-11.131 K0.000 F600.000
G2 X172.909 Y-28.133 Z-2.000 I0.607 J-11.822 K0.000 F600.000
G2 X175.323 Y-31.998 Z-2.000 I-5.485 J-6.111 K0.000 F600.000
G2 X175.968 Y-38.982 Z-2.000 I-22.165 J-5.568 K0.000 F600.000
G2 X174.694 Y-43.828 Z-2.000 I-17.983 J2.135 K0.000 F600.000
G2 X170.828 Y-50.127 Z-2.000 I-18.266 J6.877 K0.000 F600.000
G2 X168.375 Y-52.135 Z-2.000 I-7.141 J6.219 K0.000 F600.000
G1 X167.653 Y-52.758 Z-2.000 F600.000
G2 X166.532 Y-52.882 Z-2.000 I-0.651 J0.754 K0.000 F600.000
G1 X165.707 Y-53.707 Z-2.000 F600.000
G1 X165.548 Y-53.836 Z-2.000 F600.000
G2 X164.293 Y-53.707 Z-2.000 I-0.548 J0.836 K0.000 F600.000
G1 X163.462 Y-52.876 Z-2.000 F600.000
G2 X162.337 Y-52.748 Z-2.000 I-0.475 J0.838 K0.000 F600.000
G3 X161.136 Y-51.798 Z-2.000 I-6.194 J-6.588 K0.000 F600.000
G2 X159.524 Y-50.526 Z-2.000 I3.372 J5.932 K0.000 F600.000
G2 X154.163 Y-39.987 Z-2.000 I15.801 J14.671 K0.000 F600.000
G2 X154.505 Y-32.725 Z-2.000 I21.374 J2.634 K0.000 F600.000
G2 X157.246 Y-27.949 Z-2.000 I8.306 J-1.594 K0.000 F600.000
G2 X160.177 Y-26.076 Z-2.000 I7.981 J-9.258 K0.000 F600.000
G0 Z5.000
G0 X184.055 Y-21.737 Z5.000
G0 X184.055 Y-21.737 Z3.000
G1 X184.055 Y-21.737 Z-2.000 F600.000
G2 X185.030 Y-20.130 Z-2.000 I1.394 J0.253 K0.000 F600.000
G3 X185.779 Y-19.796 Z-2.000 I-0.286 J1.646 K0.000 F600.000
G3 X186.382 Y-19.202 Z-2.000 I-18.680 J19.596 K0.000 F600.000
G2 X188.508 Y-17.254 Z-2.000 I11.481 J-10.391 K0.000 F600.000
G1 X188.455 Y-17.078 Z-2.000 F600.000
G2 X188.500 Y-8.793 Z-2.000 I16.733 J4.052 K0.000 F600.000
G2 X187.450 Y-7.945 Z-2.000 I4.249 J6.331 K0.000 F600.000
G3 X185.983 Y-6.466 Z-2.000 I-20.003 J-18.382 K0.000 F600.000
G3 X185.208 Y-5.987 Z-2.000 I-1.048 J-0.827 K0.000 F600.000
G2 X184.828 Y-3.312 Z-2.000 I0.243 J1.399 K0.000 F600.000
G2 X188.273 Y-3.936 Z-2.000 I1.227 J-3.048 K0.000 F600.000
G3 X189.081 Y-4.723 Z-2.000 I7.570 J6.955 K0.000 F600.000
G2 X190.793 Y-3.093 Z-2.000 I1.457 J0.183 K0.000 F600.000
G2 X192.256 Y-3.906 Z-2.000 I-0.777 J-3.122 K0.000 F600.000
G2 X194.229 Y-3.024 Z-2.000 I4.708 J-7.883 K0.000 F600.000
G2 X202.491 Y-2.371 Z-2.000 I5.619 J-18.489 K0.000 F600.000
G1 X202.739 Y-2.428 Z-2.000 F600.000
G2 X203.407 Y-3.027 Z-2.000 I-0.795 J-1.558 K0.000 F600.000
G1 X204.064 Y-3.025 Z-2.000 F600.000
G2 X210.300 Y-3.419 Z-2.000 I0.761 J-37.517 K0.000 F600.000
G1 X213.922 Y-3.447 Z-2.000 F600.000
G2 X215.746 Y-4.533 Z-2.000 I0.040 J-2.006 K0.000 F600.000
G2 X215.976 Y-6.175 Z-2.000 I-3.025 J-1.260 K0.000 F600.000
G2 X214.021 Y-8.225 Z-2.000 I-2.013 J-0.038 K0.000 F600.000
G2 X208.429 Y-6.800 Z-2.000 I1.693 J18.327 K0.000 F600.000
G3 X205.547 Y-6.059 Z-2.000 I-3.292 J-6.824 K0.000 F600.000
G3 X199.524 Y-6.042 Z-2.000 I-3.319 J-110.220 K0.000 F600.000
G3 X197.123 Y-6.123 Z-2.000 I-0.474 J-21.610 K0.000 F600.000
G3 X194.995 Y-7.023 Z-2.000 I0.096 J-3.192 K0.000 F600.000
G2 X195.992 Y-7.399 Z-2.000 I-0.071 J-1.701 K0.000 F600.000
G2 X196.087 Y-10.577 Z-2.000 I-1.442 J-1.634 K0.000 F600.000
G2 X194.661 Y-11.017 Z-2.000 I-1.183 J1.304 K0.000 F600.000
G3 X195.695 Y-12.339 Z-2.000 I4.671 J2.592 K0.000 F600.000
G2 X195.697 Y-13.716 Z-2.000 I-0.724 J-0.690 K0.000 F600.000
G3 X194.655 Y-15.057 Z-2.000 I3.857 J-4.076 K0.000 F600.000
G2 X195.994 Y-15.386 Z-2.000 I0.292 J-1.700 K0.000 F600.000
G2 X196.572 Y-17.837 Z-2.000 I-1.435 J-1.632 K0.000 F600.000
G2 X194.999 Y-19.036 Z-2.000 I-1.629 J0.506 K0.000 F600.000
G3 X196.430 Y-19.822 Z-2.000 I1.987 J1.924 K0.000 F600.000
G3 X197.947 Y-19.992 Z-2.000 I2.632 J16.589 K0.000 F600.000
G3 X205.344 Y-20.013 Z-2.000 I4.210 J182.224 K0.000 F600.000
G3 X206.898 Y-19.813 Z-2.000 I0.019 J5.982 K0.000 F600.000
G3 X210.404 Y-18.541 Z-2.000 I-179.530 J500.563 K0.000 F600.000
G1 X213.635 Y-17.858 Z-2.000 F600.000
G2 X215.789 Y-19.003 Z-2.000 I0.332 J-1.975 K0.000 F600.000
G2 X215.968 Y-20.687 Z-2.000 I-3.368 J-1.210 K0.000 F600.000
G2 X213.993 Y-22.608 Z-2.000 I-2.000 J0.081 K0.000 F600.000
G3 X208.492 Y-22.865 Z-2.000 I-1.683 J-22.970 K0.000 F600.000
G2 X203.407 Y-23.029 Z-2.000 I-4.576 J62.682 K0.000 F600.000
G1 X203.303 Y-23.153 Z-2.000 F600.000
G2 X202.500 Y-23.685 Z-2.000 I-0.950 J0.561 K0.000 F600.000
G2 X200.971 Y-23.823 Z-2.000 I-2.749 J21.954 K0.000 F600.000
G2 X195.432 Y-23.369 Z-2.000 I-1.279 J18.421 K0.000 F600.000
G2 X192.239 Y-22.164 Z-2.000 I2.591 J11.693 K0.000 F600.000
G2 X191.189 Y-22.856 Z-2.000 I-2.333 J2.396 K0.000 F600.000
G2 X189.067 Y-21.354 Z-2.000 I-0.623 J1.369 K0.000 F600.000
G1 X188.662 Y-21.752 Z-2.000 F600.000
G2 X185.022 Y-22.835 Z-2.000 I-2.640 J2.218 K0.000 F600.000
G2 X184.055 Y-21.737 Z-2.000 I0.427 J1.351 K0.000 F600.000
G0 Z5.000
G0 X189.499 Y-55.042 Z5.000
G0 X189.499 Y-55.042 Z3.000
G1 X189.499 Y-55.042 Z-2.000 F600.000
G2 X195.356 Y-54.325 Z-2.000 I11.824 J-72.332 K0.000 F600.000
G2 X209.034 Y-53.701 Z-2.000 I16.544 J-212.448 K0.000 F600.000
G2 X218.478 Y-53.690 Z-2.000 I5.627 J-802.736 K0.000 F600.000
G1 X223.250 Y-53.438 Z-2.000 F600.000
G2 X224.171 Y-54.934 Z-2.000 I0.053 J-0.999 K0.000 F600.000
G2 X222.545 Y-56.300 Z-2.000 I-4.168 J3.309 K0.000 F600.000
G2 X218.822 Y-57.664 Z-2.000 I-8.243 J16.740 K0.000 F600.000
G3 X217.464 Y-58.005 Z-2.000 I1.310 J-8.083 K0.000 F600.000
G1 X219.238 Y-58.976 Z-2.000 F600.000
G2 X219.344 Y-60.664 Z-2.000 I-0.480 J-0.877 K0.000 F600.000
G2 X216.706 Y-61.444 Z-2.000 I-3.701 J7.670 K0.000 F600.000
G2 X211.852 Y-61.416 Z-2.000 I-2.292 J23.751 K0.000 F600.000
G3 X189.350 Y-60.050 Z-2.000 I-23.565 J-202.207 K0.000 F600.000
G3 X185.744 Y-60.282 Z-2.000 I0.098 J-29.704 K0.000 F600.000
G2 X184.543 Y-56.414 Z-2.000 I-0.201 J2.058 K0.000 F600.000
G2 X188.485 Y-55.215 Z-2.000 I8.057 J-19.407 K0.000 F600.000
G2 X189.499 Y-55.042 Z-2.000 I12.838 J-72.159 K0.000 F600.000
G0 Z5.000
G0 X185.730 Y59.437 Z5.000
G0 X185.730 Y59.437 Z3.000
G1 X185.730 Y59.437 Z-2.000 F600.000
G2 X184.829 Y60.934 Z-2.000 I-0.033 J0.999 K0.000 F600.000
G2 X186.455 Y62.300 Z-2.000 I4.168 J-3.309 K0.000 F600.000
G2 X190.178 Y63.664 Z-2.000 I8.243 J-16.740 K0.000 F600.000
G3 X191.536 Y64.005 Z-2.000 I-1.310 J8.083 K0.000 F600.000
G1 X189.762 Y64.976 Z-2.000 F600.000
G2 X189.656 Y66.664 Z-2.000 I0.480 J0.877 K0.000 F600.000
G2 X192.294 Y67.444 Z-2.000 I3.701 J-7.670 K0.000 F600.000
G2 X197.145 Y67.416 Z-2.000 I2.294 J-23.292 K0.000 F600.000
G3 X219.650 Y66.050 Z-2.000 I23.569 J202.238 K0.000 F600.000
G3 X223.256 Y66.282 Z-2.000 I-0.098 J29.704 K0.000 F600.000
G2 X224.457 Y62.414 Z-2.000 I0.201 J-2.058 K0.000 F600.000
G2 X220.515 Y61.215 Z-2.000 I-8.057 J19.407 K0.000 F600.000
G2 X213.644 Y60.325 Z-2.000 I-12.838 J72.159 K0.000 F600.000
G2 X199.966 Y59.701 Z-2.000 I-16.544 J212.448 K0.000 F600.000
G2 X190.522 Y59.690 Z-2.000 I-5.627 J802.733 K0.000 F600.000
G1 X185.750 Y59.438 Z-2.000 F600.000
G2 X185.730 Y59.437 Z-2.000 I-0.053 J0.999 K0.000 F600.000
G1 X185.730 Y59.437 Z-4.000 F600.000
G2 X184.829 Y60.934 Z-4.000 I-0.033 J0.999 K0.000 F600.000
G2 X186.455 Y62.300 Z-4.000 I4.168 J-3.309 K0.000 F600.000
G2 X190.178 Y63.664 Z-4.000 I8.243 J-16.740 K0.000 F600.000
G3 X191.536 Y64.005 Z-4.000 I-1.310 J8.083 K0.000 F600.000
G1 X189.762 Y64.976 Z-4.000 F600.000
G2 X189.656 Y66.664 Z-4.000 I0.480 J0.877 K0.000 F600.000
G2 X192.294 Y67.444 Z-4.000 I3.701 J-7.670 K0.000 F600.000
G2 X197.145 Y67.416 Z-4.000 I2.294 J-23.292 K0.000 F600.000
G3 X219.650 Y66.050 Z-4.000 I23.569 J202.238 K0.000 F600.000
G3 X223.256 Y66.282 Z-4.000 I-0.098 J29.704 K0.000 F600.000
G2 X224.457 Y62.414 Z-4.000 I0.201 J-2.058 K0.000 F600.000
G2 X220.515 Y61.215 Z-4.000 I-8.057 J19.407 K0.000 F600.000
G2 X213.644 Y60.325 Z-4.000 I-12.838 J72.159 K0.000 F600.000
G2 X199.966 Y59.701 Z-4.000 I-16.544 J212.448 K0.000 F600.000
G2 X190.522 Y59.690 Z-4.000 I-5.627 J802.733 K0.000 F600.000
G1 X185.750 Y59.438 Z-4.000 F600.000
G2 X185.730 Y59.437 Z-4.000 I-0.053 J0.999 K0.000 F600.000
G0 Z5.000
G0 X179.835 Y52.292 Z5.000
G0 X179.835 Y52.292 Z3.000
G1 X179.835 Y52.292 Z-4.000 F600.000
G2 X185.970 Y47.196 Z-4.000 I-744.641 J-902.566 K0.000 F600.000
G3 X192.542 Y42.591 Z-4.000 I30.528 J36.579 K0.000 F600.000
G3 X198.384 Y40.186 Z-4.000 I10.995 J18.406 K0.000 F600.000
G1 X200.034 Y40.002 Z-4.000 F600.000
G3 X206.223 Y40.840 Z-4.000 I-0.581 J27.574 K0.000 F600.000
G2 X207.924 Y40.009 Z-4.000 I0.320 J-1.503 K0.000 F600.000
G3 X208.649 Y38.065 Z-4.000 I10.958 J2.980 K0.000 F600.000
G3 X211.160 Y34.413 Z-4.000 I36.905 J22.681 K0.000 F600.000
G2 X213.349 Y31.279 Z-4.000 I-16.468 J-13.836 K0.000 F600.000
G2 X213.650 Y27.345 Z-4.000 I-3.672 J-2.260 K0.000 F600.000
G2 X211.603 Y24.160 Z-4.000 I-13.474 J6.409 K0.000 F600.000
G3 X208.843 Y20.248 Z-4.000 I42.182 J-32.692 K0.000 F600.000
G1 X207.985 Y18.170 Z-4.000 F600.000
G2 X206.375 Y17.137 Z-4.000 I-1.424 J0.449 K0.000 F600.000
G3 X199.511 Y17.977 Z-4.000 I-6.624 J-25.678 K0.000 F600.000
G3 X194.609 Y16.486 Z-4.000 I1.880 J-14.980 K0.000 F600.000
G3 X186.024 Y10.845 Z-4.000 I18.995 J-38.262 K0.000 F600.000
G2 X178.345 Y4.486 Z-4.000 I-898.451 J1077.198 K0.000 F600.000
G2 X169.563 Y-1.523 Z-4.000 I-38.114 J46.277 K0.000 F600.000
G2 X155.697 Y-6.056 Z-4.000 I-18.198 J32.194 K0.000 F600.000
G2 X151.522 Y-6.203 Z-4.000 I-3.161 J30.506 K0.000 F600.000
G1 X148.920 Y-5.997 Z-4.000 F600.000
G2 X148.925 Y-4.003 Z-4.000 I0.080 J0.997 K0.000 F600.000
G3 X151.427 Y-3.607 Z-4.000 I-0.327 J10.175 K0.000 F600.000
G3 X158.272 Y-0.307 Z-4.000 I-10.700 J30.941 K0.000 F600.000
G2 X153.747 Y-0.180 Z-4.000 I-1.335 J33.067 K0.000 F600.000
G2 X147.706 Y1.044 Z-4.000 I2.104 J25.904 K0.000 F600.000
G2 X147.725 Y2.962 Z-4.000 I0.294 J0.956 K0.000 F600.000
G3 X154.796 Y5.437 Z-4.000 I-12.909 J48.212 K0.000 F600.000
G2 X152.515 Y5.946 Z-4.000 I4.723 J26.523 K0.000 F600.000
G2 X147.181 Y8.032 Z-4.000 I4.995 J20.626 K0.000 F600.000
G2 X143.233 Y11.358 Z-4.000 I6.860 J12.150 K0.000 F600.000
G2 X144.158 Y12.987 Z-4.000 I0.767 J0.642 K0.000 F600.000
G3 X150.006 Y12.843 Z-4.000 I3.351 J17.234 K0.000 F600.000
G2 X146.254 Y14.004 Z-4.000 I4.581 J21.442 K0.000 F600.000
G2 X142.786 Y16.085 Z-4.000 I3.589 J9.914 K0.000 F600.000
G2 X141.069 Y18.634 Z-4.000 I4.007 J4.550 K0.000 F600.000
G2 X142.020 Y20.000 Z-4.000 I0.931 J0.366 K0.000 F600.000
G3 X143.331 Y20.013 Z-4.000 I0.547 J10.694 K0.000 F600.000
G3 X145.573 Y20.504 Z-4.000 I-0.211 J6.330 K0.000 F600.000
G2 X142.952 Y21.431 Z-4.000 I4.522 J16.948 K0.000 F600.000
G2 X137.976 Y25.739 Z-4.000 I4.250 J9.939 K0.000 F600.000
G3 X136.357 Y27.404 Z-4.000 I-3.312 J-1.602 K0.000 F600.000
G3 X134.652 Y28.063 Z-4.000 I-6.037 J-13.084 K0.000 F600.000
G2 X134.652 Y29.937 Z-4.000 I0.348 J0.937 K0.000 F600.000
G1 X136.013 Y30.443 Z-4.000 F600.000
G3 X137.640 Y31.724 Z-4.000 I-1.101 J3.073 K0.000 F600.000
G2 X141.587 Y35.864 Z-4.000 I9.927 J-5.513 K0.000 F600.000
G2 X145.568 Y37.495 Z-4.000 I8.044 J-13.957 K0.000 F600.000
G3 X144.871 Y37.753 Z-4.000 I-1.561 J-3.148 K0.000 F600.000
G3 X142.003 Y38.000 Z-4.000 I-2.443 J-11.586 K0.000 F600.000
G2 X141.008 Y39.122 Z-4.000 I-0.003 J1.000 K0.000 F600.000
G2 X142.531 Y41.687 Z-4.000 I5.637 J-1.614 K0.000 F600.000
G2 X145.908 Y43.867 Z-4.000 I8.280 J-9.121 K0.000 F600.000
G2 X150.069 Y45.156 Z-4.000 I8.953 J-21.546 K0.000 F600.000
G3 X144.157 Y45.012 Z-4.000 I-2.521 J-17.955 K0.000 F600.000
G2 X143.098 Y46.432 Z-4.000 I-0.157 J0.988 K0.000 F600.000
G2 X146.926 Y49.822 Z-4.000 I10.504 J-8.007 K0.000 F600.000
G2 X154.840 Y52.570 Z-4.000 I11.726 J-20.993 K0.000 F600.000
G3 X147.718 Y55.041 Z-4.000 I-22.940 J-54.634 K0.000 F600.000
G2 X147.719 Y56.960 Z-4.000 I0.282 J0.959 K0.000 F600.000
G2 X158.258 Y58.303 Z-4.000 I8.947 J-28.193 K0.000 F600.000
G3 X156.119 Y59.551 Z-4.000 I-20.034 J-31.867 K0.000 F600.000
G3 X151.472 Y61.572 Z-4.000 I-10.663 J-18.163 K0.000 F600.000
G3 X148.966 Y62.001 Z-4.000 I-2.653 J-7.972 K0.000 F600.000
G2 X148.906 Y63.996 Z-4.000 I0.034 J0.999 K0.000 F600.000
G2 X159.267 Y63.489 Z-4.000 I3.674 J-31.068 K0.000 F600.000
G2 X170.721 Y58.877 Z-4.000 I-9.417 J-39.914 K0.000 F600.000
G2 X178.337 Y53.526 Z-4.000 I-34.027 J-56.533 K0.000 F600.000
G2 X179.835 Y52.292 Z-4.000 I-743.143 J-903.800 K0.000 F600.000
G0 Z5.000
G0 X128.998 Y52.033 Z5.000
G0 X128.998 Y52.033 Z3.000
G1 X128.998 Y52.033 Z-4.000 F600.000
G2 X121.000 Y45.084 Z-4.000 I-6.987 J-0.036 K0.000 F600.000
G1 X121.000 Y33.081 Z-4.000 F600.000
G1 X134.987 Y-52.839 Z-4.000 F600.000
G2 X134.000 Y-54.000 Z-4.000 I-0.987 J-0.161 K0.000 F600.000
G1 X83.000 Y-54.000 Z-4.000 F600.000
G2 X82.011 Y-52.851 Z-4.000 I-0.000 J1.000 K0.000 F600.000
G1 X95.000 Y33.075 Z-4.000 F600.000
G1 X95.000 Y45.081 Z-4.000 F600.000
G2 X90.039 Y57.757 Z-4.000 I-1.010 J6.914 K0.000 F600.000
G2 X90.998 Y59.000 Z-4.000 I0.953 J0.256 K0.000 F600.000
G2 X98.817 Y58.996 Z-4.000 I3.335 J-1282.669 K0.000 F600.000
G2 X100.873 Y58.903 Z-4.000 I0.424 J-13.283 K0.000 F600.000
G3 X100.083 Y61.601 Z-4.000 I-8.837 J-1.124 K0.000 F600.000
G2 X101.000 Y63.000 Z-4.000 I0.917 J0.399 K0.000 F600.000
G1 X115.000 Y63.000 Z-4.000 F600.000
G2 X115.925 Y61.619 Z-4.000 I-0.000 J-1.000 K0.000 F600.000
G3 X115.122 Y58.899 Z-4.000 I8.473 J-3.977 K0.000 F600.000
G2 X115.938 Y58.968 Z-4.000 I1.101 J-8.146 K0.000 F600.000
G2 X125.004 Y59.000 Z-4.000 I5.819 J-362.844 K0.000 F600.000
G2 X125.962 Y57.760 Z-4.000 I0.001 J-0.989 K0.000 F600.000
G2 X128.998 Y52.033 Z-4.000 I-3.950 J-5.763 K0.000 F600.000
G0 Z5.000
G0 X73.999 Y52.032 Z5.000
G0 X73.999 Y52.032 Z3.000
G1 X73.999 Y52.032 Z-4.000 F600.000
G1 X74.000 Y-52.000 Z-4.000 F600.000
G2 X73.000 Y-53.000 Z-4.000 I-1.000 J0.000 K0.000 F600.000
G1 X50.000 Y-53.000 Z-4.000 F600.000
G2 X49.011 Y-51.851 Z-4.000 I-0.000 J1.000 K0.000 F600.000
G1 X62.000 Y34.075 Z-4.000 F600.000
G1 X62.000 Y46.081 Z-4.000 F600.000
G2 X57.039 Y58.757 Z-4.000 I-1.010 J6.914 K0.000 F600.000
G2 X57.998 Y60.000 Z-4.000 I0.953 J0.256 K0.000 F600.000
G2 X65.817 Y59.996 Z-4.000 I3.335 J-1282.669 K0.000 F600.000
G2 X67.873 Y59.903 Z-4.000 I0.424 J-13.283 K0.000 F600.000
G3 X67.083 Y62.601 Z-4.000 I-8.837 J-1.124 K0.000 F600.000
G2 X67.940 Y63.998 Z-4.000 I0.917 J0.399 K0.000 F600.000
G2 X71.485 Y62.749 Z-4.000 I-1.201 J-9.062 K0.000 F600.000
G2 X73.999 Y58.090 Z-4.000 I-2.809 J-4.524 K0.000 F600.000
G1 X73.999 Y52.032 Z-4.000 F600.000
G0 Z5.000
G0 X48.392 Y55.903 Z5.000
G0 X48.392 Y55.903 Z3.000
G1 X48.392 Y55.903 Z-4.000 F600.000
G1 X36.000 Y-26.075 Z-4.000 F600.000
G1 X36.000 Y-38.081 Z-4.000 F600.000
G2 X40.961 Y-50.757 Z-4.000 I1.010 J-6.914 K0.000 F600.000
G2 X40.002 Y-52.000 Z-4.000 I-0.953 J-0.256 K0.000 F600.000
G2 X32.183 Y-51.996 Z-4.000 I-3.335 J1282.723 K0.000 F600.000
G2 X30.127 Y-51.903 Z-4.000 I-0.424 J13.283 K0.000 F600.000
G3 X30.917 Y-54.601 Z-4.000 I8.837 J1.124 K0.000 F600.000
G2 X30.060 Y-55.998 Z-4.000 I-0.917 J-0.399 K0.000 F600.000
G2 X26.515 Y-54.749 Z-4.000 I1.201 J9.062 K0.000 F600.000
G2 X24.001 Y-50.090 Z-4.000 I2.809 J4.524 K0.000 F600.000
G1 X24.000 Y60.000 Z-4.000 F600.000
G2 X25.000 Y61.000 Z-4.000 I1.000 J-0.000 K0.000 F600.000
G1 X48.000 Y61.000 Z-4.000 F600.000
G2 X48.989 Y59.851 Z-4.000 I0.000 J-1.000 K0.000 F600.000
G1 X48.392 Y55.903 Z-4.000 F600.000
G0 Z5.000
G0 X156.169 Y-29.082 Z5.000
G0 X156.169 Y-29.082 Z3.000
G1 X156.169 Y-29.082 Z-4.000 F600.000
G2 X157.246 Y-27.949 Z-4.000 I6.641 J-5.237 K0.000 F600.000
G2 X164.286 Y-25.020 Z-4.000 I7.981 J-9.258 K0.000 F600.000
G2 X172.909 Y-28.133 Z-4.000 I0.607 J-11.822 K0.000 F600.000
G2 X175.323 Y-31.998 Z-4.000 I-5.485 J-6.111 K0.000 F600.000
G2 X175.968 Y-38.982 Z-4.000 I-22.165 J-5.568 K0.000 F600.000
G2 X174.694 Y-43.828 Z-4.000 I-17.983 J2.135 K0.000 F600.000
G2 X170.828 Y-50.127 Z-4.000 I-18.266 J6.877 K0.000 F600.000
G2 X168.375 Y-52.135 Z-4.000 I-7.141 J6.219 K0.000 F600.000
G1 X167.653 Y-52.758 Z-4.000 F600.000
G2 X166.532 Y-52.882 Z-4.000 I-0.651 J0.754 K0.000 F600.000
G1 X165.707 Y-53.707 Z-4.000 F600.000
G1 X165.548 Y-53.836 Z-4.000 F600.000
G2 X164.293 Y-53.707 Z-4.000 I-0.548 J0.836 K0.000 F600.000
G1 X163.462 Y-52.876 Z-4.000 F600.000
G2 X162.337 Y-52.748 Z-4.000 I-0.475 J0.838 K0.000 F600.000
G3 X161.136 Y-51.798 Z-4.000 I-6.194 J-6.588 K0.000 F600.000
G2 X159.524 Y-50.526 Z-4.000 I3.372 J5.932 K0.000 F600.000
G2 X154.163 Y-39.987 Z-4.000 I15.801 J14.671 K0.000 F600.000
G2 X154.505 Y-32.725 Z-4.000 I21.374 J2.634 K0.000 F600.000
G2 X156.169 Y-29.082 Z-4.000 I8.306 J-1.594 K0.000 F600.000
G0 Z5.000
G0 X184.078 Y-21.840 Z5.000
G0 X184.078 Y-21.840 Z3.000
G1 X184.078 Y-21.840 Z-4.000 F600.000
G2 X185.030 Y-20.130 Z-4.000 I1.372 J0.356 K0.000 F600.000
G3 X185.779 Y-19.796 Z-4.000 I-0.286 J1.646 K0.000 F600.000
G3 X186.382 Y-19.202 Z-4.000 I-18.680 J19.596 K0.000 F600.000
G2 X188.508 Y-17.254 Z-4.000 I11.481 J-10.391 K0.000 F600.000
G1 X188.455 Y-17.078 Z-4.000 F600.000
G2 X188.500 Y-8.793 Z-4.000 I16.733 J4.052 K0.000 F600.000
G2 X187.450 Y-7.945 Z-4.000 I4.249 J6.331 K0.000 F600.000
G3 X185.983 Y-6.466 Z-4.000 I-20.003 J-18.382 K0.000 F600.000
G3 X185.208 Y-5.987 Z-4.000 I-1.048 J-0.827 K0.000 F600.000
G2 X184.828 Y-3.312 Z-4.000 I0.243 J1.399 K0.000 F600.000
G2 X188.273 Y-3.936 Z-4.000 I1.227 J-3.048 K0.000 F600.000
G3 X189.081 Y-4.723 Z-4.000 I7.570 J6.955 K0.000 F600.000
G2 X190.793 Y-3.093 Z-4.000 I1.457 J0.183 K0.000 F600.000
G2 X192.256 Y-3.906 Z-4.000 I-0.777 J-3.122 K0.000 F600.000
G2 X194.229 Y-3.024 Z-4.000 I4.708 J-7.883 K0.000 F600.000
G2 X202.491 Y-2.371 Z-4.000 I5.619 J-18.489 K0.000 F600.000
G1 X202.739 Y-2.428 Z-4.000 F600.000
G2 X203.407 Y-3.027 Z-4.000 I-0.795 J-1.558 K0.000 F600.000
G1 X204.064 Y-3.025 Z-4.000 F600.000
G2 X210.300 Y-3.419 Z-4.000 I0.761 J-37.517 K0.000 F600.000
G1 X213.922 Y-3.447 Z-4.000 F600.000
G2 X215.746 Y-4.533 Z-4.000 I0.040 J-2.006 K0.000 F600.000
G2 X215.976 Y-6.175 Z-4.000 I-3.025 J-1.260 K0.000 F600.000
G2 X214.021 Y-8.225 Z-4.000 I-2.013 J-0.038 K0.000 F600.000
G2 X208.429 Y-6.800 Z-4.000 I1.693 J18.327 K0.000 F600.000
G3 X205.547 Y-6.059 Z-4.000 I-3.292 J-6.824 K0.000 F600.000
G3 X199.524 Y-6.042 Z-4.000 I-3.319 J-110.220 K0.000 F600.000
G3 X197.123 Y-6.123 Z-4.000 I-0.474 J-21.610 K0.000 F600.000
G3 X194.995 Y-7.023 Z-4.000 I0.096 J-3.192 K0.000 F600.000
G2 X195.992 Y-7.399 Z-4.000 I-0.071 J-1.701 K0.000 F600.000
G2 X196.087 Y-10.577 Z-4.000 I-1.442 J-1.634 K0.000 F600.000
G2 X194.661 Y-11.017 Z-4.000 I-1.183 J1.304 K0.000 F600.000
G3 X195.695 Y-12.339 Z-4.000 I4.671 J2.592 K0.000 F600.000
G2 X195.697 Y-13.716 Z-4.000 I-0.724 J-0.690 K0.000 F600.000
G3 X194.655 Y-15.057 Z-4.000 I3.857 J-4.076 K0.000 F600.000
G2 X195.994 Y-15.386 Z-4.000 I0.292 J-1.700 K0.000 F600.000
G2 X196.572 Y-17.837 Z-4.000 I-1.435 J-1.632 K0.000 F600.000
G2 X194.999 Y-19.036 Z-4.000 I-1.629 J0.506 K0.000 F600.000
G3 X196.430 Y-19.822 Z-4.000 I1.987 J1.924 K0.000 F600.000
G3 X197.947 Y-19.992 Z-4.000 I2.632 J16.589 K0.000 F600.000
G3 X205.344 Y-20.013 Z-4.000 I4.210 J182.224 K0.000 F600.000
G3 X206.898 Y-19.813 Z-4.000 I0.019 J5.982 K0.000 F600.000
G3 X210.404 Y-18.541 Z-4.000 I-179.530 J500.563 K0.000 F600.000
G1 X213.635 Y-17.858 Z-4.000 F600.000
G2 X215.789 Y-19.003 Z-4.000 I0.332 J-1.975 K0.000 F600.000
G2 X215.968 Y-20.687 Z-4.000 I-3.368 J-1.210 K0.000 F600.000
G2 X213.993 Y-22.608 Z-4.000 I-2.000 J0.081 K0.000 F600.000
G3 X208.492 Y-22.865 Z-4.000 I-1.683 J-22.970 K0.000 F600.000
G2 X203.407 Y-23.029 Z-4.000 I-4.576 J62.682 K0.000 F600.000
G1 X203.303 Y-23.153 Z-4.000 F600.000
G2 X202.500 Y-23.685 Z-4.000 I-0.950 J0.561 K0.000 F600.000
G2 X200.971 Y-23.823 Z-4.000 I-2.749 J21.954 K0.000 F600.000
G2 X195.432 Y-23.369 Z-4.000 I-1.279 J18.421 K0.000 F600.000
G2 X192.239 Y-22.164 Z-4.000 I2.591 J11.693 K0.000 F600.000
G2 X191.189 Y-22.856 Z-4.000 I-2.333 J2.396 K0.000 F600.000
G2 X189.067 Y-21.354 Z-4.000 I-0.623 J1.369 K0.000 F600.000
G1 X188.662 Y-21.752 Z-4.000 F600.000
G2 X185.022 Y-22.835 Z-4.000 I-2.640 J2.218 K0.000 F600.000
G2 X184.078 Y-21.840 Z-4.000 I0.427 J1.351 K0.000 F600.000
G0 Z5.000
G0 X189.503 Y-55.041 Z5.000
G0 X189.503 Y-55.041 Z3.000
G1 X189.503 Y-55.041 Z-4.000 F600.000
G2 X195.356 Y-54.325 Z-4.000 I11.820 J-72.333 K0.000 F600.000
G2 X209.034 Y-53.701 Z-4.000 I16.544 J-212.448 K0.000 F600.000
G2 X218.478 Y-53.690 Z-4.000 I5.627 J-802.736 K0.000 F600.000
G1 X223.250 Y-53.438 Z-4.000 F600.000
G2 X224.171 Y-54.934 Z-4.000 I0.053 J-0.999 K0.000 F600.000
G2 X222.545 Y-56.300 Z-4.000 I-4.168 J3.309 K0.000 F600.000
G2 X218.822 Y-57.664 Z-4.000 I-8.243 J16.740 K0.000 F600.000
G3 X217.464 Y-58.005 Z-4.000 I1.310 J-8.083 K0.000 F600.000
G1 X219.238 Y-58.976 Z-4.000 F600.000
G2 X219.344 Y-60.664 Z-4.000 I-0.480 J-0.877 K0.000 F600.000
G2 X216.706 Y-61.444 Z-4.000 I-3.701 J7.670 K0.000 F600.000
G2 X211.852 Y-61.416 Z-4.000 I-2.292 J23.751 K0.000 F600.000
G3 X189.350 Y-60.050 Z-4.000 I-23.565 J-202.207 K0.000 F600.000
G3 X185.744 Y-60.282 Z-4.000 I0.098 J-29.704 K0.000 F600.000
G2 X184.543 Y-56.414 Z-4.000 I-0.201 J2.058 K0.000 F600.000
G2 X188.485 Y-55.215 Z-4.000 I8.057 J-19.407 K0.000 F600.000
G2 X189.503 Y-55.041 Z-4.000 I12.838 J-72.159 K0.000 F600.000
G1 X189.503 Y-55.041 Z-5.000 F600.000
G2 X195.356 Y-54.325 Z-5.000 I11.820 J-72.333 K0.000 F600.000
G2 X209.034 Y-53.701 Z-5.000 I16.544 J-212.448 K0.000 F600.000
G2 X218.478 Y-53.690 Z-5.000 I5.627 J-802.736 K0.000 F600.000
G1 X223.250 Y-53.438 Z-5.000 F600.000
G2 X224.171 Y-54.934 Z-5.000 I0.053 J-0.999 K0.000 F600.000
G2 X222.545 Y-56.300 Z-5.000 I-4.168 J3.309 K0.000 F600.000
G2 X218.822 Y-57.664 Z-5.000 I-8.243 J16.740 K0.000 F600.000
G3 X217.464 Y-58.005 Z-5.000 I1.310 J-8.083 K0.000 F600.000
G1 X219.238 Y-58.976 Z-5.000 F600.000
G2 X219.344 Y-60.664 Z-5.000 I-0.480 J-0.877 K0.000 F600.000
G2 X216.706 Y-61.444 Z-5.000 I-3.701 J7.670 K0.000 F600.000
G2 X211.852 Y-61.416 Z-5.000 I-2.292 J23.751 K0.000 F600.000
G3 X189.350 Y-60.050 Z-5.000 I-23.565 J-202.207 K0.000 F600.000
G3 X185.744 Y-60.282 Z-5.000 I0.098 J-29.704 K0.000 F600.000
G2 X184.543 Y-56.414 Z-5.000 I-0.201 J2.058 K0.000 F600.000
G2 X188.485 Y-55.215 Z-5.000 I8.057 J-19.407 K0.000 F600.000
G2 X189.503 Y-55.041 Z-5.000 I12.838 J-72.159 K0.000 F600.000
G0 Z5.000
G0 X173.552 Y-46.317 Z5.000
G0 X173.552 Y-46.317 Z3.000
G1 X173.552 Y-46.317 Z-5.000 F600.000
G2 X170.828 Y-50.127 Z-5.000 I-17.123 J9.366 K0.000 F600.000
G2 X168.375 Y-52.135 Z-5.000 I-7.141 J6.219 K0.000 F600.000
G1 X167.653 Y-52.758 Z-5.000 F600.000
G2 X166.532 Y-52.882 Z-5.000 I-0.651 J0.754 K0.000 F600.000
G1 X165.707 Y-53.707 Z-5.000 F600.000
G1 X165.548 Y-53.836 Z-5.000 F600.000
G2 X164.293 Y-53.707 Z-5.000 I-0.548 J0.836 K0.000 F600.000
G1 X163.462 Y-52.876 Z-5.000 F600.000
G2 X162.337 Y-52.748 Z-5.000 I-0.475 J0.838 K0.000 F600.000
G3 X161.136 Y-51.798 Z-5.000 I-6.194 J-6.588 K0.000 F600.000
G2 X159.524 Y-50.526 Z-5.000 I3.372 J5.932 K0.000 F600.000
G2 X154.163 Y-39.987 Z-5.000 I15.801 J14.671 K0.000 F600.000
G2 X154.505 Y-32.725 Z-5.000 I21.374 J2.634 K0.000 F600.000
G2 X157.246 Y-27.949 Z-5.000 I8.306 J-1.594 K0.000 F600.000
G2 X164.286 Y-25.020 Z-5.000 I7.981 J-9.258 K0.000 F600.000
G2 X172.909 Y-28.133 Z-5.000 I0.607 J-11.822 K0.000 F600.000
G2 X175.323 Y-31.998 Z-5.000 I-5.485 J-6.111 K0.000 F600.000
G2 X175.968 Y-38.982 Z-5.000 I-22.165 J-5.568 K0.000 F600.000
G2 X174.694 Y-43.828 Z-5.000 I-17.983 J2.135 K0.000 F600.000
G2 X173.552 Y-46.317 Z-5.000 I-18.266 J6.877 K0.000 F600.000
G0 Z5.000
G0 X184.837 Y-22.762 Z5.000
G0 X184.837 Y-22.762 Z3.000
G1 X184.837 Y-22.762 Z-5.000 F600.000
G2 X185.030 Y-20.130 Z-5.000 I0.612 J1.278 K0.000 F600.000
G3 X185.779 Y-19.796 Z-5.000 I-0.286 J1.646 K0.000 F600.000
G3 X186.382 Y-19.202 Z-5.000 I-18.680 J19.596 K0.000 F600.000
G2 X188.508 Y-17.254 Z-5.000 I11.481 J-10.391 K0.000 F600.000
G1 X188.455 Y-17.078 Z-5.000 F600.000
G2 X188.500 Y-8.793 Z-5.000 I16.733 J4.052 K0.000 F600.000
G2 X187.450 Y-7.945 Z-5.000 I4.249 J6.331 K0.000 F600.000
G3 X185.983 Y-6.466 Z-5.000 I-20.003 J-18.382 K0.000 F600.000
G3 X185.208 Y-5.987 Z-5.000 I-1.048 J-0.827 K0.000 F600.000
G2 X184.828 Y-3.312 Z-5.000 I0.243 J1.399 K0.000 F600.000
G2 X188.273 Y-3.936 Z-5.000 I1.227 J-3.048 K0.000 F600.000
G3 X189.081 Y-4.723 Z-5.000 I7.570 J6.955 K0.000 F600.000
G2 X190.793 Y-3.093 Z-5.000 I1.457 J0.183 K0.000 F600.000
G2 X192.256 Y-3.906 Z-5.000 I-0.777 J-3.122 K0.000 F600.000
G2 X194.229 Y-3.024 Z-5.000 I4.708 J-7.883 K0.000 F600.000
G2 X202.491 Y-2.371 Z-5.000 I5.619 J-18.489 K0.000 F600.000
G1 X202.739 Y-2.428 Z-5.000 F600.000
G2 X203.407 Y-3.027 Z-5.000 I-0.795 J-1.558 K0.000 F600.000
G1 X204.064 Y-3.025 Z-5.000 F600.000
G2 X210.300 Y-3.419 Z-5.000 I0.761 J-37.517 K0.000 F600.000
G1 X213.922 Y-3.447 Z-5.000 F600.000
G2 X215.746 Y-4.533 Z-5.000 I0.040 J-2.006 K0.000 F600.000
G2 X215.976 Y-6.175 Z-5.000 I-3.025 J-1.260 K0.000 F600.000
G2 X214.021 Y-8.225 Z-5.000 I-2.013 J-0.038 K0.000 F600.000
G2 X208.429 Y-6.800 Z-5.000 I1.693 J18.327 K0.000 F600.000
G3 X205.547 Y-6.059 Z-5.000 I-3.292 J-6.824 K0.000 F600.000
G3 X199.524 Y-6.042 Z-5.000 I-3.319 J-110.220 K0.000 F600.000
G3 X197.123 Y-6.123 Z-5.000 I-0.474 J-21.610 K0.000 F600.000
G3 X194.995 Y-7.023 Z-5.000 I0.096 J-3.192 K0.000 F600.000
G2 X195.992 Y-7.399 Z-5.000 I-0.071 J-1.701 K0.000 F600.000
G2 X196.087 Y-10.577 Z-5.000 I-1.442 J-1.634 K0.000 F600.000
G2 X194.661 Y-11.017 Z-5.000 I-1.183 J1.304 K0.000 F600.000
G3 X195.695 Y-12.339 Z-5.000 I4.671 J2.592 K0.000 F600.000
G2 X195.697 Y-13.716 Z-5.000 I-0.724 J-0.690 K0.000 F600.000
G3 X194.655 Y-15.057 Z-5.000 I3.857 J-4.076 K0.000 F600.000
G2 X195.994 Y-15.386 Z-5.000 I0.292 J-1.700 K0.000 F600.000
G2 X196.572 Y-17.837 Z-5.000 I-1.435 J-1.632 K0.000 F600.000
G2 X194.999 Y-19.036 Z-5.000 I-1.629 J0.506 K0.000 F600.000
G3 X196.430 Y-19.822 Z-5.000 I1.987 J1.924 K0.000 F600.000
G3 X197.947 Y-19.992 Z-5.000 I2.632 J16.589 K0.000 F600.000
G3 X205.344 Y-20.013 Z-5.000 I4.210 J182.224 K0.000 F600.000
G3 X206.898 Y-19.813 Z-5.000 I0.019 J5.982 K0.000 F600.000
G3 X210.404 Y-18.541 Z-5.000 I-179.530 J500.563 K0.000 F600.000
G1 X213.635 Y-17.858 Z-5.000 F600.000
G2 X215.789 Y-19.003 Z-5.000 I0.332 J-1.975 K0.000 F600.000
G2 X215.968 Y-20.687 Z-5.000 I-3.368 J-1.210 K0.000 F600.000
G2 X213.993 Y-22.608 Z-5.000 I-2.000 J0.081 K0.000 F600.000
G3 X208.492 Y-22.865 Z-5.000 I-1.683 J-22.970 K0.000 F600.000
G2 X203.407 Y-23.029 Z-5.000 I-4.576 J62.682 K0.000 F600.000
G1 X203.303 Y-23.153 Z-5.000 F600.000
G2 X202.500 Y-23.685 Z-5.000 I-0.950 J0.561 K0.000 F600.000
G2 X200.971 Y-23.823 Z-5.000 I-2.749 J21.954 K0.000 F600.000
G2 X195.432 Y-23.369 Z-5.000 I-1.279 J18.421 K0.000 F600.000
G2 X192.239 Y-22.164 Z-5.000 I2.591 J11.693 K0.000 F600.000
G2 X191.189 Y-22.856 Z-5.000 I-2.333 J2.396 K0.000 F600.000
G2 X189.067 Y-21.354 Z-5.000 I-0.623 J1.369 K0.000 F600.000
G1 X188.662 Y-21.752 Z-5.000 F600.000
G2 X185.022 Y-22.835 Z-5.000 I-2.640 J2.218 K0.000 F600.000
G2 X184.837 Y-22.762 Z-5.000 I0.427 J1.351 K0.000 F600.000
G0 Z5.000
G0 X171.327 Y-0.494 Z5.000
G0 X171.327 Y-0.494 Z3.000
G1 X171.327 Y-0.494 Z-5.000 F600.000
G2 X169.563 Y-1.523 Z-5.000 I-31.097 J51.256 K0.000 F600.000
G2 X155.697 Y-6.056 Z-5.000 I-18.198 J32.194 K0.000 F600.000
G2 X151.522 Y-6.203 Z-5.000 I-3.161 J30.506 K0.000 F600.000
G1 X148.920 Y-5.997 Z-5.000 F600.000
G2 X148.925 Y-4.003 Z-5.000 I0.080 J0.997 K0.000 F600.000
G3 X151.427 Y-3.607 Z-5.000 I-0.327 J10.175 K0.000 F600.000
G3 X158.272 Y-0.307 Z-5.000 I-10.700 J30.941 K0.000 F600.000
G2 X153.747 Y-0.180 Z-5.000 I-1.335 J33.067 K0.000 F600.000
G2 X147.706 Y1.044 Z-5.000 I2.104 J25.904 K0.000 F600.000
G2 X147.725 Y2.962 Z-5.000 I0.294 J0.956 K0.000 F600.000
G3 X154.796 Y5.437 Z-5.000 I-12.909 J48.212 K0.000 F600.000
G2 X152.515 Y5.946 Z-5.000 I4.723 J26.523 K0.000 F600.000
G2 X147.181 Y8.032 Z-5.000 I4.995 J20.626 K0.000 F600.000
G2 X143.233 Y11.358 Z-5.000 I6.860 J12.150 K0.000 F600.000
G2 X144.158 Y12.987 Z-5.000 I0.767 J0.642 K0.000 F600.000
G3 X150.006 Y12.843 Z-5.000 I3.351 J17.234 K0.000 F600.000
G2 X146.254 Y14.004 Z-5.000 I4.581 J21.442 K0.000 F600.000
G2 X142.786 Y16.085 Z-5.000 I3.589 J9.914 K0.000 F600.000
G2 X141.069 Y18.634 Z-5.000 I4.007 J4.550 K0.000 F600.000
G2 X142.020 Y20.000 Z-5.000 I0.931 J0.366 K0.000 F600.000
G3 X143.331 Y20.013 Z-5.000 I0.547 J10.694 K0.000 F600.000
G3 X145.573 Y20.504 Z-5.000 I-0.211 J6.330 K0.000 F600.000
G2 X142.952 Y21.431 Z-5.000 I4.522 J16.948 K0.000 F600.000
G2 X137.976 Y25.739 Z-5.000 I4.250 J9.939 K0.000 F600.000
G3 X136.357 Y27.404 Z-5.000 I-3.312 J-1.602 K0.000 F600.000
G3 X134.652 Y28.063 Z-5.000 I-6.037 J-13.084 K0.000 F600.000
G2 X134.652 Y29.937 Z-5.000 I0.348 J0.937 K0.000 F600.000
G1 X136.013 Y30.443 Z-5.000 F600.000
G3 X137.640 Y31.724 Z-5.000 I-1.101 J3.073 K0.000 F600.000
G2 X141.587 Y35.864 Z-5.000 I9.927 J-5.513 K0.000 F600.000
G2 X145.568 Y37.495 Z-5.000 I8.044 J-13.957 K0.000 F600.000
G3 X144.871 Y37.753 Z-5.000 I-1.561 J-3.148 K0.000 F600.000
G3 X142.003 Y38.000 Z-5.000 I-2.443 J-11.586 K0.000 F600.000
G2 X141.008 Y39.122 Z-5.000 I-0.003 J1.000 K0.000 F600.000
G2 X142.531 Y41.687 Z-5.000 I5.637 J-1.614 K0.000 F600.000
G2 X145.908 Y43.867 Z-5.000 I8.280 J-9.121 K0.000 F600.000
G2 X150.069 Y45.156 Z-5.000 I8.953 J-21.546 K0.000 F600.000
G3 X144.157 Y45.012 Z-5.000 I-2.521 J-17.955 K0.000 F600.000
G2 X143.098 Y46.432 Z-5.000 I-0.157 J0.988 K0.000 F600.000
G2 X146.926 Y49.822 Z-5.000 I10.504 J-8.007 K0.000 F600.000
G2 X154.840 Y52.570 Z-5.000 I11.726 J-20.993 K0.000 F600.000
G3 X147.718 Y55.041 Z-5.000 I-22.940 J-54.634 K0.000 F600.000
G2 X147.719 Y56.960 Z-5.000 I0.282 J0.959 K0.000 F600.000
G2 X158.258 Y58.303 Z-5.000 I8.947 J-28.193 K0.000 F600.000
G3 X156.119 Y59.551 Z-5.000 I-20.034 J-31.867 K0.000 F600.000
G3 X151.472 Y61.572 Z-5.000 I-10.663 J-18.163 K0.000 F600.000
G3 X148.966 Y62.001 Z-5.000 I-2.653 J-7.972 K0.000 F600.000
G2 X148.906 Y63.996 Z-5.000 I0.034 J0.999 K0.000 F600.000
G2 X159.267 Y63.489 Z-5.000 I3.674 J-31.068 K0.000 F600.000
G2 X170.721 Y58.877 Z-5.000 I-9.417 J-39.914 K0.000 F600.000
G2 X178.337 Y53.526 Z-5.000 I-34.027 J-56.533 K0.000 F600.000
G2 X185.970 Y47.196 Z-5.000 I-743.143 J-903.800 K0.000 F600.000
G3 X192.542 Y42.591 Z-5.000 I30.528 J36.579 K0.000 F600.000
G3 X198.384 Y40.186 Z-5.000 I10.995 J18.406 K0.000 F600.000
G1 X200.034 Y40.002 Z-5.000 F600.000
G3 X206.223 Y40.840 Z-5.000 I-0.581 J27.574 K0.000 F600.000
G2 X207.924 Y40.009 Z-5.000 I0.320 J-1.503 K0.000 F600.000
G3 X208.649 Y38.065 Z-5.000 I10.958 J2.980 K0.000 F600.000
G3 X211.160 Y34.413 Z-5.000 I36.905 J22.681 K0.000 F600.000
G2 X213.349 Y31.279 Z-5.000 I-16.468 J-13.836 K0.000 F600.000
G2 X213.650 Y27.345 Z-5.000 I-3.672 J-2.260 K0.000 F600.000
G2 X211.603 Y24.160 Z-5.000 I-13.474 J6.409 K0.000 F600.000
G3 X208.843 Y20.248 Z-5.000 I42.182 J-32.692 K0.000 F600.000
G1 X207.985 Y18.170 Z-5.000 F600.000
G2 X206.375 Y17.137 Z-5.000 I-1.424 J0.449 K0.000 F600.000
G3 X199.511 Y17.977 Z-5.000 I-6.624 J-25.678 K0.000 F600.000
G3 X194.609 Y16.486 Z-5.000 I1.880 J-14.980 K0.000 F600.000
G3 X186.024 Y10.845 Z-5.000 I18.995 J-38.262 K0.000 F600.000
G2 X178.345 Y4.486 Z-5.000 I-898.451 J1077.198 K0.000 F600.000
G2 X171.327 Y-0.494 Z-5.000 I-38.114 J46.277 K0.000 F600.000
G0 Z5.000
G0 X127.624 Y-7.608 Z5.000
G0 X127.624 Y-7.608 Z3.000
G1 X127.624 Y-7.608 Z-5.000 F600.000
G1 X134.987 Y-52.839 Z-5.000 F600.000
G2 X134.000 Y-54.000 Z-5.000 I-0.987 J-0.161 K0.000 F600.000
G1 X83.000 Y-54.000 Z-5.000 F600.000
G2 X82.011 Y-52.851 Z-5.000 I-0.000 J1.000 K0.000 F600.000
G1 X95.000 Y33.075 Z-5.000 F600.000
G1 X95.000 Y45.081 Z-5.000 F600.000
G2 X90.039 Y57.757 Z-5.000 I-1.010 J6.914 K0.000 F600.000
G2 X90.998 Y59.000 Z-5.000 I0.953 J0.256 K0.000 F600.000
G2 X98.817 Y58.996 Z-5.000 I3.335 J-1282.669 K0.000 F600.000
G2 X100.873 Y58.903 Z-5.000 I0.424 J-13.283 K0.000 F600.000
G3 X100.083 Y61.601 Z-5.000 I-8.837 J-1.124 K0.000 F600.000
G2 X101.000 Y63.000 Z-5.000 I0.917 J0.399 K0.000 F600.000
G1 X115.000 Y63.000 Z-5.000 F600.000
G2 X115.925 Y61.619 Z-5.000 I-0.000 J-1.000 K0.000 F600.000
G3 X115.122 Y58.899 Z-5.000 I8.473 J-3.977 K0.000 F600.000
G2 X115.938 Y58.968 Z-5.000 I1.101 J-8.146 K0.000 F600.000
G2 X125.004 Y59.000 Z-5.000 I5.819 J-362.844 K0.000 F600.000
G2 X125.962 Y57.760 Z-5.000 I0.001 J-0.989 K0.000 F600.000
G2 X121.000 Y45.084 Z-5.000 I-3.950 J-5.763 K0.000 F600.000
G1 X121.000 Y33.081 Z-5.000 F600.000
G1 X127.624 Y-7.608 Z-5.000 F600.000
G0 Z5.000
G0 X74.000 Y-7.608 Z5.000
G0 X74.000 Y-7.608 Z3.000
G1 X74.000 Y-7.608 Z-5.000 F600.000
G1 X74.000 Y-52.000 Z-5.000 F600.000
G2 X73.000 Y-53.000 Z-5.000 I-1.000 J0.000 K0.000 F600.000
G1 X50.000 Y-53.000 Z-5.000 F600.000
G2 X49.011 Y-51.851 Z-5.000 I-0.000 J1.000 K0.000 F600.000
G1 X62.000 Y34.075 Z-5.000 F600.000
G1 X62.000 Y46.081 Z-5.000 F600.000
G2 X57.039 Y58.757 Z-5.000 I-1.010 J6.914 K0.000 F600.000
G2 X57.998 Y60.000 Z-5.000 I0.953 J0.256 K0.000 F600.000
G2 X65.817 Y59.996 Z-5.000 I3.335 J-1282.669 K0.000 F600.000
G2 X67.873 Y59.903 Z-5.000 I0.424 J-13.283 K0.000 F600.000
G3 X67.083 Y62.601 Z-5.000 I-8.837 J-1.124 K0.000 F600.000
G2 X67.940 Y63.998 Z-5.000 I0.917 J0.399 K0.000 F600.000
G2 X71.485 Y62.749 Z-5.000 I-1.201 J-9.062 K0.000 F600.000
G2 X73.999 Y58.090 Z-5.000 I-2.809 J-4.524 K0.000 F600.000
G1 X74.000 Y-7.608 Z-5.000 F600.000
G0 Z5.000
G0 X39.578 Y-2.405 Z5.000
G0 X39.578 Y-2.405 Z3.000
G1 X39.578 Y-2.405 Z-5.000 F600.000
G1 X36.000 Y-26.075 Z-5.000 F600.000
G1 X36.000 Y-38.081 Z-5.000 F600.000
G2 X40.961 Y-50.757 Z-5.000 I1.010 J-6.914 K0.000 F600.000
G2 X40.002 Y-52.000 Z-5.000 I-0.953 J-0.256 K0.000 F600.000
G2 X32.183 Y-51.996 Z-5.000 I-3.335 J1282.723 K0.000 F600.000
G2 X30.127 Y-51.903 Z-5.000 I-0.424 J13.283 K0.000 F600.000
G3 X30.917 Y-54.601 Z-5.000 I8.837 J1.124 K0.000 F600.000
G2 X30.060 Y-55.998 Z-5.000 I-0.917 J-0.399 K0.000 F600.000
G2 X26.515 Y-54.749 Z-5.000 I1.201 J9.062 K0.000 F600.000
G2 X24.001 Y-50.090 Z-5.000 I2.809 J4.524 K0.000 F600.000
G1 X24.000 Y60.000 Z-5.000 F600.000
G2 X25.000 Y61.000 Z-5.000 I1.000 J-0.000 K0.000 F600.000
G1 X48.000 Y61.000 Z-5.000 F600.000
G2 X48.989 Y59.851 Z-5.000 I0.000 J-1.000 K0.000 F600.000
G1 X39.578 Y-2.405 Z-5.000 F600.000
G0 Z5.000
G0 X184.778 Y60.042 Z5.000
G0 X184.778 Y60.042 Z3.000
G1 X184.778 Y60.042 Z-5.000 F600.000
G2 X184.829 Y60.934 Z-5.000 I0.919 J0.395 K0.000 F600.000
G2 X186.455 Y62.300 Z-5.000 I4.168 J-3.309 K0.000 F600.000
G2 X190.178 Y63.664 Z-5.000 I8.243 J-16.740 K0.000 F600.000
G3 X191.536 Y64.005 Z-5.000 I-1.310 J8.083 K0.000 F600.000
G1 X189.762 Y64.976 Z-5.000 F600.000
G2 X189.656 Y66.664 Z-5.000 I0.480 J0.877 K0.000 F600.000
G2 X192.294 Y67.444 Z-5.000 I3.701 J-7.670 K0.000 F600.000
G2 X197.145 Y67.416 Z-5.000 I2.294 J-23.292 K0.000 F600.000
G3 X219.650 Y66.050 Z-5.000 I23.569 J202.238 K0.000 F600.000
G3 X223.256 Y66.282 Z-5.000 I-0.098 J29.704 K0.000 F600.000
G2 X224.457 Y62.414 Z-5.000 I0.201 J-2.058 K0.000 F600.000
G2 X220.515 Y61.215 Z-5.000 I-8.057 J19.407 K0.000 F600.000
G2 X213.644 Y60.325 Z-5.000 I-12.838 J72.159 K0.000 F600.000
G2 X199.966 Y59.701 Z-5.000 I-16.544 J212.448 K0.000 F600.000
G2 X190.522 Y59.690 Z-5.000 I-5.627 J802.733 K0.000 F600.000
G1 X185.750 Y59.438 Z-5.000 F600.000
G2 X184.778 Y60.042 Z-5.000 I-0.053 J0.999 K0.000 F600.000
G0 Z5.000
G0 Z5.000
(Finish operation: Profile)
(Begin postamble)
M5
G17 G90
M2
