(Exported by FreeCAD)
(Post Processor: script_module)
(Output Time:2025-03-14 11:05:32.970136)
(Begin preamble)
G17 G90
G21
(Begin operation: Fixture)
(Path: Fixture)
G54
(Finish operation: Fixture)
(Begin operation: 2mm_Endmill001)
(Path: 2mm_Endmill001)
(2mm_Endmill001)
(Begin toolchange)
( M6 T2 )
M3 S13000
(Finish operation: 2mm_Endmill001)
(Begin operation: Profile)
(Path: Profile)
(Profile)
(Compensated Tool Path. Diameter: 2.0)
G0 Z5.000
G0 X0.000 Y0.000
G0 X-1.000 Y-0.000
G0 X-1.000 Y-0.000 Z3.000
G1 X-1.000 Y-0.000 Z-2.000 F600.000
G1 X-1.000 Y59.000 Z-2.000 F600.000
G2 X0.000 Y60.000 Z-2.000 I1.000 J-0.000 K0.000 F600.000
G1 X23.000 Y60.000 Z-2.000 F600.000
G2 X23.989 Y58.851 Z-2.000 I0.000 J-1.000 K0.000 F600.000
G1 X11.000 Y-27.075 Z-2.000 F600.000
G1 X11.000 Y-39.081 Z-2.000 F600.000
G2 X15.961 Y-51.757 Z-2.000 I1.010 J-6.914 K0.000 F600.000
G2 X15.002 Y-53.000 Z-2.000 I-0.953 J-0.256 K0.000 F600.000
G2 X7.183 Y-52.996 Z-2.000 I-3.335 J1282.723 K0.000 F600.000
G2 X5.127 Y-52.903 Z-2.000 I-0.424 J13.283 K0.000 F600.000
G3 X5.917 Y-55.601 Z-2.000 I8.837 J1.124 K0.000 F600.000
G2 X5.060 Y-56.998 Z-2.000 I-0.917 J-0.399 K0.000 F600.000
G2 X1.515 Y-55.749 Z-2.000 I1.201 J9.062 K0.000 F600.000
G2 X-0.999 Y-51.090 Z-2.000 I2.809 J4.524 K0.000 F600.000
G1 X-1.000 Y-0.000 Z-2.000 F600.000
G0 Z5.000
G0 X19.804 Y-3.145 Z5.000
G0 X19.804 Y-3.145 Z3.000
G1 X19.804 Y-3.145 Z-2.000 F600.000
G1 X28.000 Y51.075 Z-2.000 F600.000
G1 X28.000 Y63.081 Z-2.000 F600.000
G2 X23.039 Y75.757 Z-2.000 I-1.010 J6.914 K0.000 F600.000
G2 X23.998 Y77.000 Z-2.000 I0.953 J0.256 K0.000 F600.000
G2 X31.817 Y76.996 Z-2.000 I3.335 J-1282.669 K0.000 F600.000
G2 X33.873 Y76.903 Z-2.000 I0.424 J-13.283 K0.000 F600.000
G3 X33.083 Y79.601 Z-2.000 I-8.837 J-1.124 K0.000 F600.000
G2 X34.000 Y81.000 Z-2.000 I0.917 J0.399 K0.000 F600.000
G1 X48.000 Y81.000 Z-2.000 F600.000
G2 X48.925 Y79.619 Z-2.000 I0.000 J-1.000 K0.000 F600.000
G3 X48.122 Y76.899 Z-2.000 I8.473 J-3.977 K0.000 F600.000
G2 X48.938 Y76.968 Z-2.000 I1.101 J-8.146 K0.000 F600.000
G2 X58.004 Y77.000 Z-2.000 I5.819 J-362.844 K0.000 F600.000
G2 X58.962 Y75.760 Z-2.000 I0.001 J-0.989 K0.000 F600.000
G2 X54.000 Y63.084 Z-2.000 I-3.950 J-5.763 K0.000 F600.000
G1 X54.000 Y51.081 Z-2.000 F600.000
G1 X67.987 Y-34.839 Z-2.000 F600.000
G2 X67.000 Y-36.000 Z-2.000 I-0.987 J-0.161 K0.000 F600.000
G1 X16.000 Y-36.000 Z-2.000 F600.000
G2 X15.011 Y-34.851 Z-2.000 I-0.000 J1.000 K0.000 F600.000
G1 X19.804 Y-3.145 Z-2.000 F600.000
G0 Z5.000
G0 X67.297 Y4.035 Z5.000
G0 X67.297 Y4.035 Z3.000
G1 X67.297 Y4.035 Z-2.000 F600.000
G1 X59.011 Y58.851 Z-2.000 F600.000
G2 X60.000 Y60.000 Z-2.000 I0.989 J0.149 K0.000 F600.000
G1 X83.000 Y60.000 Z-2.000 F600.000
G2 X84.000 Y59.000 Z-2.000 I-0.000 J-1.000 K0.000 F600.000
G1 X84.000 Y-51.050 Z-2.000 F600.000
G2 X82.174 Y-55.229 Z-2.000 I-5.344 J-0.153 K0.000 F600.000
G2 X79.050 Y-56.792 Z-2.000 I-5.354 J6.793 K0.000 F600.000
G1 X78.210 Y-56.978 Z-2.000 F600.000
G2 X77.075 Y-55.619 Z-2.000 I-0.210 J0.978 K0.000 F600.000
G3 X77.878 Y-52.899 Z-2.000 I-8.473 J3.977 K0.000 F600.000
G2 X77.062 Y-52.968 Z-2.000 I-1.101 J8.146 K0.000 F600.000
G2 X67.996 Y-53.000 Z-2.000 I-5.819 J362.845 K0.000 F600.000
G2 X67.038 Y-51.760 Z-2.000 I-0.001 J0.989 K0.000 F600.000
G2 X72.000 Y-39.084 Z-2.000 I3.950 J5.763 K0.000 F600.000
G1 X72.000 Y-27.075 Z-2.000 F600.000
G1 X67.297 Y4.035 Z-2.000 F600.000
G0 Z5.000
G0 X88.000 Y4.035 Z5.000
G0 X88.000 Y4.035 Z3.000
G1 X88.000 Y4.035 Z-2.000 F600.000
G1 X88.000 Y59.000 Z-2.000 F600.000
G2 X89.000 Y60.000 Z-2.000 I1.000 J-0.000 K0.000 F600.000
G1 X112.000 Y60.000 Z-2.000 F600.000
G2 X112.989 Y58.851 Z-2.000 I0.000 J-1.000 K0.000 F600.000
G1 X100.000 Y-27.075 Z-2.000 F600.000
G1 X100.000 Y-39.081 Z-2.000 F600.000
G2 X104.961 Y-51.757 Z-2.000 I1.010 J-6.914 K0.000 F600.000
G2 X104.002 Y-53.000 Z-2.000 I-0.953 J-0.256 K0.000 F600.000
G2 X96.183 Y-52.996 Z-2.000 I-3.335 J1282.723 K0.000 F600.000
G2 X94.127 Y-52.903 Z-2.000 I-0.424 J13.283 K0.000 F600.000
G3 X94.917 Y-55.601 Z-2.000 I8.837 J1.124 K0.000 F600.000
G2 X94.060 Y-56.998 Z-2.000 I-0.917 J-0.399 K0.000 F600.000
G2 X90.515 Y-55.749 Z-2.000 I1.201 J9.062 K0.000 F600.000
G2 X88.001 Y-51.090 Z-2.000 I2.809 J4.524 K0.000 F600.000
G1 X88.000 Y4.035 Z-2.000 F600.000
G0 Z5.000
G0 X109.400 Y0.800 Z5.000
G0 X109.400 Y0.800 Z3.000
G1 X109.400 Y0.800 Z-2.000 F600.000
G1 X117.000 Y51.075 Z-2.000 F600.000
G1 X117.000 Y63.081 Z-2.000 F600.000
G2 X112.039 Y75.757 Z-2.000 I-1.010 J6.914 K0.000 F600.000
G2 X112.998 Y77.000 Z-2.000 I0.953 J0.256 K0.000 F600.000
G2 X120.817 Y76.996 Z-2.000 I3.335 J-1282.669 K0.000 F600.000
G2 X122.873 Y76.903 Z-2.000 I0.424 J-13.283 K0.000 F600.000
G3 X122.083 Y79.601 Z-2.000 I-8.837 J-1.124 K0.000 F600.000
G2 X123.000 Y81.000 Z-2.000 I0.917 J0.399 K0.000 F600.000
G1 X137.000 Y81.000 Z-2.000 F600.000
G2 X137.925 Y79.619 Z-2.000 I0.000 J-1.000 K0.000 F600.000
G3 X137.122 Y76.899 Z-2.000 I8.473 J-3.977 K0.000 F600.000
G2 X137.938 Y76.968 Z-2.000 I1.101 J-8.146 K0.000 F600.000
G2 X147.004 Y77.000 Z-2.000 I5.819 J-362.844 K0.000 F600.000
G2 X147.962 Y75.760 Z-2.000 I0.001 J-0.989 K0.000 F600.000
G2 X143.000 Y63.084 Z-2.000 I-3.950 J-5.763 K0.000 F600.000
G1 X143.000 Y51.081 Z-2.000 F600.000
G1 X156.987 Y-34.839 Z-2.000 F600.000
G2 X156.000 Y-36.000 Z-2.000 I-0.987 J-0.161 K0.000 F600.000
G1 X105.000 Y-36.000 Z-2.000 F600.000
G2 X104.011 Y-34.851 Z-2.000 I-0.000 J1.000 K0.000 F600.000
G1 X109.400 Y0.800 Z-2.000 F600.000
G0 Z5.000
G0 X155.728 Y7.803 Z5.000
G0 X155.728 Y7.803 Z3.000
G1 X155.728 Y7.803 Z-2.000 F600.000
G1 X148.011 Y58.851 Z-2.000 F600.000
G2 X149.000 Y60.000 Z-2.000 I0.989 J0.149 K0.000 F600.000
G1 X172.000 Y60.000 Z-2.000 F600.000
G2 X173.000 Y59.000 Z-2.000 I-0.000 J-1.000 K0.000 F600.000
G1 X173.000 Y-51.050 Z-2.000 F600.000
G2 X171.174 Y-55.229 Z-2.000 I-5.344 J-0.153 K0.000 F600.000
G2 X168.050 Y-56.792 Z-2.000 I-5.354 J6.793 K0.000 F600.000
G1 X167.210 Y-56.978 Z-2.000 F600.000
G2 X166.075 Y-55.619 Z-2.000 I-0.210 J0.978 K0.000 F600.000
G3 X166.878 Y-52.899 Z-2.000 I-8.473 J3.977 K0.000 F600.000
G2 X166.062 Y-52.968 Z-2.000 I-1.101 J8.146 K0.000 F600.000
G2 X156.996 Y-53.000 Z-2.000 I-5.819 J362.845 K0.000 F600.000
G2 X156.038 Y-51.760 Z-2.000 I-0.001 J0.989 K0.000 F600.000
G2 X161.000 Y-39.084 Z-2.000 I3.950 J5.763 K0.000 F600.000
G1 X161.000 Y-27.075 Z-2.000 F600.000
G1 X155.728 Y7.803 Z-2.000 F600.000
G0 Z5.000
G0 X180.049 Y15.691 Z5.000
G0 X180.049 Y15.691 Z3.000
G1 X180.049 Y15.691 Z-2.000 F600.000
G2 X180.004 Y15.906 Z-2.000 I0.951 J0.309 K0.000 F600.000
G2 X180.511 Y26.267 Z-2.000 I31.068 J3.674 K0.000 F600.000
G2 X185.123 Y37.721 Z-2.000 I39.914 J-9.417 K0.000 F600.000
G2 X190.474 Y45.337 Z-2.000 I56.533 J-34.027 K0.000 F600.000
G2 X196.804 Y52.970 Z-2.000 I903.795 J-743.140 K0.000 F600.000
G3 X201.409 Y59.542 Z-2.000 I-36.579 J30.528 K0.000 F600.000
G3 X203.814 Y65.384 Z-2.000 I-18.406 J10.995 K0.000 F600.000
G1 X203.998 Y67.034 Z-2.000 F600.000
G3 X203.160 Y73.223 Z-2.000 I-27.574 J-0.581 K0.000 F600.000
G2 X203.991 Y74.924 Z-2.000 I1.503 J0.320 K0.000 F600.000
G3 X205.935 Y75.649 Z-2.000 I-2.980 J10.958 K0.000 F600.000
G3 X209.587 Y78.160 Z-2.000 I-22.681 J36.905 K0.000 F600.000
G2 X212.721 Y80.349 Z-2.000 I13.836 J-16.468 K0.000 F600.000
G2 X216.655 Y80.650 Z-2.000 I2.260 J-3.672 K0.000 F600.000
G2 X219.840 Y78.603 Z-2.000 I-6.409 J-13.474 K0.000 F600.000
G3 X223.752 Y75.843 Z-2.000 I32.693 J42.182 K0.000 F600.000
G1 X225.830 Y74.985 Z-2.000 F600.000
G2 X226.863 Y73.375 Z-2.000 I-0.449 J-1.424 K0.000 F600.000
G3 X226.023 Y66.511 Z-2.000 I25.678 J-6.624 K0.000 F600.000
G3 X227.077 Y62.561 Z-2.000 I14.952 J1.875 K0.000 F600.000
G3 X231.139 Y55.614 Z-2.000 I35.262 J15.958 K0.000 F600.000
G3 X237.237 Y48.137 Z-2.000 I121.762 J93.078 K0.000 F600.000
G2 X243.700 Y39.604 Z-2.000 I-67.432 J-57.790 K0.000 F600.000
G2 X248.592 Y29.508 Z-2.000 I-34.896 J-23.141 K0.000 F600.000
G2 X250.203 Y18.519 Z-2.000 I-29.955 J-10.003 K0.000 F600.000
G1 X249.997 Y15.920 Z-2.000 F600.000
G2 X248.003 Y15.925 Z-2.000 I-0.997 J0.080 K0.000 F600.000
G3 X247.607 Y18.427 Z-2.000 I-10.175 J-0.327 K0.000 F600.000
G3 X244.307 Y25.272 Z-2.000 I-30.941 J-10.700 K0.000 F600.000
G2 X244.180 Y20.747 Z-2.000 I-33.067 J-1.335 K0.000 F600.000
G2 X242.956 Y14.706 Z-2.000 I-25.904 J2.104 K0.000 F600.000
G2 X241.038 Y14.725 Z-2.000 I-0.956 J0.294 K0.000 F600.000
G3 X238.563 Y21.796 Z-2.000 I-48.212 J-12.909 K0.000 F600.000
G2 X238.054 Y19.515 Z-2.000 I-26.523 J4.723 K0.000 F600.000
G2 X235.968 Y14.181 Z-2.000 I-20.626 J4.995 K0.000 F600.000
G2 X232.642 Y10.233 Z-2.000 I-12.150 J6.860 K0.000 F600.000
G2 X231.013 Y11.158 Z-2.000 I-0.642 J0.767 K0.000 F600.000
G3 X231.157 Y17.006 Z-2.000 I-17.234 J3.351 K0.000 F600.000
G2 X229.996 Y13.254 Z-2.000 I-21.442 J4.581 K0.000 F600.000
G2 X227.915 Y9.786 Z-2.000 I-9.914 J3.589 K0.000 F600.000
G2 X225.366 Y8.069 Z-2.000 I-4.550 J4.007 K0.000 F600.000
G2 X224.000 Y9.020 Z-2.000 I-0.366 J0.931 K0.000 F600.000
G3 X223.987 Y10.331 Z-2.000 I-10.694 J0.547 K0.000 F600.000
G3 X223.496 Y12.573 Z-2.000 I-6.330 J-0.211 K0.000 F600.000
G2 X222.569 Y9.952 Z-2.000 I-16.948 J4.522 K0.000 F600.000
G2 X218.261 Y4.976 Z-2.000 I-9.939 J4.250 K0.000 F600.000
G3 X216.596 Y3.357 Z-2.000 I1.602 J-3.312 K0.000 F600.000
G3 X215.937 Y1.652 Z-2.000 I13.084 J-6.037 K0.000 F600.000
G2 X215.411 Y1.089 Z-2.000 I-0.937 J0.348 K0.000 F600.000
G2 X214.063 Y1.652 Z-2.000 I-0.411 J0.911 K0.000 F600.000
G1 X213.557 Y3.013 Z-2.000 F600.000
G3 X212.276 Y4.640 Z-2.000 I-3.073 J-1.101 K0.000 F600.000
G2 X208.136 Y8.587 Z-2.000 I5.513 J9.927 K0.000 F600.000
G2 X206.505 Y12.568 Z-2.000 I13.957 J8.044 K0.000 F600.000
G3 X206.247 Y11.871 Z-2.000 I3.148 J-1.561 K0.000 F600.000
G3 X206.000 Y9.003 Z-2.000 I11.586 J-2.443 K0.000 F600.000
G2 X204.878 Y8.008 Z-2.000 I-1.000 J-0.003 K0.000 F600.000
G2 X202.313 Y9.531 Z-2.000 I1.614 J5.637 K0.000 F600.000
G2 X200.133 Y12.908 Z-2.000 I9.121 J8.280 K0.000 F600.000
G2 X198.844 Y17.069 Z-2.000 I21.546 J8.953 K0.000 F600.000
G3 X198.988 Y11.157 Z-2.000 I17.955 J-2.521 K0.000 F600.000
G2 X197.568 Y10.098 Z-2.000 I-0.988 J-0.157 K0.000 F600.000
G2 X194.178 Y13.926 Z-2.000 I8.007 J10.504 K0.000 F600.000
G2 X191.430 Y21.840 Z-2.000 I20.993 J11.726 K0.000 F600.000
G3 X188.959 Y14.718 Z-2.000 I54.634 J-22.940 K0.000 F600.000
G2 X187.040 Y14.719 Z-2.000 I-0.959 J0.282 K0.000 F600.000
G2 X185.697 Y25.258 Z-2.000 I28.193 J8.947 K0.000 F600.000
G3 X184.449 Y23.119 Z-2.000 I31.867 J-20.034 K0.000 F600.000
G3 X182.428 Y18.472 Z-2.000 I18.163 J-10.663 K0.000 F600.000
G3 X181.999 Y15.966 Z-2.000 I7.972 J-2.653 K0.000 F600.000
G2 X180.049 Y15.691 Z-2.000 I-0.999 J0.034 K0.000 F600.000
G0 Z5.000
G0 X187.749 Y-14.032 Z5.000
G0 X187.749 Y-14.032 Z3.000
G1 X187.749 Y-14.032 Z-2.000 F600.000
G2 X188.962 Y-14.725 Z-2.000 I0.251 J-0.968 K0.000 F600.000
G3 X191.437 Y-21.796 Z-2.000 I48.212 J12.909 K0.000 F600.000
G2 X191.946 Y-19.515 Z-2.000 I26.523 J-4.723 K0.000 F600.000
G2 X194.032 Y-14.181 Z-2.000 I20.626 J-4.995 K0.000 F600.000
G2 X197.358 Y-10.233 Z-2.000 I12.150 J-6.860 K0.000 F600.000
G2 X198.987 Y-11.158 Z-2.000 I0.642 J-0.767 K0.000 F600.000
G3 X198.843 Y-17.006 Z-2.000 I17.234 J-3.351 K0.000 F600.000
G2 X200.004 Y-13.254 Z-2.000 I21.442 J-4.581 K0.000 F600.000
G2 X202.085 Y-9.786 Z-2.000 I9.914 J-3.589 K0.000 F600.000
G2 X204.634 Y-8.069 Z-2.000 I4.550 J-4.007 K0.000 F600.000
G2 X206.000 Y-9.020 Z-2.000 I0.366 J-0.931 K0.000 F600.000
G3 X206.013 Y-10.331 Z-2.000 I10.694 J-0.547 K0.000 F600.000
G3 X206.504 Y-12.573 Z-2.000 I6.330 J0.211 K0.000 F600.000
G2 X207.431 Y-9.952 Z-2.000 I16.948 J-4.522 K0.000 F600.000
G2 X211.739 Y-4.976 Z-2.000 I9.939 J-4.250 K0.000 F600.000
G3 X213.404 Y-3.357 Z-2.000 I-1.602 J3.312 K0.000 F600.000
G3 X214.063 Y-1.652 Z-2.000 I-13.084 J6.037 K0.000 F600.000
G2 X215.937 Y-1.652 Z-2.000 I0.937 J-0.348 K0.000 F600.000
G1 X216.443 Y-3.013 Z-2.000 F600.000
G3 X217.724 Y-4.640 Z-2.000 I3.073 J1.101 K0.000 F600.000
G2 X221.864 Y-8.587 Z-2.000 I-5.513 J-9.927 K0.000 F600.000
G2 X223.495 Y-12.568 Z-2.000 I-13.957 J-8.044 K0.000 F600.000
G3 X223.753 Y-11.871 Z-2.000 I-3.148 J1.561 K0.000 F600.000
G3 X224.000 Y-9.003 Z-2.000 I-11.586 J2.443 K0.000 F600.000
G2 X225.122 Y-8.008 Z-2.000 I1.000 J0.003 K0.000 F600.000
G2 X227.687 Y-9.531 Z-2.000 I-1.614 J-5.637 K0.000 F600.000
G2 X229.867 Y-12.908 Z-2.000 I-9.121 J-8.280 K0.000 F600.000
G2 X231.156 Y-17.069 Z-2.000 I-21.546 J-8.953 K0.000 F600.000
G3 X231.012 Y-11.157 Z-2.000 I-17.955 J2.521 K0.000 F600.000
G2 X232.432 Y-10.098 Z-2.000 I0.988 J0.157 K0.000 F600.000
G2 X235.822 Y-13.926 Z-2.000 I-8.007 J-10.504 K0.000 F600.000
G2 X238.570 Y-21.840 Z-2.000 I-20.993 J-11.726 K0.000 F600.000
G3 X241.041 Y-14.718 Z-2.000 I-54.634 J22.940 K0.000 F600.000
G2 X242.960 Y-14.719 Z-2.000 I0.959 J-0.282 K0.000 F600.000
G2 X244.303 Y-25.258 Z-2.000 I-28.193 J-8.947 K0.000 F600.000
G3 X245.551 Y-23.119 Z-2.000 I-31.867 J20.034 K0.000 F600.000
G3 X247.572 Y-18.472 Z-2.000 I-18.163 J10.663 K0.000 F600.000
G3 X248.001 Y-15.966 Z-2.000 I-7.972 J2.653 K0.000 F600.000
G2 X249.996 Y-15.906 Z-2.000 I0.999 J-0.034 K0.000 F600.000
G2 X249.489 Y-26.267 Z-2.000 I-31.068 J-3.674 K0.000 F600.000
G2 X244.877 Y-37.721 Z-2.000 I-39.914 J9.417 K0.000 F600.000
G2 X239.526 Y-45.337 Z-2.000 I-56.533 J34.027 K0.000 F600.000
G2 X233.196 Y-52.970 Z-2.000 I-903.784 J743.130 K0.000 F600.000
G3 X228.591 Y-59.542 Z-2.000 I36.579 J-30.528 K0.000 F600.000
G3 X226.186 Y-65.384 Z-2.000 I18.406 J-10.995 K0.000 F600.000
G1 X226.002 Y-67.034 Z-2.000 F600.000
G3 X226.840 Y-73.223 Z-2.000 I27.574 J0.581 K0.000 F600.000
G2 X226.009 Y-74.924 Z-2.000 I-1.503 J-0.320 K0.000 F600.000
G3 X224.065 Y-75.649 Z-2.000 I2.980 J-10.958 K0.000 F600.000
G3 X220.413 Y-78.160 Z-2.000 I22.681 J-36.905 K0.000 F600.000
G2 X217.827 Y-80.029 Z-2.000 I-14.523 J17.363 K0.000 F600.000
G2 X215.681 Y-80.937 Z-2.000 I-3.196 J4.566 K0.000 F600.000
G2 X213.377 Y-80.671 Z-2.000 I-0.701 J4.044 K0.000 F600.000
G2 X210.160 Y-78.603 Z-2.000 I6.616 J13.827 K0.000 F600.000
G3 X206.248 Y-75.843 Z-2.000 I-32.692 J-42.182 K0.000 F600.000
G1 X204.170 Y-74.985 Z-2.000 F600.000
G2 X203.137 Y-73.375 Z-2.000 I0.449 J1.424 K0.000 F600.000
G3 X203.977 Y-66.511 Z-2.000 I-25.678 J6.624 K0.000 F600.000
G3 X202.923 Y-62.561 Z-2.000 I-14.952 J-1.875 K0.000 F600.000
G3 X198.861 Y-55.614 Z-2.000 I-35.262 J-15.958 K0.000 F600.000
G3 X192.763 Y-48.137 Z-2.000 I-121.762 J-93.078 K0.000 F600.000
G2 X186.300 Y-39.604 Z-2.000 I67.432 J57.790 K0.000 F600.000
G2 X181.408 Y-29.508 Z-2.000 I34.896 J23.141 K0.000 F600.000
G2 X179.797 Y-18.519 Z-2.000 I29.955 J10.003 K0.000 F600.000
G1 X180.003 Y-15.920 Z-2.000 F600.000
G2 X181.997 Y-15.925 Z-2.000 I0.997 J-0.080 K0.000 F600.000
G3 X182.393 Y-18.427 Z-2.000 I10.175 J0.327 K0.000 F600.000
G3 X185.693 Y-25.272 Z-2.000 I30.941 J10.700 K0.000 F600.000
G2 X185.820 Y-20.747 Z-2.000 I33.067 J1.335 K0.000 F600.000
G2 X187.044 Y-14.706 Z-2.000 I25.904 J-2.104 K0.000 F600.000
G2 X187.749 Y-14.032 Z-2.000 I0.956 J-0.294 K0.000 F600.000
G0 Z5.000
G0 X167.741 Y-61.603 Z5.000
G0 X167.741 Y-61.603 Z3.000
G1 X167.741 Y-61.603 Z-2.000 F600.000
G2 X168.746 Y-62.533 Z-2.000 I-0.778 J-1.850 K0.000 F600.000
G2 X168.976 Y-64.175 Z-2.000 I-3.025 J-1.260 K0.000 F600.000
G2 X167.021 Y-66.225 Z-2.000 I-2.013 J-0.038 K0.000 F600.000
G2 X161.429 Y-64.800 Z-2.000 I1.693 J18.327 K0.000 F600.000
G3 X158.547 Y-64.059 Z-2.000 I-3.292 J-6.824 K0.000 F600.000
G3 X152.524 Y-64.042 Z-2.000 I-3.319 J-110.220 K0.000 F600.000
G3 X150.123 Y-64.123 Z-2.000 I-0.474 J-21.610 K0.000 F600.000
G3 X147.995 Y-65.023 Z-2.000 I0.096 J-3.192 K0.000 F600.000
G2 X148.992 Y-65.399 Z-2.000 I-0.071 J-1.701 K0.000 F600.000
G2 X149.087 Y-68.577 Z-2.000 I-1.442 J-1.634 K0.000 F600.000
G2 X147.661 Y-69.017 Z-2.000 I-1.183 J1.304 K0.000 F600.000
G3 X148.695 Y-70.339 Z-2.000 I4.671 J2.591 K0.000 F600.000
G2 X148.697 Y-71.716 Z-2.000 I-0.724 J-0.690 K0.000 F600.000
G3 X147.655 Y-73.057 Z-2.000 I3.857 J-4.076 K0.000 F600.000
G2 X148.994 Y-73.386 Z-2.000 I0.292 J-1.700 K0.000 F600.000
G2 X149.572 Y-75.837 Z-2.000 I-1.435 J-1.632 K0.000 F600.000
G2 X147.999 Y-77.036 Z-2.000 I-1.629 J0.506 K0.000 F600.000
G3 X149.430 Y-77.822 Z-2.000 I1.987 J1.924 K0.000 F600.000
G3 X150.947 Y-77.992 Z-2.000 I2.632 J16.589 K0.000 F600.000
G3 X158.344 Y-78.013 Z-2.000 I4.210 J182.224 K0.000 F600.000
G3 X159.898 Y-77.813 Z-2.000 I0.019 J5.982 K0.000 F600.000
G3 X163.404 Y-76.541 Z-2.000 I-179.525 J500.549 K0.000 F600.000
G1 X166.635 Y-75.858 Z-2.000 F600.000
G2 X168.789 Y-77.003 Z-2.000 I0.332 J-1.975 K0.000 F600.000
G2 X168.968 Y-78.687 Z-2.000 I-3.368 J-1.210 K0.000 F600.000
G2 X166.993 Y-80.608 Z-2.000 I-2.000 J0.081 K0.000 F600.000
G3 X161.492 Y-80.865 Z-2.000 I-1.683 J-22.970 K0.000 F600.000
G2 X156.407 Y-81.029 Z-2.000 I-4.576 J62.682 K0.000 F600.000
G1 X156.303 Y-81.153 Z-2.000 F600.000
G2 X155.500 Y-81.685 Z-2.000 I-0.950 J0.561 K0.000 F600.000
G2 X153.971 Y-81.823 Z-2.000 I-2.749 J21.954 K0.000 F600.000
G2 X148.432 Y-81.369 Z-2.000 I-1.279 J18.421 K0.000 F600.000
G2 X145.239 Y-80.164 Z-2.000 I2.591 J11.693 K0.000 F600.000
G2 X144.189 Y-80.856 Z-2.000 I-2.333 J2.396 K0.000 F600.000
G2 X142.067 Y-79.354 Z-2.000 I-0.623 J1.369 K0.000 F600.000
G1 X141.662 Y-79.752 Z-2.000 F600.000
G2 X138.022 Y-80.835 Z-2.000 I-2.640 J2.218 K0.000 F600.000
G2 X138.030 Y-78.130 Z-2.000 I0.427 J1.351 K0.000 F600.000
G3 X138.779 Y-77.796 Z-2.000 I-0.286 J1.646 K0.000 F600.000
G3 X139.382 Y-77.202 Z-2.000 I-18.679 J19.595 K0.000 F600.000
G2 X141.508 Y-75.254 Z-2.000 I11.481 J-10.391 K0.000 F600.000
G1 X141.455 Y-75.078 Z-2.000 F600.000
G2 X141.500 Y-66.793 Z-2.000 I16.733 J4.052 K0.000 F600.000
G2 X140.450 Y-65.945 Z-2.000 I4.249 J6.331 K0.000 F600.000
G3 X138.983 Y-64.466 Z-2.000 I-20.003 J-18.382 K0.000 F600.000
G3 X138.208 Y-63.987 Z-2.000 I-1.048 J-0.827 K0.000 F600.000
G2 X137.828 Y-61.312 Z-2.000 I0.243 J1.399 K0.000 F600.000
G2 X141.273 Y-61.936 Z-2.000 I1.227 J-3.048 K0.000 F600.000
G3 X142.081 Y-62.723 Z-2.000 I7.570 J6.955 K0.000 F600.000
G2 X143.793 Y-61.093 Z-2.000 I1.457 J0.183 K0.000 F600.000
G2 X145.256 Y-61.906 Z-2.000 I-0.777 J-3.122 K0.000 F600.000
G2 X147.229 Y-61.024 Z-2.000 I4.708 J-7.883 K0.000 F600.000
G2 X155.491 Y-60.371 Z-2.000 I5.619 J-18.489 K0.000 F600.000
G1 X155.739 Y-60.428 Z-2.000 F600.000
G2 X156.407 Y-61.027 Z-2.000 I-0.795 J-1.558 K0.000 F600.000
G1 X157.064 Y-61.025 Z-2.000 F600.000
G2 X163.300 Y-61.419 Z-2.000 I0.761 J-37.517 K0.000 F600.000
G1 X166.922 Y-61.447 Z-2.000 F600.000
G2 X167.741 Y-61.603 Z-2.000 I0.040 J-2.006 K0.000 F600.000
G0 Z5.000
G0 X129.329 Y-68.491 Z5.000
G0 X129.329 Y-68.491 Z3.000
G1 X129.329 Y-68.491 Z-2.000 F600.000
G2 X129.463 Y-71.447 Z-2.000 I-11.068 J-1.985 K0.000 F600.000
G2 X125.677 Y-79.113 Z-2.000 I-12.074 J1.194 K0.000 F600.000
G2 X123.343 Y-80.524 Z-2.000 I-5.667 J6.741 K0.000 F600.000
G2 X119.117 Y-81.415 Z-2.000 I-5.178 J14.088 K0.000 F600.000
G2 X115.015 Y-81.412 Z-2.000 I-2.035 J22.861 K0.000 F600.000
G2 X104.661 Y-76.625 Z-2.000 I3.630 J21.441 K0.000 F600.000
G2 X102.365 Y-73.875 Z-2.000 I6.846 J8.051 K0.000 F600.000
G1 X101.742 Y-73.153 Z-2.000 F600.000
G2 X101.618 Y-72.032 Z-2.000 I0.754 J0.651 K0.000 F600.000
G1 X100.793 Y-71.207 Z-2.000 F600.000
G2 X100.793 Y-69.793 Z-2.000 I0.707 J0.707 K0.000 F600.000
G1 X101.624 Y-68.962 Z-2.000 F600.000
G2 X101.752 Y-67.837 Z-2.000 I0.838 J0.475 K0.000 F600.000
G3 X102.702 Y-66.636 Z-2.000 I-6.588 J6.194 K0.000 F600.000
G2 X103.974 Y-65.024 Z-2.000 I5.932 J-3.372 K0.000 F600.000
G2 X114.513 Y-59.663 Z-2.000 I14.671 J-15.801 K0.000 F600.000
G2 X121.775 Y-60.005 Z-2.000 I2.634 J-21.374 K0.000 F600.000
G2 X126.022 Y-62.189 Z-2.000 I-1.609 J-8.348 K0.000 F600.000
G2 X128.120 Y-65.069 Z-2.000 I-8.834 J-8.639 K0.000 F600.000
G2 X129.329 Y-68.491 Z-2.000 I-9.859 J-5.406 K0.000 F600.000
G0 Z5.000
G0 X86.967 Y-64.406 Z5.000
G0 X86.967 Y-64.406 Z3.000
G1 X86.967 Y-64.406 Z-2.000 F600.000
G2 X85.021 Y-66.225 Z-2.000 I-2.004 J0.193 K0.000 F600.000
G2 X79.429 Y-64.800 Z-2.000 I1.693 J18.327 K0.000 F600.000
G3 X76.547 Y-64.059 Z-2.000 I-3.292 J-6.824 K0.000 F600.000
G3 X70.524 Y-64.042 Z-2.000 I-3.319 J-110.220 K0.000 F600.000
G3 X68.123 Y-64.123 Z-2.000 I-0.474 J-21.610 K0.000 F600.000
G3 X65.995 Y-65.023 Z-2.000 I0.096 J-3.192 K0.000 F600.000
G2 X66.992 Y-65.399 Z-2.000 I-0.071 J-1.701 K0.000 F600.000
G2 X67.087 Y-68.577 Z-2.000 I-1.442 J-1.634 K0.000 F600.000
G2 X65.661 Y-69.017 Z-2.000 I-1.183 J1.304 K0.000 F600.000
G3 X66.695 Y-70.339 Z-2.000 I4.671 J2.591 K0.000 F600.000
G2 X66.697 Y-71.716 Z-2.000 I-0.724 J-0.690 K0.000 F600.000
G3 X65.655 Y-73.057 Z-2.000 I3.857 J-4.076 K0.000 F600.000
G2 X66.994 Y-73.386 Z-2.000 I0.292 J-1.700 K0.000 F600.000
G2 X67.572 Y-75.837 Z-2.000 I-1.435 J-1.632 K0.000 F600.000
G2 X65.999 Y-77.036 Z-2.000 I-1.629 J0.506 K0.000 F600.000
G3 X67.430 Y-77.822 Z-2.000 I1.987 J1.924 K0.000 F600.000
G3 X68.947 Y-77.992 Z-2.000 I2.632 J16.589 K0.000 F600.000
G3 X76.344 Y-78.013 Z-2.000 I4.210 J182.224 K0.000 F600.000
G3 X77.898 Y-77.813 Z-2.000 I0.019 J5.982 K0.000 F600.000
G3 X81.404 Y-76.541 Z-2.000 I-179.526 J500.553 K0.000 F600.000
G1 X84.635 Y-75.858 Z-2.000 F600.000
G2 X86.789 Y-77.003 Z-2.000 I0.332 J-1.975 K0.000 F600.000
G2 X86.968 Y-78.687 Z-2.000 I-3.368 J-1.210 K0.000 F600.000
G2 X84.993 Y-80.608 Z-2.000 I-2.000 J0.081 K0.000 F600.000
G3 X79.492 Y-80.865 Z-2.000 I-1.683 J-22.970 K0.000 F600.000
G2 X74.407 Y-81.029 Z-2.000 I-4.576 J62.682 K0.000 F600.000
G1 X74.303 Y-81.153 Z-2.000 F600.000
G2 X73.500 Y-81.685 Z-2.000 I-0.950 J0.561 K0.000 F600.000
G2 X71.971 Y-81.823 Z-2.000 I-2.749 J21.954 K0.000 F600.000
G2 X66.432 Y-81.369 Z-2.000 I-1.279 J18.421 K0.000 F600.000
G2 X63.239 Y-80.164 Z-2.000 I2.591 J11.693 K0.000 F600.000
G2 X62.189 Y-80.856 Z-2.000 I-2.333 J2.396 K0.000 F600.000
G2 X60.067 Y-79.354 Z-2.000 I-0.623 J1.369 K0.000 F600.000
G1 X59.662 Y-79.752 Z-2.000 F600.000
G2 X56.022 Y-80.835 Z-2.000 I-2.640 J2.218 K0.000 F600.000
G2 X56.030 Y-78.130 Z-2.000 I0.427 J1.351 K0.000 F600.000
G3 X56.779 Y-77.796 Z-2.000 I-0.286 J1.646 K0.000 F600.000
G3 X57.382 Y-77.202 Z-2.000 I-18.679 J19.595 K0.000 F600.000
G2 X59.508 Y-75.254 Z-2.000 I11.481 J-10.391 K0.000 F600.000
G1 X59.455 Y-75.078 Z-2.000 F600.000
G2 X59.500 Y-66.793 Z-2.000 I16.732 J4.052 K0.000 F600.000
G2 X58.450 Y-65.945 Z-2.000 I4.249 J6.331 K0.000 F600.000
G3 X56.983 Y-64.466 Z-2.000 I-20.003 J-18.383 K0.000 F600.000
G3 X56.208 Y-63.987 Z-2.000 I-1.048 J-0.827 K0.000 F600.000
G2 X55.828 Y-61.312 Z-2.000 I0.243 J1.399 K0.000 F600.000
G2 X59.273 Y-61.936 Z-2.000 I1.227 J-3.048 K0.000 F600.000
G3 X60.081 Y-62.723 Z-2.000 I7.570 J6.955 K0.000 F600.000
G2 X61.793 Y-61.093 Z-2.000 I1.457 J0.183 K0.000 F600.000
G2 X63.256 Y-61.906 Z-2.000 I-0.777 J-3.122 K0.000 F600.000
G2 X65.229 Y-61.024 Z-2.000 I4.708 J-7.883 K0.000 F600.000
G2 X73.491 Y-60.371 Z-2.000 I5.619 J-18.489 K0.000 F600.000
G1 X73.739 Y-60.428 Z-2.000 F600.000
G2 X74.407 Y-61.027 Z-2.000 I-0.795 J-1.558 K0.000 F600.000
G1 X75.064 Y-61.025 Z-2.000 F600.000
G2 X81.300 Y-61.419 Z-2.000 I0.761 J-37.517 K0.000 F600.000
G1 X84.922 Y-61.447 Z-2.000 F600.000
G2 X86.746 Y-62.533 Z-2.000 I0.040 J-2.006 K0.000 F600.000
G2 X86.976 Y-64.175 Z-2.000 I-3.025 J-1.260 K0.000 F600.000
G2 X86.967 Y-64.406 Z-2.000 I-2.013 J-0.038 K0.000 F600.000
G0 Z5.000
G0 X47.425 Y-69.139 Z5.000
G0 X47.425 Y-69.139 Z3.000
G1 X47.425 Y-69.139 Z-2.000 F600.000
G2 X47.463 Y-71.447 Z-2.000 I-11.164 J-1.336 K0.000 F600.000
G2 X43.677 Y-79.113 Z-2.000 I-12.074 J1.194 K0.000 F600.000
G2 X41.343 Y-80.524 Z-2.000 I-5.667 J6.741 K0.000 F600.000
G2 X37.117 Y-81.415 Z-2.000 I-5.178 J14.088 K0.000 F600.000
G2 X33.015 Y-81.412 Z-2.000 I-2.035 J22.861 K0.000 F600.000
G2 X22.661 Y-76.625 Z-2.000 I3.630 J21.441 K0.000 F600.000
G2 X20.365 Y-73.875 Z-2.000 I6.846 J8.051 K0.000 F600.000
G1 X19.742 Y-73.153 Z-2.000 F600.000
G2 X19.618 Y-72.032 Z-2.000 I0.754 J0.651 K0.000 F600.000
G1 X18.793 Y-71.207 Z-2.000 F600.000
G2 X18.793 Y-69.793 Z-2.000 I0.707 J0.707 K0.000 F600.000
G1 X19.624 Y-68.962 Z-2.000 F600.000
G2 X19.752 Y-67.837 Z-2.000 I0.838 J0.475 K0.000 F600.000
G3 X20.702 Y-66.636 Z-2.000 I-6.588 J6.194 K0.000 F600.000
G2 X21.974 Y-65.024 Z-2.000 I5.932 J-3.372 K0.000 F600.000
G2 X32.513 Y-59.663 Z-2.000 I14.671 J-15.801 K0.000 F600.000
G2 X39.775 Y-60.005 Z-2.000 I2.634 J-21.374 K0.000 F600.000
G2 X44.022 Y-62.189 Z-2.000 I-1.609 J-8.348 K0.000 F600.000
G2 X46.120 Y-65.069 Z-2.000 I-8.834 J-8.639 K0.000 F600.000
G2 X47.425 Y-69.139 Z-2.000 I-9.859 J-5.406 K0.000 F600.000
G0 Z5.000
G0 X64.569 Y63.445 Z5.000
G0 X64.569 Y63.445 Z3.000
G1 X64.569 Y63.445 Z-2.000 F600.000
G2 X63.829 Y64.934 Z-2.000 I0.128 J0.992 K0.000 F600.000
G2 X65.455 Y66.300 Z-2.000 I4.168 J-3.309 K0.000 F600.000
G2 X69.178 Y67.664 Z-2.000 I8.243 J-16.740 K0.000 F600.000
G3 X70.536 Y68.005 Z-2.000 I-1.310 J8.083 K0.000 F600.000
G1 X68.762 Y68.976 Z-2.000 F600.000
G2 X68.656 Y70.664 Z-2.000 I0.480 J0.877 K0.000 F600.000
G2 X71.294 Y71.444 Z-2.000 I3.701 J-7.670 K0.000 F600.000
G2 X76.145 Y71.416 Z-2.000 I2.294 J-23.292 K0.000 F600.000
G3 X98.650 Y70.050 Z-2.000 I23.569 J202.238 K0.000 F600.000
G3 X102.256 Y70.282 Z-2.000 I-0.098 J29.704 K0.000 F600.000
G2 X103.457 Y66.414 Z-2.000 I0.201 J-2.058 K0.000 F600.000
G2 X99.515 Y65.215 Z-2.000 I-8.057 J19.407 K0.000 F600.000
G2 X92.644 Y64.325 Z-2.000 I-12.838 J72.159 K0.000 F600.000
G2 X78.966 Y63.701 Z-2.000 I-16.544 J212.448 K0.000 F600.000
G2 X69.522 Y63.690 Z-2.000 I-5.627 J802.736 K0.000 F600.000
G1 X64.750 Y63.438 Z-2.000 F600.000
G2 X64.569 Y63.445 Z-2.000 I-0.053 J0.999 K0.000 F600.000
G0 Z5.000
G0 X67.990 Y75.783 Z5.000
G0 X67.990 Y75.783 Z3.000
G1 X67.990 Y75.783 Z-2.000 F600.000
G2 X67.543 Y79.586 Z-2.000 I0.553 J1.993 K0.000 F600.000
G2 X71.485 Y80.785 Z-2.000 I8.057 J-19.407 K0.000 F600.000
G2 X78.356 Y81.675 Z-2.000 I12.838 J-72.159 K0.000 F600.000
G2 X92.034 Y82.299 Z-2.000 I16.544 J-212.448 K0.000 F600.000
G2 X101.478 Y82.310 Z-2.000 I5.627 J-802.742 K0.000 F600.000
G1 X106.250 Y82.562 Z-2.000 F600.000
G2 X107.171 Y81.066 Z-2.000 I0.053 J-0.999 K0.000 F600.000
G2 X105.545 Y79.700 Z-2.000 I-4.168 J3.309 K0.000 F600.000
G2 X101.822 Y78.336 Z-2.000 I-8.243 J16.740 K0.000 F600.000
G3 X100.464 Y77.995 Z-2.000 I1.310 J-8.083 K0.000 F600.000
G1 X102.238 Y77.024 Z-2.000 F600.000
G2 X102.344 Y75.336 Z-2.000 I-0.480 J-0.877 K0.000 F600.000
G2 X99.706 Y74.556 Z-2.000 I-3.701 J7.670 K0.000 F600.000
G2 X94.852 Y74.584 Z-2.000 I-2.292 J23.751 K0.000 F600.000
G3 X72.350 Y75.950 Z-2.000 I-23.565 J-202.207 K0.000 F600.000
G3 X68.744 Y75.718 Z-2.000 I0.098 J-29.704 K0.000 F600.000
G2 X67.990 Y75.783 Z-2.000 I-0.201 J2.058 K0.000 F600.000
G0 Z5.000
G0 X155.705 Y64.564 Z5.000
G0 X155.705 Y64.564 Z3.000
G1 X155.705 Y64.564 Z-2.000 F600.000
G2 X155.829 Y64.934 Z-2.000 I0.992 J-0.127 K0.000 F600.000
G2 X157.455 Y66.300 Z-2.000 I4.168 J-3.309 K0.000 F600.000
G2 X161.178 Y67.664 Z-2.000 I8.243 J-16.740 K0.000 F600.000
G3 X162.536 Y68.005 Z-2.000 I-1.310 J8.083 K0.000 F600.000
G1 X160.762 Y68.976 Z-2.000 F600.000
G2 X160.656 Y70.664 Z-2.000 I0.480 J0.877 K0.000 F600.000
G2 X163.294 Y71.444 Z-2.000 I3.701 J-7.670 K0.000 F600.000
G2 X168.145 Y71.416 Z-2.000 I2.294 J-23.292 K0.000 F600.000
G3 X190.650 Y70.050 Z-2.000 I23.569 J202.238 K0.000 F600.000
G3 X194.256 Y70.282 Z-2.000 I-0.098 J29.704 K0.000 F600.000
G2 X195.457 Y66.414 Z-2.000 I0.201 J-2.058 K0.000 F600.000
G2 X191.515 Y65.215 Z-2.000 I-8.057 J19.407 K0.000 F600.000
G2 X184.644 Y64.325 Z-2.000 I-12.838 J72.159 K0.000 F600.000
G2 X170.966 Y63.701 Z-2.000 I-16.544 J212.448 K0.000 F600.000
G2 X161.522 Y63.690 Z-2.000 I-5.627 J802.736 K0.000 F600.000
G1 X156.750 Y63.438 Z-2.000 F600.000
G2 X155.705 Y64.564 Z-2.000 I-0.053 J0.999 K0.000 F600.000
G0 Z5.000
G0 X161.592 Y75.940 Z5.000
G0 X161.592 Y75.940 Z3.000
G1 X161.592 Y75.940 Z-2.000 F600.000
G2 X161.543 Y79.586 Z-2.000 I0.950 J1.836 K0.000 F600.000
G2 X165.485 Y80.785 Z-2.000 I8.057 J-19.407 K0.000 F600.000
G2 X172.356 Y81.675 Z-2.000 I12.838 J-72.159 K0.000 F600.000
G2 X186.034 Y82.299 Z-2.000 I16.544 J-212.448 K0.000 F600.000
G2 X195.478 Y82.310 Z-2.000 I5.627 J-802.742 K0.000 F600.000
G1 X200.250 Y82.562 Z-2.000 F600.000
G2 X201.171 Y81.066 Z-2.000 I0.053 J-0.999 K0.000 F600.000
G2 X199.545 Y79.700 Z-2.000 I-4.168 J3.309 K0.000 F600.000
G2 X195.822 Y78.336 Z-2.000 I-8.243 J16.740 K0.000 F600.000
G3 X194.464 Y77.995 Z-2.000 I1.310 J-8.083 K0.000 F600.000
G1 X196.238 Y77.024 Z-2.000 F600.000
G2 X196.344 Y75.336 Z-2.000 I-0.480 J-0.877 K0.000 F600.000
G2 X193.706 Y74.556 Z-2.000 I-3.701 J7.670 K0.000 F600.000
G2 X188.852 Y74.584 Z-2.000 I-2.292 J23.751 K0.000 F600.000
G3 X166.350 Y75.950 Z-2.000 I-23.565 J-202.207 K0.000 F600.000
G3 X162.744 Y75.718 Z-2.000 I0.098 J-29.704 K0.000 F600.000
G2 X161.592 Y75.940 Z-2.000 I-0.201 J2.058 K0.000 F600.000
G1 X161.592 Y75.940 Z-4.000 F600.000
G2 X161.543 Y79.586 Z-4.000 I0.950 J1.836 K0.000 F600.000
G2 X165.485 Y80.785 Z-4.000 I8.057 J-19.407 K0.000 F600.000
G2 X172.356 Y81.675 Z-4.000 I12.838 J-72.159 K0.000 F600.000
G2 X186.034 Y82.299 Z-4.000 I16.544 J-212.448 K0.000 F600.000
G2 X195.478 Y82.310 Z-4.000 I5.627 J-802.742 K0.000 F600.000
G1 X200.250 Y82.562 Z-4.000 F600.000
G2 X201.171 Y81.066 Z-4.000 I0.053 J-0.999 K0.000 F600.000
G2 X199.545 Y79.700 Z-4.000 I-4.168 J3.309 K0.000 F600.000
G2 X195.822 Y78.336 Z-4.000 I-8.243 J16.740 K0.000 F600.000
G3 X194.464 Y77.995 Z-4.000 I1.310 J-8.083 K0.000 F600.000
G1 X196.238 Y77.024 Z-4.000 F600.000
G2 X196.344 Y75.336 Z-4.000 I-0.480 J-0.877 K0.000 F600.000
G2 X193.706 Y74.556 Z-4.000 I-3.701 J7.670 K0.000 F600.000
G2 X188.852 Y74.584 Z-4.000 I-2.292 J23.751 K0.000 F600.000
G3 X166.350 Y75.950 Z-4.000 I-23.565 J-202.207 K0.000 F600.000
G3 X162.744 Y75.718 Z-4.000 I0.098 J-29.704 K0.000 F600.000
G2 X161.592 Y75.940 Z-4.000 I-0.201 J2.058 K0.000 F600.000
G0 Z5.000
G0 X162.578 Y71.322 Z5.000
G0 X162.578 Y71.322 Z3.000
G1 X162.578 Y71.322 Z-4.000 F600.000
G2 X163.294 Y71.444 Z-4.000 I1.779 J-8.328 K0.000 F600.000
G2 X168.145 Y71.416 Z-4.000 I2.294 J-23.292 K0.000 F600.000
G3 X190.650 Y70.050 Z-4.000 I23.569 J202.238 K0.000 F600.000
G3 X194.256 Y70.282 Z-4.000 I-0.098 J29.704 K0.000 F600.000
G2 X195.457 Y66.414 Z-4.000 I0.201 J-2.058 K0.000 F600.000
G2 X191.515 Y65.215 Z-4.000 I-8.057 J19.407 K0.000 F600.000
G2 X184.644 Y64.325 Z-4.000 I-12.838 J72.159 K0.000 F600.000
G2 X170.966 Y63.701 Z-4.000 I-16.544 J212.448 K0.000 F600.000
G2 X161.522 Y63.690 Z-4.000 I-5.627 J802.736 K0.000 F600.000
G1 X156.750 Y63.438 Z-4.000 F600.000
G2 X155.829 Y64.934 Z-4.000 I-0.053 J0.999 K0.000 F600.000
G2 X157.455 Y66.300 Z-4.000 I4.168 J-3.309 K0.000 F600.000
G2 X161.178 Y67.664 Z-4.000 I8.243 J-16.740 K0.000 F600.000
G3 X162.536 Y68.005 Z-4.000 I-1.310 J8.083 K0.000 F600.000
G1 X160.762 Y68.976 Z-4.000 F600.000
G2 X160.656 Y70.664 Z-4.000 I0.480 J0.877 K0.000 F600.000
G2 X162.578 Y71.322 Z-4.000 I3.701 J-7.670 K0.000 F600.000
G0 Z5.000
G0 Y60.000 Z5.000
G0 Y60.000 Z3.000
G1 X162.578 Y60.000 Z-4.000 F600.000
G1 X172.000 Y60.000 Z-4.000 F600.000
G2 X173.000 Y59.000 Z-4.000 I-0.000 J-1.000 K0.000 F600.000
G1 X173.000 Y-51.050 Z-4.000 F600.000
G2 X171.174 Y-55.229 Z-4.000 I-5.344 J-0.153 K0.000 F600.000
G2 X168.050 Y-56.792 Z-4.000 I-5.354 J6.793 K0.000 F600.000
G1 X167.210 Y-56.978 Z-4.000 F600.000
G2 X166.075 Y-55.619 Z-4.000 I-0.210 J0.978 K0.000 F600.000
G3 X166.878 Y-52.899 Z-4.000 I-8.473 J3.977 K0.000 F600.000
G2 X166.062 Y-52.968 Z-4.000 I-1.101 J8.146 K0.000 F600.000
G2 X156.996 Y-53.000 Z-4.000 I-5.819 J362.845 K0.000 F600.000
G2 X156.038 Y-51.760 Z-4.000 I-0.001 J0.989 K0.000 F600.000
G2 X161.000 Y-39.084 Z-4.000 I3.950 J5.763 K0.000 F600.000
G1 X161.000 Y-27.075 Z-4.000 F600.000
G1 X148.011 Y58.851 Z-4.000 F600.000
G2 X149.000 Y60.000 Z-4.000 I0.989 J0.149 K0.000 F600.000
G1 X162.578 Y60.000 Z-4.000 F600.000
G0 Z5.000
G0 X150.163 Y66.685 Z5.000
G0 X150.163 Y66.685 Z3.000
G1 X150.163 Y66.685 Z-4.000 F600.000
G2 X143.000 Y63.084 Z-4.000 I-6.152 J3.312 K0.000 F600.000
G1 X143.000 Y51.081 Z-4.000 F600.000
G1 X156.987 Y-34.839 Z-4.000 F600.000
G2 X156.000 Y-36.000 Z-4.000 I-0.987 J-0.161 K0.000 F600.000
G1 X105.000 Y-36.000 Z-4.000 F600.000
G2 X104.011 Y-34.851 Z-4.000 I-0.000 J1.000 K0.000 F600.000
G1 X117.000 Y51.075 Z-4.000 F600.000
G1 X117.000 Y63.081 Z-4.000 F600.000
G2 X112.039 Y75.757 Z-4.000 I-1.010 J6.914 K0.000 F600.000
G2 X112.998 Y77.000 Z-4.000 I0.953 J0.256 K0.000 F600.000
G2 X120.817 Y76.996 Z-4.000 I3.335 J-1282.669 K0.000 F600.000
G2 X122.873 Y76.903 Z-4.000 I0.424 J-13.283 K0.000 F600.000
G3 X122.083 Y79.601 Z-4.000 I-8.837 J-1.124 K0.000 F600.000
G2 X123.000 Y81.000 Z-4.000 I0.917 J0.399 K0.000 F600.000
G1 X137.000 Y81.000 Z-4.000 F600.000
G2 X137.925 Y79.619 Z-4.000 I0.000 J-1.000 K0.000 F600.000
G3 X137.122 Y76.899 Z-4.000 I8.473 J-3.977 K0.000 F600.000
G2 X137.938 Y76.968 Z-4.000 I1.101 J-8.146 K0.000 F600.000
G2 X147.004 Y77.000 Z-4.000 I5.819 J-362.844 K0.000 F600.000
G2 X147.962 Y75.760 Z-4.000 I0.001 J-0.989 K0.000 F600.000
G2 X150.163 Y66.685 Z-4.000 I-3.950 J-5.763 K0.000 F600.000
G0 Z5.000
G0 X112.980 Y59.197 Z5.000
G0 X112.980 Y59.197 Z3.000
G1 X112.980 Y59.197 Z-4.000 F600.000
G2 X112.989 Y58.851 Z-4.000 I-0.980 J-0.197 K0.000 F600.000
G1 X100.000 Y-27.075 Z-4.000 F600.000
G1 X100.000 Y-39.081 Z-4.000 F600.000
G2 X104.961 Y-51.757 Z-4.000 I1.010 J-6.914 K0.000 F600.000
G2 X104.002 Y-53.000 Z-4.000 I-0.953 J-0.256 K0.000 F600.000
G2 X96.183 Y-52.996 Z-4.000 I-3.335 J1282.723 K0.000 F600.000
G2 X94.127 Y-52.903 Z-4.000 I-0.424 J13.283 K0.000 F600.000
G3 X94.917 Y-55.601 Z-4.000 I8.837 J1.124 K0.000 F600.000
G2 X94.060 Y-56.998 Z-4.000 I-0.917 J-0.399 K0.000 F600.000
G2 X90.515 Y-55.749 Z-4.000 I1.201 J9.062 K0.000 F600.000
G2 X88.001 Y-51.090 Z-4.000 I2.809 J4.524 K0.000 F600.000
G1 X88.000 Y59.000 Z-4.000 F600.000
G2 X89.000 Y60.000 Z-4.000 I1.000 J-0.000 K0.000 F600.000
G1 X112.000 Y60.000 Z-4.000 F600.000
G2 X112.980 Y59.197 Z-4.000 I0.000 J-1.000 K0.000 F600.000
G0 Z5.000
G0 X104.027 Y66.878 Z5.000
G0 X104.027 Y66.878 Z3.000
G1 X104.027 Y66.878 Z-4.000 F600.000
G2 X103.457 Y66.414 Z-4.000 I-1.569 J1.346 K0.000 F600.000
G2 X99.515 Y65.215 Z-4.000 I-8.057 J19.407 K0.000 F600.000
G2 X92.644 Y64.325 Z-4.000 I-12.838 J72.159 K0.000 F600.000
G2 X78.966 Y63.701 Z-4.000 I-16.544 J212.448 K0.000 F600.000
G2 X69.522 Y63.690 Z-4.000 I-5.627 J802.736 K0.000 F600.000
G1 X64.750 Y63.438 Z-4.000 F600.000
G2 X63.829 Y64.934 Z-4.000 I-0.053 J0.999 K0.000 F600.000
G2 X65.455 Y66.300 Z-4.000 I4.168 J-3.309 K0.000 F600.000
G2 X69.178 Y67.664 Z-4.000 I8.243 J-16.740 K0.000 F600.000
G3 X70.536 Y68.005 Z-4.000 I-1.310 J8.083 K0.000 F600.000
G1 X68.762 Y68.976 Z-4.000 F600.000
G2 X68.656 Y70.664 Z-4.000 I0.480 J0.877 K0.000 F600.000
G2 X71.294 Y71.444 Z-4.000 I3.701 J-7.670 K0.000 F600.000
G2 X76.145 Y71.416 Z-4.000 I2.294 J-23.292 K0.000 F600.000
G3 X98.650 Y70.050 Z-4.000 I23.569 J202.238 K0.000 F600.000
G3 X102.256 Y70.282 Z-4.000 I-0.098 J29.704 K0.000 F600.000
G2 X104.027 Y66.878 Z-4.000 I0.201 J-2.058 K0.000 F600.000
G0 Z5.000
G0 X101.339 Y74.928 Z5.000
G0 X101.339 Y74.928 Z3.000
G1 X101.339 Y74.928 Z-4.000 F600.000
G2 X99.706 Y74.556 Z-4.000 I-2.697 J8.078 K0.000 F600.000
G2 X94.852 Y74.584 Z-4.000 I-2.292 J23.751 K0.000 F600.000
G3 X72.350 Y75.950 Z-4.000 I-23.565 J-202.207 K0.000 F600.000
G3 X68.744 Y75.718 Z-4.000 I0.098 J-29.704 K0.000 F600.000
G2 X67.543 Y79.586 Z-4.000 I-0.201 J2.058 K0.000 F600.000
G2 X71.485 Y80.785 Z-4.000 I8.057 J-19.407 K0.000 F600.000
G2 X78.356 Y81.675 Z-4.000 I12.838 J-72.159 K0.000 F600.000
G2 X92.034 Y82.299 Z-4.000 I16.544 J-212.448 K0.000 F600.000
G2 X101.478 Y82.310 Z-4.000 I5.627 J-802.742 K0.000 F600.000
G1 X106.250 Y82.562 Z-4.000 F600.000
G2 X107.171 Y81.066 Z-4.000 I0.053 J-0.999 K0.000 F600.000
G2 X105.545 Y79.700 Z-4.000 I-4.168 J3.309 K0.000 F600.000
G2 X101.822 Y78.336 Z-4.000 I-8.243 J16.740 K0.000 F600.000
G3 X100.464 Y77.995 Z-4.000 I1.310 J-8.083 K0.000 F600.000
G1 X102.238 Y77.024 Z-4.000 F600.000
G2 X102.344 Y75.336 Z-4.000 I-0.480 J-0.877 K0.000 F600.000
G2 X101.339 Y74.928 Z-4.000 I-3.701 J7.670 K0.000 F600.000
G0 Z5.000
G0 X83.755 Y59.656 Z5.000
G0 X83.755 Y59.656 Z3.000
G1 X83.755 Y59.656 Z-4.000 F600.000
G2 X84.000 Y59.000 Z-4.000 I-0.755 J-0.656 K0.000 F600.000
G1 X84.000 Y-51.050 Z-4.000 F600.000
G2 X82.174 Y-55.229 Z-4.000 I-5.344 J-0.153 K0.000 F600.000
G2 X79.050 Y-56.792 Z-4.000 I-5.354 J6.793 K0.000 F600.000
G1 X78.210 Y-56.978 Z-4.000 F600.000
G2 X77.075 Y-55.619 Z-4.000 I-0.210 J0.978 K0.000 F600.000
G3 X77.878 Y-52.899 Z-4.000 I-8.473 J3.977 K0.000 F600.000
G2 X77.062 Y-52.968 Z-4.000 I-1.101 J8.146 K0.000 F600.000
G2 X67.996 Y-53.000 Z-4.000 I-5.819 J362.845 K0.000 F600.000
G2 X67.038 Y-51.760 Z-4.000 I-0.001 J0.989 K0.000 F600.000
G2 X72.000 Y-39.084 Z-4.000 I3.950 J5.763 K0.000 F600.000
G1 X72.000 Y-27.075 Z-4.000 F600.000
G1 X59.011 Y58.851 Z-4.000 F600.000
G2 X60.000 Y60.000 Z-4.000 I0.989 J0.149 K0.000 F600.000
G1 X83.000 Y60.000 Z-4.000 F600.000
G2 X83.755 Y59.656 Z-4.000 I-0.000 J-1.000 K0.000 F600.000
G0 Z5.000
G0 X61.586 Y67.632 Z5.000
G0 X61.586 Y67.632 Z3.000
G1 X61.586 Y67.632 Z-4.000 F600.000
G2 X54.000 Y63.084 Z-4.000 I-6.574 J2.365 K0.000 F600.000
G1 X54.000 Y51.081 Z-4.000 F600.000
G1 X67.987 Y-34.839 Z-4.000 F600.000
G2 X67.000 Y-36.000 Z-4.000 I-0.987 J-0.161 K0.000 F600.000
G1 X16.000 Y-36.000 Z-4.000 F600.000
G2 X15.011 Y-34.851 Z-4.000 I-0.000 J1.000 K0.000 F600.000
G1 X28.000 Y51.075 Z-4.000 F600.000
G1 X28.000 Y63.081 Z-4.000 F600.000
G2 X23.039 Y75.757 Z-4.000 I-1.010 J6.914 K0.000 F600.000
G2 X23.998 Y77.000 Z-4.000 I0.953 J0.256 K0.000 F600.000
G2 X31.817 Y76.996 Z-4.000 I3.335 J-1282.669 K0.000 F600.000
G2 X33.873 Y76.903 Z-4.000 I0.424 J-13.283 K0.000 F600.000
G3 X33.083 Y79.601 Z-4.000 I-8.837 J-1.124 K0.000 F600.000
G2 X34.000 Y81.000 Z-4.000 I0.917 J0.399 K0.000 F600.000
G1 X48.000 Y81.000 Z-4.000 F600.000
G2 X48.925 Y79.619 Z-4.000 I0.000 J-1.000 K0.000 F600.000
G3 X48.122 Y76.899 Z-4.000 I8.473 J-3.977 K0.000 F600.000
G2 X48.938 Y76.968 Z-4.000 I1.101 J-8.146 K0.000 F600.000
G2 X58.004 Y77.000 Z-4.000 I5.819 J-362.844 K0.000 F600.000
G2 X58.962 Y75.760 Z-4.000 I0.001 J-0.989 K0.000 F600.000
G2 X61.586 Y67.632 Z-4.000 I-3.950 J-5.763 K0.000 F600.000
G0 Z5.000
G0 X23.976 Y59.218 Z5.000
G0 X23.976 Y59.218 Z3.000
G1 X23.976 Y59.218 Z-4.000 F600.000
G2 X23.989 Y58.851 Z-4.000 I-0.976 J-0.218 K0.000 F600.000
G1 X11.000 Y-27.075 Z-4.000 F600.000
G1 X11.000 Y-39.081 Z-4.000 F600.000
G2 X15.961 Y-51.757 Z-4.000 I1.010 J-6.914 K0.000 F600.000
G2 X15.002 Y-53.000 Z-4.000 I-0.953 J-0.256 K0.000 F600.000
G2 X7.183 Y-52.996 Z-4.000 I-3.335 J1282.723 K0.000 F600.000
G2 X5.127 Y-52.903 Z-4.000 I-0.424 J13.283 K0.000 F600.000
G3 X5.917 Y-55.601 Z-4.000 I8.837 J1.124 K0.000 F600.000
G2 X5.060 Y-56.998 Z-4.000 I-0.917 J-0.399 K0.000 F600.000
G2 X1.515 Y-55.749 Z-4.000 I1.201 J9.062 K0.000 F600.000
G2 X-0.999 Y-51.090 Z-4.000 I2.809 J4.524 K0.000 F600.000
G1 X-1.000 Y59.000 Z-4.000 F600.000
G2 X0.000 Y60.000 Z-4.000 I1.000 J-0.000 K0.000 F600.000
G1 X23.000 Y60.000 Z-4.000 F600.000
G2 X23.976 Y59.218 Z-4.000 I0.000 J-1.000 K0.000 F600.000
G0 Z5.000
G0 X33.437 Y-59.569 Z5.000
G0 X33.437 Y-59.569 Z3.000
G1 X33.437 Y-59.569 Z-4.000 F600.000
G2 X39.775 Y-60.005 Z-4.000 I1.710 J-21.468 K0.000 F600.000
G2 X44.022 Y-62.189 Z-4.000 I-1.609 J-8.348 K0.000 F600.000
G2 X46.120 Y-65.069 Z-4.000 I-8.834 J-8.639 K0.000 F600.000
G2 X47.463 Y-71.447 Z-4.000 I-9.859 J-5.406 K0.000 F600.000
G2 X43.677 Y-79.113 Z-4.000 I-12.074 J1.194 K0.000 F600.000
G2 X41.343 Y-80.524 Z-4.000 I-5.667 J6.741 K0.000 F600.000
G2 X37.117 Y-81.415 Z-4.000 I-5.178 J14.088 K0.000 F600.000
G2 X33.015 Y-81.412 Z-4.000 I-2.035 J22.861 K0.000 F600.000
G2 X22.661 Y-76.625 Z-4.000 I3.630 J21.441 K0.000 F600.000
G2 X20.365 Y-73.875 Z-4.000 I6.846 J8.051 K0.000 F600.000
G1 X19.742 Y-73.153 Z-4.000 F600.000
G2 X19.618 Y-72.032 Z-4.000 I0.754 J0.651 K0.000 F600.000
G1 X18.793 Y-71.207 Z-4.000 F600.000
G2 X18.793 Y-69.793 Z-4.000 I0.707 J0.707 K0.000 F600.000
G1 X19.624 Y-68.962 Z-4.000 F600.000
G2 X19.752 Y-67.837 Z-4.000 I0.838 J0.475 K0.000 F600.000
G3 X20.702 Y-66.636 Z-4.000 I-6.588 J6.194 K0.000 F600.000
G2 X21.974 Y-65.024 Z-4.000 I5.932 J-3.372 K0.000 F600.000
G2 X32.513 Y-59.663 Z-4.000 I14.671 J-15.801 K0.000 F600.000
G2 X33.437 Y-59.569 Z-4.000 I2.634 J-21.374 K0.000 F600.000
G0 Z5.000
G0 X55.043 Y-62.403 Z5.000
G0 X55.043 Y-62.403 Z3.000
G1 X55.043 Y-62.403 Z-4.000 F600.000
G2 X55.828 Y-61.312 Z-4.000 I1.408 J-0.185 K0.000 F600.000
G2 X59.273 Y-61.936 Z-4.000 I1.227 J-3.048 K0.000 F600.000
G3 X60.081 Y-62.723 Z-4.000 I7.570 J6.955 K0.000 F600.000
G2 X61.793 Y-61.093 Z-4.000 I1.457 J0.183 K0.000 F600.000
G2 X63.256 Y-61.906 Z-4.000 I-0.777 J-3.122 K0.000 F600.000
G2 X65.229 Y-61.024 Z-4.000 I4.708 J-7.883 K0.000 F600.000
G2 X73.491 Y-60.371 Z-4.000 I5.619 J-18.489 K0.000 F600.000
G1 X73.739 Y-60.428 Z-4.000 F600.000
G2 X74.407 Y-61.027 Z-4.000 I-0.795 J-1.558 K0.000 F600.000
G1 X75.064 Y-61.025 Z-4.000 F600.000
G2 X81.300 Y-61.419 Z-4.000 I0.761 J-37.517 K0.000 F600.000
G1 X84.922 Y-61.447 Z-4.000 F600.000
G2 X86.746 Y-62.533 Z-4.000 I0.040 J-2.006 K0.000 F600.000
G2 X86.976 Y-64.175 Z-4.000 I-3.025 J-1.260 K0.000 F600.000
G2 X85.021 Y-66.225 Z-4.000 I-2.013 J-0.038 K0.000 F600.000
G2 X79.429 Y-64.800 Z-4.000 I1.693 J18.327 K0.000 F600.000
G3 X76.547 Y-64.059 Z-4.000 I-3.292 J-6.824 K0.000 F600.000
G3 X70.524 Y-64.042 Z-4.000 I-3.319 J-110.220 K0.000 F600.000
G3 X68.123 Y-64.123 Z-4.000 I-0.474 J-21.610 K0.000 F600.000
G3 X65.995 Y-65.023 Z-4.000 I0.096 J-3.192 K0.000 F600.000
G2 X66.992 Y-65.399 Z-4.000 I-0.071 J-1.701 K0.000 F600.000
G2 X67.087 Y-68.577 Z-4.000 I-1.442 J-1.634 K0.000 F600.000
G2 X65.661 Y-69.017 Z-4.000 I-1.183 J1.304 K0.000 F600.000
G3 X66.695 Y-70.339 Z-4.000 I4.671 J2.591 K0.000 F600.000
G2 X66.697 Y-71.716 Z-4.000 I-0.724 J-0.690 K0.000 F600.000
G3 X65.655 Y-73.057 Z-4.000 I3.857 J-4.076 K0.000 F600.000
G2 X66.994 Y-73.386 Z-4.000 I0.292 J-1.700 K0.000 F600.000
G2 X67.572 Y-75.837 Z-4.000 I-1.435 J-1.632 K0.000 F600.000
G2 X65.999 Y-77.036 Z-4.000 I-1.629 J0.506 K0.000 F600.000
G3 X67.430 Y-77.822 Z-4.000 I1.987 J1.924 K0.000 F600.000
G3 X68.947 Y-77.992 Z-4.000 I2.632 J16.589 K0.000 F600.000
G3 X76.344 Y-78.013 Z-4.000 I4.210 J182.224 K0.000 F600.000
G3 X77.898 Y-77.813 Z-4.000 I0.019 J5.982 K0.000 F600.000
G3 X81.404 Y-76.541 Z-4.000 I-179.526 J500.553 K0.000 F600.000
G1 X84.635 Y-75.858 Z-4.000 F600.000
G2 X86.789 Y-77.003 Z-4.000 I0.332 J-1.975 K0.000 F600.000
G2 X86.968 Y-78.687 Z-4.000 I-3.368 J-1.210 K0.000 F600.000
G2 X84.993 Y-80.608 Z-4.000 I-2.000 J0.081 K0.000 F600.000
G3 X79.492 Y-80.865 Z-4.000 I-1.683 J-22.970 K0.000 F600.000
G2 X74.407 Y-81.029 Z-4.000 I-4.576 J62.682 K0.000 F600.000
G1 X74.303 Y-81.153 Z-4.000 F600.000
G2 X73.500 Y-81.685 Z-4.000 I-0.950 J0.561 K0.000 F600.000
G2 X71.971 Y-81.823 Z-4.000 I-2.749 J21.954 K0.000 F600.000
G2 X66.432 Y-81.369 Z-4.000 I-1.279 J18.421 K0.000 F600.000
G2 X63.239 Y-80.164 Z-4.000 I2.591 J11.693 K0.000 F600.000
G2 X62.189 Y-80.856 Z-4.000 I-2.333 J2.396 K0.000 F600.000
G2 X60.067 Y-79.354 Z-4.000 I-0.623 J1.369 K0.000 F600.000
G1 X59.662 Y-79.752 Z-4.000 F600.000
G2 X56.022 Y-80.835 Z-4.000 I-2.640 J2.218 K0.000 F600.000
G2 X56.030 Y-78.130 Z-4.000 I0.427 J1.351 K0.000 F600.000
G3 X56.779 Y-77.796 Z-4.000 I-0.286 J1.646 K0.000 F600.000
G3 X57.382 Y-77.202 Z-4.000 I-18.679 J19.595 K0.000 F600.000
G2 X59.508 Y-75.254 Z-4.000 I11.481 J-10.391 K0.000 F600.000
G1 X59.455 Y-75.078 Z-4.000 F600.000
G2 X59.500 Y-66.793 Z-4.000 I16.732 J4.052 K0.000 F600.000
G2 X58.450 Y-65.945 Z-4.000 I4.249 J6.331 K0.000 F600.000
G3 X56.983 Y-64.466 Z-4.000 I-20.003 J-18.383 K0.000 F600.000
G3 X56.208 Y-63.987 Z-4.000 I-1.048 J-0.827 K0.000 F600.000
G2 X55.043 Y-62.403 Z-4.000 I0.243 J1.399 K0.000 F600.000
G0 Z5.000
G0 X100.515 Y-70.328 Z5.000
G0 X100.515 Y-70.328 Z3.000
G1 X100.515 Y-70.328 Z-4.000 F600.000
G2 X100.793 Y-69.793 Z-4.000 I0.985 J-0.172 K0.000 F600.000
G1 X101.624 Y-68.962 Z-4.000 F600.000
G2 X101.752 Y-67.837 Z-4.000 I0.838 J0.475 K0.000 F600.000
G3 X102.702 Y-66.636 Z-4.000 I-6.588 J6.194 K0.000 F600.000
G2 X103.974 Y-65.024 Z-4.000 I5.932 J-3.372 K0.000 F600.000
G2 X114.513 Y-59.663 Z-4.000 I14.671 J-15.801 K0.000 F600.000
G2 X121.775 Y-60.005 Z-4.000 I2.634 J-21.374 K0.000 F600.000
G2 X126.022 Y-62.189 Z-4.000 I-1.609 J-8.348 K0.000 F600.000
G2 X128.120 Y-65.069 Z-4.000 I-8.834 J-8.639 K0.000 F600.000
G2 X129.463 Y-71.447 Z-4.000 I-9.859 J-5.406 K0.000 F600.000
G2 X125.677 Y-79.113 Z-4.000 I-12.074 J1.194 K0.000 F600.000
G2 X123.343 Y-80.524 Z-4.000 I-5.667 J6.741 K0.000 F600.000
G2 X119.117 Y-81.415 Z-4.000 I-5.178 J14.088 K0.000 F600.000
G2 X115.015 Y-81.412 Z-4.000 I-2.035 J22.861 K0.000 F600.000
G2 X104.661 Y-76.625 Z-4.000 I3.630 J21.441 K0.000 F600.000
G2 X102.365 Y-73.875 Z-4.000 I6.846 J8.051 K0.000 F600.000
G1 X101.742 Y-73.153 Z-4.000 F600.000
G2 X101.618 Y-72.032 Z-4.000 I0.754 J0.651 K0.000 F600.000
G1 X100.793 Y-71.207 Z-4.000 F600.000
G2 X100.515 Y-70.328 Z-4.000 I0.707 J0.707 K0.000 F600.000
G0 Z5.000
G0 X137.059 Y-62.872 Z5.000
G0 X137.059 Y-62.872 Z3.000
G1 X137.059 Y-62.872 Z-4.000 F600.000
G2 X137.828 Y-61.312 Z-4.000 I1.391 J0.284 K0.000 F600.000
G2 X141.273 Y-61.936 Z-4.000 I1.227 J-3.048 K0.000 F600.000
G3 X142.081 Y-62.723 Z-4.000 I7.570 J6.955 K0.000 F600.000
G2 X143.793 Y-61.093 Z-4.000 I1.457 J0.183 K0.000 F600.000
G2 X145.256 Y-61.906 Z-4.000 I-0.777 J-3.122 K0.000 F600.000
G2 X147.229 Y-61.024 Z-4.000 I4.708 J-7.883 K0.000 F600.000
G2 X155.491 Y-60.371 Z-4.000 I5.619 J-18.489 K0.000 F600.000
G1 X155.739 Y-60.428 Z-4.000 F600.000
G2 X156.407 Y-61.027 Z-4.000 I-0.795 J-1.558 K0.000 F600.000
G1 X157.064 Y-61.025 Z-4.000 F600.000
G2 X163.300 Y-61.419 Z-4.000 I0.761 J-37.517 K0.000 F600.000
G1 X166.922 Y-61.447 Z-4.000 F600.000
G2 X168.746 Y-62.533 Z-4.000 I0.040 J-2.006 K0.000 F600.000
G2 X168.976 Y-64.175 Z-4.000 I-3.025 J-1.260 K0.000 F600.000
G2 X167.021 Y-66.225 Z-4.000 I-2.013 J-0.038 K0.000 F600.000
G2 X161.429 Y-64.800 Z-4.000 I1.693 J18.327 K0.000 F600.000
G3 X158.547 Y-64.059 Z-4.000 I-3.292 J-6.824 K0.000 F600.000
G3 X152.524 Y-64.042 Z-4.000 I-3.319 J-110.220 K0.000 F600.000
G3 X150.123 Y-64.123 Z-4.000 I-0.474 J-21.610 K0.000 F600.000
G3 X147.995 Y-65.023 Z-4.000 I0.096 J-3.192 K0.000 F600.000
G2 X148.992 Y-65.399 Z-4.000 I-0.071 J-1.701 K0.000 F600.000
G2 X149.087 Y-68.577 Z-4.000 I-1.442 J-1.634 K0.000 F600.000
G2 X147.661 Y-69.017 Z-4.000 I-1.183 J1.304 K0.000 F600.000
G3 X148.695 Y-70.339 Z-4.000 I4.671 J2.591 K0.000 F600.000
G2 X148.697 Y-71.716 Z-4.000 I-0.724 J-0.690 K0.000 F600.000
G3 X147.655 Y-73.057 Z-4.000 I3.857 J-4.076 K0.000 F600.000
G2 X148.994 Y-73.386 Z-4.000 I0.292 J-1.700 K0.000 F600.000
G2 X149.572 Y-75.837 Z-4.000 I-1.435 J-1.632 K0.000 F600.000
G2 X147.999 Y-77.036 Z-4.000 I-1.629 J0.506 K0.000 F600.000
G3 X149.430 Y-77.822 Z-4.000 I1.987 J1.924 K0.000 F600.000
G3 X150.947 Y-77.992 Z-4.000 I2.632 J16.589 K0.000 F600.000
G3 X158.344 Y-78.013 Z-4.000 I4.210 J182.224 K0.000 F600.000
G3 X159.898 Y-77.813 Z-4.000 I0.019 J5.982 K0.000 F600.000
G3 X163.404 Y-76.541 Z-4.000 I-179.525 J500.549 K0.000 F600.000
G1 X166.635 Y-75.858 Z-4.000 F600.000
G2 X168.789 Y-77.003 Z-4.000 I0.332 J-1.975 K0.000 F600.000
G2 X168.968 Y-78.687 Z-4.000 I-3.368 J-1.210 K0.000 F600.000
G2 X166.993 Y-80.608 Z-4.000 I-2.000 J0.081 K0.000 F600.000
G3 X161.492 Y-80.865 Z-4.000 I-1.683 J-22.970 K0.000 F600.000
G2 X156.407 Y-81.029 Z-4.000 I-4.576 J62.682 K0.000 F600.000
G1 X156.303 Y-81.153 Z-4.000 F600.000
G2 X155.500 Y-81.685 Z-4.000 I-0.950 J0.561 K0.000 F600.000
G2 X153.971 Y-81.823 Z-4.000 I-2.749 J21.954 K0.000 F600.000
G2 X148.432 Y-81.369 Z-4.000 I-1.279 J18.421 K0.000 F600.000
G2 X145.239 Y-80.164 Z-4.000 I2.591 J11.693 K0.000 F600.000
G2 X144.189 Y-80.856 Z-4.000 I-2.333 J2.396 K0.000 F600.000
G2 X142.067 Y-79.354 Z-4.000 I-0.623 J1.369 K0.000 F600.000
G1 X141.662 Y-79.752 Z-4.000 F600.000
G2 X138.022 Y-80.835 Z-4.000 I-2.640 J2.218 K0.000 F600.000
G2 X138.030 Y-78.130 Z-4.000 I0.427 J1.351 K0.000 F600.000
G3 X138.779 Y-77.796 Z-4.000 I-0.286 J1.646 K0.000 F600.000
G3 X139.382 Y-77.202 Z-4.000 I-18.679 J19.595 K0.000 F600.000
G2 X141.508 Y-75.254 Z-4.000 I11.481 J-10.391 K0.000 F600.000
G1 X141.455 Y-75.078 Z-4.000 F600.000
G2 X141.500 Y-66.793 Z-4.000 I16.733 J4.052 K0.000 F600.000
G2 X140.450 Y-65.945 Z-4.000 I4.249 J6.331 K0.000 F600.000
G3 X138.983 Y-64.466 Z-4.000 I-20.003 J-18.382 K0.000 F600.000
G3 X138.208 Y-63.987 Z-4.000 I-1.048 J-0.827 K0.000 F600.000
G2 X137.059 Y-62.872 Z-4.000 I0.243 J1.399 K0.000 F600.000
G0 Z5.000
G0 X184.532 Y-36.687 Z5.000
G0 X184.532 Y-36.687 Z3.000
G1 X184.532 Y-36.687 Z-4.000 F600.000
G2 X181.408 Y-29.508 Z-4.000 I36.664 J20.223 K0.000 F600.000
G2 X179.797 Y-18.519 Z-4.000 I29.955 J10.003 K0.000 F600.000
G1 X180.003 Y-15.920 Z-4.000 F600.000
G2 X181.997 Y-15.925 Z-4.000 I0.997 J-0.080 K0.000 F600.000
G3 X182.393 Y-18.427 Z-4.000 I10.175 J0.327 K0.000 F600.000
G3 X185.693 Y-25.272 Z-4.000 I30.941 J10.700 K0.000 F600.000
G2 X185.820 Y-20.747 Z-4.000 I33.067 J1.335 K0.000 F600.000
G2 X187.044 Y-14.706 Z-4.000 I25.904 J-2.104 K0.000 F600.000
G2 X188.962 Y-14.725 Z-4.000 I0.956 J-0.294 K0.000 F600.000
G3 X191.437 Y-21.796 Z-4.000 I48.212 J12.909 K0.000 F600.000
G2 X191.946 Y-19.515 Z-4.000 I26.523 J-4.723 K0.000 F600.000
G2 X194.032 Y-14.181 Z-4.000 I20.626 J-4.995 K0.000 F600.000
G2 X197.358 Y-10.233 Z-4.000 I12.150 J-6.860 K0.000 F600.000
G2 X198.987 Y-11.158 Z-4.000 I0.642 J-0.767 K0.000 F600.000
G3 X198.843 Y-17.006 Z-4.000 I17.234 J-3.351 K0.000 F600.000
G2 X200.004 Y-13.254 Z-4.000 I21.442 J-4.581 K0.000 F600.000
G2 X202.085 Y-9.786 Z-4.000 I9.914 J-3.589 K0.000 F600.000
G2 X204.634 Y-8.069 Z-4.000 I4.550 J-4.007 K0.000 F600.000
G2 X206.000 Y-9.020 Z-4.000 I0.366 J-0.931 K0.000 F600.000
G3 X206.013 Y-10.331 Z-4.000 I10.694 J-0.547 K0.000 F600.000
G3 X206.504 Y-12.573 Z-4.000 I6.330 J0.211 K0.000 F600.000
G2 X207.431 Y-9.952 Z-4.000 I16.948 J-4.522 K0.000 F600.000
G2 X211.739 Y-4.976 Z-4.000 I9.939 J-4.250 K0.000 F600.000
G3 X213.404 Y-3.357 Z-4.000 I-1.602 J3.312 K0.000 F600.000
G3 X214.063 Y-1.652 Z-4.000 I-13.084 J6.037 K0.000 F600.000
G2 X215.937 Y-1.652 Z-4.000 I0.937 J-0.348 K0.000 F600.000
G1 X216.443 Y-3.013 Z-4.000 F600.000
G3 X217.724 Y-4.640 Z-4.000 I3.073 J1.101 K0.000 F600.000
G2 X221.864 Y-8.587 Z-4.000 I-5.513 J-9.927 K0.000 F600.000
G2 X223.495 Y-12.568 Z-4.000 I-13.957 J-8.044 K0.000 F600.000
G3 X223.753 Y-11.871 Z-4.000 I-3.148 J1.561 K0.000 F600.000
G3 X224.000 Y-9.003 Z-4.000 I-11.586 J2.443 K0.000 F600.000
G2 X225.122 Y-8.008 Z-4.000 I1.000 J0.003 K0.000 F600.000
G2 X227.687 Y-9.531 Z-4.000 I-1.614 J-5.637 K0.000 F600.000
G2 X229.867 Y-12.908 Z-4.000 I-9.121 J-8.280 K0.000 F600.000
G2 X231.156 Y-17.069 Z-4.000 I-21.546 J-8.953 K0.000 F600.000
G3 X231.012 Y-11.157 Z-4.000 I-17.955 J2.521 K0.000 F600.000
G2 X232.432 Y-10.098 Z-4.000 I0.988 J0.157 K0.000 F600.000
G2 X235.822 Y-13.926 Z-4.000 I-8.007 J-10.504 K0.000 F600.000
G2 X238.570 Y-21.840 Z-4.000 I-20.993 J-11.726 K0.000 F600.000
G3 X241.041 Y-14.718 Z-4.000 I-54.634 J22.940 K0.000 F600.000
G2 X242.960 Y-14.719 Z-4.000 I0.959 J-0.282 K0.000 F600.000
G2 X244.303 Y-25.258 Z-4.000 I-28.193 J-8.947 K0.000 F600.000
G3 X245.551 Y-23.119 Z-4.000 I-31.867 J20.034 K0.000 F600.000
G3 X247.572 Y-18.472 Z-4.000 I-18.163 J10.663 K0.000 F600.000
G3 X248.001 Y-15.966 Z-4.000 I-7.972 J2.653 K0.000 F600.000
G2 X249.996 Y-15.906 Z-4.000 I0.999 J-0.034 K0.000 F600.000
G2 X249.489 Y-26.267 Z-4.000 I-31.068 J-3.674 K0.000 F600.000
G2 X244.877 Y-37.721 Z-4.000 I-39.914 J9.417 K0.000 F600.000
G2 X239.526 Y-45.337 Z-4.000 I-56.533 J34.027 K0.000 F600.000
G2 X233.196 Y-52.970 Z-4.000 I-903.784 J743.130 K0.000 F600.000
G3 X228.591 Y-59.542 Z-4.000 I36.579 J-30.528 K0.000 F600.000
G3 X226.186 Y-65.384 Z-4.000 I18.406 J-10.995 K0.000 F600.000
G1 X226.002 Y-67.034 Z-4.000 F600.000
G3 X226.840 Y-73.223 Z-4.000 I27.574 J0.581 K0.000 F600.000
G2 X226.009 Y-74.924 Z-4.000 I-1.503 J-0.320 K0.000 F600.000
G3 X224.065 Y-75.649 Z-4.000 I2.980 J-10.958 K0.000 F600.000
G3 X220.413 Y-78.160 Z-4.000 I22.681 J-36.905 K0.000 F600.000
G2 X217.827 Y-80.029 Z-4.000 I-14.523 J17.363 K0.000 F600.000
G2 X215.681 Y-80.937 Z-4.000 I-3.196 J4.566 K0.000 F600.000
G2 X213.377 Y-80.671 Z-4.000 I-0.701 J4.044 K0.000 F600.000
G2 X210.160 Y-78.603 Z-4.000 I6.616 J13.827 K0.000 F600.000
G3 X206.248 Y-75.843 Z-4.000 I-32.692 J-42.182 K0.000 F600.000
G1 X204.170 Y-74.985 Z-4.000 F600.000
G2 X203.137 Y-73.375 Z-4.000 I0.449 J1.424 K0.000 F600.000
G3 X203.977 Y-66.511 Z-4.000 I-25.678 J6.624 K0.000 F600.000
G3 X202.923 Y-62.561 Z-4.000 I-14.952 J-1.875 K0.000 F600.000
G3 X198.861 Y-55.614 Z-4.000 I-35.262 J-15.958 K0.000 F600.000
G3 X192.763 Y-48.137 Z-4.000 I-121.762 J-93.078 K0.000 F600.000
G2 X186.300 Y-39.604 Z-4.000 I67.432 J57.790 K0.000 F600.000
G2 X184.532 Y-36.687 Z-4.000 I34.896 J23.141 K0.000 F600.000
G0 Z5.000
G0 X214.381 Y1.214 Z5.000
G0 X214.381 Y1.214 Z3.000
G1 X214.381 Y1.214 Z-4.000 F600.000
G2 X214.063 Y1.652 Z-4.000 I0.619 J0.786 K0.000 F600.000
G1 X213.557 Y3.013 Z-4.000 F600.000
G3 X212.276 Y4.640 Z-4.000 I-3.073 J-1.101 K0.000 F600.000
G2 X208.136 Y8.587 Z-4.000 I5.513 J9.927 K0.000 F600.000
G2 X206.505 Y12.568 Z-4.000 I13.957 J8.044 K0.000 F600.000
G3 X206.247 Y11.871 Z-4.000 I3.148 J-1.561 K0.000 F600.000
G3 X206.000 Y9.003 Z-4.000 I11.586 J-2.443 K0.000 F600.000
G2 X204.878 Y8.008 Z-4.000 I-1.000 J-0.003 K0.000 F600.000
G2 X202.313 Y9.531 Z-4.000 I1.614 J5.637 K0.000 F600.000
G2 X200.133 Y12.908 Z-4.000 I9.121 J8.280 K0.000 F600.000
G2 X198.844 Y17.069 Z-4.000 I21.546 J8.953 K0.000 F600.000
G3 X198.988 Y11.157 Z-4.000 I17.955 J-2.521 K0.000 F600.000
G2 X197.568 Y10.098 Z-4.000 I-0.988 J-0.157 K0.000 F600.000
G2 X194.178 Y13.926 Z-4.000 I8.007 J10.504 K0.000 F600.000
G2 X191.430 Y21.840 Z-4.000 I20.993 J11.726 K0.000 F600.000
G3 X188.959 Y14.718 Z-4.000 I54.634 J-22.940 K0.000 F600.000
G2 X187.040 Y14.719 Z-4.000 I-0.959 J0.282 K0.000 F600.000
G2 X185.697 Y25.258 Z-4.000 I28.193 J8.947 K0.000 F600.000
G3 X184.449 Y23.119 Z-4.000 I31.867 J-20.034 K0.000 F600.000
G3 X182.428 Y18.472 Z-4.000 I18.163 J-10.663 K0.000 F600.000
G3 X181.999 Y15.966 Z-4.000 I7.972 J-2.653 K0.000 F600.000
G2 X180.004 Y15.906 Z-4.000 I-0.999 J0.034 K0.000 F600.000
G2 X180.511 Y26.267 Z-4.000 I31.068 J3.674 K0.000 F600.000
G2 X185.123 Y37.721 Z-4.000 I39.914 J-9.417 K0.000 F600.000
G2 X190.474 Y45.337 Z-4.000 I56.533 J-34.027 K0.000 F600.000
G2 X196.804 Y52.970 Z-4.000 I903.795 J-743.140 K0.000 F600.000
G3 X201.409 Y59.542 Z-4.000 I-36.579 J30.528 K0.000 F600.000
G3 X203.814 Y65.384 Z-4.000 I-18.406 J10.995 K0.000 F600.000
G1 X203.998 Y67.034 Z-4.000 F600.000
G3 X203.160 Y73.223 Z-4.000 I-27.574 J-0.581 K0.000 F600.000
G2 X203.991 Y74.924 Z-4.000 I1.503 J0.320 K0.000 F600.000
G3 X205.935 Y75.649 Z-4.000 I-2.980 J10.958 K0.000 F600.000
G3 X209.587 Y78.160 Z-4.000 I-22.681 J36.905 K0.000 F600.000
G2 X212.721 Y80.349 Z-4.000 I13.836 J-16.468 K0.000 F600.000
G2 X216.655 Y80.650 Z-4.000 I2.260 J-3.672 K0.000 F600.000
G2 X219.840 Y78.603 Z-4.000 I-6.409 J-13.474 K0.000 F600.000
G3 X223.752 Y75.843 Z-4.000 I32.693 J42.182 K0.000 F600.000
G1 X225.830 Y74.985 Z-4.000 F600.000
G2 X226.863 Y73.375 Z-4.000 I-0.449 J-1.424 K0.000 F600.000
G3 X226.023 Y66.511 Z-4.000 I25.678 J-6.624 K0.000 F600.000
G3 X227.077 Y62.561 Z-4.000 I14.952 J1.875 K0.000 F600.000
G3 X231.139 Y55.614 Z-4.000 I35.262 J15.958 K0.000 F600.000
G3 X237.237 Y48.137 Z-4.000 I121.762 J93.078 K0.000 F600.000
G2 X243.700 Y39.604 Z-4.000 I-67.432 J-57.790 K0.000 F600.000
G2 X248.592 Y29.508 Z-4.000 I-34.896 J-23.141 K0.000 F600.000
G2 X250.203 Y18.519 Z-4.000 I-29.955 J-10.003 K0.000 F600.000
G1 X249.997 Y15.920 Z-4.000 F600.000
G2 X248.003 Y15.925 Z-4.000 I-0.997 J0.080 K0.000 F600.000
G3 X247.607 Y18.427 Z-4.000 I-10.175 J-0.327 K0.000 F600.000
G3 X244.307 Y25.272 Z-4.000 I-30.941 J-10.700 K0.000 F600.000
G2 X244.180 Y20.747 Z-4.000 I-33.067 J-1.335 K0.000 F600.000
G2 X242.956 Y14.706 Z-4.000 I-25.904 J2.104 K0.000 F600.000
G2 X241.038 Y14.725 Z-4.000 I-0.956 J0.294 K0.000 F600.000
G3 X238.563 Y21.796 Z-4.000 I-48.212 J-12.909 K0.000 F600.000
G2 X238.054 Y19.515 Z-4.000 I-26.523 J4.723 K0.000 F600.000
G2 X235.968 Y14.181 Z-4.000 I-20.626 J4.995 K0.000 F600.000
G2 X232.642 Y10.233 Z-4.000 I-12.150 J6.860 K0.000 F600.000
G2 X231.013 Y11.158 Z-4.000 I-0.642 J0.767 K0.000 F600.000
G3 X231.157 Y17.006 Z-4.000 I-17.234 J3.351 K0.000 F600.000
G2 X229.996 Y13.254 Z-4.000 I-21.442 J4.581 K0.000 F600.000
G2 X227.915 Y9.786 Z-4.000 I-9.914 J3.589 K0.000 F600.000
G2 X225.366 Y8.069 Z-4.000 I-4.550 J4.007 K0.000 F600.000
G2 X224.000 Y9.020 Z-4.000 I-0.366 J0.931 K0.000 F600.000
G3 X223.987 Y10.331 Z-4.000 I-10.694 J0.547 K0.000 F600.000
G3 X223.496 Y12.573 Z-4.000 I-6.330 J-0.211 K0.000 F600.000
G2 X222.569 Y9.952 Z-4.000 I-16.948 J4.522 K0.000 F600.000
G2 X218.261 Y4.976 Z-4.000 I-9.939 J4.250 K0.000 F600.000
G3 X216.596 Y3.357 Z-4.000 I1.602 J-3.312 K0.000 F600.000
G3 X215.937 Y1.652 Z-4.000 I13.084 J-6.037 K0.000 F600.000
G2 X215.411 Y1.089 Z-4.000 I-0.937 J0.348 K0.000 F600.000
G2 X214.381 Y1.214 Z-4.000 I-0.411 J0.911 K0.000 F600.000
G1 X214.381 Y1.214 Z-5.000 F600.000
G2 X214.063 Y1.652 Z-5.000 I0.619 J0.786 K0.000 F600.000
G1 X213.557 Y3.013 Z-5.000 F600.000
G3 X212.276 Y4.640 Z-5.000 I-3.073 J-1.101 K0.000 F600.000
G2 X208.136 Y8.587 Z-5.000 I5.513 J9.927 K0.000 F600.000
G2 X206.505 Y12.568 Z-5.000 I13.957 J8.044 K0.000 F600.000
G3 X206.247 Y11.871 Z-5.000 I3.148 J-1.561 K0.000 F600.000
G3 X206.000 Y9.003 Z-5.000 I11.586 J-2.443 K0.000 F600.000
G2 X204.878 Y8.008 Z-5.000 I-1.000 J-0.003 K0.000 F600.000
G2 X202.313 Y9.531 Z-5.000 I1.614 J5.637 K0.000 F600.000
G2 X200.133 Y12.908 Z-5.000 I9.121 J8.280 K0.000 F600.000
G2 X198.844 Y17.069 Z-5.000 I21.546 J8.953 K0.000 F600.000
G3 X198.988 Y11.157 Z-5.000 I17.955 J-2.521 K0.000 F600.000
G2 X197.568 Y10.098 Z-5.000 I-0.988 J-0.157 K0.000 F600.000
G2 X194.178 Y13.926 Z-5.000 I8.007 J10.504 K0.000 F600.000
G2 X191.430 Y21.840 Z-5.000 I20.993 J11.726 K0.000 F600.000
G3 X188.959 Y14.718 Z-5.000 I54.634 J-22.940 K0.000 F600.000
G2 X187.040 Y14.719 Z-5.000 I-0.959 J0.282 K0.000 F600.000
G2 X185.697 Y25.258 Z-5.000 I28.193 J8.947 K0.000 F600.000
G3 X184.449 Y23.119 Z-5.000 I31.867 J-20.034 K0.000 F600.000
G3 X182.428 Y18.472 Z-5.000 I18.163 J-10.663 K0.000 F600.000
G3 X181.999 Y15.966 Z-5.000 I7.972 J-2.653 K0.000 F600.000
G2 X180.004 Y15.906 Z-5.000 I-0.999 J0.034 K0.000 F600.000
G2 X180.511 Y26.267 Z-5.000 I31.068 J3.674 K0.000 F600.000
G2 X185.123 Y37.721 Z-5.000 I39.914 J-9.417 K0.000 F600.000
G2 X190.474 Y45.337 Z-5.000 I56.533 J-34.027 K0.000 F600.000
G2 X196.804 Y52.970 Z-5.000 I903.795 J-743.140 K0.000 F600.000
G3 X201.409 Y59.542 Z-5.000 I-36.579 J30.528 K0.000 F600.000
G3 X203.814 Y65.384 Z-5.000 I-18.406 J10.995 K0.000 F600.000
G1 X203.998 Y67.034 Z-5.000 F600.000
G3 X203.160 Y73.223 Z-5.000 I-27.574 J-0.581 K0.000 F600.000
G2 X203.991 Y74.924 Z-5.000 I1.503 J0.320 K0.000 F600.000
G3 X205.935 Y75.649 Z-5.000 I-2.980 J10.958 K0.000 F600.000
G3 X209.587 Y78.160 Z-5.000 I-22.681 J36.905 K0.000 F600.000
G2 X212.721 Y80.349 Z-5.000 I13.836 J-16.468 K0.000 F600.000
G2 X216.655 Y80.650 Z-5.000 I2.260 J-3.672 K0.000 F600.000
G2 X219.840 Y78.603 Z-5.000 I-6.409 J-13.474 K0.000 F600.000
G3 X223.752 Y75.843 Z-5.000 I32.693 J42.182 K0.000 F600.000
G1 X225.830 Y74.985 Z-5.000 F600.000
G2 X226.863 Y73.375 Z-5.000 I-0.449 J-1.424 K0.000 F600.000
G3 X226.023 Y66.511 Z-5.000 I25.678 J-6.624 K0.000 F600.000
G3 X227.077 Y62.561 Z-5.000 I14.952 J1.875 K0.000 F600.000
G3 X231.139 Y55.614 Z-5.000 I35.262 J15.958 K0.000 F600.000
G3 X237.237 Y48.137 Z-5.000 I121.762 J93.078 K0.000 F600.000
G2 X243.700 Y39.604 Z-5.000 I-67.432 J-57.790 K0.000 F600.000
G2 X248.592 Y29.508 Z-5.000 I-34.896 J-23.141 K0.000 F600.000
G2 X250.203 Y18.519 Z-5.000 I-29.955 J-10.003 K0.000 F600.000
G1 X249.997 Y15.920 Z-5.000 F600.000
G2 X248.003 Y15.925 Z-5.000 I-0.997 J0.080 K0.000 F600.000
G3 X247.607 Y18.427 Z-5.000 I-10.175 J-0.327 K0.000 F600.000
G3 X244.307 Y25.272 Z-5.000 I-30.941 J-10.700 K0.000 F600.000
G2 X244.180 Y20.747 Z-5.000 I-33.067 J-1.335 K0.000 F600.000
G2 X242.956 Y14.706 Z-5.000 I-25.904 J2.104 K0.000 F600.000
G2 X241.038 Y14.725 Z-5.000 I-0.956 J0.294 K0.000 F600.000
G3 X238.563 Y21.796 Z-5.000 I-48.212 J-12.909 K0.000 F600.000
G2 X238.054 Y19.515 Z-5.000 I-26.523 J4.723 K0.000 F600.000
G2 X235.968 Y14.181 Z-5.000 I-20.626 J4.995 K0.000 F600.000
G2 X232.642 Y10.233 Z-5.000 I-12.150 J6.860 K0.000 F600.000
G2 X231.013 Y11.158 Z-5.000 I-0.642 J0.767 K0.000 F600.000
G3 X231.157 Y17.006 Z-5.000 I-17.234 J3.351 K0.000 F600.000
G2 X229.996 Y13.254 Z-5.000 I-21.442 J4.581 K0.000 F600.000
G2 X227.915 Y9.786 Z-5.000 I-9.914 J3.589 K0.000 F600.000
G2 X225.366 Y8.069 Z-5.000 I-4.550 J4.007 K0.000 F600.000
G2 X224.000 Y9.020 Z-5.000 I-0.366 J0.931 K0.000 F600.000
G3 X223.987 Y10.331 Z-5.000 I-10.694 J0.547 K0.000 F600.000
G3 X223.496 Y12.573 Z-5.000 I-6.330 J-0.211 K0.000 F600.000
G2 X222.569 Y9.952 Z-5.000 I-16.948 J4.522 K0.000 F600.000
G2 X218.261 Y4.976 Z-5.000 I-9.939 J4.250 K0.000 F600.000
G3 X216.596 Y3.357 Z-5.000 I1.602 J-3.312 K0.000 F600.000
G3 X215.937 Y1.652 Z-5.000 I13.084 J-6.037 K0.000 F600.000
G2 X215.411 Y1.089 Z-5.000 I-0.937 J0.348 K0.000 F600.000
G2 X214.381 Y1.214 Z-5.000 I-0.411 J0.911 K0.000 F600.000
G0 Z5.000
G0 X214.811 Y-1.018 Z5.000
G0 X214.811 Y-1.018 Z3.000
G1 X214.811 Y-1.018 Z-5.000 F600.000
G2 X215.937 Y-1.652 Z-5.000 I0.189 J-0.982 K0.000 F600.000
G1 X216.443 Y-3.013 Z-5.000 F600.000
G3 X217.724 Y-4.640 Z-5.000 I3.073 J1.101 K0.000 F600.000
G2 X221.864 Y-8.587 Z-5.000 I-5.513 J-9.927 K0.000 F600.000
G2 X223.495 Y-12.568 Z-5.000 I-13.957 J-8.044 K0.000 F600.000
G3 X223.753 Y-11.871 Z-5.000 I-3.148 J1.561 K0.000 F600.000
G3 X224.000 Y-9.003 Z-5.000 I-11.586 J2.443 K0.000 F600.000
G2 X225.122 Y-8.008 Z-5.000 I1.000 J0.003 K0.000 F600.000
G2 X227.687 Y-9.531 Z-5.000 I-1.614 J-5.637 K0.000 F600.000
G2 X229.867 Y-12.908 Z-5.000 I-9.121 J-8.280 K0.000 F600.000
G2 X231.156 Y-17.069 Z-5.000 I-21.546 J-8.953 K0.000 F600.000
G3 X231.012 Y-11.157 Z-5.000 I-17.955 J2.521 K0.000 F600.000
G2 X232.432 Y-10.098 Z-5.000 I0.988 J0.157 K0.000 F600.000
G2 X235.822 Y-13.926 Z-5.000 I-8.007 J-10.504 K0.000 F600.000
G2 X238.570 Y-21.840 Z-5.000 I-20.993 J-11.726 K0.000 F600.000
G3 X241.041 Y-14.718 Z-5.000 I-54.634 J22.940 K0.000 F600.000
G2 X242.960 Y-14.719 Z-5.000 I0.959 J-0.282 K0.000 F600.000
G2 X244.303 Y-25.258 Z-5.000 I-28.193 J-8.947 K0.000 F600.000
G3 X245.551 Y-23.119 Z-5.000 I-31.867 J20.034 K0.000 F600.000
G3 X247.572 Y-18.472 Z-5.000 I-18.163 J10.663 K0.000 F600.000
G3 X248.001 Y-15.966 Z-5.000 I-7.972 J2.653 K0.000 F600.000
G2 X249.996 Y-15.906 Z-5.000 I0.999 J-0.034 K0.000 F600.000
G2 X249.489 Y-26.267 Z-5.000 I-31.068 J-3.674 K0.000 F600.000
G2 X244.877 Y-37.721 Z-5.000 I-39.914 J9.417 K0.000 F600.000
G2 X239.526 Y-45.337 Z-5.000 I-56.533 J34.027 K0.000 F600.000
G2 X233.196 Y-52.970 Z-5.000 I-903.784 J743.130 K0.000 F600.000
G3 X228.591 Y-59.542 Z-5.000 I36.579 J-30.528 K0.000 F600.000
G3 X226.186 Y-65.384 Z-5.000 I18.406 J-10.995 K0.000 F600.000
G1 X226.002 Y-67.034 Z-5.000 F600.000
G3 X226.840 Y-73.223 Z-5.000 I27.574 J0.581 K0.000 F600.000
G2 X226.009 Y-74.924 Z-5.000 I-1.503 J-0.320 K0.000 F600.000
G3 X224.065 Y-75.649 Z-5.000 I2.980 J-10.958 K0.000 F600.000
G3 X220.413 Y-78.160 Z-5.000 I22.681 J-36.905 K0.000 F600.000
G2 X217.827 Y-80.029 Z-5.000 I-14.523 J17.363 K0.000 F600.000
G2 X215.681 Y-80.937 Z-5.000 I-3.196 J4.566 K0.000 F600.000
G2 X213.377 Y-80.671 Z-5.000 I-0.701 J4.044 K0.000 F600.000
G2 X210.160 Y-78.603 Z-5.000 I6.616 J13.827 K0.000 F600.000
G3 X206.248 Y-75.843 Z-5.000 I-32.692 J-42.182 K0.000 F600.000
G1 X204.170 Y-74.985 Z-5.000 F600.000
G2 X203.137 Y-73.375 Z-5.000 I0.449 J1.424 K0.000 F600.000
G3 X203.977 Y-66.511 Z-5.000 I-25.678 J6.624 K0.000 F600.000
G3 X202.923 Y-62.561 Z-5.000 I-14.952 J-1.875 K0.000 F600.000
G3 X198.861 Y-55.614 Z-5.000 I-35.262 J-15.958 K0.000 F600.000
G3 X192.763 Y-48.137 Z-5.000 I-121.762 J-93.078 K0.000 F600.000
G2 X186.300 Y-39.604 Z-5.000 I67.432 J57.790 K0.000 F600.000
G2 X181.408 Y-29.508 Z-5.000 I34.896 J23.141 K0.000 F600.000
G2 X179.797 Y-18.519 Z-5.000 I29.955 J10.003 K0.000 F600.000
G1 X180.003 Y-15.920 Z-5.000 F600.000
G2 X181.997 Y-15.925 Z-5.000 I0.997 J-0.080 K0.000 F600.000
G3 X182.393 Y-18.427 Z-5.000 I10.175 J0.327 K0.000 F600.000
G3 X185.693 Y-25.272 Z-5.000 I30.941 J10.700 K0.000 F600.000
G2 X185.820 Y-20.747 Z-5.000 I33.067 J1.335 K0.000 F600.000
G2 X187.044 Y-14.706 Z-5.000 I25.904 J-2.104 K0.000 F600.000
G2 X188.962 Y-14.725 Z-5.000 I0.956 J-0.294 K0.000 F600.000
G3 X191.437 Y-21.796 Z-5.000 I48.212 J12.909 K0.000 F600.000
G2 X191.946 Y-19.515 Z-5.000 I26.523 J-4.723 K0.000 F600.000
G2 X194.032 Y-14.181 Z-5.000 I20.626 J-4.995 K0.000 F600.000
G2 X197.358 Y-10.233 Z-5.000 I12.150 J-6.860 K0.000 F600.000
G2 X198.987 Y-11.158 Z-5.000 I0.642 J-0.767 K0.000 F600.000
G3 X198.843 Y-17.006 Z-5.000 I17.234 J-3.351 K0.000 F600.000
G2 X200.004 Y-13.254 Z-5.000 I21.442 J-4.581 K0.000 F600.000
G2 X202.085 Y-9.786 Z-5.000 I9.914 J-3.589 K0.000 F600.000
G2 X204.634 Y-8.069 Z-5.000 I4.550 J-4.007 K0.000 F600.000
G2 X206.000 Y-9.020 Z-5.000 I0.366 J-0.931 K0.000 F600.000
G3 X206.013 Y-10.331 Z-5.000 I10.694 J-0.547 K0.000 F600.000
G3 X206.504 Y-12.573 Z-5.000 I6.330 J0.211 K0.000 F600.000
G2 X207.431 Y-9.952 Z-5.000 I16.948 J-4.522 K0.000 F600.000
G2 X211.739 Y-4.976 Z-5.000 I9.939 J-4.250 K0.000 F600.000
G3 X213.404 Y-3.357 Z-5.000 I-1.602 J3.312 K0.000 F600.000
G3 X214.063 Y-1.652 Z-5.000 I-13.084 J6.037 K0.000 F600.000
G2 X214.811 Y-1.018 Z-5.000 I0.937 J-0.348 K0.000 F600.000
G0 Z5.000
G0 X173.000 Z5.000
G0 X173.000 Z3.000
G1 X173.000 Y-1.018 Z-5.000 F600.000
G1 X173.000 Y-51.050 Z-5.000 F600.000
G2 X171.174 Y-55.229 Z-5.000 I-5.344 J-0.153 K0.000 F600.000
G2 X168.050 Y-56.792 Z-5.000 I-5.354 J6.793 K0.000 F600.000
G1 X167.210 Y-56.978 Z-5.000 F600.000
G2 X166.075 Y-55.619 Z-5.000 I-0.210 J0.978 K0.000 F600.000
G3 X166.878 Y-52.899 Z-5.000 I-8.473 J3.977 K0.000 F600.000
G2 X166.062 Y-52.968 Z-5.000 I-1.101 J8.146 K0.000 F600.000
G2 X156.996 Y-53.000 Z-5.000 I-5.819 J362.845 K0.000 F600.000
G2 X156.038 Y-51.760 Z-5.000 I-0.001 J0.989 K0.000 F600.000
G2 X161.000 Y-39.084 Z-5.000 I3.950 J5.763 K0.000 F600.000
G1 X161.000 Y-27.075 Z-5.000 F600.000
G1 X148.011 Y58.851 Z-5.000 F600.000
G2 X149.000 Y60.000 Z-5.000 I0.989 J0.149 K0.000 F600.000
G1 X172.000 Y60.000 Z-5.000 F600.000
G2 X173.000 Y59.000 Z-5.000 I-0.000 J-1.000 K0.000 F600.000
G1 X173.000 Y-1.018 Z-5.000 F600.000
G0 Z5.000
G0 X152.037 Y-4.431 Z5.000
G0 X152.037 Y-4.431 Z3.000
G1 X152.037 Y-4.431 Z-5.000 F600.000
G1 X156.987 Y-34.839 Z-5.000 F600.000
G2 X156.000 Y-36.000 Z-5.000 I-0.987 J-0.161 K0.000 F600.000
G1 X105.000 Y-36.000 Z-5.000 F600.000
G2 X104.011 Y-34.851 Z-5.000 I-0.000 J1.000 K0.000 F600.000
G1 X117.000 Y51.075 Z-5.000 F600.000
G1 X117.000 Y63.081 Z-5.000 F600.000
G2 X112.039 Y75.757 Z-5.000 I-1.010 J6.914 K0.000 F600.000
G2 X112.998 Y77.000 Z-5.000 I0.953 J0.256 K0.000 F600.000
G2 X120.817 Y76.996 Z-5.000 I3.335 J-1282.669 K0.000 F600.000
G2 X122.873 Y76.903 Z-5.000 I0.424 J-13.283 K0.000 F600.000
G3 X122.083 Y79.601 Z-5.000 I-8.837 J-1.124 K0.000 F600.000
G2 X123.000 Y81.000 Z-5.000 I0.917 J0.399 K0.000 F600.000
G1 X137.000 Y81.000 Z-5.000 F600.000
G2 X137.925 Y79.619 Z-5.000 I0.000 J-1.000 K0.000 F600.000
G3 X137.122 Y76.899 Z-5.000 I8.473 J-3.977 K0.000 F600.000
G2 X137.938 Y76.968 Z-5.000 I1.101 J-8.146 K0.000 F600.000
G2 X147.004 Y77.000 Z-5.000 I5.819 J-362.844 K0.000 F600.000
G2 X147.962 Y75.760 Z-5.000 I0.001 J-0.989 K0.000 F600.000
G2 X143.000 Y63.084 Z-5.000 I-3.950 J-5.763 K0.000 F600.000
G1 X143.000 Y51.081 Z-5.000 F600.000
G1 X152.037 Y-4.431 Z-5.000 F600.000
G0 Z5.000
G0 X104.509 Y2.754 Z5.000
G0 X104.509 Y2.754 Z3.000
G1 X104.509 Y2.754 Z-5.000 F600.000
G1 X100.000 Y-27.075 Z-5.000 F600.000
G1 X100.000 Y-39.081 Z-5.000 F600.000
G2 X104.961 Y-51.757 Z-5.000 I1.010 J-6.914 K0.000 F600.000
G2 X104.002 Y-53.000 Z-5.000 I-0.953 J-0.256 K0.000 F600.000
G2 X96.183 Y-52.996 Z-5.000 I-3.335 J1282.723 K0.000 F600.000
G2 X94.127 Y-52.903 Z-5.000 I-0.424 J13.283 K0.000 F600.000
G3 X94.917 Y-55.601 Z-5.000 I8.837 J1.124 K0.000 F600.000
G2 X94.060 Y-56.998 Z-5.000 I-0.917 J-0.399 K0.000 F600.000
G2 X90.515 Y-55.749 Z-5.000 I1.201 J9.062 K0.000 F600.000
G2 X88.001 Y-51.090 Z-5.000 I2.809 J4.524 K0.000 F600.000
G1 X88.000 Y59.000 Z-5.000 F600.000
G2 X89.000 Y60.000 Z-5.000 I1.000 J-0.000 K0.000 F600.000
G1 X112.000 Y60.000 Z-5.000 F600.000
G2 X112.989 Y58.851 Z-5.000 I0.000 J-1.000 K0.000 F600.000
G1 X104.509 Y2.754 Z-5.000 F600.000
G0 Z5.000
G0 X84.000 Z5.000
G0 X84.000 Z3.000
G1 X84.000 Y2.754 Z-5.000 F600.000
G1 X84.000 Y-51.050 Z-5.000 F600.000
G2 X82.174 Y-55.229 Z-5.000 I-5.344 J-0.153 K0.000 F600.000
G2 X79.050 Y-56.792 Z-5.000 I-5.354 J6.793 K0.000 F600.000
G1 X78.210 Y-56.978 Z-5.000 F600.000
G2 X77.075 Y-55.619 Z-5.000 I-0.210 J0.978 K0.000 F600.000
G3 X77.878 Y-52.899 Z-5.000 I-8.473 J3.977 K0.000 F600.000
G2 X77.062 Y-52.968 Z-5.000 I-1.101 J8.146 K0.000 F600.000
G2 X67.996 Y-53.000 Z-5.000 I-5.819 J362.845 K0.000 F600.000
G2 X67.038 Y-51.760 Z-5.000 I-0.001 J0.989 K0.000 F600.000
G2 X72.000 Y-39.084 Z-5.000 I3.950 J5.763 K0.000 F600.000
G1 X72.000 Y-27.075 Z-5.000 F600.000
G1 X59.011 Y58.851 Z-5.000 F600.000
G2 X60.000 Y60.000 Z-5.000 I0.989 J0.149 K0.000 F600.000
G1 X83.000 Y60.000 Z-5.000 F600.000
G2 X84.000 Y59.000 Z-5.000 I-0.000 J-1.000 K0.000 F600.000
G1 X84.000 Y2.754 Z-5.000 F600.000
G0 Z5.000
G0 X62.439 Y-0.756 Z5.000
G0 X62.439 Y-0.756 Z3.000
G1 X62.439 Y-0.756 Z-5.000 F600.000
G1 X67.987 Y-34.839 Z-5.000 F600.000
G2 X67.000 Y-36.000 Z-5.000 I-0.987 J-0.161 K0.000 F600.000
G1 X16.000 Y-36.000 Z-5.000 F600.000
G2 X15.011 Y-34.851 Z-5.000 I-0.000 J1.000 K0.000 F600.000
G1 X28.000 Y51.075 Z-5.000 F600.000
G1 X28.000 Y63.081 Z-5.000 F600.000
G2 X23.039 Y75.757 Z-5.000 I-1.010 J6.914 K0.000 F600.000
G2 X23.998 Y77.000 Z-5.000 I0.953 J0.256 K0.000 F600.000
G2 X31.817 Y76.996 Z-5.000 I3.335 J-1282.669 K0.000 F600.000
G2 X33.873 Y76.903 Z-5.000 I0.424 J-13.283 K0.000 F600.000
G3 X33.083 Y79.601 Z-5.000 I-8.837 J-1.124 K0.000 F600.000
G2 X34.000 Y81.000 Z-5.000 I0.917 J0.399 K0.000 F600.000
G1 X48.000 Y81.000 Z-5.000 F600.000
G2 X48.925 Y79.619 Z-5.000 I0.000 J-1.000 K0.000 F600.000
G3 X48.122 Y76.899 Z-5.000 I8.473 J-3.977 K0.000 F600.000
G2 X48.938 Y76.968 Z-5.000 I1.101 J-8.146 K0.000 F600.000
G2 X58.004 Y77.000 Z-5.000 I5.819 J-362.844 K0.000 F600.000
G2 X58.962 Y75.760 Z-5.000 I0.001 J-0.989 K0.000 F600.000
G2 X54.000 Y63.084 Z-5.000 I-3.950 J-5.763 K0.000 F600.000
G1 X54.000 Y51.081 Z-5.000 F600.000
G1 X62.439 Y-0.756 Z-5.000 F600.000
G0 Z5.000
G0 X16.039 Y6.258 Z5.000
G0 X16.039 Y6.258 Z3.000
G1 X16.039 Y6.258 Z-5.000 F600.000
G1 X11.000 Y-27.075 Z-5.000 F600.000
G1 X11.000 Y-39.081 Z-5.000 F600.000
G2 X15.961 Y-51.757 Z-5.000 I1.010 J-6.914 K0.000 F600.000
G2 X15.002 Y-53.000 Z-5.000 I-0.953 J-0.256 K0.000 F600.000
G2 X7.183 Y-52.996 Z-5.000 I-3.335 J1282.723 K0.000 F600.000
G2 X5.127 Y-52.903 Z-5.000 I-0.424 J13.283 K0.000 F600.000
G3 X5.917 Y-55.601 Z-5.000 I8.837 J1.124 K0.000 F600.000
G2 X5.060 Y-56.998 Z-5.000 I-0.917 J-0.399 K0.000 F600.000
G2 X1.515 Y-55.749 Z-5.000 I1.201 J9.062 K0.000 F600.000
G2 X-0.999 Y-51.090 Z-5.000 I2.809 J4.524 K0.000 F600.000
G1 X-1.000 Y59.000 Z-5.000 F600.000
G2 X0.000 Y60.000 Z-5.000 I1.000 J-0.000 K0.000 F600.000
G1 X23.000 Y60.000 Z-5.000 F600.000
G2 X23.989 Y58.851 Z-5.000 I0.000 J-1.000 K0.000 F600.000
G1 X16.039 Y6.258 Z-5.000 F600.000
G0 Z5.000
G0 X31.680 Y-59.843 Z5.000
G0 X31.680 Y-59.843 Z3.000
G1 X31.680 Y-59.843 Z-5.000 F600.000
G2 X32.513 Y-59.663 Z-5.000 I4.965 J-20.982 K0.000 F600.000
G2 X39.775 Y-60.005 Z-5.000 I2.634 J-21.374 K0.000 F600.000
G2 X44.022 Y-62.189 Z-5.000 I-1.609 J-8.348 K0.000 F600.000
G2 X46.120 Y-65.069 Z-5.000 I-8.834 J-8.639 K0.000 F600.000
G2 X47.463 Y-71.447 Z-5.000 I-9.859 J-5.406 K0.000 F600.000
G2 X43.677 Y-79.113 Z-5.000 I-12.074 J1.194 K0.000 F600.000
G2 X41.343 Y-80.524 Z-5.000 I-5.667 J6.741 K0.000 F600.000
G2 X37.117 Y-81.415 Z-5.000 I-5.178 J14.088 K0.000 F600.000
G2 X33.015 Y-81.412 Z-5.000 I-2.035 J22.861 K0.000 F600.000
G2 X22.661 Y-76.625 Z-5.000 I3.630 J21.441 K0.000 F600.000
G2 X20.365 Y-73.875 Z-5.000 I6.846 J8.051 K0.000 F600.000
G1 X19.742 Y-73.153 Z-5.000 F600.000
G2 X19.618 Y-72.032 Z-5.000 I0.754 J0.651 K0.000 F600.000
G1 X18.793 Y-71.207 Z-5.000 F600.000
G2 X18.793 Y-69.793 Z-5.000 I0.707 J0.707 K0.000 F600.000
G1 X19.624 Y-68.962 Z-5.000 F600.000
G2 X19.752 Y-67.837 Z-5.000 I0.838 J0.475 K0.000 F600.000
G3 X20.702 Y-66.636 Z-5.000 I-6.588 J6.194 K0.000 F600.000
G2 X21.974 Y-65.024 Z-5.000 I5.932 J-3.372 K0.000 F600.000
G2 X31.680 Y-59.843 Z-5.000 I14.671 J-15.801 K0.000 F600.000
G0 Z5.000
G0 X55.039 Y-62.431 Z5.000
G0 X55.039 Y-62.431 Z3.000
G1 X55.039 Y-62.431 Z-5.000 F600.000
G2 X55.828 Y-61.312 Z-5.000 I1.411 J-0.156 K0.000 F600.000
G2 X59.273 Y-61.936 Z-5.000 I1.227 J-3.048 K0.000 F600.000
G3 X60.081 Y-62.723 Z-5.000 I7.570 J6.955 K0.000 F600.000
G2 X61.793 Y-61.093 Z-5.000 I1.457 J0.183 K0.000 F600.000
G2 X63.256 Y-61.906 Z-5.000 I-0.777 J-3.122 K0.000 F600.000
G2 X65.229 Y-61.024 Z-5.000 I4.708 J-7.883 K0.000 F600.000
G2 X73.491 Y-60.371 Z-5.000 I5.619 J-18.489 K0.000 F600.000
G1 X73.739 Y-60.428 Z-5.000 F600.000
G2 X74.407 Y-61.027 Z-5.000 I-0.795 J-1.558 K0.000 F600.000
G1 X75.064 Y-61.025 Z-5.000 F600.000
G2 X81.300 Y-61.419 Z-5.000 I0.761 J-37.517 K0.000 F600.000
G1 X84.922 Y-61.447 Z-5.000 F600.000
G2 X86.746 Y-62.533 Z-5.000 I0.040 J-2.006 K0.000 F600.000
G2 X86.976 Y-64.175 Z-5.000 I-3.025 J-1.260 K0.000 F600.000
G2 X85.021 Y-66.225 Z-5.000 I-2.013 J-0.038 K0.000 F600.000
G2 X79.429 Y-64.800 Z-5.000 I1.693 J18.327 K0.000 F600.000
G3 X76.547 Y-64.059 Z-5.000 I-3.292 J-6.824 K0.000 F600.000
G3 X70.524 Y-64.042 Z-5.000 I-3.319 J-110.220 K0.000 F600.000
G3 X68.123 Y-64.123 Z-5.000 I-0.474 J-21.610 K0.000 F600.000
G3 X65.995 Y-65.023 Z-5.000 I0.096 J-3.192 K0.000 F600.000
G2 X66.992 Y-65.399 Z-5.000 I-0.071 J-1.701 K0.000 F600.000
G2 X67.087 Y-68.577 Z-5.000 I-1.442 J-1.634 K0.000 F600.000
G2 X65.661 Y-69.017 Z-5.000 I-1.183 J1.304 K0.000 F600.000
G3 X66.695 Y-70.339 Z-5.000 I4.671 J2.591 K0.000 F600.000
G2 X66.697 Y-71.716 Z-5.000 I-0.724 J-0.690 K0.000 F600.000
G3 X65.655 Y-73.057 Z-5.000 I3.857 J-4.076 K0.000 F600.000
G2 X66.994 Y-73.386 Z-5.000 I0.292 J-1.700 K0.000 F600.000
G2 X67.572 Y-75.837 Z-5.000 I-1.435 J-1.632 K0.000 F600.000
G2 X65.999 Y-77.036 Z-5.000 I-1.629 J0.506 K0.000 F600.000
G3 X67.430 Y-77.822 Z-5.000 I1.987 J1.924 K0.000 F600.000
G3 X68.947 Y-77.992 Z-5.000 I2.632 J16.589 K0.000 F600.000
G3 X76.344 Y-78.013 Z-5.000 I4.210 J182.224 K0.000 F600.000
G3 X77.898 Y-77.813 Z-5.000 I0.019 J5.982 K0.000 F600.000
G3 X81.404 Y-76.541 Z-5.000 I-179.526 J500.553 K0.000 F600.000
G1 X84.635 Y-75.858 Z-5.000 F600.000
G2 X86.789 Y-77.003 Z-5.000 I0.332 J-1.975 K0.000 F600.000
G2 X86.968 Y-78.687 Z-5.000 I-3.368 J-1.210 K0.000 F600.000
G2 X84.993 Y-80.608 Z-5.000 I-2.000 J0.081 K0.000 F600.000
G3 X79.492 Y-80.865 Z-5.000 I-1.683 J-22.970 K0.000 F600.000
G2 X74.407 Y-81.029 Z-5.000 I-4.576 J62.682 K0.000 F600.000
G1 X74.303 Y-81.153 Z-5.000 F600.000
G2 X73.500 Y-81.685 Z-5.000 I-0.950 J0.561 K0.000 F600.000
G2 X71.971 Y-81.823 Z-5.000 I-2.749 J21.954 K0.000 F600.000
G2 X66.432 Y-81.369 Z-5.000 I-1.279 J18.421 K0.000 F600.000
G2 X63.239 Y-80.164 Z-5.000 I2.591 J11.693 K0.000 F600.000
G2 X62.189 Y-80.856 Z-5.000 I-2.333 J2.396 K0.000 F600.000
G2 X60.067 Y-79.354 Z-5.000 I-0.623 J1.369 K0.000 F600.000
G1 X59.662 Y-79.752 Z-5.000 F600.000
G2 X56.022 Y-80.835 Z-5.000 I-2.640 J2.218 K0.000 F600.000
G2 X56.030 Y-78.130 Z-5.000 I0.427 J1.351 K0.000 F600.000
G3 X56.779 Y-77.796 Z-5.000 I-0.286 J1.646 K0.000 F600.000
G3 X57.382 Y-77.202 Z-5.000 I-18.679 J19.595 K0.000 F600.000
G2 X59.508 Y-75.254 Z-5.000 I11.481 J-10.391 K0.000 F600.000
G1 X59.455 Y-75.078 Z-5.000 F600.000
G2 X59.500 Y-66.793 Z-5.000 I16.732 J4.052 K0.000 F600.000
G2 X58.450 Y-65.945 Z-5.000 I4.249 J6.331 K0.000 F600.000
G3 X56.983 Y-64.466 Z-5.000 I-20.003 J-18.383 K0.000 F600.000
G3 X56.208 Y-63.987 Z-5.000 I-1.048 J-0.827 K0.000 F600.000
G2 X55.039 Y-62.431 Z-5.000 I0.243 J1.399 K0.000 F600.000
G0 Z5.000
G0 X100.515 Y-70.329 Z5.000
G0 X100.515 Y-70.329 Z3.000
G1 X100.515 Y-70.329 Z-5.000 F600.000
G2 X100.793 Y-69.793 Z-5.000 I0.985 J-0.171 K0.000 F600.000
G1 X101.624 Y-68.962 Z-5.000 F600.000
G2 X101.752 Y-67.837 Z-5.000 I0.838 J0.475 K0.000 F600.000
G3 X102.702 Y-66.636 Z-5.000 I-6.588 J6.194 K0.000 F600.000
G2 X103.974 Y-65.024 Z-5.000 I5.932 J-3.372 K0.000 F600.000
G2 X114.513 Y-59.663 Z-5.000 I14.671 J-15.801 K0.000 F600.000
G2 X121.775 Y-60.005 Z-5.000 I2.634 J-21.374 K0.000 F600.000
G2 X126.022 Y-62.189 Z-5.000 I-1.609 J-8.348 K0.000 F600.000
G2 X128.120 Y-65.069 Z-5.000 I-8.834 J-8.639 K0.000 F600.000
G2 X129.463 Y-71.447 Z-5.000 I-9.859 J-5.406 K0.000 F600.000
G2 X125.677 Y-79.113 Z-5.000 I-12.074 J1.194 K0.000 F600.000
G2 X123.343 Y-80.524 Z-5.000 I-5.667 J6.741 K0.000 F600.000
G2 X119.117 Y-81.415 Z-5.000 I-5.178 J14.088 K0.000 F600.000
G2 X115.015 Y-81.412 Z-5.000 I-2.035 J22.861 K0.000 F600.000
G2 X104.661 Y-76.625 Z-5.000 I3.630 J21.441 K0.000 F600.000
G2 X102.365 Y-73.875 Z-5.000 I6.846 J8.051 K0.000 F600.000
G1 X101.742 Y-73.153 Z-5.000 F600.000
G2 X101.618 Y-72.032 Z-5.000 I0.754 J0.651 K0.000 F600.000
G1 X100.793 Y-71.207 Z-5.000 F600.000
G2 X100.515 Y-70.329 Z-5.000 I0.707 J0.707 K0.000 F600.000
G0 Z5.000
G0 X137.059 Y-62.872 Z5.000
G0 X137.059 Y-62.872 Z3.000
G1 X137.059 Y-62.872 Z-5.000 F600.000
G2 X137.828 Y-61.312 Z-5.000 I1.391 J0.284 K0.000 F600.000
G2 X141.273 Y-61.936 Z-5.000 I1.227 J-3.048 K0.000 F600.000
G3 X142.081 Y-62.723 Z-5.000 I7.570 J6.955 K0.000 F600.000
G2 X143.793 Y-61.093 Z-5.000 I1.457 J0.183 K0.000 F600.000
G2 X145.256 Y-61.906 Z-5.000 I-0.777 J-3.122 K0.000 F600.000
G2 X147.229 Y-61.024 Z-5.000 I4.708 J-7.883 K0.000 F600.000
G2 X155.491 Y-60.371 Z-5.000 I5.619 J-18.489 K0.000 F600.000
G1 X155.739 Y-60.428 Z-5.000 F600.000
G2 X156.407 Y-61.027 Z-5.000 I-0.795 J-1.558 K0.000 F600.000
G1 X157.064 Y-61.025 Z-5.000 F600.000
G2 X163.300 Y-61.419 Z-5.000 I0.761 J-37.517 K0.000 F600.000
G1 X166.922 Y-61.447 Z-5.000 F600.000
G2 X168.746 Y-62.533 Z-5.000 I0.040 J-2.006 K0.000 F600.000
G2 X168.976 Y-64.175 Z-5.000 I-3.025 J-1.260 K0.000 F600.000
G2 X167.021 Y-66.225 Z-5.000 I-2.013 J-0.038 K0.000 F600.000
G2 X161.429 Y-64.800 Z-5.000 I1.693 J18.327 K0.000 F600.000
G3 X158.547 Y-64.059 Z-5.000 I-3.292 J-6.824 K0.000 F600.000
G3 X152.524 Y-64.042 Z-5.000 I-3.319 J-110.220 K0.000 F600.000
G3 X150.123 Y-64.123 Z-5.000 I-0.474 J-21.610 K0.000 F600.000
G3 X147.995 Y-65.023 Z-5.000 I0.096 J-3.192 K0.000 F600.000
G2 X148.992 Y-65.399 Z-5.000 I-0.071 J-1.701 K0.000 F600.000
G2 X149.087 Y-68.577 Z-5.000 I-1.442 J-1.634 K0.000 F600.000
G2 X147.661 Y-69.017 Z-5.000 I-1.183 J1.304 K0.000 F600.000
G3 X148.695 Y-70.339 Z-5.000 I4.671 J2.591 K0.000 F600.000
G2 X148.697 Y-71.716 Z-5.000 I-0.724 J-0.690 K0.000 F600.000
G3 X147.655 Y-73.057 Z-5.000 I3.857 J-4.076 K0.000 F600.000
G2 X148.994 Y-73.386 Z-5.000 I0.292 J-1.700 K0.000 F600.000
G2 X149.572 Y-75.837 Z-5.000 I-1.435 J-1.632 K0.000 F600.000
G2 X147.999 Y-77.036 Z-5.000 I-1.629 J0.506 K0.000 F600.000
G3 X149.430 Y-77.822 Z-5.000 I1.987 J1.924 K0.000 F600.000
G3 X150.947 Y-77.992 Z-5.000 I2.632 J16.589 K0.000 F600.000
G3 X158.344 Y-78.013 Z-5.000 I4.210 J182.224 K0.000 F600.000
G3 X159.898 Y-77.813 Z-5.000 I0.019 J5.982 K0.000 F600.000
G3 X163.404 Y-76.541 Z-5.000 I-179.525 J500.549 K0.000 F600.000
G1 X166.635 Y-75.858 Z-5.000 F600.000
G2 X168.789 Y-77.003 Z-5.000 I0.332 J-1.975 K0.000 F600.000
G2 X168.968 Y-78.687 Z-5.000 I-3.368 J-1.210 K0.000 F600.000
G2 X166.993 Y-80.608 Z-5.000 I-2.000 J0.081 K0.000 F600.000
G3 X161.492 Y-80.865 Z-5.000 I-1.683 J-22.970 K0.000 F600.000
G2 X156.407 Y-81.029 Z-5.000 I-4.576 J62.682 K0.000 F600.000
G1 X156.303 Y-81.153 Z-5.000 F600.000
G2 X155.500 Y-81.685 Z-5.000 I-0.950 J0.561 K0.000 F600.000
G2 X153.971 Y-81.823 Z-5.000 I-2.749 J21.954 K0.000 F600.000
G2 X148.432 Y-81.369 Z-5.000 I-1.279 J18.421 K0.000 F600.000
G2 X145.239 Y-80.164 Z-5.000 I2.591 J11.693 K0.000 F600.000
G2 X144.189 Y-80.856 Z-5.000 I-2.333 J2.396 K0.000 F600.000
G2 X142.067 Y-79.354 Z-5.000 I-0.623 J1.369 K0.000 F600.000
G1 X141.662 Y-79.752 Z-5.000 F600.000
G2 X138.022 Y-80.835 Z-5.000 I-2.640 J2.218 K0.000 F600.000
G2 X138.030 Y-78.130 Z-5.000 I0.427 J1.351 K0.000 F600.000
G3 X138.779 Y-77.796 Z-5.000 I-0.286 J1.646 K0.000 F600.000
G3 X139.382 Y-77.202 Z-5.000 I-18.679 J19.595 K0.000 F600.000
G2 X141.508 Y-75.254 Z-5.000 I11.481 J-10.391 K0.000 F600.000
G1 X141.455 Y-75.078 Z-5.000 F600.000
G2 X141.500 Y-66.793 Z-5.000 I16.733 J4.052 K0.000 F600.000
G2 X140.450 Y-65.945 Z-5.000 I4.249 J6.331 K0.000 F600.000
G3 X138.983 Y-64.466 Z-5.000 I-20.003 J-18.382 K0.000 F600.000
G3 X138.208 Y-63.987 Z-5.000 I-1.048 J-0.827 K0.000 F600.000
G2 X137.059 Y-62.872 Z-5.000 I0.243 J1.399 K0.000 F600.000
G0 Z5.000
G0 X156.545 Y63.449 Z5.000
G0 X156.545 Y63.449 Z3.000
G1 X156.545 Y63.449 Z-5.000 F600.000
G2 X155.829 Y64.934 Z-5.000 I0.152 J0.988 K0.000 F600.000
G2 X157.455 Y66.300 Z-5.000 I4.168 J-3.309 K0.000 F600.000
G2 X161.178 Y67.664 Z-5.000 I8.243 J-16.740 K0.000 F600.000
G3 X162.536 Y68.005 Z-5.000 I-1.310 J8.083 K0.000 F600.000
G1 X160.762 Y68.976 Z-5.000 F600.000
G2 X160.656 Y70.664 Z-5.000 I0.480 J0.877 K0.000 F600.000
G2 X163.294 Y71.444 Z-5.000 I3.701 J-7.670 K0.000 F600.000
G2 X168.145 Y71.416 Z-5.000 I2.294 J-23.292 K0.000 F600.000
G3 X190.650 Y70.050 Z-5.000 I23.569 J202.238 K0.000 F600.000
G3 X194.256 Y70.282 Z-5.000 I-0.098 J29.704 K0.000 F600.000
G2 X195.457 Y66.414 Z-5.000 I0.201 J-2.058 K0.000 F600.000
G2 X191.515 Y65.215 Z-5.000 I-8.057 J19.407 K0.000 F600.000
G2 X184.644 Y64.325 Z-5.000 I-12.838 J72.159 K0.000 F600.000
G2 X170.966 Y63.701 Z-5.000 I-16.544 J212.448 K0.000 F600.000
G2 X161.522 Y63.690 Z-5.000 I-5.627 J802.736 K0.000 F600.000
G1 X156.750 Y63.438 Z-5.000 F600.000
G2 X156.545 Y63.449 Z-5.000 I-0.053 J0.999 K0.000 F600.000
G0 Z5.000
G0 X161.744 Y75.869 Z5.000
G0 X161.744 Y75.869 Z3.000
G1 X161.744 Y75.869 Z-5.000 F600.000
G2 X161.543 Y79.586 Z-5.000 I0.799 J1.907 K0.000 F600.000
G2 X165.485 Y80.785 Z-5.000 I8.057 J-19.407 K0.000 F600.000
G2 X172.356 Y81.675 Z-5.000 I12.838 J-72.159 K0.000 F600.000
G2 X186.034 Y82.299 Z-5.000 I16.544 J-212.448 K0.000 F600.000
G2 X195.478 Y82.310 Z-5.000 I5.627 J-802.742 K0.000 F600.000
G1 X200.250 Y82.562 Z-5.000 F600.000
G2 X201.171 Y81.066 Z-5.000 I0.053 J-0.999 K0.000 F600.000
G2 X199.545 Y79.700 Z-5.000 I-4.168 J3.309 K0.000 F600.000
G2 X195.822 Y78.336 Z-5.000 I-8.243 J16.740 K0.000 F600.000
G3 X194.464 Y77.995 Z-5.000 I1.310 J-8.083 K0.000 F600.000
G1 X196.238 Y77.024 Z-5.000 F600.000
G2 X196.344 Y75.336 Z-5.000 I-0.480 J-0.877 K0.000 F600.000
G2 X193.706 Y74.556 Z-5.000 I-3.701 J7.670 K0.000 F600.000
G2 X188.852 Y74.584 Z-5.000 I-2.292 J23.751 K0.000 F600.000
G3 X166.350 Y75.950 Z-5.000 I-23.565 J-202.207 K0.000 F600.000
G3 X162.744 Y75.718 Z-5.000 I0.098 J-29.704 K0.000 F600.000
G2 X161.744 Y75.869 Z-5.000 I-0.201 J2.058 K0.000 F600.000
G0 Z5.000
G0 X107.298 Y81.461 Z5.000
G0 X107.298 Y81.461 Z3.000
G1 X107.298 Y81.461 Z-5.000 F600.000
G2 X107.171 Y81.066 Z-5.000 I-0.995 J0.102 K0.000 F600.000
G2 X105.545 Y79.700 Z-5.000 I-4.168 J3.309 K0.000 F600.000
G2 X101.822 Y78.336 Z-5.000 I-8.243 J16.740 K0.000 F600.000
G3 X100.464 Y77.995 Z-5.000 I1.310 J-8.083 K0.000 F600.000
G1 X102.238 Y77.024 Z-5.000 F600.000
G2 X102.344 Y75.336 Z-5.000 I-0.480 J-0.877 K0.000 F600.000
G2 X99.706 Y74.556 Z-5.000 I-3.701 J7.670 K0.000 F600.000
G2 X94.852 Y74.584 Z-5.000 I-2.292 J23.751 K0.000 F600.000
G3 X72.350 Y75.950 Z-5.000 I-23.565 J-202.207 K0.000 F600.000
G3 X68.744 Y75.718 Z-5.000 I0.098 J-29.704 K0.000 F600.000
G2 X67.543 Y79.586 Z-5.000 I-0.201 J2.058 K0.000 F600.000
G2 X71.485 Y80.785 Z-5.000 I8.057 J-19.407 K0.000 F600.000
G2 X78.356 Y81.675 Z-5.000 I12.838 J-72.159 K0.000 F600.000
G2 X92.034 Y82.299 Z-5.000 I16.544 J-212.448 K0.000 F600.000
G2 X101.478 Y82.310 Z-5.000 I5.627 J-802.742 K0.000 F600.000
G1 X106.250 Y82.562 Z-5.000 F600.000
G2 X107.298 Y81.461 Z-5.000 I0.053 J-0.999 K0.000 F600.000
G0 Z5.000
G0 X103.168 Y70.166 Z5.000
G0 X103.168 Y70.166 Z3.000
G1 X103.168 Y70.166 Z-5.000 F600.000
G2 X103.457 Y66.414 Z-5.000 I-0.710 J-1.942 K0.000 F600.000
G2 X99.515 Y65.215 Z-5.000 I-8.057 J19.407 K0.000 F600.000
G2 X92.644 Y64.325 Z-5.000 I-12.838 J72.159 K0.000 F600.000
G2 X78.966 Y63.701 Z-5.000 I-16.544 J212.448 K0.000 F600.000
G2 X69.522 Y63.690 Z-5.000 I-5.627 J802.736 K0.000 F600.000
G1 X64.750 Y63.438 Z-5.000 F600.000
G2 X63.829 Y64.934 Z-5.000 I-0.053 J0.999 K0.000 F600.000
G2 X65.455 Y66.300 Z-5.000 I4.168 J-3.309 K0.000 F600.000
G2 X69.178 Y67.664 Z-5.000 I8.243 J-16.740 K0.000 F600.000
G3 X70.536 Y68.005 Z-5.000 I-1.310 J8.083 K0.000 F600.000
G1 X68.762 Y68.976 Z-5.000 F600.000
G2 X68.656 Y70.664 Z-5.000 I0.480 J0.877 K0.000 F600.000
G2 X71.294 Y71.444 Z-5.000 I3.701 J-7.670 K0.000 F600.000
G2 X76.145 Y71.416 Z-5.000 I2.294 J-23.292 K0.000 F600.000
G3 X98.650 Y70.050 Z-5.000 I23.569 J202.238 K0.000 F600.000
G3 X102.256 Y70.282 Z-5.000 I-0.098 J29.704 K0.000 F600.000
G2 X103.168 Y70.166 Z-5.000 I0.201 J-2.058 K0.000 F600.000
G0 Z5.000
G0 Z5.000
(Finish operation: Profile)
(Begin postamble)
M5
G17 G90
M2
