(Exported by FreeCAD)
(Post Processor: script_module)
(Output Time:2025-03-14 11:02:07.294633)
(Begin preamble)
G17 G90
G21
(Begin operation: Fixture)
(Path: Fixture)
G54
(Finish operation: Fixture)
(Begin operation: 2mm_Endmill001)
(Path: 2mm_Endmill001)
(2mm_Endmill001)
(Begin toolchange)
( M6 T2 )
M3 S13000
(Finish operation: 2mm_Endmill001)
(Begin operation: Profile)
(Path: Profile)
(Profile)
(Compensated Tool Path. Diameter: 2.0)
G0 Z5.000
G0 X0.000 Y0.000
G0 X21.863 Y-2.096
G0 X21.863 Y-2.096 Z3.000
G1 X21.863 Y-2.096 Z-2.000 F600.000
G1 X26.005 Y41.095 Z-2.000 F600.000
G1 X26.051 Y41.316 Z-2.000 F600.000
G1 X29.000 Y50.162 Z-2.000 F600.000
G1 X29.000 Y52.938 Z-2.000 F600.000
G1 X28.008 Y60.876 Z-2.000 F600.000
G1 X28.008 Y61.124 Z-2.000 F600.000
G1 X29.987 Y77.012 Z-2.000 F600.000
G2 X30.873 Y77.883 Z-2.000 I0.992 J-0.124 K0.000 F600.000
G2 X33.378 Y77.477 Z-2.000 I-2.356 J-22.454 K0.000 F600.000
G3 X42.645 Y77.480 Z-2.000 I4.618 J36.819 K0.000 F600.000
G2 X44.879 Y77.878 Z-2.000 I5.483 J-24.317 K0.000 F600.000
G2 X46.013 Y77.012 Z-2.000 I0.142 J-0.990 K0.000 F600.000
G1 X47.992 Y61.124 Z-2.000 F600.000
G1 X47.992 Y60.876 Z-2.000 F600.000
G1 X47.000 Y52.938 Z-2.000 F600.000
G1 X47.000 Y50.162 Z-2.000 F600.000
G1 X49.949 Y41.316 Z-2.000 F600.000
G1 X49.995 Y41.095 Z-2.000 F600.000
G1 X56.995 Y-31.905 Z-2.000 F600.000
G2 X56.000 Y-33.000 Z-2.000 I-0.995 J-0.095 K0.000 F600.000
G1 X51.022 Y-33.000 Z-2.000 F600.000
G3 X51.248 Y-36.043 Z-2.000 I14.588 J-0.445 K0.000 F600.000
G3 X52.389 Y-40.026 Z-2.000 I30.336 J6.530 K0.000 F600.000
G2 X52.886 Y-42.207 Z-2.000 I-6.913 J-2.723 K0.000 F600.000
G2 X51.395 Y-44.529 Z-2.000 I-2.327 J-0.145 K0.000 F600.000
G2 X49.586 Y-44.940 Z-2.000 I-2.533 J6.957 K0.000 F600.000
G2 X46.807 Y-44.904 Z-2.000 I-1.236 J11.852 K0.000 F600.000
G2 X43.660 Y-42.394 Z-2.000 I0.643 J4.035 K0.000 F600.000
G2 X43.067 Y-39.671 Z-2.000 I10.111 J3.627 K0.000 F600.000
G2 X43.313 Y-33.000 Z-2.000 I38.201 J1.930 K0.000 F600.000
G1 X32.684 Y-33.000 Z-2.000 F600.000
G2 X32.993 Y-38.488 Z-2.000 I-46.197 J-5.350 K0.000 F600.000
G2 X32.590 Y-41.641 Z-2.000 I-11.770 J-0.097 K0.000 F600.000
G2 X31.211 Y-43.981 Z-2.000 I-4.515 J1.083 K0.000 F600.000
G2 X28.676 Y-44.984 Z-2.000 I-2.924 J3.688 K0.000 F600.000
G2 X24.895 Y-44.634 Z-2.000 I-0.848 J11.447 K0.000 F600.000
G2 X23.773 Y-43.980 Z-2.000 I0.650 J2.403 K0.000 F600.000
G2 X23.230 Y-41.328 Z-2.000 I2.062 J1.804 K0.000 F600.000
G1 X24.610 Y-36.663 Z-2.000 F600.000
G1 X24.855 Y-33.000 Z-2.000 F600.000
G1 X20.000 Y-33.000 Z-2.000 F600.000
G2 X19.005 Y-31.905 Z-2.000 I-0.000 J1.000 K0.000 F600.000
G1 X21.863 Y-2.096 Z-2.000 F600.000
G0 Z5.000
G0 X58.619 Y6.799 Z5.000
G0 X58.619 Y6.799 Z3.000
G1 X58.619 Y6.799 Z-2.000 F600.000
G2 X58.472 Y8.520 Z-2.000 I5.541 J1.341 K0.000 F600.000
G2 X59.711 Y9.972 Z-2.000 I1.540 J-0.060 K0.000 F600.000
G2 X62.800 Y9.935 Z-2.000 I1.338 J-17.313 K0.000 F600.000
G2 X65.013 Y8.822 Z-2.000 I-0.224 J-3.202 K0.000 F600.000
G1 X65.828 Y7.800 Z-2.000 F600.000
G1 X65.828 Y7.800 Z-2.000 F600.000
G3 X67.247 Y6.027 Z-2.000 I249.309 J198.091 K0.000 F600.000
G1 X73.568 Y15.677 Z-2.000 F600.000
G2 X75.958 Y16.995 Z-2.000 I2.492 J-1.692 K0.000 F600.000
G1 X77.795 Y17.000 Z-2.000 F600.000
G2 X78.793 Y16.055 Z-2.000 I-0.000 J-1.000 K0.000 F600.000
G1 X79.991 Y-5.811 Z-2.000 F600.000
G1 X82.949 Y-14.684 Z-2.000 F600.000
G1 X83.000 Y-15.000 Z-2.000 F600.000
G1 X83.000 Y-19.000 Z-2.000 F600.000
G1 X82.990 Y-19.141 Z-2.000 F600.000
G1 X82.003 Y-26.051 Z-2.000 F600.000
G1 X82.258 Y-32.394 Z-2.000 F600.000
G2 X78.948 Y-43.722 Z-2.000 I-5.250 J-4.614 K0.000 F600.000
G2 X70.009 Y-37.163 Z-2.000 I-1.949 J6.715 K0.000 F600.000
G1 X61.033 Y-3.256 Z-2.000 F600.000
G2 X61.175 Y-2.435 Z-2.000 I0.967 J0.256 K0.000 F600.000
G1 X61.766 Y-1.571 Z-2.000 F600.000
G2 X58.936 Y5.636 Z-2.000 I63.495 J29.092 K0.000 F600.000
G2 X58.663 Y6.628 Z-2.000 I10.874 J3.521 K0.000 F600.000
G2 X58.619 Y6.799 Z-2.000 I5.496 J1.512 K0.000 F600.000
G0 Z5.000
G0 X62.827 Y17.075 Z5.000
G0 X62.827 Y17.075 Z3.000
G1 X62.827 Y17.075 Z-2.000 F600.000
G2 X62.207 Y17.945 Z-2.000 I0.379 J0.925 K0.000 F600.000
G1 X61.009 Y39.811 Z-2.000 F600.000
G1 X58.051 Y48.684 Z-2.000 F600.000
G1 X58.000 Y49.000 Z-2.000 F600.000
G1 X58.000 Y53.000 Z-2.000 F600.000
G1 X58.010 Y53.141 Z-2.000 F600.000
G1 X58.997 Y60.051 Z-2.000 F600.000
G1 X58.742 Y66.394 Z-2.000 F600.000
G2 X57.003 Y71.144 Z-2.000 I5.175 J4.589 K0.000 F600.000
G2 X70.991 Y71.163 Z-2.000 I6.994 J-0.141 K0.000 F600.000
G1 X79.967 Y37.256 Z-2.000 F600.000
G2 X79.825 Y36.435 Z-2.000 I-0.967 J-0.256 K0.000 F600.000
G1 X79.234 Y35.571 Z-2.000 F600.000
G2 X82.064 Y28.364 Z-2.000 I-63.495 J-29.092 K0.000 F600.000
G2 X82.337 Y27.372 Z-2.000 I-10.874 J-3.521 K0.000 F600.000
G2 X82.528 Y25.480 Z-2.000 I-5.496 J-1.512 K0.000 F600.000
G2 X81.289 Y24.028 Z-2.000 I-1.540 J0.060 K0.000 F600.000
G2 X78.200 Y24.065 Z-2.000 I-1.338 J17.313 K0.000 F600.000
G2 X75.987 Y25.178 Z-2.000 I0.224 J3.202 K0.000 F600.000
G1 X75.172 Y26.200 Z-2.000 F600.000
G1 X75.172 Y26.200 Z-2.000 F600.000
G3 X73.753 Y27.973 Z-2.000 I-249.294 J-198.079 K0.000 F600.000
G1 X67.432 Y18.323 Z-2.000 F600.000
G2 X65.042 Y17.005 Z-2.000 I-2.492 J1.692 K0.000 F600.000
G1 X63.205 Y17.000 Z-2.000 F600.000
G2 X62.827 Y17.075 Z-2.000 I0.000 J1.000 K0.000 F600.000
G0 Z5.000
G0 X96.393 Y13.856 Z5.000
G0 X96.393 Y13.856 Z3.000
G1 X96.393 Y13.856 Z-2.000 F600.000
G1 X99.005 Y41.095 Z-2.000 F600.000
G1 X99.051 Y41.316 Z-2.000 F600.000
G1 X102.000 Y50.162 Z-2.000 F600.000
G1 X102.000 Y52.938 Z-2.000 F600.000
G1 X101.008 Y60.876 Z-2.000 F600.000
G1 X101.008 Y61.124 Z-2.000 F600.000
G1 X102.987 Y77.012 Z-2.000 F600.000
G2 X103.873 Y77.883 Z-2.000 I0.992 J-0.124 K0.000 F600.000
G2 X106.378 Y77.477 Z-2.000 I-2.356 J-22.454 K0.000 F600.000
G3 X115.645 Y77.480 Z-2.000 I4.618 J36.819 K0.000 F600.000
G2 X117.879 Y77.878 Z-2.000 I5.483 J-24.317 K0.000 F600.000
G2 X119.013 Y77.012 Z-2.000 I0.142 J-0.990 K0.000 F600.000
G1 X120.992 Y61.124 Z-2.000 F600.000
G1 X120.992 Y60.876 Z-2.000 F600.000
G1 X120.000 Y52.938 Z-2.000 F600.000
G1 X120.000 Y50.162 Z-2.000 F600.000
G1 X122.949 Y41.316 Z-2.000 F600.000
G1 X122.995 Y41.095 Z-2.000 F600.000
G1 X129.995 Y-31.905 Z-2.000 F600.000
G2 X129.000 Y-33.000 Z-2.000 I-0.995 J-0.095 K0.000 F600.000
G1 X124.022 Y-33.000 Z-2.000 F600.000
G3 X124.248 Y-36.043 Z-2.000 I14.588 J-0.445 K0.000 F600.000
G3 X125.389 Y-40.026 Z-2.000 I30.337 J6.530 K0.000 F600.000
G2 X125.886 Y-42.207 Z-2.000 I-6.912 J-2.723 K0.000 F600.000
G2 X124.395 Y-44.529 Z-2.000 I-2.327 J-0.145 K0.000 F600.000
G2 X122.586 Y-44.940 Z-2.000 I-2.533 J6.957 K0.000 F600.000
G2 X119.807 Y-44.904 Z-2.000 I-1.236 J11.852 K0.000 F600.000
G2 X116.660 Y-42.394 Z-2.000 I0.643 J4.035 K0.000 F600.000
G2 X116.067 Y-39.671 Z-2.000 I10.111 J3.627 K0.000 F600.000
G2 X116.313 Y-33.000 Z-2.000 I38.201 J1.930 K0.000 F600.000
G1 X105.684 Y-33.000 Z-2.000 F600.000
G2 X105.993 Y-38.488 Z-2.000 I-46.197 J-5.350 K0.000 F600.000
G2 X105.590 Y-41.641 Z-2.000 I-11.770 J-0.097 K0.000 F600.000
G2 X104.211 Y-43.981 Z-2.000 I-4.515 J1.083 K0.000 F600.000
G2 X101.676 Y-44.984 Z-2.000 I-2.924 J3.688 K0.000 F600.000
G2 X97.895 Y-44.634 Z-2.000 I-0.848 J11.447 K0.000 F600.000
G2 X96.773 Y-43.980 Z-2.000 I0.650 J2.403 K0.000 F600.000
G2 X96.230 Y-41.328 Z-2.000 I2.062 J1.804 K0.000 F600.000
G1 X97.610 Y-36.663 Z-2.000 F600.000
G1 X97.855 Y-33.000 Z-2.000 F600.000
G1 X93.000 Y-33.000 Z-2.000 F600.000
G2 X92.005 Y-31.905 Z-2.000 I-0.000 J1.000 K0.000 F600.000
G1 X96.393 Y13.856 Z-2.000 F600.000
G0 Z5.000
G0 X131.487 Y8.685 Z5.000
G0 X131.487 Y8.685 Z3.000
G1 X131.487 Y8.685 Z-2.000 F600.000
G2 X132.711 Y9.972 Z-2.000 I1.525 J-0.225 K0.000 F600.000
G2 X135.800 Y9.935 Z-2.000 I1.338 J-17.313 K0.000 F600.000
G2 X138.013 Y8.822 Z-2.000 I-0.224 J-3.202 K0.000 F600.000
G1 X138.828 Y7.800 Z-2.000 F600.000
G1 X138.828 Y7.800 Z-2.000 F600.000
G3 X140.247 Y6.027 Z-2.000 I249.309 J198.091 K0.000 F600.000
G1 X146.568 Y15.677 Z-2.000 F600.000
G2 X148.958 Y16.995 Z-2.000 I2.492 J-1.692 K0.000 F600.000
G1 X150.795 Y17.000 Z-2.000 F600.000
G2 X151.793 Y16.055 Z-2.000 I-0.000 J-1.000 K0.000 F600.000
G1 X152.991 Y-5.811 Z-2.000 F600.000
G1 X155.949 Y-14.684 Z-2.000 F600.000
G1 X156.000 Y-15.000 Z-2.000 F600.000
G1 X156.000 Y-19.000 Z-2.000 F600.000
G1 X155.990 Y-19.141 Z-2.000 F600.000
G1 X155.003 Y-26.051 Z-2.000 F600.000
G1 X155.258 Y-32.394 Z-2.000 F600.000
G2 X151.948 Y-43.722 Z-2.000 I-5.250 J-4.614 K0.000 F600.000
G2 X143.009 Y-37.163 Z-2.000 I-1.949 J6.715 K0.000 F600.000
G1 X134.033 Y-3.256 Z-2.000 F600.000
G2 X134.175 Y-2.435 Z-2.000 I0.967 J0.256 K0.000 F600.000
G1 X134.766 Y-1.571 Z-2.000 F600.000
G2 X131.936 Y5.636 Z-2.000 I63.495 J29.092 K0.000 F600.000
G2 X131.663 Y6.628 Z-2.000 I10.874 J3.521 K0.000 F600.000
G2 X131.472 Y8.520 Z-2.000 I5.496 J1.512 K0.000 F600.000
G2 X131.487 Y8.685 Z-2.000 I1.540 J-0.060 K0.000 F600.000
G0 Z5.000
G0 X135.754 Y17.108 Z5.000
G0 X135.754 Y17.108 Z3.000
G1 X135.754 Y17.108 Z-2.000 F600.000
G2 X135.207 Y17.945 Z-2.000 I0.452 J0.892 K0.000 F600.000
G1 X134.009 Y39.811 Z-2.000 F600.000
G1 X131.051 Y48.684 Z-2.000 F600.000
G1 X131.000 Y49.000 Z-2.000 F600.000
G1 X131.000 Y53.000 Z-2.000 F600.000
G1 X131.010 Y53.141 Z-2.000 F600.000
G1 X131.997 Y60.051 Z-2.000 F600.000
G1 X131.742 Y66.394 Z-2.000 F600.000
G2 X130.003 Y71.144 Z-2.000 I5.175 J4.589 K0.000 F600.000
G2 X143.991 Y71.163 Z-2.000 I6.994 J-0.141 K0.000 F600.000
G1 X152.967 Y37.256 Z-2.000 F600.000
G2 X152.825 Y36.435 Z-2.000 I-0.967 J-0.256 K0.000 F600.000
G1 X152.234 Y35.571 Z-2.000 F600.000
G2 X155.064 Y28.364 Z-2.000 I-63.495 J-29.092 K0.000 F600.000
G2 X155.337 Y27.372 Z-2.000 I-10.874 J-3.521 K0.000 F600.000
G2 X155.528 Y25.480 Z-2.000 I-5.496 J-1.512 K0.000 F600.000
G2 X154.289 Y24.028 Z-2.000 I-1.540 J0.060 K0.000 F600.000
G2 X151.200 Y24.065 Z-2.000 I-1.338 J17.313 K0.000 F600.000
G2 X148.987 Y25.178 Z-2.000 I0.224 J3.202 K0.000 F600.000
G1 X148.172 Y26.200 Z-2.000 F600.000
G1 X148.172 Y26.200 Z-2.000 F600.000
G3 X146.753 Y27.973 Z-2.000 I-249.299 J-198.082 K0.000 F600.000
G1 X140.432 Y18.323 Z-2.000 F600.000
G2 X138.042 Y17.005 Z-2.000 I-2.492 J1.692 K0.000 F600.000
G1 X136.205 Y17.000 Z-2.000 F600.000
G2 X135.754 Y17.108 Z-2.000 I0.000 J1.000 K0.000 F600.000
G0 Z5.000
G0 X170.386 Y13.787 Z5.000
G0 X170.386 Y13.787 Z3.000
G1 X170.386 Y13.787 Z-2.000 F600.000
G1 X173.005 Y41.095 Z-2.000 F600.000
G1 X173.051 Y41.316 Z-2.000 F600.000
G1 X176.000 Y50.162 Z-2.000 F600.000
G1 X176.000 Y52.938 Z-2.000 F600.000
G1 X175.008 Y60.876 Z-2.000 F600.000
G1 X175.008 Y61.124 Z-2.000 F600.000
G1 X176.987 Y77.012 Z-2.000 F600.000
G2 X177.873 Y77.883 Z-2.000 I0.992 J-0.124 K0.000 F600.000
G2 X180.378 Y77.477 Z-2.000 I-2.356 J-22.454 K0.000 F600.000
G3 X189.645 Y77.480 Z-2.000 I4.618 J36.819 K0.000 F600.000
G2 X191.879 Y77.878 Z-2.000 I5.483 J-24.317 K0.000 F600.000
G2 X193.013 Y77.012 Z-2.000 I0.142 J-0.990 K0.000 F600.000
G1 X194.992 Y61.124 Z-2.000 F600.000
G1 X194.992 Y60.876 Z-2.000 F600.000
G1 X194.000 Y52.938 Z-2.000 F600.000
G1 X194.000 Y50.162 Z-2.000 F600.000
G1 X196.949 Y41.316 Z-2.000 F600.000
G1 X196.995 Y41.095 Z-2.000 F600.000
G1 X203.995 Y-31.905 Z-2.000 F600.000
G2 X203.000 Y-33.000 Z-2.000 I-0.995 J-0.095 K0.000 F600.000
G1 X198.022 Y-33.000 Z-2.000 F600.000
G3 X198.248 Y-36.043 Z-2.000 I14.588 J-0.445 K0.000 F600.000
G3 X199.389 Y-40.026 Z-2.000 I30.337 J6.530 K0.000 F600.000
G2 X199.886 Y-42.207 Z-2.000 I-6.912 J-2.723 K0.000 F600.000
G2 X198.395 Y-44.529 Z-2.000 I-2.327 J-0.145 K0.000 F600.000
G2 X196.586 Y-44.940 Z-2.000 I-2.533 J6.957 K0.000 F600.000
G2 X193.807 Y-44.904 Z-2.000 I-1.236 J11.852 K0.000 F600.000
G2 X190.660 Y-42.394 Z-2.000 I0.643 J4.035 K0.000 F600.000
G2 X190.067 Y-39.671 Z-2.000 I10.111 J3.627 K0.000 F600.000
G2 X190.313 Y-33.000 Z-2.000 I38.201 J1.930 K0.000 F600.000
G1 X179.684 Y-33.000 Z-2.000 F600.000
G2 X179.993 Y-38.488 Z-2.000 I-46.197 J-5.350 K0.000 F600.000
G2 X179.590 Y-41.641 Z-2.000 I-11.770 J-0.097 K0.000 F600.000
G2 X178.211 Y-43.981 Z-2.000 I-4.515 J1.083 K0.000 F600.000
G2 X175.676 Y-44.984 Z-2.000 I-2.924 J3.688 K0.000 F600.000
G2 X171.895 Y-44.634 Z-2.000 I-0.848 J11.447 K0.000 F600.000
G2 X170.773 Y-43.980 Z-2.000 I0.650 J2.403 K0.000 F600.000
G2 X170.230 Y-41.328 Z-2.000 I2.062 J1.804 K0.000 F600.000
G1 X171.610 Y-36.663 Z-2.000 F600.000
G1 X171.855 Y-33.000 Z-2.000 F600.000
G1 X167.000 Y-33.000 Z-2.000 F600.000
G2 X166.005 Y-31.905 Z-2.000 I-0.000 J1.000 K0.000 F600.000
G1 X170.386 Y13.787 Z-2.000 F600.000
G0 Z5.000
G0 X205.486 Y8.682 Z5.000
G0 X205.486 Y8.682 Z3.000
G1 X205.486 Y8.682 Z-2.000 F600.000
G2 X206.711 Y9.972 Z-2.000 I1.525 J-0.222 K0.000 F600.000
G2 X209.800 Y9.935 Z-2.000 I1.338 J-17.313 K0.000 F600.000
G2 X212.013 Y8.822 Z-2.000 I-0.224 J-3.202 K0.000 F600.000
G1 X212.828 Y7.800 Z-2.000 F600.000
G1 X212.828 Y7.800 Z-2.000 F600.000
G3 X214.247 Y6.027 Z-2.000 I249.309 J198.091 K0.000 F600.000
G1 X220.568 Y15.677 Z-2.000 F600.000
G2 X222.958 Y16.995 Z-2.000 I2.492 J-1.692 K0.000 F600.000
G1 X224.795 Y17.000 Z-2.000 F600.000
G2 X225.793 Y16.055 Z-2.000 I-0.000 J-1.000 K0.000 F600.000
G1 X226.991 Y-5.811 Z-2.000 F600.000
G1 X229.949 Y-14.684 Z-2.000 F600.000
G1 X230.000 Y-15.000 Z-2.000 F600.000
G1 X230.000 Y-19.000 Z-2.000 F600.000
G1 X229.990 Y-19.141 Z-2.000 F600.000
G1 X229.003 Y-26.051 Z-2.000 F600.000
G1 X229.258 Y-32.394 Z-2.000 F600.000
G2 X225.948 Y-43.722 Z-2.000 I-5.250 J-4.614 K0.000 F600.000
G2 X217.009 Y-37.163 Z-2.000 I-1.949 J6.715 K0.000 F600.000
G1 X208.033 Y-3.256 Z-2.000 F600.000
G2 X208.175 Y-2.435 Z-2.000 I0.967 J0.256 K0.000 F600.000
G1 X208.766 Y-1.571 Z-2.000 F600.000
G2 X205.936 Y5.636 Z-2.000 I63.495 J29.092 K0.000 F600.000
G2 X205.663 Y6.628 Z-2.000 I10.874 J3.521 K0.000 F600.000
G2 X205.472 Y8.520 Z-2.000 I5.496 J1.512 K0.000 F600.000
G2 X205.486 Y8.682 Z-2.000 I1.540 J-0.060 K0.000 F600.000
G0 Z5.000
G0 X209.754 Y17.108 Z5.000
G0 X209.754 Y17.108 Z3.000
G1 X209.754 Y17.108 Z-2.000 F600.000
G2 X209.207 Y17.945 Z-2.000 I0.452 J0.892 K0.000 F600.000
G1 X208.009 Y39.811 Z-2.000 F600.000
G1 X205.051 Y48.684 Z-2.000 F600.000
G1 X205.000 Y49.000 Z-2.000 F600.000
G1 X205.000 Y53.000 Z-2.000 F600.000
G1 X205.010 Y53.141 Z-2.000 F600.000
G1 X205.997 Y60.051 Z-2.000 F600.000
G1 X205.742 Y66.394 Z-2.000 F600.000
G2 X204.003 Y71.144 Z-2.000 I5.175 J4.589 K0.000 F600.000
G2 X217.991 Y71.163 Z-2.000 I6.994 J-0.141 K0.000 F600.000
G1 X226.967 Y37.256 Z-2.000 F600.000
G2 X226.825 Y36.435 Z-2.000 I-0.967 J-0.256 K0.000 F600.000
G1 X226.234 Y35.571 Z-2.000 F600.000
G2 X229.064 Y28.364 Z-2.000 I-63.495 J-29.092 K0.000 F600.000
G2 X229.337 Y27.372 Z-2.000 I-10.874 J-3.521 K0.000 F600.000
G2 X229.528 Y25.480 Z-2.000 I-5.496 J-1.512 K0.000 F600.000
G2 X228.289 Y24.028 Z-2.000 I-1.540 J0.060 K0.000 F600.000
G2 X225.200 Y24.065 Z-2.000 I-1.338 J17.313 K0.000 F600.000
G2 X222.987 Y25.178 Z-2.000 I0.224 J3.202 K0.000 F600.000
G1 X222.172 Y26.200 Z-2.000 F600.000
G1 X222.172 Y26.200 Z-2.000 F600.000
G3 X220.753 Y27.973 Z-2.000 I-249.300 J-198.083 K0.000 F600.000
G1 X214.432 Y18.323 Z-2.000 F600.000
G2 X212.042 Y17.005 Z-2.000 I-2.492 J1.692 K0.000 F600.000
G1 X210.205 Y17.000 Z-2.000 F600.000
G2 X209.754 Y17.108 Z-2.000 I0.000 J1.000 K0.000 F600.000
G0 Z5.000
G0 X206.143 Y-52.106 Z5.000
G0 X206.143 Y-52.106 Z3.000
G1 X206.143 Y-52.106 Z-2.000 F600.000
G2 X209.656 Y-52.605 Z-2.000 I-1.040 J-19.942 K0.000 F600.000
G2 X215.217 Y-55.666 Z-2.000 I-2.136 J-10.462 K0.000 F600.000
G2 X218.183 Y-60.829 Z-2.000 I-10.255 J-9.324 K0.000 F600.000
G2 X219.698 Y-61.765 Z-2.000 I0.126 J-1.492 K0.000 F600.000
G2 X220.604 Y-61.220 Z-2.000 I4.289 J-6.098 K0.000 F600.000
G2 X223.945 Y-61.710 Z-2.000 I1.316 J-2.660 K0.000 F600.000
G3 X224.201 Y-61.901 Z-2.000 I0.262 J0.084 K0.000 F600.000
G1 X228.040 Y-63.437 Z-2.000 F600.000
G2 X228.040 Y-66.222 Z-2.000 I-0.568 J-1.393 K0.000 F600.000
G1 X224.201 Y-67.758 Z-2.000 F600.000
G1 X224.067 Y-67.791 Z-2.000 F600.000
G2 X222.003 Y-68.740 Z-2.000 I-2.026 J1.689 K0.000 F600.000
G2 X219.703 Y-67.897 Z-2.000 I0.117 J3.880 K0.000 F600.000
G2 X218.189 Y-68.829 Z-2.000 I-1.390 J0.562 K0.000 F600.000
G2 X216.458 Y-72.400 Z-2.000 I-13.162 J4.176 K0.000 F600.000
G2 X211.040 Y-76.679 Z-2.000 I-8.936 J5.743 K0.000 F600.000
G2 X201.714 Y-77.289 Z-2.000 I-5.928 J19.063 K0.000 F600.000
G2 X200.800 Y-77.829 Z-2.000 I-0.876 J0.439 K0.000 F600.000
G1 X199.009 Y-77.776 Z-2.000 F600.000
G2 X195.637 Y-76.693 Z-2.000 I0.315 J6.775 K0.000 F600.000
G2 X193.126 Y-74.540 Z-2.000 I10.212 J14.449 K0.000 F600.000
G2 X192.387 Y-73.246 Z-2.000 I1.513 J1.720 K0.000 F600.000
G2 X188.030 Y-69.575 Z-2.000 I8.535 J14.553 K0.000 F600.000
G3 X187.285 Y-69.323 Z-2.000 I-2.224 J-5.360 K0.000 F600.000
G3 X182.113 Y-68.830 Z-2.000 I-4.842 J-23.398 K0.000 F600.000
G2 X181.131 Y-67.886 Z-2.000 I0.016 J1.000 K0.000 F600.000
G2 X181.127 Y-61.774 Z-2.000 I41.700 J3.086 K0.000 F600.000
G2 X182.113 Y-60.828 Z-2.000 I0.999 J-0.054 K0.000 F600.000
G3 X184.814 Y-60.714 Z-2.000 I0.112 J29.267 K0.000 F600.000
G3 X188.036 Y-60.076 Z-2.000 I-0.565 J11.305 K0.000 F600.000
G2 X192.387 Y-56.414 Z-2.000 I12.858 J-10.862 K0.000 F600.000
G2 X192.810 Y-55.460 Z-2.000 I2.176 J-0.393 K0.000 F600.000
G2 X195.173 Y-53.316 Z-2.000 I11.661 J-10.483 K0.000 F600.000
G2 X198.149 Y-51.982 Z-2.000 I4.059 J-5.065 K0.000 F600.000
G2 X200.831 Y-51.829 Z-2.000 I2.317 J-17.106 K0.000 F600.000
G2 X201.707 Y-52.370 Z-2.000 I0.004 J-0.974 K0.000 F600.000
G2 X206.143 Y-52.106 Z-2.000 I3.396 J-19.678 K0.000 F600.000
G0 Z5.000
G0 X154.934 Y-64.476 Z5.000
G0 X154.934 Y-64.476 Z3.000
G1 X154.934 Y-64.476 Z-2.000 F600.000
G2 X154.040 Y-66.222 Z-2.000 I-1.462 J-0.353 K0.000 F600.000
G1 X150.201 Y-67.758 Z-2.000 F600.000
G1 X150.067 Y-67.791 Z-2.000 F600.000
G2 X148.003 Y-68.740 Z-2.000 I-2.026 J1.689 K0.000 F600.000
G2 X145.703 Y-67.897 Z-2.000 I0.117 J3.880 K0.000 F600.000
G2 X144.189 Y-68.829 Z-2.000 I-1.390 J0.562 K0.000 F600.000
G2 X142.458 Y-72.400 Z-2.000 I-13.162 J4.176 K0.000 F600.000
G2 X137.040 Y-76.679 Z-2.000 I-8.936 J5.743 K0.000 F600.000
G2 X127.714 Y-77.289 Z-2.000 I-5.928 J19.063 K0.000 F600.000
G2 X126.800 Y-77.829 Z-2.000 I-0.876 J0.439 K0.000 F600.000
G1 X125.009 Y-77.776 Z-2.000 F600.000
G2 X121.637 Y-76.693 Z-2.000 I0.315 J6.775 K0.000 F600.000
G2 X119.126 Y-74.540 Z-2.000 I10.212 J14.449 K0.000 F600.000
G2 X118.387 Y-73.246 Z-2.000 I1.513 J1.720 K0.000 F600.000
G2 X114.030 Y-69.575 Z-2.000 I8.535 J14.553 K0.000 F600.000
G3 X113.285 Y-69.323 Z-2.000 I-2.224 J-5.360 K0.000 F600.000
G3 X108.113 Y-68.830 Z-2.000 I-4.842 J-23.398 K0.000 F600.000
G2 X107.131 Y-67.886 Z-2.000 I0.016 J1.000 K0.000 F600.000
G2 X107.127 Y-61.774 Z-2.000 I41.700 J3.086 K0.000 F600.000
G2 X108.113 Y-60.828 Z-2.000 I0.999 J-0.054 K0.000 F600.000
G3 X110.814 Y-60.714 Z-2.000 I0.112 J29.267 K0.000 F600.000
G3 X114.036 Y-60.076 Z-2.000 I-0.565 J11.305 K0.000 F600.000
G2 X118.387 Y-56.414 Z-2.000 I12.858 J-10.862 K0.000 F600.000
G2 X118.810 Y-55.460 Z-2.000 I2.176 J-0.393 K0.000 F600.000
G2 X121.173 Y-53.316 Z-2.000 I11.660 J-10.483 K0.000 F600.000
G2 X124.149 Y-51.982 Z-2.000 I4.059 J-5.065 K0.000 F600.000
G2 X126.831 Y-51.829 Z-2.000 I2.317 J-17.106 K0.000 F600.000
G2 X127.707 Y-52.370 Z-2.000 I0.004 J-0.974 K0.000 F600.000
G2 X135.656 Y-52.605 Z-2.000 I3.396 J-19.678 K0.000 F600.000
G2 X141.217 Y-55.666 Z-2.000 I-2.136 J-10.462 K0.000 F600.000
G2 X144.183 Y-60.829 Z-2.000 I-10.255 J-9.324 K0.000 F600.000
G2 X145.698 Y-61.765 Z-2.000 I0.126 J-1.492 K0.000 F600.000
G2 X146.604 Y-61.220 Z-2.000 I4.289 J-6.098 K0.000 F600.000
G2 X149.945 Y-61.710 Z-2.000 I1.316 J-2.660 K0.000 F600.000
G3 X150.201 Y-61.901 Z-2.000 I0.262 J0.084 K0.000 F600.000
G1 X154.040 Y-63.437 Z-2.000 F600.000
G2 X154.934 Y-64.476 Z-2.000 I-0.568 J-1.393 K0.000 F600.000
G0 Z5.000
G0 X81.976 Y-64.822 Z5.000
G0 X81.976 Y-64.822 Z3.000
G1 X81.976 Y-64.822 Z-2.000 F600.000
G2 X81.040 Y-66.222 Z-2.000 I-1.504 J-0.007 K0.000 F600.000
G1 X77.201 Y-67.758 Z-2.000 F600.000
G1 X77.067 Y-67.791 Z-2.000 F600.000
G2 X75.003 Y-68.740 Z-2.000 I-2.026 J1.689 K0.000 F600.000
G2 X72.703 Y-67.897 Z-2.000 I0.117 J3.880 K0.000 F600.000
G2 X71.189 Y-68.829 Z-2.000 I-1.390 J0.562 K0.000 F600.000
G2 X69.458 Y-72.400 Z-2.000 I-13.162 J4.176 K0.000 F600.000
G2 X64.040 Y-76.679 Z-2.000 I-8.936 J5.743 K0.000 F600.000
G2 X54.714 Y-77.289 Z-2.000 I-5.928 J19.063 K0.000 F600.000
G2 X53.800 Y-77.829 Z-2.000 I-0.876 J0.439 K0.000 F600.000
G1 X52.009 Y-77.776 Z-2.000 F600.000
G2 X48.637 Y-76.693 Z-2.000 I0.315 J6.775 K0.000 F600.000
G2 X46.126 Y-74.540 Z-2.000 I10.212 J14.449 K0.000 F600.000
G1 X46.126 Y-74.540 Z-2.000 F600.000
G2 X45.387 Y-73.246 Z-2.000 I1.513 J1.720 K0.000 F600.000
G2 X41.030 Y-69.575 Z-2.000 I8.535 J14.553 K0.000 F600.000
G3 X40.285 Y-69.323 Z-2.000 I-2.224 J-5.360 K0.000 F600.000
G3 X35.113 Y-68.830 Z-2.000 I-4.842 J-23.398 K0.000 F600.000
G2 X34.131 Y-67.886 Z-2.000 I0.016 J1.000 K0.000 F600.000
G2 X34.127 Y-61.774 Z-2.000 I41.700 J3.086 K0.000 F600.000
G2 X35.113 Y-60.828 Z-2.000 I0.999 J-0.054 K0.000 F600.000
G3 X37.814 Y-60.714 Z-2.000 I0.112 J29.267 K0.000 F600.000
G3 X41.036 Y-60.076 Z-2.000 I-0.565 J11.305 K0.000 F600.000
G2 X45.387 Y-56.414 Z-2.000 I12.858 J-10.862 K0.000 F600.000
G2 X45.810 Y-55.460 Z-2.000 I2.176 J-0.393 K0.000 F600.000
G2 X48.173 Y-53.316 Z-2.000 I11.661 J-10.483 K0.000 F600.000
G2 X51.149 Y-51.982 Z-2.000 I4.059 J-5.065 K0.000 F600.000
G2 X53.831 Y-51.829 Z-2.000 I2.317 J-17.106 K0.000 F600.000
G2 X54.707 Y-52.370 Z-2.000 I0.004 J-0.974 K0.000 F600.000
G2 X62.656 Y-52.605 Z-2.000 I3.396 J-19.678 K0.000 F600.000
G2 X68.217 Y-55.666 Z-2.000 I-2.136 J-10.462 K0.000 F600.000
G2 X71.183 Y-60.829 Z-2.000 I-10.255 J-9.324 K0.000 F600.000
G2 X72.698 Y-61.765 Z-2.000 I0.126 J-1.492 K0.000 F600.000
G2 X73.604 Y-61.220 Z-2.000 I4.289 J-6.098 K0.000 F600.000
G2 X76.945 Y-61.710 Z-2.000 I1.316 J-2.660 K0.000 F600.000
G3 X77.201 Y-61.901 Z-2.000 I0.262 J0.084 K0.000 F600.000
G1 X81.040 Y-63.437 Z-2.000 F600.000
G2 X81.976 Y-64.822 Z-2.000 I-0.568 J-1.393 K0.000 F600.000
G1 X81.976 Y-64.822 Z-4.000 F600.000
G2 X81.040 Y-66.222 Z-4.000 I-1.504 J-0.007 K0.000 F600.000
G1 X77.201 Y-67.758 Z-4.000 F600.000
G1 X77.067 Y-67.791 Z-4.000 F600.000
G2 X75.003 Y-68.740 Z-4.000 I-2.026 J1.689 K0.000 F600.000
G2 X72.703 Y-67.897 Z-4.000 I0.117 J3.880 K0.000 F600.000
G2 X71.189 Y-68.829 Z-4.000 I-1.390 J0.562 K0.000 F600.000
G2 X69.458 Y-72.400 Z-4.000 I-13.162 J4.176 K0.000 F600.000
G2 X64.040 Y-76.679 Z-4.000 I-8.936 J5.743 K0.000 F600.000
G2 X54.714 Y-77.289 Z-4.000 I-5.928 J19.063 K0.000 F600.000
G2 X53.800 Y-77.829 Z-4.000 I-0.876 J0.439 K0.000 F600.000
G1 X52.009 Y-77.776 Z-4.000 F600.000
G2 X48.637 Y-76.693 Z-4.000 I0.315 J6.775 K0.000 F600.000
G2 X46.126 Y-74.540 Z-4.000 I10.212 J14.449 K0.000 F600.000
G1 X46.126 Y-74.540 Z-4.000 F600.000
G2 X45.387 Y-73.246 Z-4.000 I1.513 J1.720 K0.000 F600.000
G2 X41.030 Y-69.575 Z-4.000 I8.535 J14.553 K0.000 F600.000
G3 X40.285 Y-69.323 Z-4.000 I-2.224 J-5.360 K0.000 F600.000
G3 X35.113 Y-68.830 Z-4.000 I-4.842 J-23.398 K0.000 F600.000
G2 X34.131 Y-67.886 Z-4.000 I0.016 J1.000 K0.000 F600.000
G2 X34.127 Y-61.774 Z-4.000 I41.700 J3.086 K0.000 F600.000
G2 X35.113 Y-60.828 Z-4.000 I0.999 J-0.054 K0.000 F600.000
G3 X37.814 Y-60.714 Z-4.000 I0.112 J29.267 K0.000 F600.000
G3 X41.036 Y-60.076 Z-4.000 I-0.565 J11.305 K0.000 F600.000
G2 X45.387 Y-56.414 Z-4.000 I12.858 J-10.862 K0.000 F600.000
G2 X45.810 Y-55.460 Z-4.000 I2.176 J-0.393 K0.000 F600.000
G2 X48.173 Y-53.316 Z-4.000 I11.661 J-10.483 K0.000 F600.000
G2 X51.149 Y-51.982 Z-4.000 I4.059 J-5.065 K0.000 F600.000
G2 X53.831 Y-51.829 Z-4.000 I2.317 J-17.106 K0.000 F600.000
G2 X54.707 Y-52.370 Z-4.000 I0.004 J-0.974 K0.000 F600.000
G2 X62.656 Y-52.605 Z-4.000 I3.396 J-19.678 K0.000 F600.000
G2 X68.217 Y-55.666 Z-4.000 I-2.136 J-10.462 K0.000 F600.000
G2 X71.183 Y-60.829 Z-4.000 I-10.255 J-9.324 K0.000 F600.000
G2 X72.698 Y-61.765 Z-4.000 I0.126 J-1.492 K0.000 F600.000
G2 X73.604 Y-61.220 Z-4.000 I4.289 J-6.098 K0.000 F600.000
G2 X76.945 Y-61.710 Z-4.000 I1.316 J-2.660 K0.000 F600.000
G3 X77.201 Y-61.901 Z-4.000 I0.262 J0.084 K0.000 F600.000
G1 X81.040 Y-63.437 Z-4.000 F600.000
G2 X81.976 Y-64.822 Z-4.000 I-0.568 J-1.393 K0.000 F600.000
G0 Z5.000
G0 X78.230 Y-43.890 Z5.000
G0 X78.230 Y-43.890 Z3.000
G1 X78.230 Y-43.890 Z-4.000 F600.000
G2 X70.009 Y-37.163 Z-4.000 I-1.232 J6.882 K0.000 F600.000
G1 X61.033 Y-3.256 Z-4.000 F600.000
G2 X61.175 Y-2.435 Z-4.000 I0.967 J0.256 K0.000 F600.000
G1 X61.766 Y-1.571 Z-4.000 F600.000
G2 X58.936 Y5.636 Z-4.000 I63.495 J29.092 K0.000 F600.000
G2 X58.663 Y6.628 Z-4.000 I10.874 J3.521 K0.000 F600.000
G2 X58.472 Y8.520 Z-4.000 I5.496 J1.512 K0.000 F600.000
G2 X59.711 Y9.972 Z-4.000 I1.540 J-0.060 K0.000 F600.000
G2 X62.800 Y9.935 Z-4.000 I1.338 J-17.313 K0.000 F600.000
G2 X65.013 Y8.822 Z-4.000 I-0.224 J-3.202 K0.000 F600.000
G1 X65.828 Y7.800 Z-4.000 F600.000
G1 X65.828 Y7.800 Z-4.000 F600.000
G3 X67.247 Y6.027 Z-4.000 I249.309 J198.091 K0.000 F600.000
G1 X73.568 Y15.677 Z-4.000 F600.000
G2 X75.958 Y16.995 Z-4.000 I2.492 J-1.692 K0.000 F600.000
G1 X77.795 Y17.000 Z-4.000 F600.000
G2 X78.793 Y16.055 Z-4.000 I-0.000 J-1.000 K0.000 F600.000
G1 X79.991 Y-5.811 Z-4.000 F600.000
G1 X82.949 Y-14.684 Z-4.000 F600.000
G1 X83.000 Y-15.000 Z-4.000 F600.000
G1 X83.000 Y-19.000 Z-4.000 F600.000
G1 X82.990 Y-19.141 Z-4.000 F600.000
G1 X82.003 Y-26.051 Z-4.000 F600.000
G1 X82.258 Y-32.394 Z-4.000 F600.000
G2 X78.948 Y-43.722 Z-4.000 I-5.250 J-4.614 K0.000 F600.000
G2 X78.230 Y-43.890 Z-4.000 I-1.949 J6.715 K0.000 F600.000
G0 Z5.000
G0 X96.105 Y-42.403 Z5.000
G0 X96.105 Y-42.403 Z3.000
G1 X96.105 Y-42.403 Z-4.000 F600.000
G2 X96.230 Y-41.328 Z-4.000 I2.731 J0.227 K0.000 F600.000
G1 X97.610 Y-36.663 Z-4.000 F600.000
G1 X97.855 Y-33.000 Z-4.000 F600.000
G1 X93.000 Y-33.000 Z-4.000 F600.000
G2 X92.005 Y-31.905 Z-4.000 I-0.000 J1.000 K0.000 F600.000
G1 X99.005 Y41.095 Z-4.000 F600.000
G1 X99.051 Y41.316 Z-4.000 F600.000
G1 X102.000 Y50.162 Z-4.000 F600.000
G1 X102.000 Y52.938 Z-4.000 F600.000
G1 X101.008 Y60.876 Z-4.000 F600.000
G1 X101.008 Y61.124 Z-4.000 F600.000
G1 X102.987 Y77.012 Z-4.000 F600.000
G2 X103.873 Y77.883 Z-4.000 I0.992 J-0.124 K0.000 F600.000
G2 X106.378 Y77.477 Z-4.000 I-2.356 J-22.454 K0.000 F600.000
G3 X115.645 Y77.480 Z-4.000 I4.618 J36.819 K0.000 F600.000
G2 X117.879 Y77.878 Z-4.000 I5.483 J-24.317 K0.000 F600.000
G2 X119.013 Y77.012 Z-4.000 I0.142 J-0.990 K0.000 F600.000
G1 X120.992 Y61.124 Z-4.000 F600.000
G1 X120.992 Y60.876 Z-4.000 F600.000
G1 X120.000 Y52.938 Z-4.000 F600.000
G1 X120.000 Y50.162 Z-4.000 F600.000
G1 X122.949 Y41.316 Z-4.000 F600.000
G1 X122.995 Y41.095 Z-4.000 F600.000
G1 X129.995 Y-31.905 Z-4.000 F600.000
G2 X129.000 Y-33.000 Z-4.000 I-0.995 J-0.095 K0.000 F600.000
G1 X124.022 Y-33.000 Z-4.000 F600.000
G3 X124.248 Y-36.043 Z-4.000 I14.588 J-0.445 K0.000 F600.000
G3 X125.389 Y-40.026 Z-4.000 I30.337 J6.530 K0.000 F600.000
G2 X125.886 Y-42.207 Z-4.000 I-6.912 J-2.723 K0.000 F600.000
G2 X124.395 Y-44.529 Z-4.000 I-2.327 J-0.145 K0.000 F600.000
G2 X122.586 Y-44.940 Z-4.000 I-2.533 J6.957 K0.000 F600.000
G2 X119.807 Y-44.904 Z-4.000 I-1.236 J11.852 K0.000 F600.000
G2 X116.660 Y-42.394 Z-4.000 I0.643 J4.035 K0.000 F600.000
G2 X116.067 Y-39.671 Z-4.000 I10.111 J3.627 K0.000 F600.000
G2 X116.313 Y-33.000 Z-4.000 I38.201 J1.930 K0.000 F600.000
G1 X105.684 Y-33.000 Z-4.000 F600.000
G2 X105.993 Y-38.488 Z-4.000 I-46.197 J-5.350 K0.000 F600.000
G2 X105.590 Y-41.641 Z-4.000 I-11.770 J-0.097 K0.000 F600.000
G2 X104.211 Y-43.981 Z-4.000 I-4.515 J1.083 K0.000 F600.000
G2 X101.676 Y-44.984 Z-4.000 I-2.924 J3.688 K0.000 F600.000
G2 X97.895 Y-44.634 Z-4.000 I-0.848 J11.447 K0.000 F600.000
G2 X96.773 Y-43.980 Z-4.000 I0.650 J2.403 K0.000 F600.000
G2 X96.105 Y-42.403 Z-4.000 I2.062 J1.804 K0.000 F600.000
G0 Z5.000
G0 X107.599 Y-60.978 Z5.000
G0 X107.599 Y-60.978 Z3.000
G1 X107.599 Y-60.978 Z-4.000 F600.000
G2 X108.113 Y-60.828 Z-4.000 I0.526 J-0.850 K0.000 F600.000
G3 X110.814 Y-60.714 Z-4.000 I0.112 J29.267 K0.000 F600.000
G3 X114.036 Y-60.076 Z-4.000 I-0.565 J11.305 K0.000 F600.000
G2 X118.387 Y-56.414 Z-4.000 I12.858 J-10.862 K0.000 F600.000
G2 X118.810 Y-55.460 Z-4.000 I2.176 J-0.393 K0.000 F600.000
G2 X121.173 Y-53.316 Z-4.000 I11.660 J-10.483 K0.000 F600.000
G2 X124.149 Y-51.982 Z-4.000 I4.059 J-5.065 K0.000 F600.000
G2 X126.831 Y-51.829 Z-4.000 I2.317 J-17.106 K0.000 F600.000
G2 X127.707 Y-52.370 Z-4.000 I0.004 J-0.974 K0.000 F600.000
G2 X135.656 Y-52.605 Z-4.000 I3.396 J-19.678 K0.000 F600.000
G2 X141.217 Y-55.666 Z-4.000 I-2.136 J-10.462 K0.000 F600.000
G2 X144.183 Y-60.829 Z-4.000 I-10.255 J-9.324 K0.000 F600.000
G2 X145.698 Y-61.765 Z-4.000 I0.126 J-1.492 K0.000 F600.000
G2 X146.604 Y-61.220 Z-4.000 I4.289 J-6.098 K0.000 F600.000
G2 X149.945 Y-61.710 Z-4.000 I1.316 J-2.660 K0.000 F600.000
G3 X150.201 Y-61.901 Z-4.000 I0.262 J0.084 K0.000 F600.000
G1 X154.040 Y-63.437 Z-4.000 F600.000
G2 X154.040 Y-66.222 Z-4.000 I-0.568 J-1.393 K0.000 F600.000
G1 X150.201 Y-67.758 Z-4.000 F600.000
G1 X150.067 Y-67.791 Z-4.000 F600.000
G2 X148.003 Y-68.740 Z-4.000 I-2.026 J1.689 K0.000 F600.000
G2 X145.703 Y-67.897 Z-4.000 I0.117 J3.880 K0.000 F600.000
G2 X144.189 Y-68.829 Z-4.000 I-1.390 J0.562 K0.000 F600.000
G2 X142.458 Y-72.400 Z-4.000 I-13.162 J4.176 K0.000 F600.000
G2 X137.040 Y-76.679 Z-4.000 I-8.936 J5.743 K0.000 F600.000
G2 X127.714 Y-77.289 Z-4.000 I-5.928 J19.063 K0.000 F600.000
G2 X126.800 Y-77.829 Z-4.000 I-0.876 J0.439 K0.000 F600.000
G1 X125.009 Y-77.776 Z-4.000 F600.000
G2 X121.637 Y-76.693 Z-4.000 I0.315 J6.775 K0.000 F600.000
G2 X119.126 Y-74.540 Z-4.000 I10.212 J14.449 K0.000 F600.000
G2 X118.387 Y-73.246 Z-4.000 I1.513 J1.720 K0.000 F600.000
G2 X114.030 Y-69.575 Z-4.000 I8.535 J14.553 K0.000 F600.000
G3 X113.285 Y-69.323 Z-4.000 I-2.224 J-5.360 K0.000 F600.000
G3 X108.113 Y-68.830 Z-4.000 I-4.842 J-23.398 K0.000 F600.000
G2 X107.131 Y-67.886 Z-4.000 I0.016 J1.000 K0.000 F600.000
G2 X107.127 Y-61.774 Z-4.000 I41.700 J3.086 K0.000 F600.000
G2 X107.599 Y-60.978 Z-4.000 I0.999 J-0.054 K0.000 F600.000
G0 Z5.000
G0 X143.912 Y-40.448 Z5.000
G0 X143.912 Y-40.448 Z3.000
G1 X143.912 Y-40.448 Z-4.000 F600.000
G2 X143.009 Y-37.163 Z-4.000 I6.086 J3.441 K0.000 F600.000
G1 X134.033 Y-3.256 Z-4.000 F600.000
G2 X134.175 Y-2.435 Z-4.000 I0.967 J0.256 K0.000 F600.000
G1 X134.766 Y-1.571 Z-4.000 F600.000
G2 X131.936 Y5.636 Z-4.000 I63.495 J29.092 K0.000 F600.000
G2 X131.663 Y6.628 Z-4.000 I10.874 J3.521 K0.000 F600.000
G2 X131.472 Y8.520 Z-4.000 I5.496 J1.512 K0.000 F600.000
G2 X132.711 Y9.972 Z-4.000 I1.540 J-0.060 K0.000 F600.000
G2 X135.800 Y9.935 Z-4.000 I1.338 J-17.313 K0.000 F600.000
G2 X138.013 Y8.822 Z-4.000 I-0.224 J-3.202 K0.000 F600.000
G1 X138.828 Y7.800 Z-4.000 F600.000
G1 X138.828 Y7.800 Z-4.000 F600.000
G3 X140.247 Y6.027 Z-4.000 I249.309 J198.091 K0.000 F600.000
G1 X146.568 Y15.677 Z-4.000 F600.000
G2 X148.958 Y16.995 Z-4.000 I2.492 J-1.692 K0.000 F600.000
G1 X150.795 Y17.000 Z-4.000 F600.000
G2 X151.793 Y16.055 Z-4.000 I-0.000 J-1.000 K0.000 F600.000
G1 X152.991 Y-5.811 Z-4.000 F600.000
G1 X155.949 Y-14.684 Z-4.000 F600.000
G1 X156.000 Y-15.000 Z-4.000 F600.000
G1 X156.000 Y-19.000 Z-4.000 F600.000
G1 X155.990 Y-19.141 Z-4.000 F600.000
G1 X155.003 Y-26.051 Z-4.000 F600.000
G1 X155.258 Y-32.394 Z-4.000 F600.000
G2 X151.948 Y-43.722 Z-4.000 I-5.250 J-4.614 K0.000 F600.000
G2 X143.912 Y-40.448 Z-4.000 I-1.949 J6.715 K0.000 F600.000
G0 Z5.000
G0 X166.061 Y-32.344 Z5.000
G0 X166.061 Y-32.344 Z3.000
G1 X166.061 Y-32.344 Z-4.000 F600.000
G2 X166.005 Y-31.905 Z-4.000 I0.939 J0.344 K0.000 F600.000
G1 X173.005 Y41.095 Z-4.000 F600.000
G1 X173.051 Y41.316 Z-4.000 F600.000
G1 X176.000 Y50.162 Z-4.000 F600.000
G1 X176.000 Y52.938 Z-4.000 F600.000
G1 X175.008 Y60.876 Z-4.000 F600.000
G1 X175.008 Y61.124 Z-4.000 F600.000
G1 X176.987 Y77.012 Z-4.000 F600.000
G2 X177.873 Y77.883 Z-4.000 I0.992 J-0.124 K0.000 F600.000
G2 X180.378 Y77.477 Z-4.000 I-2.356 J-22.454 K0.000 F600.000
G3 X189.645 Y77.480 Z-4.000 I4.618 J36.819 K0.000 F600.000
G2 X191.879 Y77.878 Z-4.000 I5.483 J-24.317 K0.000 F600.000
G2 X193.013 Y77.012 Z-4.000 I0.142 J-0.990 K0.000 F600.000
G1 X194.992 Y61.124 Z-4.000 F600.000
G1 X194.992 Y60.876 Z-4.000 F600.000
G1 X194.000 Y52.938 Z-4.000 F600.000
G1 X194.000 Y50.162 Z-4.000 F600.000
G1 X196.949 Y41.316 Z-4.000 F600.000
G1 X196.995 Y41.095 Z-4.000 F600.000
G1 X203.995 Y-31.905 Z-4.000 F600.000
G2 X203.000 Y-33.000 Z-4.000 I-0.995 J-0.095 K0.000 F600.000
G1 X198.022 Y-33.000 Z-4.000 F600.000
G3 X198.248 Y-36.043 Z-4.000 I14.588 J-0.445 K0.000 F600.000
G3 X199.389 Y-40.026 Z-4.000 I30.337 J6.530 K0.000 F600.000
G2 X199.886 Y-42.207 Z-4.000 I-6.912 J-2.723 K0.000 F600.000
G2 X198.395 Y-44.529 Z-4.000 I-2.327 J-0.145 K0.000 F600.000
G2 X196.586 Y-44.940 Z-4.000 I-2.533 J6.957 K0.000 F600.000
G2 X193.807 Y-44.904 Z-4.000 I-1.236 J11.852 K0.000 F600.000
G2 X190.660 Y-42.394 Z-4.000 I0.643 J4.035 K0.000 F600.000
G2 X190.067 Y-39.671 Z-4.000 I10.111 J3.627 K0.000 F600.000
G2 X190.313 Y-33.000 Z-4.000 I38.201 J1.930 K0.000 F600.000
G1 X179.684 Y-33.000 Z-4.000 F600.000
G2 X179.993 Y-38.488 Z-4.000 I-46.197 J-5.350 K0.000 F600.000
G2 X179.590 Y-41.641 Z-4.000 I-11.770 J-0.097 K0.000 F600.000
G2 X178.211 Y-43.981 Z-4.000 I-4.515 J1.083 K0.000 F600.000
G2 X175.676 Y-44.984 Z-4.000 I-2.924 J3.688 K0.000 F600.000
G2 X171.895 Y-44.634 Z-4.000 I-0.848 J11.447 K0.000 F600.000
G2 X170.773 Y-43.980 Z-4.000 I0.650 J2.403 K0.000 F600.000
G2 X170.230 Y-41.328 Z-4.000 I2.062 J1.804 K0.000 F600.000
G1 X171.610 Y-36.663 Z-4.000 F600.000
G1 X171.855 Y-33.000 Z-4.000 F600.000
G1 X167.000 Y-33.000 Z-4.000 F600.000
G2 X166.061 Y-32.344 Z-4.000 I-0.000 J1.000 K0.000 F600.000
G0 Z5.000
G0 X181.647 Y-60.950 Z5.000
G0 X181.647 Y-60.950 Z3.000
G1 X181.647 Y-60.950 Z-4.000 F600.000
G2 X182.113 Y-60.828 Z-4.000 I0.478 J-0.878 K0.000 F600.000
G3 X184.814 Y-60.714 Z-4.000 I0.112 J29.267 K0.000 F600.000
G3 X188.036 Y-60.076 Z-4.000 I-0.565 J11.305 K0.000 F600.000
G2 X192.387 Y-56.414 Z-4.000 I12.858 J-10.862 K0.000 F600.000
G2 X192.810 Y-55.460 Z-4.000 I2.176 J-0.393 K0.000 F600.000
G2 X195.173 Y-53.316 Z-4.000 I11.661 J-10.483 K0.000 F600.000
G2 X198.149 Y-51.982 Z-4.000 I4.059 J-5.065 K0.000 F600.000
G2 X200.831 Y-51.829 Z-4.000 I2.317 J-17.106 K0.000 F600.000
G2 X201.707 Y-52.370 Z-4.000 I0.004 J-0.974 K0.000 F600.000
G2 X209.656 Y-52.605 Z-4.000 I3.396 J-19.678 K0.000 F600.000
G2 X215.217 Y-55.666 Z-4.000 I-2.136 J-10.462 K0.000 F600.000
G2 X218.183 Y-60.829 Z-4.000 I-10.255 J-9.324 K0.000 F600.000
G2 X219.698 Y-61.765 Z-4.000 I0.126 J-1.492 K0.000 F600.000
G2 X220.604 Y-61.220 Z-4.000 I4.289 J-6.098 K0.000 F600.000
G2 X223.945 Y-61.710 Z-4.000 I1.316 J-2.660 K0.000 F600.000
G3 X224.201 Y-61.901 Z-4.000 I0.262 J0.084 K0.000 F600.000
G1 X228.040 Y-63.437 Z-4.000 F600.000
G2 X228.040 Y-66.222 Z-4.000 I-0.568 J-1.393 K0.000 F600.000
G1 X224.201 Y-67.758 Z-4.000 F600.000
G1 X224.067 Y-67.791 Z-4.000 F600.000
G2 X222.003 Y-68.740 Z-4.000 I-2.026 J1.689 K0.000 F600.000
G2 X219.703 Y-67.897 Z-4.000 I0.117 J3.880 K0.000 F600.000
G2 X218.189 Y-68.829 Z-4.000 I-1.390 J0.562 K0.000 F600.000
G2 X216.458 Y-72.400 Z-4.000 I-13.162 J4.176 K0.000 F600.000
G2 X211.040 Y-76.679 Z-4.000 I-8.936 J5.743 K0.000 F600.000
G2 X201.714 Y-77.289 Z-4.000 I-5.928 J19.063 K0.000 F600.000
G2 X200.800 Y-77.829 Z-4.000 I-0.876 J0.439 K0.000 F600.000
G1 X199.009 Y-77.776 Z-4.000 F600.000
G2 X195.637 Y-76.693 Z-4.000 I0.315 J6.775 K0.000 F600.000
G2 X193.126 Y-74.540 Z-4.000 I10.212 J14.449 K0.000 F600.000
G2 X192.387 Y-73.246 Z-4.000 I1.513 J1.720 K0.000 F600.000
G2 X188.030 Y-69.575 Z-4.000 I8.535 J14.553 K0.000 F600.000
G3 X187.285 Y-69.323 Z-4.000 I-2.224 J-5.360 K0.000 F600.000
G3 X182.113 Y-68.830 Z-4.000 I-4.842 J-23.398 K0.000 F600.000
G2 X181.131 Y-67.886 Z-4.000 I0.016 J1.000 K0.000 F600.000
G2 X181.127 Y-61.774 Z-4.000 I41.700 J3.086 K0.000 F600.000
G2 X181.647 Y-60.950 Z-4.000 I0.999 J-0.054 K0.000 F600.000
G0 Z5.000
G0 X217.912 Y-40.448 Z5.000
G0 X217.912 Y-40.448 Z3.000
G1 X217.912 Y-40.448 Z-4.000 F600.000
G2 X217.009 Y-37.163 Z-4.000 I6.086 J3.441 K0.000 F600.000
G1 X208.033 Y-3.256 Z-4.000 F600.000
G2 X208.175 Y-2.435 Z-4.000 I0.967 J0.256 K0.000 F600.000
G1 X208.766 Y-1.571 Z-4.000 F600.000
G2 X205.936 Y5.636 Z-4.000 I63.495 J29.092 K0.000 F600.000
G2 X205.663 Y6.628 Z-4.000 I10.874 J3.521 K0.000 F600.000
G2 X205.472 Y8.520 Z-4.000 I5.496 J1.512 K0.000 F600.000
G2 X206.711 Y9.972 Z-4.000 I1.540 J-0.060 K0.000 F600.000
G2 X209.800 Y9.935 Z-4.000 I1.338 J-17.313 K0.000 F600.000
G2 X212.013 Y8.822 Z-4.000 I-0.224 J-3.202 K0.000 F600.000
G1 X212.828 Y7.800 Z-4.000 F600.000
G1 X212.828 Y7.800 Z-4.000 F600.000
G3 X214.247 Y6.027 Z-4.000 I249.309 J198.091 K0.000 F600.000
G1 X220.568 Y15.677 Z-4.000 F600.000
G2 X222.958 Y16.995 Z-4.000 I2.492 J-1.692 K0.000 F600.000
G1 X224.795 Y17.000 Z-4.000 F600.000
G2 X225.793 Y16.055 Z-4.000 I-0.000 J-1.000 K0.000 F600.000
G1 X226.991 Y-5.811 Z-4.000 F600.000
G1 X229.949 Y-14.684 Z-4.000 F600.000
G1 X230.000 Y-15.000 Z-4.000 F600.000
G1 X230.000 Y-19.000 Z-4.000 F600.000
G1 X229.990 Y-19.141 Z-4.000 F600.000
G1 X229.003 Y-26.051 Z-4.000 F600.000
G1 X229.258 Y-32.394 Z-4.000 F600.000
G2 X225.948 Y-43.722 Z-4.000 I-5.250 J-4.614 K0.000 F600.000
G2 X217.912 Y-40.448 Z-4.000 I-1.949 J6.715 K0.000 F600.000
G0 Z5.000
G0 X212.237 Y17.018 Z5.000
G0 X212.237 Y17.018 Z3.000
G1 X212.237 Y17.018 Z-4.000 F600.000
G2 X212.042 Y17.005 Z-4.000 I-0.296 J2.997 K0.000 F600.000
G1 X210.205 Y17.000 Z-4.000 F600.000
G2 X209.207 Y17.945 Z-4.000 I0.000 J1.000 K0.000 F600.000
G1 X208.009 Y39.811 Z-4.000 F600.000
G1 X205.051 Y48.684 Z-4.000 F600.000
G1 X205.000 Y49.000 Z-4.000 F600.000
G1 X205.000 Y53.000 Z-4.000 F600.000
G1 X205.010 Y53.141 Z-4.000 F600.000
G1 X205.997 Y60.051 Z-4.000 F600.000
G1 X205.742 Y66.394 Z-4.000 F600.000
G2 X204.003 Y71.144 Z-4.000 I5.175 J4.589 K0.000 F600.000
G2 X217.991 Y71.163 Z-4.000 I6.994 J-0.141 K0.000 F600.000
G1 X226.967 Y37.256 Z-4.000 F600.000
G2 X226.825 Y36.435 Z-4.000 I-0.967 J-0.256 K0.000 F600.000
G1 X226.234 Y35.571 Z-4.000 F600.000
G2 X229.064 Y28.364 Z-4.000 I-63.495 J-29.092 K0.000 F600.000
G2 X229.337 Y27.372 Z-4.000 I-10.874 J-3.521 K0.000 F600.000
G2 X229.528 Y25.480 Z-4.000 I-5.496 J-1.512 K0.000 F600.000
G2 X228.289 Y24.028 Z-4.000 I-1.540 J0.060 K0.000 F600.000
G2 X225.200 Y24.065 Z-4.000 I-1.338 J17.313 K0.000 F600.000
G2 X222.987 Y25.178 Z-4.000 I0.224 J3.202 K0.000 F600.000
G1 X222.172 Y26.200 Z-4.000 F600.000
G1 X222.172 Y26.200 Z-4.000 F600.000
G3 X220.753 Y27.973 Z-4.000 I-249.300 J-198.083 K0.000 F600.000
G1 X214.432 Y18.323 Z-4.000 F600.000
G2 X212.237 Y17.018 Z-4.000 I-2.492 J1.692 K0.000 F600.000
G0 Z5.000
G0 X155.513 Y25.317 Z5.000
G0 X155.513 Y25.317 Z3.000
G1 X155.513 Y25.317 Z-4.000 F600.000
G2 X154.289 Y24.028 Z-4.000 I-1.525 J0.223 K0.000 F600.000
G2 X151.200 Y24.065 Z-4.000 I-1.338 J17.313 K0.000 F600.000
G2 X148.987 Y25.178 Z-4.000 I0.224 J3.202 K0.000 F600.000
G1 X148.172 Y26.200 Z-4.000 F600.000
G1 X148.172 Y26.200 Z-4.000 F600.000
G3 X146.753 Y27.973 Z-4.000 I-249.299 J-198.082 K0.000 F600.000
G1 X140.432 Y18.323 Z-4.000 F600.000
G2 X138.042 Y17.005 Z-4.000 I-2.492 J1.692 K0.000 F600.000
G1 X136.205 Y17.000 Z-4.000 F600.000
G2 X135.207 Y17.945 Z-4.000 I0.000 J1.000 K0.000 F600.000
G1 X134.009 Y39.811 Z-4.000 F600.000
G1 X131.051 Y48.684 Z-4.000 F600.000
G1 X131.000 Y49.000 Z-4.000 F600.000
G1 X131.000 Y53.000 Z-4.000 F600.000
G1 X131.010 Y53.141 Z-4.000 F600.000
G1 X131.997 Y60.051 Z-4.000 F600.000
G1 X131.742 Y66.394 Z-4.000 F600.000
G2 X130.003 Y71.144 Z-4.000 I5.175 J4.589 K0.000 F600.000
G2 X143.991 Y71.163 Z-4.000 I6.994 J-0.141 K0.000 F600.000
G1 X152.967 Y37.256 Z-4.000 F600.000
G2 X152.825 Y36.435 Z-4.000 I-0.967 J-0.256 K0.000 F600.000
G1 X152.234 Y35.571 Z-4.000 F600.000
G2 X155.064 Y28.364 Z-4.000 I-63.495 J-29.092 K0.000 F600.000
G2 X155.337 Y27.372 Z-4.000 I-10.874 J-3.521 K0.000 F600.000
G2 X155.528 Y25.480 Z-4.000 I-5.496 J-1.512 K0.000 F600.000
G2 X155.513 Y25.317 Z-4.000 I-1.540 J0.060 K0.000 F600.000
G0 Z5.000
G0 X82.541 Y25.820 Z5.000
G0 X82.541 Y25.820 Z3.000
G1 X82.541 Y25.820 Z-4.000 F600.000
G2 X82.528 Y25.480 Z-4.000 I-5.700 J0.039 K0.000 F600.000
G2 X81.289 Y24.028 Z-4.000 I-1.540 J0.060 K0.000 F600.000
G2 X78.200 Y24.065 Z-4.000 I-1.338 J17.313 K0.000 F600.000
G2 X75.987 Y25.178 Z-4.000 I0.224 J3.202 K0.000 F600.000
G1 X75.172 Y26.200 Z-4.000 F600.000
G1 X75.172 Y26.200 Z-4.000 F600.000
G3 X73.753 Y27.973 Z-4.000 I-249.294 J-198.079 K0.000 F600.000
G1 X67.432 Y18.323 Z-4.000 F600.000
G2 X65.042 Y17.005 Z-4.000 I-2.492 J1.692 K0.000 F600.000
G1 X63.205 Y17.000 Z-4.000 F600.000
G2 X62.207 Y17.945 Z-4.000 I0.000 J1.000 K0.000 F600.000
G1 X61.009 Y39.811 Z-4.000 F600.000
G1 X58.051 Y48.684 Z-4.000 F600.000
G1 X58.000 Y49.000 Z-4.000 F600.000
G1 X58.000 Y53.000 Z-4.000 F600.000
G1 X58.010 Y53.141 Z-4.000 F600.000
G1 X58.997 Y60.051 Z-4.000 F600.000
G1 X58.742 Y66.394 Z-4.000 F600.000
G2 X57.003 Y71.144 Z-4.000 I5.175 J4.589 K0.000 F600.000
G2 X70.991 Y71.163 Z-4.000 I6.994 J-0.141 K0.000 F600.000
G1 X79.967 Y37.256 Z-4.000 F600.000
G2 X79.825 Y36.435 Z-4.000 I-0.967 J-0.256 K0.000 F600.000
G1 X79.234 Y35.571 Z-4.000 F600.000
G2 X82.064 Y28.364 Z-4.000 I-63.495 J-29.092 K0.000 F600.000
G2 X82.337 Y27.372 Z-4.000 I-10.874 J-3.521 K0.000 F600.000
G2 X82.541 Y25.820 Z-4.000 I-5.496 J-1.512 K0.000 F600.000
G0 Z5.000
G0 X51.743 Y22.867 Z5.000
G0 X51.743 Y22.867 Z3.000
G1 X51.743 Y22.867 Z-4.000 F600.000
G1 X56.995 Y-31.905 Z-4.000 F600.000
G2 X56.000 Y-33.000 Z-4.000 I-0.995 J-0.095 K0.000 F600.000
G1 X51.022 Y-33.000 Z-4.000 F600.000
G3 X51.248 Y-36.043 Z-4.000 I14.588 J-0.445 K0.000 F600.000
G3 X52.389 Y-40.026 Z-4.000 I30.336 J6.530 K0.000 F600.000
G2 X52.886 Y-42.207 Z-4.000 I-6.913 J-2.723 K0.000 F600.000
G2 X51.395 Y-44.529 Z-4.000 I-2.327 J-0.145 K0.000 F600.000
G2 X49.586 Y-44.940 Z-4.000 I-2.533 J6.957 K0.000 F600.000
G2 X46.807 Y-44.904 Z-4.000 I-1.236 J11.852 K0.000 F600.000
G2 X43.660 Y-42.394 Z-4.000 I0.643 J4.035 K0.000 F600.000
G2 X43.067 Y-39.671 Z-4.000 I10.111 J3.627 K0.000 F600.000
G2 X43.313 Y-33.000 Z-4.000 I38.201 J1.930 K0.000 F600.000
G1 X32.684 Y-33.000 Z-4.000 F600.000
G2 X32.993 Y-38.488 Z-4.000 I-46.197 J-5.350 K0.000 F600.000
G2 X32.590 Y-41.641 Z-4.000 I-11.770 J-0.097 K0.000 F600.000
G2 X31.211 Y-43.981 Z-4.000 I-4.515 J1.083 K0.000 F600.000
G2 X28.676 Y-44.984 Z-4.000 I-2.924 J3.688 K0.000 F600.000
G2 X24.895 Y-44.634 Z-4.000 I-0.848 J11.447 K0.000 F600.000
G2 X23.773 Y-43.980 Z-4.000 I0.650 J2.403 K0.000 F600.000
G2 X23.230 Y-41.328 Z-4.000 I2.062 J1.804 K0.000 F600.000
G1 X24.610 Y-36.663 Z-4.000 F600.000
G1 X24.855 Y-33.000 Z-4.000 F600.000
G1 X20.000 Y-33.000 Z-4.000 F600.000
G2 X19.005 Y-31.905 Z-4.000 I-0.000 J1.000 K0.000 F600.000
G1 X26.005 Y41.095 Z-4.000 F600.000
G1 X26.051 Y41.316 Z-4.000 F600.000
G1 X29.000 Y50.162 Z-4.000 F600.000
G1 X29.000 Y52.938 Z-4.000 F600.000
G1 X28.008 Y60.876 Z-4.000 F600.000
G1 X28.008 Y61.124 Z-4.000 F600.000
G1 X29.987 Y77.012 Z-4.000 F600.000
G2 X30.873 Y77.883 Z-4.000 I0.992 J-0.124 K0.000 F600.000
G2 X33.378 Y77.477 Z-4.000 I-2.356 J-22.454 K0.000 F600.000
G3 X42.645 Y77.480 Z-4.000 I4.618 J36.819 K0.000 F600.000
G2 X44.879 Y77.878 Z-4.000 I5.483 J-24.317 K0.000 F600.000
G2 X46.013 Y77.012 Z-4.000 I0.142 J-0.990 K0.000 F600.000
G1 X47.992 Y61.124 Z-4.000 F600.000
G1 X47.992 Y60.876 Z-4.000 F600.000
G1 X47.000 Y52.938 Z-4.000 F600.000
G1 X47.000 Y50.162 Z-4.000 F600.000
G1 X49.949 Y41.316 Z-4.000 F600.000
G1 X49.995 Y41.095 Z-4.000 F600.000
G1 X51.743 Y22.867 Z-4.000 F600.000
G1 X51.743 Y22.867 Z-6.000 F600.000
G1 X56.995 Y-31.905 Z-6.000 F600.000
G2 X56.000 Y-33.000 Z-6.000 I-0.995 J-0.095 K0.000 F600.000
G1 X51.022 Y-33.000 Z-6.000 F600.000
G3 X51.248 Y-36.043 Z-6.000 I14.588 J-0.445 K0.000 F600.000
G3 X52.389 Y-40.026 Z-6.000 I30.336 J6.530 K0.000 F600.000
G2 X52.886 Y-42.207 Z-6.000 I-6.913 J-2.723 K0.000 F600.000
G2 X51.395 Y-44.529 Z-6.000 I-2.327 J-0.145 K0.000 F600.000
G2 X49.586 Y-44.940 Z-6.000 I-2.533 J6.957 K0.000 F600.000
G2 X46.807 Y-44.904 Z-6.000 I-1.236 J11.852 K0.000 F600.000
G2 X43.660 Y-42.394 Z-6.000 I0.643 J4.035 K0.000 F600.000
G2 X43.067 Y-39.671 Z-6.000 I10.111 J3.627 K0.000 F600.000
G2 X43.313 Y-33.000 Z-6.000 I38.201 J1.930 K0.000 F600.000
G1 X32.684 Y-33.000 Z-6.000 F600.000
G2 X32.993 Y-38.488 Z-6.000 I-46.197 J-5.350 K0.000 F600.000
G2 X32.590 Y-41.641 Z-6.000 I-11.770 J-0.097 K0.000 F600.000
G2 X31.211 Y-43.981 Z-6.000 I-4.515 J1.083 K0.000 F600.000
G2 X28.676 Y-44.984 Z-6.000 I-2.924 J3.688 K0.000 F600.000
G2 X24.895 Y-44.634 Z-6.000 I-0.848 J11.447 K0.000 F600.000
G2 X23.773 Y-43.980 Z-6.000 I0.650 J2.403 K0.000 F600.000
G2 X23.230 Y-41.328 Z-6.000 I2.062 J1.804 K0.000 F600.000
G1 X24.610 Y-36.663 Z-6.000 F600.000
G1 X24.855 Y-33.000 Z-6.000 F600.000
G1 X20.000 Y-33.000 Z-6.000 F600.000
G2 X19.005 Y-31.905 Z-6.000 I-0.000 J1.000 K0.000 F600.000
G1 X26.005 Y41.095 Z-6.000 F600.000
G1 X26.051 Y41.316 Z-6.000 F600.000
G1 X29.000 Y50.162 Z-6.000 F600.000
G1 X29.000 Y52.938 Z-6.000 F600.000
G1 X28.008 Y60.876 Z-6.000 F600.000
G1 X28.008 Y61.124 Z-6.000 F600.000
G1 X29.987 Y77.012 Z-6.000 F600.000
G2 X30.873 Y77.883 Z-6.000 I0.992 J-0.124 K0.000 F600.000
G2 X33.378 Y77.477 Z-6.000 I-2.356 J-22.454 K0.000 F600.000
G3 X42.645 Y77.480 Z-6.000 I4.618 J36.819 K0.000 F600.000
G2 X44.879 Y77.878 Z-6.000 I5.483 J-24.317 K0.000 F600.000
G2 X46.013 Y77.012 Z-6.000 I0.142 J-0.990 K0.000 F600.000
G1 X47.992 Y61.124 Z-6.000 F600.000
G1 X47.992 Y60.876 Z-6.000 F600.000
G1 X47.000 Y52.938 Z-6.000 F600.000
G1 X47.000 Y50.162 Z-6.000 F600.000
G1 X49.949 Y41.316 Z-6.000 F600.000
G1 X49.995 Y41.095 Z-6.000 F600.000
G1 X51.743 Y22.867 Z-6.000 F600.000
G0 Z5.000
G0 X61.907 Y23.424 Z5.000
G0 X61.907 Y23.424 Z3.000
G1 X61.907 Y23.424 Z-6.000 F600.000
G1 X61.009 Y39.811 Z-6.000 F600.000
G1 X58.051 Y48.684 Z-6.000 F600.000
G1 X58.000 Y49.000 Z-6.000 F600.000
G1 X58.000 Y53.000 Z-6.000 F600.000
G1 X58.010 Y53.141 Z-6.000 F600.000
G1 X58.997 Y60.051 Z-6.000 F600.000
G1 X58.742 Y66.394 Z-6.000 F600.000
G2 X57.003 Y71.144 Z-6.000 I5.175 J4.589 K0.000 F600.000
G2 X70.991 Y71.163 Z-6.000 I6.994 J-0.141 K0.000 F600.000
G1 X79.967 Y37.256 Z-6.000 F600.000
G2 X79.825 Y36.435 Z-6.000 I-0.967 J-0.256 K0.000 F600.000
G1 X79.234 Y35.571 Z-6.000 F600.000
G2 X82.064 Y28.364 Z-6.000 I-63.495 J-29.092 K0.000 F600.000
G2 X82.337 Y27.372 Z-6.000 I-10.874 J-3.521 K0.000 F600.000
G2 X82.528 Y25.480 Z-6.000 I-5.496 J-1.512 K0.000 F600.000
G2 X81.289 Y24.028 Z-6.000 I-1.540 J0.060 K0.000 F600.000
G2 X78.200 Y24.065 Z-6.000 I-1.338 J17.313 K0.000 F600.000
G2 X75.987 Y25.178 Z-6.000 I0.224 J3.202 K0.000 F600.000
G1 X75.172 Y26.200 Z-6.000 F600.000
G1 X75.172 Y26.200 Z-6.000 F600.000
G3 X73.753 Y27.973 Z-6.000 I-249.294 J-198.079 K0.000 F600.000
G1 X67.432 Y18.323 Z-6.000 F600.000
G2 X65.042 Y17.005 Z-6.000 I-2.492 J1.692 K0.000 F600.000
G1 X63.205 Y17.000 Z-6.000 F600.000
G2 X62.207 Y17.945 Z-6.000 I0.000 J1.000 K0.000 F600.000
G1 X61.907 Y23.424 Z-6.000 F600.000
G0 Z5.000
G0 X61.533 Y10.017 Z5.000
G0 X61.533 Y10.017 Z3.000
G1 X61.533 Y10.017 Z-6.000 F600.000
G2 X62.800 Y9.935 Z-6.000 I-0.484 J-17.358 K0.000 F600.000
G2 X65.013 Y8.822 Z-6.000 I-0.224 J-3.202 K0.000 F600.000
G1 X65.828 Y7.800 Z-6.000 F600.000
G1 X65.828 Y7.800 Z-6.000 F600.000
G3 X67.247 Y6.027 Z-6.000 I249.309 J198.091 K0.000 F600.000
G1 X73.568 Y15.677 Z-6.000 F600.000
G2 X75.958 Y16.995 Z-6.000 I2.492 J-1.692 K0.000 F600.000
G1 X77.795 Y17.000 Z-6.000 F600.000
G2 X78.793 Y16.055 Z-6.000 I-0.000 J-1.000 K0.000 F600.000
G1 X79.991 Y-5.811 Z-6.000 F600.000
G1 X82.949 Y-14.684 Z-6.000 F600.000
G1 X83.000 Y-15.000 Z-6.000 F600.000
G1 X83.000 Y-19.000 Z-6.000 F600.000
G1 X82.990 Y-19.141 Z-6.000 F600.000
G1 X82.003 Y-26.051 Z-6.000 F600.000
G1 X82.258 Y-32.394 Z-6.000 F600.000
G2 X78.948 Y-43.722 Z-6.000 I-5.250 J-4.614 K0.000 F600.000
G2 X70.009 Y-37.163 Z-6.000 I-1.949 J6.715 K0.000 F600.000
G1 X61.033 Y-3.256 Z-6.000 F600.000
G2 X61.175 Y-2.435 Z-6.000 I0.967 J0.256 K0.000 F600.000
G1 X61.766 Y-1.571 Z-6.000 F600.000
G2 X58.936 Y5.636 Z-6.000 I63.495 J29.092 K0.000 F600.000
G2 X58.663 Y6.628 Z-6.000 I10.874 J3.521 K0.000 F600.000
G2 X58.472 Y8.520 Z-6.000 I5.496 J1.512 K0.000 F600.000
G2 X59.711 Y9.972 Z-6.000 I1.540 J-0.060 K0.000 F600.000
G2 X61.533 Y10.017 Z-6.000 I1.338 J-17.313 K0.000 F600.000
G0 Z5.000
G0 X95.710 Y6.739 Z5.000
G0 X95.710 Y6.739 Z3.000
G1 X95.710 Y6.739 Z-6.000 F600.000
G1 X99.005 Y41.095 Z-6.000 F600.000
G1 X99.051 Y41.316 Z-6.000 F600.000
G1 X102.000 Y50.162 Z-6.000 F600.000
G1 X102.000 Y52.938 Z-6.000 F600.000
G1 X101.008 Y60.876 Z-6.000 F600.000
G1 X101.008 Y61.124 Z-6.000 F600.000
G1 X102.987 Y77.012 Z-6.000 F600.000
G2 X103.873 Y77.883 Z-6.000 I0.992 J-0.124 K0.000 F600.000
G2 X106.378 Y77.477 Z-6.000 I-2.356 J-22.454 K0.000 F600.000
G3 X115.645 Y77.480 Z-6.000 I4.618 J36.819 K0.000 F600.000
G2 X117.879 Y77.878 Z-6.000 I5.483 J-24.317 K0.000 F600.000
G2 X119.013 Y77.012 Z-6.000 I0.142 J-0.990 K0.000 F600.000
G1 X120.992 Y61.124 Z-6.000 F600.000
G1 X120.992 Y60.876 Z-6.000 F600.000
G1 X120.000 Y52.938 Z-6.000 F600.000
G1 X120.000 Y50.162 Z-6.000 F600.000
G1 X122.949 Y41.316 Z-6.000 F600.000
G1 X122.995 Y41.095 Z-6.000 F600.000
G1 X129.995 Y-31.905 Z-6.000 F600.000
G2 X129.000 Y-33.000 Z-6.000 I-0.995 J-0.095 K0.000 F600.000
G1 X124.022 Y-33.000 Z-6.000 F600.000
G3 X124.248 Y-36.043 Z-6.000 I14.588 J-0.445 K0.000 F600.000
G3 X125.389 Y-40.026 Z-6.000 I30.337 J6.530 K0.000 F600.000
G2 X125.886 Y-42.207 Z-6.000 I-6.912 J-2.723 K0.000 F600.000
G2 X124.395 Y-44.529 Z-6.000 I-2.327 J-0.145 K0.000 F600.000
G2 X122.586 Y-44.940 Z-6.000 I-2.533 J6.957 K0.000 F600.000
G2 X119.807 Y-44.904 Z-6.000 I-1.236 J11.852 K0.000 F600.000
G2 X116.660 Y-42.394 Z-6.000 I0.643 J4.035 K0.000 F600.000
G2 X116.067 Y-39.671 Z-6.000 I10.111 J3.627 K0.000 F600.000
G2 X116.313 Y-33.000 Z-6.000 I38.201 J1.930 K0.000 F600.000
G1 X105.684 Y-33.000 Z-6.000 F600.000
G2 X105.993 Y-38.488 Z-6.000 I-46.197 J-5.350 K0.000 F600.000
G2 X105.590 Y-41.641 Z-6.000 I-11.770 J-0.097 K0.000 F600.000
G2 X104.211 Y-43.981 Z-6.000 I-4.515 J1.083 K0.000 F600.000
G2 X101.676 Y-44.984 Z-6.000 I-2.924 J3.688 K0.000 F600.000
G2 X97.895 Y-44.634 Z-6.000 I-0.848 J11.447 K0.000 F600.000
G2 X96.773 Y-43.980 Z-6.000 I0.650 J2.403 K0.000 F600.000
G2 X96.230 Y-41.328 Z-6.000 I2.062 J1.804 K0.000 F600.000
G1 X97.610 Y-36.663 Z-6.000 F600.000
G1 X97.855 Y-33.000 Z-6.000 F600.000
G1 X93.000 Y-33.000 Z-6.000 F600.000
G2 X92.005 Y-31.905 Z-6.000 I-0.000 J1.000 K0.000 F600.000
G1 X95.710 Y6.739 Z-6.000 F600.000
G0 Z5.000
G0 X131.462 Y7.948 Z5.000
G0 X131.462 Y7.948 Z3.000
G1 X131.462 Y7.948 Z-6.000 F600.000
G2 X131.472 Y8.520 Z-6.000 I5.697 J0.193 K0.000 F600.000
G2 X132.711 Y9.972 Z-6.000 I1.540 J-0.060 K0.000 F600.000
G2 X135.800 Y9.935 Z-6.000 I1.338 J-17.313 K0.000 F600.000
G2 X138.013 Y8.822 Z-6.000 I-0.224 J-3.202 K0.000 F600.000
G1 X138.828 Y7.800 Z-6.000 F600.000
G1 X138.828 Y7.800 Z-6.000 F600.000
G3 X140.247 Y6.027 Z-6.000 I249.309 J198.091 K0.000 F600.000
G1 X146.568 Y15.677 Z-6.000 F600.000
G2 X148.958 Y16.995 Z-6.000 I2.492 J-1.692 K0.000 F600.000
G1 X150.795 Y17.000 Z-6.000 F600.000
G2 X151.793 Y16.055 Z-6.000 I-0.000 J-1.000 K0.000 F600.000
G1 X152.991 Y-5.811 Z-6.000 F600.000
G1 X155.949 Y-14.684 Z-6.000 F600.000
G1 X156.000 Y-15.000 Z-6.000 F600.000
G1 X156.000 Y-19.000 Z-6.000 F600.000
G1 X155.990 Y-19.141 Z-6.000 F600.000
G1 X155.003 Y-26.051 Z-6.000 F600.000
G1 X155.258 Y-32.394 Z-6.000 F600.000
G2 X151.948 Y-43.722 Z-6.000 I-5.250 J-4.614 K0.000 F600.000
G2 X143.009 Y-37.163 Z-6.000 I-1.949 J6.715 K0.000 F600.000
G1 X134.033 Y-3.256 Z-6.000 F600.000
G2 X134.175 Y-2.435 Z-6.000 I0.967 J0.256 K0.000 F600.000
G1 X134.766 Y-1.571 Z-6.000 F600.000
G2 X131.936 Y5.636 Z-6.000 I63.495 J29.092 K0.000 F600.000
G2 X131.663 Y6.628 Z-6.000 I10.874 J3.521 K0.000 F600.000
G2 X131.462 Y7.948 Z-6.000 I5.496 J1.512 K0.000 F600.000
G0 Z5.000
G0 X135.779 Y17.096 Z5.000
G0 X135.779 Y17.096 Z3.000
G1 X135.779 Y17.096 Z-6.000 F600.000
G2 X135.207 Y17.945 Z-6.000 I0.427 J0.904 K0.000 F600.000
G1 X134.009 Y39.811 Z-6.000 F600.000
G1 X131.051 Y48.684 Z-6.000 F600.000
G1 X131.000 Y49.000 Z-6.000 F600.000
G1 X131.000 Y53.000 Z-6.000 F600.000
G1 X131.010 Y53.141 Z-6.000 F600.000
G1 X131.997 Y60.051 Z-6.000 F600.000
G1 X131.742 Y66.394 Z-6.000 F600.000
G2 X130.003 Y71.144 Z-6.000 I5.175 J4.589 K0.000 F600.000
G2 X143.991 Y71.163 Z-6.000 I6.994 J-0.141 K0.000 F600.000
G1 X152.967 Y37.256 Z-6.000 F600.000
G2 X152.825 Y36.435 Z-6.000 I-0.967 J-0.256 K0.000 F600.000
G1 X152.234 Y35.571 Z-6.000 F600.000
G2 X155.064 Y28.364 Z-6.000 I-63.495 J-29.092 K0.000 F600.000
G2 X155.337 Y27.372 Z-6.000 I-10.874 J-3.521 K0.000 F600.000
G2 X155.528 Y25.480 Z-6.000 I-5.496 J-1.512 K0.000 F600.000
G2 X154.289 Y24.028 Z-6.000 I-1.540 J0.060 K0.000 F600.000
G2 X151.200 Y24.065 Z-6.000 I-1.338 J17.313 K0.000 F600.000
G2 X148.987 Y25.178 Z-6.000 I0.224 J3.202 K0.000 F600.000
G1 X148.172 Y26.200 Z-6.000 F600.000
G1 X148.172 Y26.200 Z-6.000 F600.000
G3 X146.753 Y27.973 Z-6.000 I-249.299 J-198.082 K0.000 F600.000
G1 X140.432 Y18.323 Z-6.000 F600.000
G2 X138.042 Y17.005 Z-6.000 I-2.492 J1.692 K0.000 F600.000
G1 X136.205 Y17.000 Z-6.000 F600.000
G2 X135.779 Y17.096 Z-6.000 I0.000 J1.000 K0.000 F600.000
G0 Z5.000
G0 X170.385 Y13.777 Z5.000
G0 X170.385 Y13.777 Z3.000
G1 X170.385 Y13.777 Z-6.000 F600.000
G1 X173.005 Y41.095 Z-6.000 F600.000
G1 X173.051 Y41.316 Z-6.000 F600.000
G1 X176.000 Y50.162 Z-6.000 F600.000
G1 X176.000 Y52.938 Z-6.000 F600.000
G1 X175.008 Y60.876 Z-6.000 F600.000
G1 X175.008 Y61.124 Z-6.000 F600.000
G1 X176.987 Y77.012 Z-6.000 F600.000
G2 X177.873 Y77.883 Z-6.000 I0.992 J-0.124 K0.000 F600.000
G2 X180.378 Y77.477 Z-6.000 I-2.356 J-22.454 K0.000 F600.000
G3 X189.645 Y77.480 Z-6.000 I4.618 J36.819 K0.000 F600.000
G2 X191.879 Y77.878 Z-6.000 I5.483 J-24.317 K0.000 F600.000
G2 X193.013 Y77.012 Z-6.000 I0.142 J-0.990 K0.000 F600.000
G1 X194.992 Y61.124 Z-6.000 F600.000
G1 X194.992 Y60.876 Z-6.000 F600.000
G1 X194.000 Y52.938 Z-6.000 F600.000
G1 X194.000 Y50.162 Z-6.000 F600.000
G1 X196.949 Y41.316 Z-6.000 F600.000
G1 X196.995 Y41.095 Z-6.000 F600.000
G1 X203.995 Y-31.905 Z-6.000 F600.000
G2 X203.000 Y-33.000 Z-6.000 I-0.995 J-0.095 K0.000 F600.000
G1 X198.022 Y-33.000 Z-6.000 F600.000
G3 X198.248 Y-36.043 Z-6.000 I14.588 J-0.445 K0.000 F600.000
G3 X199.389 Y-40.026 Z-6.000 I30.337 J6.530 K0.000 F600.000
G2 X199.886 Y-42.207 Z-6.000 I-6.912 J-2.723 K0.000 F600.000
G2 X198.395 Y-44.529 Z-6.000 I-2.327 J-0.145 K0.000 F600.000
G2 X196.586 Y-44.940 Z-6.000 I-2.533 J6.957 K0.000 F600.000
G2 X193.807 Y-44.904 Z-6.000 I-1.236 J11.852 K0.000 F600.000
G2 X190.660 Y-42.394 Z-6.000 I0.643 J4.035 K0.000 F600.000
G2 X190.067 Y-39.671 Z-6.000 I10.111 J3.627 K0.000 F600.000
G2 X190.313 Y-33.000 Z-6.000 I38.201 J1.930 K0.000 F600.000
G1 X179.684 Y-33.000 Z-6.000 F600.000
G2 X179.993 Y-38.488 Z-6.000 I-46.197 J-5.350 K0.000 F600.000
G2 X179.590 Y-41.641 Z-6.000 I-11.770 J-0.097 K0.000 F600.000
G2 X178.211 Y-43.981 Z-6.000 I-4.515 J1.083 K0.000 F600.000
G2 X175.676 Y-44.984 Z-6.000 I-2.924 J3.688 K0.000 F600.000
G2 X171.895 Y-44.634 Z-6.000 I-0.848 J11.447 K0.000 F600.000
G2 X170.773 Y-43.980 Z-6.000 I0.650 J2.403 K0.000 F600.000
G2 X170.230 Y-41.328 Z-6.000 I2.062 J1.804 K0.000 F600.000
G1 X171.610 Y-36.663 Z-6.000 F600.000
G1 X171.855 Y-33.000 Z-6.000 F600.000
G1 X167.000 Y-33.000 Z-6.000 F600.000
G2 X166.005 Y-31.905 Z-6.000 I-0.000 J1.000 K0.000 F600.000
G1 X170.385 Y13.777 Z-6.000 F600.000
G0 Z5.000
G0 X205.486 Y8.682 Z5.000
G0 X205.486 Y8.682 Z3.000
G1 X205.486 Y8.682 Z-6.000 F600.000
G2 X206.711 Y9.972 Z-6.000 I1.525 J-0.221 K0.000 F600.000
G2 X209.800 Y9.935 Z-6.000 I1.338 J-17.313 K0.000 F600.000
G2 X212.013 Y8.822 Z-6.000 I-0.224 J-3.202 K0.000 F600.000
G1 X212.828 Y7.800 Z-6.000 F600.000
G1 X212.828 Y7.800 Z-6.000 F600.000
G3 X214.247 Y6.027 Z-6.000 I249.309 J198.091 K0.000 F600.000
G1 X220.568 Y15.677 Z-6.000 F600.000
G2 X222.958 Y16.995 Z-6.000 I2.492 J-1.692 K0.000 F600.000
G1 X224.795 Y17.000 Z-6.000 F600.000
G2 X225.793 Y16.055 Z-6.000 I-0.000 J-1.000 K0.000 F600.000
G1 X226.991 Y-5.811 Z-6.000 F600.000
G1 X229.949 Y-14.684 Z-6.000 F600.000
G1 X230.000 Y-15.000 Z-6.000 F600.000
G1 X230.000 Y-19.000 Z-6.000 F600.000
G1 X229.990 Y-19.141 Z-6.000 F600.000
G1 X229.003 Y-26.051 Z-6.000 F600.000
G1 X229.258 Y-32.394 Z-6.000 F600.000
G2 X225.948 Y-43.722 Z-6.000 I-5.250 J-4.614 K0.000 F600.000
G2 X217.009 Y-37.163 Z-6.000 I-1.949 J6.715 K0.000 F600.000
G1 X208.033 Y-3.256 Z-6.000 F600.000
G2 X208.175 Y-2.435 Z-6.000 I0.967 J0.256 K0.000 F600.000
G1 X208.766 Y-1.571 Z-6.000 F600.000
G2 X205.936 Y5.636 Z-6.000 I63.495 J29.092 K0.000 F600.000
G2 X205.663 Y6.628 Z-6.000 I10.874 J3.521 K0.000 F600.000
G2 X205.472 Y8.520 Z-6.000 I5.496 J1.512 K0.000 F600.000
G2 X205.486 Y8.682 Z-6.000 I1.540 J-0.060 K0.000 F600.000
G0 Z5.000
G0 X209.754 Y17.108 Z5.000
G0 X209.754 Y17.108 Z3.000
G1 X209.754 Y17.108 Z-6.000 F600.000
G2 X209.207 Y17.945 Z-6.000 I0.452 J0.892 K0.000 F600.000
G1 X208.009 Y39.811 Z-6.000 F600.000
G1 X205.051 Y48.684 Z-6.000 F600.000
G1 X205.000 Y49.000 Z-6.000 F600.000
G1 X205.000 Y53.000 Z-6.000 F600.000
G1 X205.010 Y53.141 Z-6.000 F600.000
G1 X205.997 Y60.051 Z-6.000 F600.000
G1 X205.742 Y66.394 Z-6.000 F600.000
G2 X204.003 Y71.144 Z-6.000 I5.175 J4.589 K0.000 F600.000
G2 X217.991 Y71.163 Z-6.000 I6.994 J-0.141 K0.000 F600.000
G1 X226.967 Y37.256 Z-6.000 F600.000
G2 X226.825 Y36.435 Z-6.000 I-0.967 J-0.256 K0.000 F600.000
G1 X226.234 Y35.571 Z-6.000 F600.000
G2 X229.064 Y28.364 Z-6.000 I-63.495 J-29.092 K0.000 F600.000
G2 X229.337 Y27.372 Z-6.000 I-10.874 J-3.521 K0.000 F600.000
G2 X229.528 Y25.480 Z-6.000 I-5.496 J-1.512 K0.000 F600.000
G2 X228.289 Y24.028 Z-6.000 I-1.540 J0.060 K0.000 F600.000
G2 X225.200 Y24.065 Z-6.000 I-1.338 J17.313 K0.000 F600.000
G2 X222.987 Y25.178 Z-6.000 I0.224 J3.202 K0.000 F600.000
G1 X222.172 Y26.200 Z-6.000 F600.000
G1 X222.172 Y26.200 Z-6.000 F600.000
G3 X220.753 Y27.973 Z-6.000 I-249.300 J-198.083 K0.000 F600.000
G1 X214.432 Y18.323 Z-6.000 F600.000
G2 X212.042 Y17.005 Z-6.000 I-2.492 J1.692 K0.000 F600.000
G1 X210.205 Y17.000 Z-6.000 F600.000
G2 X209.754 Y17.108 Z-6.000 I0.000 J1.000 K0.000 F600.000
G0 Z5.000
G0 X206.143 Y-52.106 Z5.000
G0 X206.143 Y-52.106 Z3.000
G1 X206.143 Y-52.106 Z-6.000 F600.000
G2 X209.656 Y-52.605 Z-6.000 I-1.040 J-19.942 K0.000 F600.000
G2 X215.217 Y-55.666 Z-6.000 I-2.136 J-10.462 K0.000 F600.000
G2 X218.183 Y-60.829 Z-6.000 I-10.255 J-9.324 K0.000 F600.000
G2 X219.698 Y-61.765 Z-6.000 I0.126 J-1.492 K0.000 F600.000
G2 X220.604 Y-61.220 Z-6.000 I4.289 J-6.098 K0.000 F600.000
G2 X223.945 Y-61.710 Z-6.000 I1.316 J-2.660 K0.000 F600.000
G3 X224.201 Y-61.901 Z-6.000 I0.262 J0.084 K0.000 F600.000
G1 X228.040 Y-63.437 Z-6.000 F600.000
G2 X228.040 Y-66.222 Z-6.000 I-0.568 J-1.393 K0.000 F600.000
G1 X224.201 Y-67.758 Z-6.000 F600.000
G1 X224.067 Y-67.791 Z-6.000 F600.000
G2 X222.003 Y-68.740 Z-6.000 I-2.026 J1.689 K0.000 F600.000
G2 X219.703 Y-67.897 Z-6.000 I0.117 J3.880 K0.000 F600.000
G2 X218.189 Y-68.829 Z-6.000 I-1.390 J0.562 K0.000 F600.000
G2 X216.458 Y-72.400 Z-6.000 I-13.162 J4.176 K0.000 F600.000
G2 X211.040 Y-76.679 Z-6.000 I-8.936 J5.743 K0.000 F600.000
G2 X201.714 Y-77.289 Z-6.000 I-5.928 J19.063 K0.000 F600.000
G2 X200.800 Y-77.829 Z-6.000 I-0.876 J0.439 K0.000 F600.000
G1 X199.009 Y-77.776 Z-6.000 F600.000
G2 X195.637 Y-76.693 Z-6.000 I0.315 J6.775 K0.000 F600.000
G2 X193.126 Y-74.540 Z-6.000 I10.212 J14.449 K0.000 F600.000
G2 X192.387 Y-73.246 Z-6.000 I1.513 J1.720 K0.000 F600.000
G2 X188.030 Y-69.575 Z-6.000 I8.535 J14.553 K0.000 F600.000
G3 X187.285 Y-69.323 Z-6.000 I-2.224 J-5.360 K0.000 F600.000
G3 X182.113 Y-68.830 Z-6.000 I-4.842 J-23.398 K0.000 F600.000
G2 X181.131 Y-67.886 Z-6.000 I0.016 J1.000 K0.000 F600.000
G2 X181.127 Y-61.774 Z-6.000 I41.700 J3.086 K0.000 F600.000
G2 X182.113 Y-60.828 Z-6.000 I0.999 J-0.054 K0.000 F600.000
G3 X184.814 Y-60.714 Z-6.000 I0.112 J29.267 K0.000 F600.000
G3 X188.036 Y-60.076 Z-6.000 I-0.565 J11.305 K0.000 F600.000
G2 X192.387 Y-56.414 Z-6.000 I12.858 J-10.862 K0.000 F600.000
G2 X192.810 Y-55.460 Z-6.000 I2.176 J-0.393 K0.000 F600.000
G2 X195.173 Y-53.316 Z-6.000 I11.661 J-10.483 K0.000 F600.000
G2 X198.149 Y-51.982 Z-6.000 I4.059 J-5.065 K0.000 F600.000
G2 X200.831 Y-51.829 Z-6.000 I2.317 J-17.106 K0.000 F600.000
G2 X201.707 Y-52.370 Z-6.000 I0.004 J-0.974 K0.000 F600.000
G2 X206.143 Y-52.106 Z-6.000 I3.396 J-19.678 K0.000 F600.000
G0 Z5.000
G0 X154.934 Y-64.476 Z5.000
G0 X154.934 Y-64.476 Z3.000
G1 X154.934 Y-64.476 Z-6.000 F600.000
G2 X154.040 Y-66.222 Z-6.000 I-1.462 J-0.353 K0.000 F600.000
G1 X150.201 Y-67.758 Z-6.000 F600.000
G1 X150.067 Y-67.791 Z-6.000 F600.000
G2 X148.003 Y-68.740 Z-6.000 I-2.026 J1.689 K0.000 F600.000
G2 X145.703 Y-67.897 Z-6.000 I0.117 J3.880 K0.000 F600.000
G2 X144.189 Y-68.829 Z-6.000 I-1.390 J0.562 K0.000 F600.000
G2 X142.458 Y-72.400 Z-6.000 I-13.162 J4.176 K0.000 F600.000
G2 X137.040 Y-76.679 Z-6.000 I-8.936 J5.743 K0.000 F600.000
G2 X127.714 Y-77.289 Z-6.000 I-5.928 J19.063 K0.000 F600.000
G2 X126.800 Y-77.829 Z-6.000 I-0.876 J0.439 K0.000 F600.000
G1 X125.009 Y-77.776 Z-6.000 F600.000
G2 X121.637 Y-76.693 Z-6.000 I0.315 J6.775 K0.000 F600.000
G2 X119.126 Y-74.540 Z-6.000 I10.212 J14.449 K0.000 F600.000
G2 X118.387 Y-73.246 Z-6.000 I1.513 J1.720 K0.000 F600.000
G2 X114.030 Y-69.575 Z-6.000 I8.535 J14.553 K0.000 F600.000
G3 X113.285 Y-69.323 Z-6.000 I-2.224 J-5.360 K0.000 F600.000
G3 X108.113 Y-68.830 Z-6.000 I-4.842 J-23.398 K0.000 F600.000
G2 X107.131 Y-67.886 Z-6.000 I0.016 J1.000 K0.000 F600.000
G2 X107.127 Y-61.774 Z-6.000 I41.700 J3.086 K0.000 F600.000
G2 X108.113 Y-60.828 Z-6.000 I0.999 J-0.054 K0.000 F600.000
G3 X110.814 Y-60.714 Z-6.000 I0.112 J29.267 K0.000 F600.000
G3 X114.036 Y-60.076 Z-6.000 I-0.565 J11.305 K0.000 F600.000
G2 X118.387 Y-56.414 Z-6.000 I12.858 J-10.862 K0.000 F600.000
G2 X118.810 Y-55.460 Z-6.000 I2.176 J-0.393 K0.000 F600.000
G2 X121.173 Y-53.316 Z-6.000 I11.660 J-10.483 K0.000 F600.000
G2 X124.149 Y-51.982 Z-6.000 I4.059 J-5.065 K0.000 F600.000
G2 X126.831 Y-51.829 Z-6.000 I2.317 J-17.106 K0.000 F600.000
G2 X127.707 Y-52.370 Z-6.000 I0.004 J-0.974 K0.000 F600.000
G2 X135.656 Y-52.605 Z-6.000 I3.396 J-19.678 K0.000 F600.000
G2 X141.217 Y-55.666 Z-6.000 I-2.136 J-10.462 K0.000 F600.000
G2 X144.183 Y-60.829 Z-6.000 I-10.255 J-9.324 K0.000 F600.000
G2 X145.698 Y-61.765 Z-6.000 I0.126 J-1.492 K0.000 F600.000
G2 X146.604 Y-61.220 Z-6.000 I4.289 J-6.098 K0.000 F600.000
G2 X149.945 Y-61.710 Z-6.000 I1.316 J-2.660 K0.000 F600.000
G3 X150.201 Y-61.901 Z-6.000 I0.262 J0.084 K0.000 F600.000
G1 X154.040 Y-63.437 Z-6.000 F600.000
G2 X154.934 Y-64.476 Z-6.000 I-0.568 J-1.393 K0.000 F600.000
G0 Z5.000
G0 X81.976 Y-64.822 Z5.000
G0 X81.976 Y-64.822 Z3.000
G1 X81.976 Y-64.822 Z-6.000 F600.000
G2 X81.040 Y-66.222 Z-6.000 I-1.504 J-0.007 K0.000 F600.000
G1 X77.201 Y-67.758 Z-6.000 F600.000
G1 X77.067 Y-67.791 Z-6.000 F600.000
G2 X75.003 Y-68.740 Z-6.000 I-2.026 J1.689 K0.000 F600.000
G2 X72.703 Y-67.897 Z-6.000 I0.117 J3.880 K0.000 F600.000
G2 X71.189 Y-68.829 Z-6.000 I-1.390 J0.562 K0.000 F600.000
G2 X69.458 Y-72.400 Z-6.000 I-13.162 J4.176 K0.000 F600.000
G2 X64.040 Y-76.679 Z-6.000 I-8.936 J5.743 K0.000 F600.000
G2 X54.714 Y-77.289 Z-6.000 I-5.928 J19.063 K0.000 F600.000
G2 X53.800 Y-77.829 Z-6.000 I-0.876 J0.439 K0.000 F600.000
G1 X52.009 Y-77.776 Z-6.000 F600.000
G2 X48.637 Y-76.693 Z-6.000 I0.315 J6.775 K0.000 F600.000
G2 X46.126 Y-74.540 Z-6.000 I10.212 J14.449 K0.000 F600.000
G1 X46.126 Y-74.540 Z-6.000 F600.000
G2 X45.387 Y-73.246 Z-6.000 I1.513 J1.720 K0.000 F600.000
G2 X41.030 Y-69.575 Z-6.000 I8.535 J14.553 K0.000 F600.000
G3 X40.285 Y-69.323 Z-6.000 I-2.224 J-5.360 K0.000 F600.000
G3 X35.113 Y-68.830 Z-6.000 I-4.842 J-23.398 K0.000 F600.000
G2 X34.131 Y-67.886 Z-6.000 I0.016 J1.000 K0.000 F600.000
G2 X34.127 Y-61.774 Z-6.000 I41.700 J3.086 K0.000 F600.000
G2 X35.113 Y-60.828 Z-6.000 I0.999 J-0.054 K0.000 F600.000
G3 X37.814 Y-60.714 Z-6.000 I0.112 J29.267 K0.000 F600.000
G3 X41.036 Y-60.076 Z-6.000 I-0.565 J11.305 K0.000 F600.000
G2 X45.387 Y-56.414 Z-6.000 I12.858 J-10.862 K0.000 F600.000
G2 X45.810 Y-55.460 Z-6.000 I2.176 J-0.393 K0.000 F600.000
G2 X48.173 Y-53.316 Z-6.000 I11.661 J-10.483 K0.000 F600.000
G2 X51.149 Y-51.982 Z-6.000 I4.059 J-5.065 K0.000 F600.000
G2 X53.831 Y-51.829 Z-6.000 I2.317 J-17.106 K0.000 F600.000
G2 X54.707 Y-52.370 Z-6.000 I0.004 J-0.974 K0.000 F600.000
G2 X62.656 Y-52.605 Z-6.000 I3.396 J-19.678 K0.000 F600.000
G2 X68.217 Y-55.666 Z-6.000 I-2.136 J-10.462 K0.000 F600.000
G2 X71.183 Y-60.829 Z-6.000 I-10.255 J-9.324 K0.000 F600.000
G2 X72.698 Y-61.765 Z-6.000 I0.126 J-1.492 K0.000 F600.000
G2 X73.604 Y-61.220 Z-6.000 I4.289 J-6.098 K0.000 F600.000
G2 X76.945 Y-61.710 Z-6.000 I1.316 J-2.660 K0.000 F600.000
G3 X77.201 Y-61.901 Z-6.000 I0.262 J0.084 K0.000 F600.000
G1 X81.040 Y-63.437 Z-6.000 F600.000
G2 X81.976 Y-64.822 Z-6.000 I-0.568 J-1.393 K0.000 F600.000
G1 X81.976 Y-64.822 Z-8.000 F600.000
G2 X81.040 Y-66.222 Z-8.000 I-1.504 J-0.007 K0.000 F600.000
G1 X77.201 Y-67.758 Z-8.000 F600.000
G1 X77.067 Y-67.791 Z-8.000 F600.000
G2 X75.003 Y-68.740 Z-8.000 I-2.026 J1.689 K0.000 F600.000
G2 X72.703 Y-67.897 Z-8.000 I0.117 J3.880 K0.000 F600.000
G2 X71.189 Y-68.829 Z-8.000 I-1.390 J0.562 K0.000 F600.000
G2 X69.458 Y-72.400 Z-8.000 I-13.162 J4.176 K0.000 F600.000
G2 X64.040 Y-76.679 Z-8.000 I-8.936 J5.743 K0.000 F600.000
G2 X54.714 Y-77.289 Z-8.000 I-5.928 J19.063 K0.000 F600.000
G2 X53.800 Y-77.829 Z-8.000 I-0.876 J0.439 K0.000 F600.000
G1 X52.009 Y-77.776 Z-8.000 F600.000
G2 X48.637 Y-76.693 Z-8.000 I0.315 J6.775 K0.000 F600.000
G2 X46.126 Y-74.540 Z-8.000 I10.212 J14.449 K0.000 F600.000
G1 X46.126 Y-74.540 Z-8.000 F600.000
G2 X45.387 Y-73.246 Z-8.000 I1.513 J1.720 K0.000 F600.000
G2 X41.030 Y-69.575 Z-8.000 I8.535 J14.553 K0.000 F600.000
G3 X40.285 Y-69.323 Z-8.000 I-2.224 J-5.360 K0.000 F600.000
G3 X35.113 Y-68.830 Z-8.000 I-4.842 J-23.398 K0.000 F600.000
G2 X34.131 Y-67.886 Z-8.000 I0.016 J1.000 K0.000 F600.000
G2 X34.127 Y-61.774 Z-8.000 I41.700 J3.086 K0.000 F600.000
G2 X35.113 Y-60.828 Z-8.000 I0.999 J-0.054 K0.000 F600.000
G3 X37.814 Y-60.714 Z-8.000 I0.112 J29.267 K0.000 F600.000
G3 X41.036 Y-60.076 Z-8.000 I-0.565 J11.305 K0.000 F600.000
G2 X45.387 Y-56.414 Z-8.000 I12.858 J-10.862 K0.000 F600.000
G2 X45.810 Y-55.460 Z-8.000 I2.176 J-0.393 K0.000 F600.000
G2 X48.173 Y-53.316 Z-8.000 I11.661 J-10.483 K0.000 F600.000
G2 X51.149 Y-51.982 Z-8.000 I4.059 J-5.065 K0.000 F600.000
G2 X53.831 Y-51.829 Z-8.000 I2.317 J-17.106 K0.000 F600.000
G2 X54.707 Y-52.370 Z-8.000 I0.004 J-0.974 K0.000 F600.000
G2 X62.656 Y-52.605 Z-8.000 I3.396 J-19.678 K0.000 F600.000
G2 X68.217 Y-55.666 Z-8.000 I-2.136 J-10.462 K0.000 F600.000
G2 X71.183 Y-60.829 Z-8.000 I-10.255 J-9.324 K0.000 F600.000
G2 X72.698 Y-61.765 Z-8.000 I0.126 J-1.492 K0.000 F600.000
G2 X73.604 Y-61.220 Z-8.000 I4.289 J-6.098 K0.000 F600.000
G2 X76.945 Y-61.710 Z-8.000 I1.316 J-2.660 K0.000 F600.000
G3 X77.201 Y-61.901 Z-8.000 I0.262 J0.084 K0.000 F600.000
G1 X81.040 Y-63.437 Z-8.000 F600.000
G2 X81.976 Y-64.822 Z-8.000 I-0.568 J-1.393 K0.000 F600.000
G0 Z5.000
G0 X78.230 Y-43.890 Z5.000
G0 X78.230 Y-43.890 Z3.000
G1 X78.230 Y-43.890 Z-8.000 F600.000
G2 X70.009 Y-37.163 Z-8.000 I-1.232 J6.882 K0.000 F600.000
G1 X61.033 Y-3.256 Z-8.000 F600.000
G2 X61.175 Y-2.435 Z-8.000 I0.967 J0.256 K0.000 F600.000
G1 X61.766 Y-1.571 Z-8.000 F600.000
G2 X58.936 Y5.636 Z-8.000 I63.495 J29.092 K0.000 F600.000
G2 X58.663 Y6.628 Z-8.000 I10.874 J3.521 K0.000 F600.000
G2 X58.472 Y8.520 Z-8.000 I5.496 J1.512 K0.000 F600.000
G2 X59.711 Y9.972 Z-8.000 I1.540 J-0.060 K0.000 F600.000
G2 X62.800 Y9.935 Z-8.000 I1.338 J-17.313 K0.000 F600.000
G2 X65.013 Y8.822 Z-8.000 I-0.224 J-3.202 K0.000 F600.000
G1 X65.828 Y7.800 Z-8.000 F600.000
G1 X65.828 Y7.800 Z-8.000 F600.000
G3 X67.247 Y6.027 Z-8.000 I249.309 J198.091 K0.000 F600.000
G1 X73.568 Y15.677 Z-8.000 F600.000
G2 X75.958 Y16.995 Z-8.000 I2.492 J-1.692 K0.000 F600.000
G1 X77.795 Y17.000 Z-8.000 F600.000
G2 X78.793 Y16.055 Z-8.000 I-0.000 J-1.000 K0.000 F600.000
G1 X79.991 Y-5.811 Z-8.000 F600.000
G1 X82.949 Y-14.684 Z-8.000 F600.000
G1 X83.000 Y-15.000 Z-8.000 F600.000
G1 X83.000 Y-19.000 Z-8.000 F600.000
G1 X82.990 Y-19.141 Z-8.000 F600.000
G1 X82.003 Y-26.051 Z-8.000 F600.000
G1 X82.258 Y-32.394 Z-8.000 F600.000
G2 X78.948 Y-43.722 Z-8.000 I-5.250 J-4.614 K0.000 F600.000
G2 X78.230 Y-43.890 Z-8.000 I-1.949 J6.715 K0.000 F600.000
G0 Z5.000
G0 X96.105 Y-42.403 Z5.000
G0 X96.105 Y-42.403 Z3.000
G1 X96.105 Y-42.403 Z-8.000 F600.000
G2 X96.230 Y-41.328 Z-8.000 I2.731 J0.227 K0.000 F600.000
G1 X97.610 Y-36.663 Z-8.000 F600.000
G1 X97.855 Y-33.000 Z-8.000 F600.000
G1 X93.000 Y-33.000 Z-8.000 F600.000
G2 X92.005 Y-31.905 Z-8.000 I-0.000 J1.000 K0.000 F600.000
G1 X99.005 Y41.095 Z-8.000 F600.000
G1 X99.051 Y41.316 Z-8.000 F600.000
G1 X102.000 Y50.162 Z-8.000 F600.000
G1 X102.000 Y52.938 Z-8.000 F600.000
G1 X101.008 Y60.876 Z-8.000 F600.000
G1 X101.008 Y61.124 Z-8.000 F600.000
G1 X102.987 Y77.012 Z-8.000 F600.000
G2 X103.873 Y77.883 Z-8.000 I0.992 J-0.124 K0.000 F600.000
G2 X106.378 Y77.477 Z-8.000 I-2.356 J-22.454 K0.000 F600.000
G3 X115.645 Y77.480 Z-8.000 I4.618 J36.819 K0.000 F600.000
G2 X117.879 Y77.878 Z-8.000 I5.483 J-24.317 K0.000 F600.000
G2 X119.013 Y77.012 Z-8.000 I0.142 J-0.990 K0.000 F600.000
G1 X120.992 Y61.124 Z-8.000 F600.000
G1 X120.992 Y60.876 Z-8.000 F600.000
G1 X120.000 Y52.938 Z-8.000 F600.000
G1 X120.000 Y50.162 Z-8.000 F600.000
G1 X122.949 Y41.316 Z-8.000 F600.000
G1 X122.995 Y41.095 Z-8.000 F600.000
G1 X129.995 Y-31.905 Z-8.000 F600.000
G2 X129.000 Y-33.000 Z-8.000 I-0.995 J-0.095 K0.000 F600.000
G1 X124.022 Y-33.000 Z-8.000 F600.000
G3 X124.248 Y-36.043 Z-8.000 I14.588 J-0.445 K0.000 F600.000
G3 X125.389 Y-40.026 Z-8.000 I30.337 J6.530 K0.000 F600.000
G2 X125.886 Y-42.207 Z-8.000 I-6.912 J-2.723 K0.000 F600.000
G2 X124.395 Y-44.529 Z-8.000 I-2.327 J-0.145 K0.000 F600.000
G2 X122.586 Y-44.940 Z-8.000 I-2.533 J6.957 K0.000 F600.000
G2 X119.807 Y-44.904 Z-8.000 I-1.236 J11.852 K0.000 F600.000
G2 X116.660 Y-42.394 Z-8.000 I0.643 J4.035 K0.000 F600.000
G2 X116.067 Y-39.671 Z-8.000 I10.111 J3.627 K0.000 F600.000
G2 X116.313 Y-33.000 Z-8.000 I38.201 J1.930 K0.000 F600.000
G1 X105.684 Y-33.000 Z-8.000 F600.000
G2 X105.993 Y-38.488 Z-8.000 I-46.197 J-5.350 K0.000 F600.000
G2 X105.590 Y-41.641 Z-8.000 I-11.770 J-0.097 K0.000 F600.000
G2 X104.211 Y-43.981 Z-8.000 I-4.515 J1.083 K0.000 F600.000
G2 X101.676 Y-44.984 Z-8.000 I-2.924 J3.688 K0.000 F600.000
G2 X97.895 Y-44.634 Z-8.000 I-0.848 J11.447 K0.000 F600.000
G2 X96.773 Y-43.980 Z-8.000 I0.650 J2.403 K0.000 F600.000
G2 X96.105 Y-42.403 Z-8.000 I2.062 J1.804 K0.000 F600.000
G0 Z5.000
G0 X107.599 Y-60.978 Z5.000
G0 X107.599 Y-60.978 Z3.000
G1 X107.599 Y-60.978 Z-8.000 F600.000
G2 X108.113 Y-60.828 Z-8.000 I0.526 J-0.850 K0.000 F600.000
G3 X110.814 Y-60.714 Z-8.000 I0.112 J29.267 K0.000 F600.000
G3 X114.036 Y-60.076 Z-8.000 I-0.565 J11.305 K0.000 F600.000
G2 X118.387 Y-56.414 Z-8.000 I12.858 J-10.862 K0.000 F600.000
G2 X118.810 Y-55.460 Z-8.000 I2.176 J-0.393 K0.000 F600.000
G2 X121.173 Y-53.316 Z-8.000 I11.660 J-10.483 K0.000 F600.000
G2 X124.149 Y-51.982 Z-8.000 I4.059 J-5.065 K0.000 F600.000
G2 X126.831 Y-51.829 Z-8.000 I2.317 J-17.106 K0.000 F600.000
G2 X127.707 Y-52.370 Z-8.000 I0.004 J-0.974 K0.000 F600.000
G2 X135.656 Y-52.605 Z-8.000 I3.396 J-19.678 K0.000 F600.000
G2 X141.217 Y-55.666 Z-8.000 I-2.136 J-10.462 K0.000 F600.000
G2 X144.183 Y-60.829 Z-8.000 I-10.255 J-9.324 K0.000 F600.000
G2 X145.698 Y-61.765 Z-8.000 I0.126 J-1.492 K0.000 F600.000
G2 X146.604 Y-61.220 Z-8.000 I4.289 J-6.098 K0.000 F600.000
G2 X149.945 Y-61.710 Z-8.000 I1.316 J-2.660 K0.000 F600.000
G3 X150.201 Y-61.901 Z-8.000 I0.262 J0.084 K0.000 F600.000
G1 X154.040 Y-63.437 Z-8.000 F600.000
G2 X154.040 Y-66.222 Z-8.000 I-0.568 J-1.393 K0.000 F600.000
G1 X150.201 Y-67.758 Z-8.000 F600.000
G1 X150.067 Y-67.791 Z-8.000 F600.000
G2 X148.003 Y-68.740 Z-8.000 I-2.026 J1.689 K0.000 F600.000
G2 X145.703 Y-67.897 Z-8.000 I0.117 J3.880 K0.000 F600.000
G2 X144.189 Y-68.829 Z-8.000 I-1.390 J0.562 K0.000 F600.000
G2 X142.458 Y-72.400 Z-8.000 I-13.162 J4.176 K0.000 F600.000
G2 X137.040 Y-76.679 Z-8.000 I-8.936 J5.743 K0.000 F600.000
G2 X127.714 Y-77.289 Z-8.000 I-5.928 J19.063 K0.000 F600.000
G2 X126.800 Y-77.829 Z-8.000 I-0.876 J0.439 K0.000 F600.000
G1 X125.009 Y-77.776 Z-8.000 F600.000
G2 X121.637 Y-76.693 Z-8.000 I0.315 J6.775 K0.000 F600.000
G2 X119.126 Y-74.540 Z-8.000 I10.212 J14.449 K0.000 F600.000
G2 X118.387 Y-73.246 Z-8.000 I1.513 J1.720 K0.000 F600.000
G2 X114.030 Y-69.575 Z-8.000 I8.535 J14.553 K0.000 F600.000
G3 X113.285 Y-69.323 Z-8.000 I-2.224 J-5.360 K0.000 F600.000
G3 X108.113 Y-68.830 Z-8.000 I-4.842 J-23.398 K0.000 F600.000
G2 X107.131 Y-67.886 Z-8.000 I0.016 J1.000 K0.000 F600.000
G2 X107.127 Y-61.774 Z-8.000 I41.700 J3.086 K0.000 F600.000
G2 X107.599 Y-60.978 Z-8.000 I0.999 J-0.054 K0.000 F600.000
G0 Z5.000
G0 X143.912 Y-40.448 Z5.000
G0 X143.912 Y-40.448 Z3.000
G1 X143.912 Y-40.448 Z-8.000 F600.000
G2 X143.009 Y-37.163 Z-8.000 I6.086 J3.441 K0.000 F600.000
G1 X134.033 Y-3.256 Z-8.000 F600.000
G2 X134.175 Y-2.435 Z-8.000 I0.967 J0.256 K0.000 F600.000
G1 X134.766 Y-1.571 Z-8.000 F600.000
G2 X131.936 Y5.636 Z-8.000 I63.495 J29.092 K0.000 F600.000
G2 X131.663 Y6.628 Z-8.000 I10.874 J3.521 K0.000 F600.000
G2 X131.472 Y8.520 Z-8.000 I5.496 J1.512 K0.000 F600.000
G2 X132.711 Y9.972 Z-8.000 I1.540 J-0.060 K0.000 F600.000
G2 X135.800 Y9.935 Z-8.000 I1.338 J-17.313 K0.000 F600.000
G2 X138.013 Y8.822 Z-8.000 I-0.224 J-3.202 K0.000 F600.000
G1 X138.828 Y7.800 Z-8.000 F600.000
G1 X138.828 Y7.800 Z-8.000 F600.000
G3 X140.247 Y6.027 Z-8.000 I249.309 J198.091 K0.000 F600.000
G1 X146.568 Y15.677 Z-8.000 F600.000
G2 X148.958 Y16.995 Z-8.000 I2.492 J-1.692 K0.000 F600.000
G1 X150.795 Y17.000 Z-8.000 F600.000
G2 X151.793 Y16.055 Z-8.000 I-0.000 J-1.000 K0.000 F600.000
G1 X152.991 Y-5.811 Z-8.000 F600.000
G1 X155.949 Y-14.684 Z-8.000 F600.000
G1 X156.000 Y-15.000 Z-8.000 F600.000
G1 X156.000 Y-19.000 Z-8.000 F600.000
G1 X155.990 Y-19.141 Z-8.000 F600.000
G1 X155.003 Y-26.051 Z-8.000 F600.000
G1 X155.258 Y-32.394 Z-8.000 F600.000
G2 X151.948 Y-43.722 Z-8.000 I-5.250 J-4.614 K0.000 F600.000
G2 X143.912 Y-40.448 Z-8.000 I-1.949 J6.715 K0.000 F600.000
G0 Z5.000
G0 X166.061 Y-32.344 Z5.000
G0 X166.061 Y-32.344 Z3.000
G1 X166.061 Y-32.344 Z-8.000 F600.000
G2 X166.005 Y-31.905 Z-8.000 I0.939 J0.344 K0.000 F600.000
G1 X173.005 Y41.095 Z-8.000 F600.000
G1 X173.051 Y41.316 Z-8.000 F600.000
G1 X176.000 Y50.162 Z-8.000 F600.000
G1 X176.000 Y52.938 Z-8.000 F600.000
G1 X175.008 Y60.876 Z-8.000 F600.000
G1 X175.008 Y61.124 Z-8.000 F600.000
G1 X176.987 Y77.012 Z-8.000 F600.000
G2 X177.873 Y77.883 Z-8.000 I0.992 J-0.124 K0.000 F600.000
G2 X180.378 Y77.477 Z-8.000 I-2.356 J-22.454 K0.000 F600.000
G3 X189.645 Y77.480 Z-8.000 I4.618 J36.819 K0.000 F600.000
G2 X191.879 Y77.878 Z-8.000 I5.483 J-24.317 K0.000 F600.000
G2 X193.013 Y77.012 Z-8.000 I0.142 J-0.990 K0.000 F600.000
G1 X194.992 Y61.124 Z-8.000 F600.000
G1 X194.992 Y60.876 Z-8.000 F600.000
G1 X194.000 Y52.938 Z-8.000 F600.000
G1 X194.000 Y50.162 Z-8.000 F600.000
G1 X196.949 Y41.316 Z-8.000 F600.000
G1 X196.995 Y41.095 Z-8.000 F600.000
G1 X203.995 Y-31.905 Z-8.000 F600.000
G2 X203.000 Y-33.000 Z-8.000 I-0.995 J-0.095 K0.000 F600.000
G1 X198.022 Y-33.000 Z-8.000 F600.000
G3 X198.248 Y-36.043 Z-8.000 I14.588 J-0.445 K0.000 F600.000
G3 X199.389 Y-40.026 Z-8.000 I30.337 J6.530 K0.000 F600.000
G2 X199.886 Y-42.207 Z-8.000 I-6.912 J-2.723 K0.000 F600.000
G2 X198.395 Y-44.529 Z-8.000 I-2.327 J-0.145 K0.000 F600.000
G2 X196.586 Y-44.940 Z-8.000 I-2.533 J6.957 K0.000 F600.000
G2 X193.807 Y-44.904 Z-8.000 I-1.236 J11.852 K0.000 F600.000
G2 X190.660 Y-42.394 Z-8.000 I0.643 J4.035 K0.000 F600.000
G2 X190.067 Y-39.671 Z-8.000 I10.111 J3.627 K0.000 F600.000
G2 X190.313 Y-33.000 Z-8.000 I38.201 J1.930 K0.000 F600.000
G1 X179.684 Y-33.000 Z-8.000 F600.000
G2 X179.993 Y-38.488 Z-8.000 I-46.197 J-5.350 K0.000 F600.000
G2 X179.590 Y-41.641 Z-8.000 I-11.770 J-0.097 K0.000 F600.000
G2 X178.211 Y-43.981 Z-8.000 I-4.515 J1.083 K0.000 F600.000
G2 X175.676 Y-44.984 Z-8.000 I-2.924 J3.688 K0.000 F600.000
G2 X171.895 Y-44.634 Z-8.000 I-0.848 J11.447 K0.000 F600.000
G2 X170.773 Y-43.980 Z-8.000 I0.650 J2.403 K0.000 F600.000
G2 X170.230 Y-41.328 Z-8.000 I2.062 J1.804 K0.000 F600.000
G1 X171.610 Y-36.663 Z-8.000 F600.000
G1 X171.855 Y-33.000 Z-8.000 F600.000
G1 X167.000 Y-33.000 Z-8.000 F600.000
G2 X166.061 Y-32.344 Z-8.000 I-0.000 J1.000 K0.000 F600.000
G0 Z5.000
G0 X181.647 Y-60.950 Z5.000
G0 X181.647 Y-60.950 Z3.000
G1 X181.647 Y-60.950 Z-8.000 F600.000
G2 X182.113 Y-60.828 Z-8.000 I0.478 J-0.878 K0.000 F600.000
G3 X184.814 Y-60.714 Z-8.000 I0.112 J29.267 K0.000 F600.000
G3 X188.036 Y-60.076 Z-8.000 I-0.565 J11.305 K0.000 F600.000
G2 X192.387 Y-56.414 Z-8.000 I12.858 J-10.862 K0.000 F600.000
G2 X192.810 Y-55.460 Z-8.000 I2.176 J-0.393 K0.000 F600.000
G2 X195.173 Y-53.316 Z-8.000 I11.661 J-10.483 K0.000 F600.000
G2 X198.149 Y-51.982 Z-8.000 I4.059 J-5.065 K0.000 F600.000
G2 X200.831 Y-51.829 Z-8.000 I2.317 J-17.106 K0.000 F600.000
G2 X201.707 Y-52.370 Z-8.000 I0.004 J-0.974 K0.000 F600.000
G2 X209.656 Y-52.605 Z-8.000 I3.396 J-19.678 K0.000 F600.000
G2 X215.217 Y-55.666 Z-8.000 I-2.136 J-10.462 K0.000 F600.000
G2 X218.183 Y-60.829 Z-8.000 I-10.255 J-9.324 K0.000 F600.000
G2 X219.698 Y-61.765 Z-8.000 I0.126 J-1.492 K0.000 F600.000
G2 X220.604 Y-61.220 Z-8.000 I4.289 J-6.098 K0.000 F600.000
G2 X223.945 Y-61.710 Z-8.000 I1.316 J-2.660 K0.000 F600.000
G3 X224.201 Y-61.901 Z-8.000 I0.262 J0.084 K0.000 F600.000
G1 X228.040 Y-63.437 Z-8.000 F600.000
G2 X228.040 Y-66.222 Z-8.000 I-0.568 J-1.393 K0.000 F600.000
G1 X224.201 Y-67.758 Z-8.000 F600.000
G1 X224.067 Y-67.791 Z-8.000 F600.000
G2 X222.003 Y-68.740 Z-8.000 I-2.026 J1.689 K0.000 F600.000
G2 X219.703 Y-67.897 Z-8.000 I0.117 J3.880 K0.000 F600.000
G2 X218.189 Y-68.829 Z-8.000 I-1.390 J0.562 K0.000 F600.000
G2 X216.458 Y-72.400 Z-8.000 I-13.162 J4.176 K0.000 F600.000
G2 X211.040 Y-76.679 Z-8.000 I-8.936 J5.743 K0.000 F600.000
G2 X201.714 Y-77.289 Z-8.000 I-5.928 J19.063 K0.000 F600.000
G2 X200.800 Y-77.829 Z-8.000 I-0.876 J0.439 K0.000 F600.000
G1 X199.009 Y-77.776 Z-8.000 F600.000
G2 X195.637 Y-76.693 Z-8.000 I0.315 J6.775 K0.000 F600.000
G2 X193.126 Y-74.540 Z-8.000 I10.212 J14.449 K0.000 F600.000
G2 X192.387 Y-73.246 Z-8.000 I1.513 J1.720 K0.000 F600.000
G2 X188.030 Y-69.575 Z-8.000 I8.535 J14.553 K0.000 F600.000
G3 X187.285 Y-69.323 Z-8.000 I-2.224 J-5.360 K0.000 F600.000
G3 X182.113 Y-68.830 Z-8.000 I-4.842 J-23.398 K0.000 F600.000
G2 X181.131 Y-67.886 Z-8.000 I0.016 J1.000 K0.000 F600.000
G2 X181.127 Y-61.774 Z-8.000 I41.700 J3.086 K0.000 F600.000
G2 X181.647 Y-60.950 Z-8.000 I0.999 J-0.054 K0.000 F600.000
G0 Z5.000
G0 X217.912 Y-40.448 Z5.000
G0 X217.912 Y-40.448 Z3.000
G1 X217.912 Y-40.448 Z-8.000 F600.000
G2 X217.009 Y-37.163 Z-8.000 I6.086 J3.441 K0.000 F600.000
G1 X208.033 Y-3.256 Z-8.000 F600.000
G2 X208.175 Y-2.435 Z-8.000 I0.967 J0.256 K0.000 F600.000
G1 X208.766 Y-1.571 Z-8.000 F600.000
G2 X205.936 Y5.636 Z-8.000 I63.495 J29.092 K0.000 F600.000
G2 X205.663 Y6.628 Z-8.000 I10.874 J3.521 K0.000 F600.000
G2 X205.472 Y8.520 Z-8.000 I5.496 J1.512 K0.000 F600.000
G2 X206.711 Y9.972 Z-8.000 I1.540 J-0.060 K0.000 F600.000
G2 X209.800 Y9.935 Z-8.000 I1.338 J-17.313 K0.000 F600.000
G2 X212.013 Y8.822 Z-8.000 I-0.224 J-3.202 K0.000 F600.000
G1 X212.828 Y7.800 Z-8.000 F600.000
G1 X212.828 Y7.800 Z-8.000 F600.000
G3 X214.247 Y6.027 Z-8.000 I249.309 J198.091 K0.000 F600.000
G1 X220.568 Y15.677 Z-8.000 F600.000
G2 X222.958 Y16.995 Z-8.000 I2.492 J-1.692 K0.000 F600.000
G1 X224.795 Y17.000 Z-8.000 F600.000
G2 X225.793 Y16.055 Z-8.000 I-0.000 J-1.000 K0.000 F600.000
G1 X226.991 Y-5.811 Z-8.000 F600.000
G1 X229.949 Y-14.684 Z-8.000 F600.000
G1 X230.000 Y-15.000 Z-8.000 F600.000
G1 X230.000 Y-19.000 Z-8.000 F600.000
G1 X229.990 Y-19.141 Z-8.000 F600.000
G1 X229.003 Y-26.051 Z-8.000 F600.000
G1 X229.258 Y-32.394 Z-8.000 F600.000
G2 X225.948 Y-43.722 Z-8.000 I-5.250 J-4.614 K0.000 F600.000
G2 X217.912 Y-40.448 Z-8.000 I-1.949 J6.715 K0.000 F600.000
G0 Z5.000
G0 X212.237 Y17.018 Z5.000
G0 X212.237 Y17.018 Z3.000
G1 X212.237 Y17.018 Z-8.000 F600.000
G2 X212.042 Y17.005 Z-8.000 I-0.296 J2.997 K0.000 F600.000
G1 X210.205 Y17.000 Z-8.000 F600.000
G2 X209.207 Y17.945 Z-8.000 I0.000 J1.000 K0.000 F600.000
G1 X208.009 Y39.811 Z-8.000 F600.000
G1 X205.051 Y48.684 Z-8.000 F600.000
G1 X205.000 Y49.000 Z-8.000 F600.000
G1 X205.000 Y53.000 Z-8.000 F600.000
G1 X205.010 Y53.141 Z-8.000 F600.000
G1 X205.997 Y60.051 Z-8.000 F600.000
G1 X205.742 Y66.394 Z-8.000 F600.000
G2 X204.003 Y71.144 Z-8.000 I5.175 J4.589 K0.000 F600.000
G2 X217.991 Y71.163 Z-8.000 I6.994 J-0.141 K0.000 F600.000
G1 X226.967 Y37.256 Z-8.000 F600.000
G2 X226.825 Y36.435 Z-8.000 I-0.967 J-0.256 K0.000 F600.000
G1 X226.234 Y35.571 Z-8.000 F600.000
G2 X229.064 Y28.364 Z-8.000 I-63.495 J-29.092 K0.000 F600.000
G2 X229.337 Y27.372 Z-8.000 I-10.874 J-3.521 K0.000 F600.000
G2 X229.528 Y25.480 Z-8.000 I-5.496 J-1.512 K0.000 F600.000
G2 X228.289 Y24.028 Z-8.000 I-1.540 J0.060 K0.000 F600.000
G2 X225.200 Y24.065 Z-8.000 I-1.338 J17.313 K0.000 F600.000
G2 X222.987 Y25.178 Z-8.000 I0.224 J3.202 K0.000 F600.000
G1 X222.172 Y26.200 Z-8.000 F600.000
G1 X222.172 Y26.200 Z-8.000 F600.000
G3 X220.753 Y27.973 Z-8.000 I-249.300 J-198.083 K0.000 F600.000
G1 X214.432 Y18.323 Z-8.000 F600.000
G2 X212.237 Y17.018 Z-8.000 I-2.492 J1.692 K0.000 F600.000
G0 Z5.000
G0 X155.513 Y25.317 Z5.000
G0 X155.513 Y25.317 Z3.000
G1 X155.513 Y25.317 Z-8.000 F600.000
G2 X154.289 Y24.028 Z-8.000 I-1.525 J0.223 K0.000 F600.000
G2 X151.200 Y24.065 Z-8.000 I-1.338 J17.313 K0.000 F600.000
G2 X148.987 Y25.178 Z-8.000 I0.224 J3.202 K0.000 F600.000
G1 X148.172 Y26.200 Z-8.000 F600.000
G1 X148.172 Y26.200 Z-8.000 F600.000
G3 X146.753 Y27.973 Z-8.000 I-249.299 J-198.082 K0.000 F600.000
G1 X140.432 Y18.323 Z-8.000 F600.000
G2 X138.042 Y17.005 Z-8.000 I-2.492 J1.692 K0.000 F600.000
G1 X136.205 Y17.000 Z-8.000 F600.000
G2 X135.207 Y17.945 Z-8.000 I0.000 J1.000 K0.000 F600.000
G1 X134.009 Y39.811 Z-8.000 F600.000
G1 X131.051 Y48.684 Z-8.000 F600.000
G1 X131.000 Y49.000 Z-8.000 F600.000
G1 X131.000 Y53.000 Z-8.000 F600.000
G1 X131.010 Y53.141 Z-8.000 F600.000
G1 X131.997 Y60.051 Z-8.000 F600.000
G1 X131.742 Y66.394 Z-8.000 F600.000
G2 X130.003 Y71.144 Z-8.000 I5.175 J4.589 K0.000 F600.000
G2 X143.991 Y71.163 Z-8.000 I6.994 J-0.141 K0.000 F600.000
G1 X152.967 Y37.256 Z-8.000 F600.000
G2 X152.825 Y36.435 Z-8.000 I-0.967 J-0.256 K0.000 F600.000
G1 X152.234 Y35.571 Z-8.000 F600.000
G2 X155.064 Y28.364 Z-8.000 I-63.495 J-29.092 K0.000 F600.000
G2 X155.337 Y27.372 Z-8.000 I-10.874 J-3.521 K0.000 F600.000
G2 X155.528 Y25.480 Z-8.000 I-5.496 J-1.512 K0.000 F600.000
G2 X155.513 Y25.317 Z-8.000 I-1.540 J0.060 K0.000 F600.000
G0 Z5.000
G0 X82.541 Y25.820 Z5.000
G0 X82.541 Y25.820 Z3.000
G1 X82.541 Y25.820 Z-8.000 F600.000
G2 X82.528 Y25.480 Z-8.000 I-5.700 J0.039 K0.000 F600.000
G2 X81.289 Y24.028 Z-8.000 I-1.540 J0.060 K0.000 F600.000
G2 X78.200 Y24.065 Z-8.000 I-1.338 J17.313 K0.000 F600.000
G2 X75.987 Y25.178 Z-8.000 I0.224 J3.202 K0.000 F600.000
G1 X75.172 Y26.200 Z-8.000 F600.000
G1 X75.172 Y26.200 Z-8.000 F600.000
G3 X73.753 Y27.973 Z-8.000 I-249.294 J-198.079 K0.000 F600.000
G1 X67.432 Y18.323 Z-8.000 F600.000
G2 X65.042 Y17.005 Z-8.000 I-2.492 J1.692 K0.000 F600.000
G1 X63.205 Y17.000 Z-8.000 F600.000
G2 X62.207 Y17.945 Z-8.000 I0.000 J1.000 K0.000 F600.000
G1 X61.009 Y39.811 Z-8.000 F600.000
G1 X58.051 Y48.684 Z-8.000 F600.000
G1 X58.000 Y49.000 Z-8.000 F600.000
G1 X58.000 Y53.000 Z-8.000 F600.000
G1 X58.010 Y53.141 Z-8.000 F600.000
G1 X58.997 Y60.051 Z-8.000 F600.000
G1 X58.742 Y66.394 Z-8.000 F600.000
G2 X57.003 Y71.144 Z-8.000 I5.175 J4.589 K0.000 F600.000
G2 X70.991 Y71.163 Z-8.000 I6.994 J-0.141 K0.000 F600.000
G1 X79.967 Y37.256 Z-8.000 F600.000
G2 X79.825 Y36.435 Z-8.000 I-0.967 J-0.256 K0.000 F600.000
G1 X79.234 Y35.571 Z-8.000 F600.000
G2 X82.064 Y28.364 Z-8.000 I-63.495 J-29.092 K0.000 F600.000
G2 X82.337 Y27.372 Z-8.000 I-10.874 J-3.521 K0.000 F600.000
G2 X82.541 Y25.820 Z-8.000 I-5.496 J-1.512 K0.000 F600.000
G0 Z5.000
G0 X51.743 Y22.867 Z5.000
G0 X51.743 Y22.867 Z3.000
G1 X51.743 Y22.867 Z-8.000 F600.000
G1 X56.995 Y-31.905 Z-8.000 F600.000
G2 X56.000 Y-33.000 Z-8.000 I-0.995 J-0.095 K0.000 F600.000
G1 X51.022 Y-33.000 Z-8.000 F600.000
G3 X51.248 Y-36.043 Z-8.000 I14.588 J-0.445 K0.000 F600.000
G3 X52.389 Y-40.026 Z-8.000 I30.336 J6.530 K0.000 F600.000
G2 X52.886 Y-42.207 Z-8.000 I-6.913 J-2.723 K0.000 F600.000
G2 X51.395 Y-44.529 Z-8.000 I-2.327 J-0.145 K0.000 F600.000
G2 X49.586 Y-44.940 Z-8.000 I-2.533 J6.957 K0.000 F600.000
G2 X46.807 Y-44.904 Z-8.000 I-1.236 J11.852 K0.000 F600.000
G2 X43.660 Y-42.394 Z-8.000 I0.643 J4.035 K0.000 F600.000
G2 X43.067 Y-39.671 Z-8.000 I10.111 J3.627 K0.000 F600.000
G2 X43.313 Y-33.000 Z-8.000 I38.201 J1.930 K0.000 F600.000
G1 X32.684 Y-33.000 Z-8.000 F600.000
G2 X32.993 Y-38.488 Z-8.000 I-46.197 J-5.350 K0.000 F600.000
G2 X32.590 Y-41.641 Z-8.000 I-11.770 J-0.097 K0.000 F600.000
G2 X31.211 Y-43.981 Z-8.000 I-4.515 J1.083 K0.000 F600.000
G2 X28.676 Y-44.984 Z-8.000 I-2.924 J3.688 K0.000 F600.000
G2 X24.895 Y-44.634 Z-8.000 I-0.848 J11.447 K0.000 F600.000
G2 X23.773 Y-43.980 Z-8.000 I0.650 J2.403 K0.000 F600.000
G2 X23.230 Y-41.328 Z-8.000 I2.062 J1.804 K0.000 F600.000
G1 X24.610 Y-36.663 Z-8.000 F600.000
G1 X24.855 Y-33.000 Z-8.000 F600.000
G1 X20.000 Y-33.000 Z-8.000 F600.000
G2 X19.005 Y-31.905 Z-8.000 I-0.000 J1.000 K0.000 F600.000
G1 X26.005 Y41.095 Z-8.000 F600.000
G1 X26.051 Y41.316 Z-8.000 F600.000
G1 X29.000 Y50.162 Z-8.000 F600.000
G1 X29.000 Y52.938 Z-8.000 F600.000
G1 X28.008 Y60.876 Z-8.000 F600.000
G1 X28.008 Y61.124 Z-8.000 F600.000
G1 X29.987 Y77.012 Z-8.000 F600.000
G2 X30.873 Y77.883 Z-8.000 I0.992 J-0.124 K0.000 F600.000
G2 X33.378 Y77.477 Z-8.000 I-2.356 J-22.454 K0.000 F600.000
G3 X42.645 Y77.480 Z-8.000 I4.618 J36.819 K0.000 F600.000
G2 X44.879 Y77.878 Z-8.000 I5.483 J-24.317 K0.000 F600.000
G2 X46.013 Y77.012 Z-8.000 I0.142 J-0.990 K0.000 F600.000
G1 X47.992 Y61.124 Z-8.000 F600.000
G1 X47.992 Y60.876 Z-8.000 F600.000
G1 X47.000 Y52.938 Z-8.000 F600.000
G1 X47.000 Y50.162 Z-8.000 F600.000
G1 X49.949 Y41.316 Z-8.000 F600.000
G1 X49.995 Y41.095 Z-8.000 F600.000
G1 X51.743 Y22.867 Z-8.000 F600.000
G0 Z5.000
G0 Z5.000
(Finish operation: Profile)
(Begin postamble)
M5
G17 G90
M2
