(Exported by FreeCAD)
(Post Processor: script_module)
(Output Time:2026-05-17 17:47:25.100661)
(Begin preamble)
G17 G90
G21
(Begin operation: Fixture)
(Path: Fixture)
G54
(Finish operation: Fixture)
(Begin operation: 3175001)
(Path: 3175001)
(3175001)
(Begin toolchange)
( M6 T2 )
M3 S10000
(Finish operation: 3175001)
(Begin operation: Pocket_Shape)
(Path: Pocket_Shape)
(Pocket_Shape)
G0 Z5.000
G0 X17.893 Y34.072
G0 Z3.000
G1 X17.893 Y34.072 Z-2.500 F300.000
G3 X10.049 Y21.744 Z-2.500 I32.225 J-29.165 K0.000 F300.000
G1 X22.220 Y33.916 Z-2.500 F300.000
G2 X24.261 Y31.473 Z-2.500 I-30.655 J-27.686 K0.000 F300.000
G1 X7.857 Y15.069 Z-2.500 F300.000
G3 X7.201 Y11.810 Z-2.500 I40.546 J-9.852 K0.000 F300.000
G3 X7.528 Y10.257 Z-2.500 I5.059 J0.253 K0.000 F300.000
G1 X26.134 Y28.864 Z-2.500 F300.000
G2 X27.833 Y26.080 Z-2.500 I-35.380 J-23.502 K0.000 F300.000
G1 X9.521 Y7.768 Z-2.500 F300.000
G3 X10.150 Y7.414 Z-2.500 I2.652 J3.979 K0.000 F300.000
G3 X12.794 Y6.558 Z-2.500 I9.618 J25.196 K0.000 F300.000
G1 X29.348 Y23.112 Z-2.500 F300.000
G2 X30.667 Y19.948 Z-2.500 I-38.525 J-17.919 K0.000 F300.000
G1 X16.540 Y5.821 Z-2.500 F300.000
G3 X20.816 Y5.613 Z-2.500 I3.484 J27.615 K0.000 F300.000
G1 X31.766 Y16.564 Z-2.500 F300.000
G2 X32.618 Y12.932 Z-2.500 I-40.240 J-11.357 K0.000 F300.000
G1 X25.931 Y6.246 Z-2.500 F300.000
G3 X30.066 Y7.516 Z-2.500 I-5.761 J26.116 K0.000 F300.000
G3 X32.795 Y11.939 Z-2.500 I-2.417 J4.545 K0.000 F300.000
G3 X22.001 Y34.159 Z-2.500 I-42.909 J-7.113 K0.000 F300.000
G3 X17.893 Y34.072 Z-2.500 I-2.005 J-2.367 K0.000 F300.000
G3 X7.201 Y11.810 Z-2.500 I32.263 J-29.194 K0.000 F300.000
G3 X10.150 Y7.414 Z-2.500 I5.154 J0.270 K0.000 F300.000
G3 X25.149 Y6.083 Z-2.500 I9.859 J25.923 K0.000 F300.000
G3 X30.066 Y7.516 Z-2.500 I-5.061 J26.515 K0.000 F300.000
G3 X32.795 Y11.939 Z-2.500 I-2.417 J4.545 K0.000 F300.000
G3 X32.618 Y12.932 Z-2.500 I-28.305 J-4.541 K0.000 F300.000
G1 X32.618 Y12.932 Z-5.000 F300.000
G2 X32.795 Y11.939 Z-5.000 I-28.128 J-5.535 K0.000 F300.000
G2 X30.066 Y7.516 Z-5.000 I-5.146 J0.122 K0.000 F300.000
G2 X25.149 Y6.083 Z-5.000 I-9.979 J25.082 K0.000 F300.000
G2 X10.150 Y7.414 Z-5.000 I-5.140 J27.254 K0.000 F300.000
G2 X7.201 Y11.810 Z-5.000 I2.205 J4.667 K0.000 F300.000
G2 X17.893 Y34.072 Z-5.000 I42.955 J-6.932 K0.000 F300.000
G2 X22.001 Y34.159 Z-5.000 I2.103 J-2.280 K0.000 F300.000
G2 X32.795 Y11.939 Z-5.000 I-32.115 J-29.333 K0.000 F300.000
G2 X30.066 Y7.516 Z-5.000 I-5.146 J0.122 K0.000 F300.000
G2 X25.931 Y6.246 Z-5.000 I-9.896 J24.846 K0.000 F300.000
G1 X32.618 Y12.932 Z-5.000 F300.000
G3 X31.766 Y16.564 Z-5.000 I-41.092 J-7.726 K0.000 F300.000
G1 X20.816 Y5.613 Z-5.000 F300.000
G2 X16.540 Y5.821 Z-5.000 I-0.791 J27.823 K0.000 F300.000
G1 X30.667 Y19.948 Z-5.000 F300.000
G3 X29.348 Y23.112 Z-5.000 I-39.844 J-14.755 K0.000 F300.000
G1 X12.794 Y6.558 Z-5.000 F300.000
G2 X10.150 Y7.414 Z-5.000 I6.974 J26.052 K0.000 F300.000
G2 X9.521 Y7.768 Z-5.000 I2.023 J4.333 K0.000 F300.000
G1 X27.833 Y26.080 Z-5.000 F300.000
G3 X26.134 Y28.864 Z-5.000 I-37.080 J-20.718 K0.000 F300.000
G1 X7.528 Y10.257 Z-5.000 F300.000
G2 X7.201 Y11.810 Z-5.000 I4.732 J1.806 K0.000 F300.000
G2 X7.857 Y15.069 Z-5.000 I41.201 J-6.593 K0.000 F300.000
G1 X24.261 Y31.473 Z-5.000 F300.000
G3 X22.220 Y33.916 Z-5.000 I-32.696 J-25.244 K0.000 F300.000
G1 X10.049 Y21.744 Z-5.000 F300.000
G2 X17.893 Y34.072 Z-5.000 I40.069 J-16.838 K0.000 F300.000
G0 Z5.000
G0 Z5.000
(Finish operation: Pocket_Shape)
(Begin operation: Profile)
(Path: Profile)
(Profile)
(Compensated Tool Path. Diameter: 3.17)
G0 Z5.000
G0 X35.262 Y35.262
G0 Z3.000
G1 X35.262 Y35.262 Z-2.000 F300.000
G3 X17.245 Y41.408 Z-2.000 I-15.262 J-15.262 K0.000 F300.000
G3 X-1.408 Y17.245 Z-2.000 I2.755 J-21.408 K0.000 F300.000
G3 X22.755 Y-1.408 Z-2.000 I21.408 J2.755 K0.000 F300.000
G3 X35.262 Y35.262 Z-2.000 I-2.755 J21.408 K0.000 F300.000
G1 X35.262 Y35.262 Z-4.000 F300.000
G3 X17.245 Y41.408 Z-4.000 I-15.262 J-15.262 K0.000 F300.000
G3 X-1.408 Y17.245 Z-4.000 I2.755 J-21.408 K0.000 F300.000
G3 X22.755 Y-1.408 Z-4.000 I21.408 J2.755 K0.000 F300.000
G3 X35.262 Y35.262 Z-4.000 I-2.755 J21.408 K0.000 F300.000
G1 X35.262 Y35.262 Z-6.000 F300.000
G3 X17.245 Y41.408 Z-6.000 I-15.262 J-15.262 K0.000 F300.000
G3 X-1.408 Y17.245 Z-6.000 I2.755 J-21.408 K0.000 F300.000
G3 X22.755 Y-1.408 Z-6.000 I21.408 J2.755 K0.000 F300.000
G3 X35.262 Y35.262 Z-6.000 I-2.755 J21.408 K0.000 F300.000
G1 X35.262 Y35.262 Z-8.000 F300.000
G3 X17.245 Y41.408 Z-8.000 I-15.262 J-15.262 K0.000 F300.000
G3 X-1.408 Y17.245 Z-8.000 I2.755 J-21.408 K0.000 F300.000
G3 X22.755 Y-1.408 Z-8.000 I21.408 J2.755 K0.000 F300.000
G3 X35.262 Y35.262 Z-8.000 I-2.755 J21.408 K0.000 F300.000
G1 X35.262 Y35.262 Z-9.000 F300.000
G3 X17.245 Y41.408 Z-9.000 I-15.262 J-15.262 K0.000 F300.000
G3 X-1.408 Y17.245 Z-9.000 I2.755 J-21.408 K0.000 F300.000
G3 X22.755 Y-1.408 Z-9.000 I21.408 J2.755 K0.000 F300.000
G3 X35.262 Y35.262 Z-9.000 I-2.755 J21.408 K0.000 F300.000
G0 Z5.000
G0 Z5.000
(Finish operation: Profile)
(Begin operation: MillFace)
(Path: MillFace)
(MillFace)
G0 Z5.000
G0 X-34.056 Y-5.730
G0 Z3.000
G1 X-34.056 Y-5.730 Z-2.000 F300.000
G3 X-38.564 Y-12.480 Z-2.000 I14.046 J-14.262 K0.000 F300.000
G1 X-27.522 Y-1.438 Z-2.000 F300.000
G2 X-24.275 Y-0.433 Z-2.000 I7.425 J-18.235 K0.000 F300.000
G1 X-39.567 Y-15.724 Z-2.000 F300.000
G3 X-39.963 Y-18.362 Z-2.000 I19.328 J-4.248 K0.000 F300.000
G1 X-21.640 Y-0.039 Z-2.000 F300.000
G2 X-19.341 Y0.019 Z-2.000 I1.638 J-19.448 K0.000 F300.000
G1 X-40.018 Y-20.658 Z-2.000 F300.000
G3 X-39.842 Y-22.724 Z-2.000 I18.882 J0.561 K0.000 F300.000
G1 X-17.275 Y-0.157 Z-2.000 F300.000
G2 X-15.386 Y-0.510 Z-2.000 I-2.641 J-19.360 K0.000 F300.000
G1 X-39.490 Y-24.613 Z-2.000 F300.000
G3 X-38.994 Y-26.359 Z-2.000 I18.650 J4.359 K0.000 F300.000
G1 X-13.643 Y-1.007 Z-2.000 F300.000
G2 X-12.022 Y-1.628 Z-2.000 I-5.909 J-17.845 K0.000 F300.000
G1 X-38.371 Y-27.978 Z-2.000 F300.000
G3 X-37.639 Y-29.487 Z-2.000 I16.990 J7.306 K0.000 F300.000
G1 X-10.513 Y-2.360 Z-2.000 F300.000
G2 X-9.105 Y-3.194 Z-2.000 I-8.779 J-16.427 K0.000 F300.000
G1 X-36.807 Y-30.896 Z-2.000 F300.000
G3 X-35.878 Y-32.209 Z-2.000 I16.291 J10.530 K0.000 F300.000
G1 X-7.792 Y-4.123 Z-2.000 F300.000
G2 X-6.569 Y-5.142 Z-2.000 I-11.114 J-14.570 K0.000 F300.000
G1 X-34.858 Y-33.431 Z-2.000 F300.000
G3 X-33.749 Y-34.564 Z-2.000 I13.768 J12.370 K0.000 F300.000
G1 X-5.436 Y-6.250 Z-2.000 F300.000
G2 X-4.392 Y-7.447 Z-2.000 I-13.958 J-13.233 K0.000 F300.000
G1 X-32.552 Y-35.607 Z-2.000 F300.000
G3 X-31.264 Y-36.561 Z-2.000 I11.489 J14.171 K0.000 F300.000
G1 X-3.439 Y-8.736 Z-2.000 F300.000
G2 X-2.579 Y-10.118 Z-2.000 I-15.416 J-10.542 K0.000 F300.000
G1 X-29.883 Y-37.421 Z-2.000 F300.000
G3 X-28.402 Y-38.182 Z-2.000 I9.510 J16.684 K0.000 F300.000
G1 X-1.819 Y-11.599 Z-2.000 F300.000
G2 X-1.165 Y-13.186 Z-2.000 I-17.510 J-8.141 K0.000 F300.000
G1 X-26.813 Y-38.834 Z-2.000 F300.000
G3 X-25.105 Y-39.368 Z-2.000 I6.553 J17.949 K0.000 F300.000
G1 X-0.633 Y-14.896 Z-2.000 F300.000
G2 X-0.238 Y-16.743 Z-2.000 I-18.082 J-4.832 K0.000 F300.000
G1 X-23.257 Y-39.762 Z-2.000 F300.000
G3 X-21.244 Y-39.990 Z-2.000 I3.140 J18.732 K0.000 F300.000
G1 X-0.010 Y-18.756 Z-2.000 F300.000
G2 X0.004 Y-20.983 Z-2.000 I-19.110 J-1.238 K0.000 F300.000
G1 X-19.018 Y-40.005 Z-2.000 F300.000
G3 X-16.490 Y-39.719 Z-2.000 I-0.953 J19.736 K0.000 F300.000
G1 X-0.281 Y-23.511 Z-2.000 F300.000
G2 X-1.068 Y-26.539 Z-2.000 I-19.437 J3.433 K0.000 F300.000
G1 X-13.460 Y-38.931 Z-2.000 F300.000
G3 X-9.076 Y-36.789 Z-2.000 I-6.487 J18.832 K0.000 F300.000
G1 X-3.215 Y-30.928 Z-2.000 F300.000
G2 X-9.076 Y-36.789 Z-2.000 I-16.756 J10.895 K0.000 F300.000
G3 X-30.890 Y-3.189 Z-2.000 I-10.924 J16.789 K0.000 F300.000
G3 X-36.800 Y-30.907 Z-2.000 I10.889 J-16.811 K0.000 F300.000
G3 X-9.076 Y-36.789 Z-2.000 I16.800 J10.907 K0.000 F300.000
G1 X-9.076 Y-36.789 Z-4.000 F300.000
G2 X-36.800 Y-30.907 Z-4.000 I-10.924 J16.789 K0.000 F300.000
G2 X-30.890 Y-3.189 Z-4.000 I16.800 J10.907 K0.000 F300.000
G2 X-9.076 Y-36.789 Z-4.000 I10.890 J-16.811 K0.000 F300.000
G3 X-3.215 Y-30.928 Z-4.000 I-10.895 J16.756 K0.000 F300.000
G1 X-9.076 Y-36.789 Z-4.000 F300.000
G2 X-13.460 Y-38.931 Z-4.000 I-10.871 J16.690 K0.000 F300.000
G1 X-1.068 Y-26.539 Z-4.000 F300.000
G3 X-0.281 Y-23.511 Z-4.000 I-18.650 J6.461 K0.000 F300.000
G1 X-16.490 Y-39.719 Z-4.000 F300.000
G2 X-19.018 Y-40.005 Z-4.000 I-3.480 J19.450 K0.000 F300.000
G1 X0.004 Y-20.983 Z-4.000 F300.000
G3 X-0.010 Y-18.756 Z-4.000 I-19.125 J0.989 K0.000 F300.000
G1 X-21.244 Y-39.990 Z-4.000 F300.000
G2 X-23.257 Y-39.762 Z-4.000 I1.127 J18.960 K0.000 F300.000
G1 X-0.238 Y-16.743 Z-4.000 F300.000
G3 X-0.633 Y-14.896 Z-4.000 I-18.477 J-2.985 K0.000 F300.000
G1 X-25.105 Y-39.368 Z-4.000 F300.000
G2 X-26.813 Y-38.834 Z-4.000 I4.846 J18.483 K0.000 F300.000
G1 X-1.165 Y-13.186 Z-4.000 F300.000
G3 X-1.819 Y-11.599 Z-4.000 I-18.164 J-6.554 K0.000 F300.000
G1 X-28.402 Y-38.182 Z-4.000 F300.000
G2 X-29.883 Y-37.421 Z-4.000 I8.030 J17.445 K0.000 F300.000
G1 X-2.579 Y-10.118 Z-4.000 F300.000
G3 X-3.439 Y-8.736 Z-4.000 I-16.276 J-9.160 K0.000 F300.000
G1 X-31.264 Y-36.561 Z-4.000 F300.000
G2 X-32.552 Y-35.607 Z-4.000 I10.201 J15.124 K0.000 F300.000
G1 X-4.392 Y-7.447 Z-4.000 F300.000
G3 X-5.436 Y-6.250 Z-4.000 I-15.002 J-12.036 K0.000 F300.000
G1 X-33.749 Y-34.564 Z-4.000 F300.000
G2 X-34.858 Y-33.431 Z-4.000 I12.659 J13.503 K0.000 F300.000
G1 X-6.569 Y-5.142 Z-4.000 F300.000
G3 X-7.792 Y-4.123 Z-4.000 I-12.336 J-13.550 K0.000 F300.000
G1 X-35.878 Y-32.209 Z-4.000 F300.000
G2 X-36.807 Y-30.896 Z-4.000 I15.363 J11.844 K0.000 F300.000
G1 X-9.105 Y-3.194 Z-4.000 F300.000
G3 X-10.513 Y-2.360 Z-4.000 I-10.187 J-15.593 K0.000 F300.000
G1 X-37.639 Y-29.487 Z-4.000 F300.000
G2 X-38.371 Y-27.978 Z-4.000 I16.258 J8.815 K0.000 F300.000
G1 X-12.022 Y-1.628 Z-4.000 F300.000
G3 X-13.643 Y-1.007 Z-4.000 I-7.529 J-17.224 K0.000 F300.000
G1 X-38.994 Y-26.359 Z-4.000 F300.000
G2 X-39.490 Y-24.613 Z-4.000 I18.154 J6.104 K0.000 F300.000
G1 X-15.386 Y-0.510 Z-4.000 F300.000
G3 X-17.275 Y-0.157 Z-4.000 I-4.530 J-19.007 K0.000 F300.000
G1 X-39.842 Y-22.724 Z-4.000 F300.000
G2 X-40.018 Y-20.658 Z-4.000 I18.707 J2.627 K0.000 F300.000
G1 X-19.341 Y0.019 Z-4.000 F300.000
G3 X-21.640 Y-0.039 Z-4.000 I-0.661 J-19.506 K0.000 F300.000
G1 X-39.963 Y-18.362 Z-4.000 F300.000
G2 X-39.567 Y-15.724 Z-4.000 I19.724 J-1.611 K0.000 F300.000
G1 X-24.275 Y-0.433 Z-4.000 F300.000
G3 X-27.522 Y-1.438 Z-4.000 I4.178 J-19.240 K0.000 F300.000
G1 X-38.564 Y-12.480 Z-4.000 F300.000
G2 X-34.056 Y-5.730 Z-4.000 I18.554 J-7.512 K0.000 F300.000
G0 Z5.000
G0 Z5.000
(Finish operation: MillFace)
(Begin operation: Profile001)
(Path: Profile001)
(Profile001)
(Compensated Tool Path. Diameter: 3.17)
G0 Z5.000
G0 X-4.738 Y-4.738
G0 Z3.000
G1 X-4.738 Y-4.738 Z-2.000 F300.000
G3 X-22.755 Y1.408 Z-2.000 I-15.262 J-15.262 K0.000 F300.000
G3 X-41.408 Y-22.755 Z-2.000 I2.755 J-21.408 K0.000 F300.000
G3 X-17.245 Y-41.408 Z-2.000 I21.408 J2.755 K0.000 F300.000
G3 X-4.738 Y-4.738 Z-2.000 I-2.755 J21.408 K0.000 F300.000
G1 X-4.738 Y-4.738 Z-4.000 F300.000
G3 X-22.755 Y1.408 Z-4.000 I-15.262 J-15.262 K0.000 F300.000
G3 X-41.408 Y-22.755 Z-4.000 I2.755 J-21.408 K0.000 F300.000
G3 X-17.245 Y-41.408 Z-4.000 I21.408 J2.755 K0.000 F300.000
G3 X-4.738 Y-4.738 Z-4.000 I-2.755 J21.408 K0.000 F300.000
G1 X-4.738 Y-4.738 Z-6.000 F300.000
G3 X-22.755 Y1.408 Z-6.000 I-15.262 J-15.262 K0.000 F300.000
G3 X-41.408 Y-22.755 Z-6.000 I2.755 J-21.408 K0.000 F300.000
G3 X-17.245 Y-41.408 Z-6.000 I21.408 J2.755 K0.000 F300.000
G3 X-4.738 Y-4.738 Z-6.000 I-2.755 J21.408 K0.000 F300.000
G1 X-4.738 Y-4.738 Z-8.000 F300.000
G3 X-22.755 Y1.408 Z-8.000 I-15.262 J-15.262 K0.000 F300.000
G3 X-41.408 Y-22.755 Z-8.000 I2.755 J-21.408 K0.000 F300.000
G3 X-17.245 Y-41.408 Z-8.000 I21.408 J2.755 K0.000 F300.000
G3 X-4.738 Y-4.738 Z-8.000 I-2.755 J21.408 K0.000 F300.000
G1 X-4.738 Y-4.738 Z-9.000 F300.000
G3 X-22.755 Y1.408 Z-9.000 I-15.262 J-15.262 K0.000 F300.000
G3 X-41.408 Y-22.755 Z-9.000 I2.755 J-21.408 K0.000 F300.000
G3 X-17.245 Y-41.408 Z-9.000 I21.408 J2.755 K0.000 F300.000
G3 X-4.738 Y-4.738 Z-9.000 I-2.755 J21.408 K0.000 F300.000
G0 Z5.000
G0 Z5.000
(Finish operation: Profile001)
(Begin postamble)
M5
G17 G90
M2
