(Exported by FreeCAD)
(Post Processor: script_module)
(Output Time:2026-05-29 15:30:40.176444)
(Begin preamble)
G17 G90
G21
(Begin operation: Fixture)
(Path: Fixture)
G54
(Finish operation: Fixture)
(Begin operation: 2mm001)
(Path: 2mm001)
(2mm001)
(Begin toolchange)
( M6 T3 )
M3 S10000
(Finish operation: 2mm001)
(Begin operation: Pocket_Shape)
(Path: Pocket_Shape)
(Pocket_Shape)
G0 Z5.000
G0 X0.000 Y0.000
G0 X5.839
G0 X5.839 Z3.000
G1 X5.839 Y-0.000 Z-1.000 F300.000
G1 X5.839 Y0.613 Z-1.000 F300.000
G1 X7.065 Y0.613 Z-1.000 F300.000
G1 X7.065 Y-0.613 Z-1.000 F300.000
G1 X5.839 Y-0.613 Z-1.000 F300.000
G1 X5.839 Y0.613 Z-1.000 F300.000
G1 X7.065 Y0.613 Z-1.000 F300.000
G1 X7.065 Y-0.613 Z-1.000 F300.000
G1 X5.839 Y-0.613 Z-1.000 F300.000
G1 X5.839 Y-0.000 Z-1.000 F300.000
G0 Z5.000
G0 Z5.000
G0 X5.839
G0 X12.290 Y9.065
G0 X12.290 Y9.065 Z3.000
G1 X12.290 Y9.065 Z-1.000 F300.000
G1 X12.290 Y10.290 Z-1.000 F300.000
G1 X13.516 Y10.290 Z-1.000 F300.000
G1 X13.516 Y9.065 Z-1.000 F300.000
G1 X13.516 Y9.065 Z-1.000 F300.000
G1 X12.290 Y9.065 Z-1.000 F300.000
G1 X12.290 Y10.290 Z-1.000 F300.000
G1 X13.516 Y10.290 Z-1.000 F300.000
G1 X13.516 Y9.065 Z-1.000 F300.000
G1 X12.290 Y9.065 Z-1.000 F300.000
G0 Z5.000
G0 Z5.000
G0 X12.290 Y9.065
G0 X-6.693 Y13.516
G0 X-6.693 Y13.516 Z3.000
G1 X-6.693 Y13.516 Z-1.000 F300.000
G1 X-5.839 Y13.516 Z-1.000 F300.000
G1 X-5.839 Y-1.613 Z-1.000 F300.000
G3 X-4.839 Y-2.613 Z-1.000 I1.000 J0.000 K0.000 F300.000
G1 X-2.613 Y-2.613 Z-1.000 F300.000
G1 X-2.613 Y-8.065 Z-1.000 F300.000
G3 X-1.613 Y-9.065 Z-1.000 I1.000 J0.000 K0.000 F300.000
G1 X0.613 Y-9.065 Z-1.000 F300.000
G1 X0.613 Y-10.290 Z-1.000 F300.000
G1 X-3.839 Y-10.290 Z-1.000 F300.000
G1 X-3.839 Y-8.065 Z-1.000 F300.000
G3 X-4.839 Y-7.065 Z-1.000 I-1.000 J0.000 K0.000 F300.000
G1 X-7.065 Y-7.065 Z-1.000 F300.000
G1 X-7.065 Y-4.839 Z-1.000 F300.000
G3 X-8.065 Y-3.839 Z-1.000 I-1.000 J0.000 K0.000 F300.000
G1 X-10.290 Y-3.839 Z-1.000 F300.000
G1 X-10.290 Y-2.613 Z-1.000 F300.000
G1 X-8.065 Y-2.613 Z-1.000 F300.000
G3 X-7.065 Y-1.613 Z-1.000 I-0.000 J1.000 K0.000 F300.000
G1 X-7.065 Y13.516 Z-1.000 F300.000
G1 X-6.693 Y13.516 Z-1.000 F300.000
G1 X-7.065 Y13.145 Z-1.000 F300.000
G1 X-7.065 Y13.516 Z-1.000 F300.000
G1 X-6.693 Y13.516 Z-1.000 F300.000
G1 X-5.839 Y13.516 Z-1.000 F300.000
G1 X-5.839 Y11.542 Z-1.000 F300.000
G1 X-7.065 Y10.317 Z-1.000 F300.000
G1 X-7.065 Y7.488 Z-1.000 F300.000
G1 X-5.839 Y8.714 Z-1.000 F300.000
G1 X-5.839 Y5.885 Z-1.000 F300.000
G1 X-7.065 Y4.660 Z-1.000 F300.000
G1 X-7.065 Y1.831 Z-1.000 F300.000
G1 X-5.839 Y3.057 Z-1.000 F300.000
G1 X-5.839 Y0.229 Z-1.000 F300.000
G1 X-7.065 Y-0.997 Z-1.000 F300.000
G0 Z5.000
G0 X-9.906 Y-3.839 Z5.000
G0 X-9.906 Y-3.839 Z3.000
G1 X-9.906 Y-3.839 Z-1.000 F300.000
G1 X-8.680 Y-2.613 Z-1.000 F300.000
G1 X-10.290 Y-2.613 Z-1.000 F300.000
G1 X-10.290 Y-3.839 Z-1.000 F300.000
G1 X-9.906 Y-3.839 Z-1.000 F300.000
G1 X-8.065 Y-3.839 Z-1.000 F300.000
G2 X-7.365 Y-4.126 Z-1.000 I0.001 J-0.994 K0.000 F300.000
G1 X-5.552 Y-2.313 Z-1.000 F300.000
G3 X-4.839 Y-2.613 Z-1.000 I0.710 J0.689 K0.000 F300.000
G1 X-3.023 Y-2.613 Z-1.000 F300.000
G1 X-7.065 Y-6.654 Z-1.000 F300.000
G1 X-7.065 Y-7.065 Z-1.000 F300.000
G1 X-4.839 Y-7.065 Z-1.000 F300.000
G1 X-4.669 Y-7.087 Z-1.000 F300.000
G1 X-2.613 Y-5.031 Z-1.000 F300.000
G1 X-2.613 Y-7.859 Z-1.000 F300.000
G1 X-3.839 Y-9.085 Z-1.000 F300.000
G1 X-3.839 Y-10.290 Z-1.000 F300.000
G1 X-2.216 Y-10.290 Z-1.000 F300.000
G1 X-0.990 Y-9.065 Z-1.000 F300.000
G1 X0.613 Y-9.065 Z-1.000 F300.000
G1 X0.613 Y-10.290 Z-1.000 F300.000
G0 Z5.000
G0 Z5.000
G0 X0.613 Y-10.290
G0 Y15.516
G0 Y15.516 Z3.000
G1 X0.613 Y15.516 Z-1.000 F300.000
G1 X-0.613 Y15.516 Z-1.000 F300.000
G1 X-0.613 Y16.742 Z-1.000 F300.000
G1 X0.613 Y16.742 Z-1.000 F300.000
G1 X0.613 Y15.516 Z-1.000 F300.000
G1 X-0.613 Y15.516 Z-1.000 F300.000
G1 X-0.613 Y16.742 Z-1.000 F300.000
G1 X0.613 Y16.742 Z-1.000 F300.000
G1 X0.613 Y15.516 Z-1.000 F300.000
G0 Z5.000
G0 Z5.000
G0 X0.613 Y15.516
G0 X-9.065
G0 X-9.065 Z3.000
G1 X-9.065 Y15.516 Z-1.000 F300.000
G1 X-10.290 Y15.516 Z-1.000 F300.000
G1 X-10.290 Y16.742 Z-1.000 F300.000
G1 X-9.065 Y16.742 Z-1.000 F300.000
G1 X-9.065 Y15.516 Z-1.000 F300.000
G1 X-10.290 Y15.516 Z-1.000 F300.000
G1 X-10.290 Y16.742 Z-1.000 F300.000
G1 X-9.065 Y16.742 Z-1.000 F300.000
G1 X-9.065 Y15.516 Z-1.000 F300.000
G0 Z5.000
G0 Z5.000
G0 X-9.065 Y15.516
G0 X-12.290 Y13.516
G0 X-12.290 Y13.516 Z3.000
G1 X-12.290 Y13.516 Z-1.000 F300.000
G1 X-12.290 Y-0.613 Z-1.000 F300.000
G1 X-14.516 Y-0.613 Z-1.000 F300.000
G3 X-15.516 Y-1.613 Z-1.000 I-0.000 J-1.000 K0.000 F300.000
G1 X-15.516 Y-3.839 Z-1.000 F300.000
G1 X-17.742 Y-3.839 Z-1.000 F300.000
G3 X-18.742 Y-4.839 Z-1.000 I-0.000 J-1.000 K0.000 F300.000
G1 X-18.742 Y-7.065 Z-1.000 F300.000
G1 X-19.968 Y-7.065 Z-1.000 F300.000
G1 X-19.968 Y-4.839 Z-1.000 F300.000
G3 X-20.968 Y-3.839 Z-1.000 I-1.000 J-0.000 K0.000 F300.000
G1 X-27.419 Y-3.839 Z-1.000 F300.000
G3 X-28.419 Y-4.839 Z-1.000 I0.000 J-1.000 K0.000 F300.000
G1 X-28.419 Y-7.065 Z-1.000 F300.000
G1 X-29.645 Y-7.065 Z-1.000 F300.000
G1 X-29.645 Y-2.613 Z-1.000 F300.000
G1 X-20.968 Y-2.613 Z-1.000 F300.000
G3 X-19.968 Y-1.613 Z-1.000 I-0.000 J1.000 K0.000 F300.000
G1 X-19.968 Y4.839 Z-1.000 F300.000
G3 X-20.968 Y5.839 Z-1.000 I-1.000 J-0.000 K0.000 F300.000
G1 X-23.194 Y5.839 Z-1.000 F300.000
G1 X-23.194 Y7.065 Z-1.000 F300.000
G1 X-20.968 Y7.065 Z-1.000 F300.000
G3 X-19.968 Y8.065 Z-1.000 I-0.000 J1.000 K0.000 F300.000
G1 X-19.968 Y10.290 Z-1.000 F300.000
G1 X-18.358 Y10.290 Z-1.000 F300.000
G1 X-19.968 Y8.680 Z-1.000 F300.000
G1 X-19.968 Y10.290 Z-1.000 F300.000
G1 X-14.516 Y10.290 Z-1.000 F300.000
G3 X-13.516 Y11.290 Z-1.000 I-0.000 J1.000 K0.000 F300.000
G1 X-13.516 Y13.516 Z-1.000 F300.000
G1 X-12.290 Y13.516 Z-1.000 F300.000
G1 X-12.303 Y13.516 Z-1.000 F300.000
G1 X-13.516 Y13.516 Z-1.000 F300.000
G1 X-13.516 Y12.303 Z-1.000 F300.000
G1 X-12.303 Y13.516 Z-1.000 F300.000
G1 X-12.290 Y13.516 Z-1.000 F300.000
G1 X-12.290 Y10.701 Z-1.000 F300.000
G1 X-19.968 Y3.023 Z-1.000 F300.000
G1 X-19.968 Y0.195 Z-1.000 F300.000
G1 X-12.290 Y7.872 Z-1.000 F300.000
G1 X-12.290 Y5.044 Z-1.000 F300.000
G1 X-21.173 Y-3.839 Z-1.000 F300.000
G2 X-20.002 Y-4.580 Z-1.000 I0.170 J-1.027 K0.000 F300.000
G2 X-19.968 Y-5.462 Z-1.000 I-3.333 J-0.570 K0.000 F300.000
G1 X-12.290 Y2.216 Z-1.000 F300.000
G1 X-12.290 Y-0.613 Z-1.000 F300.000
G1 X-14.516 Y-0.613 Z-1.000 F300.000
G3 X-15.516 Y-1.613 Z-1.000 I0.000 J-1.000 K0.000 F300.000
G1 X-15.516 Y-3.839 Z-1.000 F300.000
G1 X-17.742 Y-3.839 Z-1.000 F300.000
G3 X-18.742 Y-4.839 Z-1.000 I-0.000 J-1.000 K0.000 F300.000
G1 X-18.742 Y-7.065 Z-1.000 F300.000
G0 Z5.000
G0 X-22.776 Y-2.613 Z5.000
G0 X-22.776 Y-2.613 Z3.000
G1 X-22.776 Y-2.613 Z-1.000 F300.000
G1 X-24.001 Y-3.839 Z-1.000 F300.000
G1 X-26.830 Y-3.839 Z-1.000 F300.000
G1 X-25.604 Y-2.613 Z-1.000 F300.000
G0 Z5.000
G0 X-28.432 Z5.000
G0 X-28.432 Z3.000
G1 X-28.432 Y-2.613 Z-1.000 F300.000
G1 X-29.645 Y-3.826 Z-1.000 F300.000
G1 X-29.645 Y-2.613 Z-1.000 F300.000
G1 X-28.432 Y-2.613 Z-1.000 F300.000
G1 X-25.604 Y-2.613 Z-1.000 F300.000
G1 X-26.830 Y-3.839 Z-1.000 F300.000
G1 X-27.419 Y-3.839 Z-1.000 F300.000
G3 X-28.385 Y-4.580 Z-1.000 I-0.000 J-1.000 K0.000 F300.000
G3 X-28.419 Y-5.428 Z-1.000 I3.205 J-0.554 K0.000 F300.000
G1 X-29.645 Y-6.654 Z-1.000 F300.000
G1 X-29.645 Y-7.065 Z-1.000 F300.000
G1 X-28.419 Y-7.065 Z-1.000 F300.000
G1 X-28.419 Y-5.428 Z-1.000 F300.000
G0 Z5.000
G0 X-22.809 Y5.839 Z5.000
G0 X-22.809 Y5.839 Z3.000
G1 X-22.809 Y5.839 Z-1.000 F300.000
G1 X-23.194 Y5.839 Z-1.000 F300.000
G1 X-23.194 Y7.065 Z-1.000 F300.000
G1 X-21.583 Y7.065 Z-1.000 F300.000
G1 X-22.809 Y5.839 Z-1.000 F300.000
G1 X-20.968 Y5.839 Z-1.000 F300.000
G2 X-20.268 Y5.552 Z-1.000 I0.001 J-0.994 K0.000 F300.000
G1 X-15.529 Y10.290 Z-1.000 F300.000
G0 Z5.000
G0 Z5.000
G0 X-15.529 Y10.290
G0 Y15.516
G0 Y15.516 Z3.000
G1 X-15.529 Y15.516 Z-1.000 F300.000
G1 X-20.968 Y15.516 Z-1.000 F300.000
G3 X-21.968 Y14.516 Z-1.000 I0.000 J-1.000 K0.000 F300.000
G1 X-21.968 Y12.290 Z-1.000 F300.000
G1 X-23.194 Y12.290 Z-1.000 F300.000
G1 X-23.194 Y14.516 Z-1.000 F300.000
G3 X-24.194 Y15.516 Z-1.000 I-1.000 J-0.000 K0.000 F300.000
G1 X-26.419 Y15.516 Z-1.000 F300.000
G1 X-26.419 Y16.742 Z-1.000 F300.000
G1 X-17.742 Y16.742 Z-1.000 F300.000
G3 X-16.742 Y17.742 Z-1.000 I-0.000 J1.000 K0.000 F300.000
G1 X-16.742 Y19.947 Z-1.000 F300.000
G2 X-16.721 Y19.968 Z-1.000 I0.010 J0.010 K0.000 F300.000
G1 X-16.742 Y19.947 Z-1.000 F300.000
G1 X-16.742 Y19.968 Z-1.000 F300.000
G1 X-15.516 Y19.968 Z-1.000 F300.000
G1 X-15.516 Y15.516 Z-1.000 F300.000
G1 X-15.529 Y15.516 Z-1.000 F300.000
G1 X-15.516 Y15.516 Z-1.000 F300.000
G1 X-15.516 Y18.345 Z-1.000 F300.000
G1 X-18.345 Y15.516 Z-1.000 F300.000
G1 X-20.968 Y15.516 Z-1.000 F300.000
G1 X-21.204 Y15.485 Z-1.000 F300.000
G1 X-19.947 Y16.742 Z-1.000 F300.000
G1 X-17.742 Y16.742 Z-1.000 F300.000
G3 X-16.742 Y17.742 Z-1.000 I-0.000 J1.000 K0.000 F300.000
G1 X-16.742 Y19.947 Z-1.000 F300.000
G1 X-16.721 Y19.968 Z-1.000 F300.000
G0 Z5.000
G0 X-21.937 Y14.752 Z5.000
G0 X-21.937 Y14.752 Z3.000
G1 X-21.937 Y14.752 Z-1.000 F300.000
G1 X-21.968 Y14.516 Z-1.000 F300.000
G1 X-21.968 Y12.290 Z-1.000 F300.000
G1 X-23.194 Y12.290 Z-1.000 F300.000
G1 X-23.194 Y13.496 Z-1.000 F300.000
G1 X-21.937 Y14.752 Z-1.000 F300.000
G2 X-21.204 Y15.485 Z-1.000 I0.956 J-0.223 K0.000 F300.000
G1 X-19.947 Y16.742 Z-1.000 F300.000
G1 X-22.776 Y16.742 Z-1.000 F300.000
G1 X-24.024 Y15.494 Z-1.000 F300.000
G1 X-24.194 Y15.516 Z-1.000 F300.000
G1 X-26.419 Y15.516 Z-1.000 F300.000
G1 X-26.419 Y15.927 Z-1.000 F300.000
G1 X-26.419 Y16.742 Z-1.000 F300.000
G1 X-25.604 Y16.742 Z-1.000 F300.000
G1 X-26.419 Y15.927 Z-1.000 F300.000
G0 Z5.000
G0 Z5.000
G0 X-26.419 Y15.927
G0 X-16.742 Y25.194
G0 X-16.742 Y25.194 Z3.000
G1 X-16.742 Y25.194 Z-1.000 F300.000
G1 X-16.742 Y26.419 Z-1.000 F300.000
G1 X-15.516 Y26.419 Z-1.000 F300.000
G1 X-15.516 Y25.194 Z-1.000 F300.000
G1 X-16.742 Y25.194 Z-1.000 F300.000
G1 X-16.742 Y26.419 Z-1.000 F300.000
G1 X-15.516 Y26.419 Z-1.000 F300.000
G1 X-15.516 Y25.194 Z-1.000 F300.000
G1 X-16.742 Y25.194 Z-1.000 F300.000
G0 Z5.000
G0 Z5.000
G0 X-16.742 Y25.194
G0 X-13.516 Y28.419
G0 X-13.516 Y28.419 Z3.000
G1 X-13.516 Y28.419 Z-1.000 F300.000
G1 X-13.516 Y29.645 Z-1.000 F300.000
G1 X-13.098 Y29.645 Z-1.000 F300.000
G1 X-13.516 Y29.645 Z-1.000 F300.000
G1 X-13.516 Y29.227 Z-1.000 F300.000
G1 X-13.098 Y29.645 Z-1.000 F300.000
G1 X-11.290 Y29.645 Z-1.000 F300.000
G3 X-10.290 Y30.645 Z-1.000 I-0.000 J1.000 K0.000 F300.000
G1 X-10.290 Y32.871 Z-1.000 F300.000
G1 X-9.065 Y32.871 Z-1.000 F300.000
G1 X-9.065 Y25.194 Z-1.000 F300.000
G1 X-10.290 Y25.194 Z-1.000 F300.000
G1 X-10.290 Y27.419 Z-1.000 F300.000
G3 X-11.290 Y28.419 Z-1.000 I-1.000 J-0.000 K0.000 F300.000
G1 X-13.516 Y28.419 Z-1.000 F300.000
G0 Z5.000
G0 X-9.065 Y25.194 Z5.000
G0 X-9.065 Y25.194 Z3.000
G1 X-9.065 Y25.194 Z-1.000 F300.000
G1 X-9.065 Y28.022 Z-1.000 F300.000
G1 X-10.290 Y26.796 Z-1.000 F300.000
G3 X-10.324 Y27.678 Z-1.000 I-3.367 J0.312 K0.000 F300.000
G3 X-11.496 Y28.419 Z-1.000 I-1.001 J-0.286 K0.000 F300.000
G1 X-9.065 Y30.850 Z-1.000 F300.000
G1 X-9.065 Y32.871 Z-1.000 F300.000
G1 X-9.872 Y32.871 Z-1.000 F300.000
G1 X-10.290 Y32.453 Z-1.000 F300.000
G1 X-10.290 Y32.871 Z-1.000 F300.000
G1 X-9.872 Y32.871 Z-1.000 F300.000
G0 Z5.000
G0 Z5.000
G0 X-9.872 Y32.871
G0 Y38.097
G0 Y38.097 Z3.000
G1 X-9.872 Y38.097 Z-1.000 F300.000
G1 X-10.290 Y38.097 Z-1.000 F300.000
G1 X-10.290 Y39.323 Z-1.000 F300.000
G1 X-9.065 Y39.323 Z-1.000 F300.000
G1 X-9.065 Y38.097 Z-1.000 F300.000
G1 X-10.290 Y38.097 Z-1.000 F300.000
G1 X-10.290 Y39.323 Z-1.000 F300.000
G1 X-9.065 Y39.323 Z-1.000 F300.000
G1 X-9.065 Y38.097 Z-1.000 F300.000
G1 X-9.872 Y38.097 Z-1.000 F300.000
G0 Z5.000
G0 Z5.000
G0 X-9.872 Y38.097
G0 X-7.065 Y41.323
G0 X-7.065 Y41.323 Z3.000
G1 X-7.065 Y41.323 Z-1.000 F300.000
G1 X-7.065 Y42.548 Z-1.000 F300.000
G1 X-5.839 Y42.548 Z-1.000 F300.000
G1 X-5.839 Y41.323 Z-1.000 F300.000
G1 X-7.065 Y41.323 Z-1.000 F300.000
G1 X-7.065 Y42.548 Z-1.000 F300.000
G1 X-5.839 Y42.548 Z-1.000 F300.000
G1 X-5.839 Y41.323 Z-1.000 F300.000
G1 X-7.065 Y41.323 Z-1.000 F300.000
G0 Z5.000
G0 Z5.000
G0 X-7.065 Y41.323
G0 X-2.613 Y37.746
G0 X-2.613 Y37.746 Z3.000
G1 X-2.613 Y37.746 Z-1.000 F300.000
G1 X-2.613 Y39.323 Z-1.000 F300.000
G1 X-3.839 Y39.323 Z-1.000 F300.000
G1 X-3.839 Y36.520 Z-1.000 F300.000
G1 X-2.613 Y37.746 Z-1.000 F300.000
G1 X-2.613 Y34.918 Z-1.000 F300.000
G1 X-3.839 Y33.692 Z-1.000 F300.000
G1 X-3.839 Y30.864 Z-1.000 F300.000
G1 X-2.613 Y32.089 Z-1.000 F300.000
G1 X-2.613 Y30.645 Z-1.000 F300.000
G3 X-2.100 Y29.774 Z-1.000 I0.994 J-0.002 K0.000 F300.000
G1 X-3.839 Y28.035 Z-1.000 F300.000
G1 X-3.839 Y25.207 Z-1.000 F300.000
G1 X-2.613 Y26.432 Z-1.000 F300.000
G1 X-2.613 Y27.419 Z-1.000 F300.000
G2 X-1.613 Y28.419 Z-1.000 I1.000 J-0.000 K0.000 F300.000
G1 X-0.626 Y28.419 Z-1.000 F300.000
G1 X0.600 Y29.645 Z-1.000 F300.000
G1 X-0.626 Y28.419 Z-1.000 F300.000
G1 X0.600 Y29.645 Z-1.000 F300.000
G1 X1.613 Y29.645 Z-1.000 F300.000
G3 X2.613 Y30.645 Z-1.000 I-0.000 J1.000 K0.000 F300.000
G1 X2.613 Y31.658 Z-1.000 F300.000
G1 X3.839 Y32.884 Z-1.000 F300.000
G1 X3.839 Y30.645 Z-1.000 F300.000
G3 X3.960 Y30.177 Z-1.000 I0.935 J-0.009 K0.000 F300.000
G1 X2.081 Y28.298 Z-1.000 F300.000
G2 X2.613 Y27.419 Z-1.000 I-0.445 J-0.869 K0.000 F300.000
G1 X2.613 Y26.001 Z-1.000 F300.000
G1 X3.839 Y27.227 Z-1.000 F300.000
G2 X5.031 Y28.419 Z-1.000 I1.030 J0.162 K0.000 F300.000
G1 X6.257 Y29.645 Z-1.000 F300.000
G0 Z5.000
G0 X9.482 Y32.871 Z5.000
G0 X9.482 Y32.871 Z3.000
G1 X9.482 Y32.871 Z-1.000 F300.000
G1 X9.065 Y32.871 Z-1.000 F300.000
G1 X9.065 Y32.453 Z-1.000 F300.000
G1 X9.482 Y32.871 Z-1.000 F300.000
G1 X10.290 Y32.871 Z-1.000 F300.000
G1 X10.290 Y30.850 Z-1.000 F300.000
G1 X7.859 Y28.419 Z-1.000 F300.000
G2 X9.030 Y27.678 Z-1.000 I0.170 J-1.027 K0.000 F300.000
G2 X9.065 Y26.796 Z-1.000 I-3.333 J-0.570 K0.000 F300.000
G1 X10.290 Y28.022 Z-1.000 F300.000
G1 X10.290 Y25.194 Z-1.000 F300.000
G0 Z5.000
G0 X3.839 Y24.399 Z5.000
G0 X3.839 Y24.399 Z3.000
G1 X3.839 Y24.399 Z-1.000 F300.000
G1 X3.839 Y21.968 Z-1.000 F300.000
G1 X2.613 Y21.968 Z-1.000 F300.000
G1 X2.613 Y23.173 Z-1.000 F300.000
G1 X3.839 Y24.399 Z-1.000 F300.000
G1 X3.839 Y27.227 Z-1.000 F300.000
G1 X2.613 Y26.001 Z-1.000 F300.000
G0 Z5.000
G0 X-5.852 Y23.194 Z5.000
G0 X-5.852 Y23.194 Z3.000
G1 X-5.852 Y23.194 Z-1.000 F300.000
G1 X-7.065 Y23.194 Z-1.000 F300.000
G1 X-7.065 Y21.981 Z-1.000 F300.000
G1 X-5.852 Y23.194 Z-1.000 F300.000
G1 X-7.065 Y21.981 Z-1.000 F300.000
G1 X-5.852 Y23.194 Z-1.000 F300.000
G1 X-4.839 Y23.194 Z-1.000 F300.000
G3 X-3.839 Y24.194 Z-1.000 I-0.000 J1.000 K0.000 F300.000
G1 X-3.839 Y25.207 Z-1.000 F300.000
G1 X-2.613 Y26.432 Z-1.000 F300.000
G1 X-2.613 Y23.604 Z-1.000 F300.000
G1 X-4.370 Y21.847 Z-1.000 F300.000
G2 X-3.839 Y20.968 Z-1.000 I-0.445 J-0.869 K0.000 F300.000
G1 X-3.839 Y19.550 Z-1.000 F300.000
G1 X-2.613 Y20.776 Z-1.000 F300.000
G1 X-2.613 Y18.742 Z-1.000 F300.000
G1 X-3.839 Y18.742 Z-1.000 F300.000
G1 X-3.839 Y19.550 Z-1.000 F300.000
G0 Z5.000
G0 X5.826 Y34.871 Z5.000
G0 X5.826 Y34.871 Z3.000
G1 X5.826 Y34.871 Z-1.000 F300.000
G1 X7.065 Y34.871 Z-1.000 F300.000
G1 X7.065 Y36.097 Z-1.000 F300.000
G1 X7.051 Y36.097 Z-1.000 F300.000
G1 X5.826 Y34.871 Z-1.000 F300.000
G1 X4.839 Y34.871 Z-1.000 F300.000
G3 X3.839 Y33.871 Z-1.000 I0.000 J-1.000 K0.000 F300.000
G1 X3.839 Y32.884 Z-1.000 F300.000
G1 X2.613 Y31.658 Z-1.000 F300.000
G1 X2.613 Y34.487 Z-1.000 F300.000
G1 X4.352 Y36.225 Z-1.000 F300.000
G2 X3.839 Y37.097 Z-1.000 I0.481 J0.870 K0.000 F300.000
G1 X3.839 Y38.541 Z-1.000 F300.000
G1 X2.613 Y37.315 Z-1.000 F300.000
G0 Z5.000
G0 X2.189 Y42.548 Z5.000
G0 X2.189 Y42.548 Z3.000
G1 X2.189 Y42.548 Z-1.000 F300.000
G1 X-0.613 Y42.548 Z-1.000 F300.000
G1 X-0.613 Y41.323 Z-1.000 F300.000
G1 X0.964 Y41.323 Z-1.000 F300.000
G1 X2.189 Y42.548 Z-1.000 F300.000
G1 X7.065 Y42.548 Z-1.000 F300.000
G1 X7.065 Y41.323 Z-1.000 F300.000
G1 X4.839 Y41.323 Z-1.000 F300.000
G3 X3.839 Y40.323 Z-1.000 I0.000 J-1.000 K0.000 F300.000
G1 X3.839 Y37.097 Z-1.000 F300.000
G3 X4.839 Y36.097 Z-1.000 I1.000 J-0.000 K0.000 F300.000
G1 X7.065 Y36.097 Z-1.000 F300.000
G1 X7.065 Y34.871 Z-1.000 F300.000
G1 X4.839 Y34.871 Z-1.000 F300.000
G3 X3.839 Y33.871 Z-1.000 I0.000 J-1.000 K0.000 F300.000
G1 X3.839 Y30.645 Z-1.000 F300.000
G3 X4.839 Y29.645 Z-1.000 I1.000 J0.000 K0.000 F300.000
G1 X8.065 Y29.645 Z-1.000 F300.000
G3 X9.065 Y30.645 Z-1.000 I-0.000 J1.000 K0.000 F300.000
G1 X9.065 Y32.871 Z-1.000 F300.000
G1 X10.290 Y32.871 Z-1.000 F300.000
G1 X10.290 Y25.194 Z-1.000 F300.000
G1 X9.065 Y25.194 Z-1.000 F300.000
G1 X9.065 Y27.419 Z-1.000 F300.000
G3 X8.065 Y28.419 Z-1.000 I-1.000 J-0.000 K0.000 F300.000
G1 X4.839 Y28.419 Z-1.000 F300.000
G3 X3.839 Y27.419 Z-1.000 I-0.000 J-1.000 K0.000 F300.000
G1 X3.839 Y21.968 Z-1.000 F300.000
G1 X2.613 Y21.968 Z-1.000 F300.000
G1 X2.613 Y27.419 Z-1.000 F300.000
G3 X1.613 Y28.419 Z-1.000 I-1.000 J-0.000 K0.000 F300.000
G1 X-1.613 Y28.419 Z-1.000 F300.000
G3 X-2.613 Y27.419 Z-1.000 I0.000 J-1.000 K0.000 F300.000
G1 X-2.613 Y18.742 Z-1.000 F300.000
G1 X-3.839 Y18.742 Z-1.000 F300.000
G1 X-3.839 Y20.968 Z-1.000 F300.000
G3 X-4.839 Y21.968 Z-1.000 I-1.000 J0.000 K0.000 F300.000
G1 X-7.065 Y21.968 Z-1.000 F300.000
G1 X-7.065 Y23.194 Z-1.000 F300.000
G1 X-4.839 Y23.194 Z-1.000 F300.000
G3 X-3.839 Y24.194 Z-1.000 I-0.000 J1.000 K0.000 F300.000
G1 X-3.839 Y39.323 Z-1.000 F300.000
G1 X-2.613 Y39.323 Z-1.000 F300.000
G1 X-2.613 Y30.645 Z-1.000 F300.000
G3 X-1.613 Y29.645 Z-1.000 I1.000 J0.000 K0.000 F300.000
G1 X1.613 Y29.645 Z-1.000 F300.000
G3 X2.613 Y30.645 Z-1.000 I-0.000 J1.000 K0.000 F300.000
G1 X2.613 Y40.323 Z-1.000 F300.000
G3 X1.613 Y41.323 Z-1.000 I-1.000 J-0.000 K0.000 F300.000
G1 X-0.613 Y41.323 Z-1.000 F300.000
G1 X-0.613 Y42.548 Z-1.000 F300.000
G1 X2.189 Y42.548 Z-1.000 F300.000
G1 X5.018 Y42.548 Z-1.000 F300.000
G1 X2.613 Y40.144 Z-1.000 F300.000
G1 X2.613 Y37.315 Z-1.000 F300.000
G1 X3.839 Y38.541 Z-1.000 F300.000
G1 X3.839 Y40.323 Z-1.000 F300.000
G2 X4.839 Y41.323 Z-1.000 I1.000 J-0.000 K0.000 F300.000
G1 X6.620 Y41.323 Z-1.000 F300.000
G1 X7.065 Y41.767 Z-1.000 F300.000
G1 X7.065 Y41.323 Z-1.000 F300.000
G1 X6.620 Y41.323 Z-1.000 F300.000
G0 Z5.000
G0 Z5.000
G0 X6.620 Y41.323
G0 X9.065 Y39.302
G0 X9.065 Y39.302 Z3.000
G1 X9.065 Y39.302 Z-1.000 F300.000
G1 X9.085 Y39.323 Z-1.000 F300.000
G3 X9.065 Y39.302 Z-1.000 I-0.010 J-0.010 K0.000 F300.000
G1 X9.065 Y39.323 Z-1.000 F300.000
G1 X13.516 Y39.323 Z-1.000 F300.000
G1 X13.516 Y38.097 Z-1.000 F300.000
G1 X9.065 Y38.097 Z-1.000 F300.000
G1 X9.065 Y39.302 Z-1.000 F300.000
G1 X9.065 Y38.097 Z-1.000 F300.000
G1 X10.688 Y38.097 Z-1.000 F300.000
G1 X11.914 Y39.323 Z-1.000 F300.000
G1 X13.516 Y39.323 Z-1.000 F300.000
G1 X13.516 Y38.097 Z-1.000 F300.000
G0 Z5.000
G0 Z5.000
G0 X13.516 Y38.097
G0 X15.516 Y41.323
G0 X15.516 Y41.323 Z3.000
G1 X15.516 Y41.323 Z-1.000 F300.000
G1 X15.516 Y42.548 Z-1.000 F300.000
G1 X16.742 Y42.548 Z-1.000 F300.000
G1 X16.742 Y41.323 Z-1.000 F300.000
G1 X15.516 Y41.323 Z-1.000 F300.000
G1 X15.516 Y42.548 Z-1.000 F300.000
G1 X16.742 Y42.548 Z-1.000 F300.000
G1 X16.742 Y41.323 Z-1.000 F300.000
G1 X15.516 Y41.323 Z-1.000 F300.000
G0 Z5.000
G0 Z5.000
G0 X15.516 Y41.323
G0 Y26.419
G0 Y26.419 Z3.000
G1 X15.516 Y26.419 Z-1.000 F300.000
G1 X16.742 Y26.419 Z-1.000 F300.000
G1 X16.742 Y25.194 Z-1.000 F300.000
G1 X15.516 Y25.194 Z-1.000 F300.000
G1 X15.516 Y26.419 Z-1.000 F300.000
G1 X16.742 Y26.419 Z-1.000 F300.000
G1 X16.742 Y25.194 Z-1.000 F300.000
G1 X15.516 Y25.194 Z-1.000 F300.000
G1 X15.516 Y26.419 Z-1.000 F300.000
G0 Z5.000
G0 Z5.000
G0 X15.516 Y26.419
G0 X15.516 Y19.968
G0 X15.516 Y19.968 Z3.000
G1 X15.516 Y19.968 Z-1.000 F300.000
G1 X16.742 Y19.968 Z-1.000 F300.000
G1 X16.742 Y17.742 Z-1.000 F300.000
G3 X17.742 Y16.742 Z-1.000 I1.000 J-0.000 K0.000 F300.000
G1 X19.968 Y16.742 Z-1.000 F300.000
G1 X19.968 Y14.516 Z-1.000 F300.000
G3 X20.968 Y13.516 Z-1.000 I1.000 J-0.000 K0.000 F300.000
G1 X23.194 Y13.516 Z-1.000 F300.000
G1 X23.194 Y9.065 Z-1.000 F300.000
G1 X21.968 Y9.065 Z-1.000 F300.000
G1 X21.968 Y11.290 Z-1.000 F300.000
G3 X20.968 Y12.290 Z-1.000 I-1.000 J-0.000 K0.000 F300.000
G1 X15.516 Y12.290 Z-1.000 F300.000
G1 X15.516 Y14.516 Z-1.000 F300.000
G3 X14.516 Y15.516 Z-1.000 I-1.000 J-0.000 K0.000 F300.000
G1 X11.290 Y15.516 Z-1.000 F300.000
G3 X10.290 Y14.516 Z-1.000 I0.000 J-1.000 K0.000 F300.000
G1 X10.290 Y12.290 Z-1.000 F300.000
G1 X8.065 Y12.290 Z-1.000 F300.000
G3 X7.065 Y11.290 Z-1.000 I0.000 J-1.000 K0.000 F300.000
G1 X7.065 Y8.065 Z-1.000 F300.000
G3 X8.065 Y7.065 Z-1.000 I1.000 J0.000 K0.000 F300.000
G1 X10.290 Y7.065 Z-1.000 F300.000
G1 X10.290 Y5.839 Z-1.000 F300.000
G1 X1.613 Y5.839 Z-1.000 F300.000
G3 X0.613 Y4.839 Z-1.000 I0.000 J-1.000 K0.000 F300.000
G1 X0.613 Y2.613 Z-1.000 F300.000
G1 X-0.613 Y2.613 Z-1.000 F300.000
G1 X-0.613 Y7.065 Z-1.000 F300.000
G1 X1.613 Y7.065 Z-1.000 F300.000
G3 X2.613 Y8.065 Z-1.000 I-0.000 J1.000 K0.000 F300.000
G1 X2.613 Y13.516 Z-1.000 F300.000
G1 X4.839 Y13.516 Z-1.000 F300.000
G3 X5.839 Y14.516 Z-1.000 I0.000 J1.000 K0.000 F300.000
G1 X5.839 Y16.742 Z-1.000 F300.000
G1 X8.244 Y16.742 Z-1.000 F300.000
G1 X5.812 Y14.310 Z-1.000 F300.000
G1 X5.839 Y14.516 Z-1.000 F300.000
G1 X5.839 Y16.742 Z-1.000 F300.000
G1 X14.516 Y16.742 Z-1.000 F300.000
G3 X15.516 Y17.742 Z-1.000 I-0.000 J1.000 K0.000 F300.000
G1 X15.516 Y19.968 Z-1.000 F300.000
G1 X15.516 Y19.968 Z-1.000 F300.000
G1 X16.742 Y19.968 Z-1.000 F300.000
G1 X16.742 Y19.583 Z-1.000 F300.000
G1 X15.516 Y18.358 Z-1.000 F300.000
G1 X15.516 Y19.968 Z-1.000 F300.000
G1 X16.742 Y19.583 Z-1.000 F300.000
G1 X15.516 Y18.358 Z-1.000 F300.000
G1 X15.516 Y17.742 Z-1.000 F300.000
G2 X14.775 Y16.776 Z-1.000 I-1.000 J-0.000 K0.000 F300.000
G2 X13.900 Y16.742 Z-1.000 I-0.567 J3.304 K0.000 F300.000
G1 X12.675 Y15.516 Z-1.000 F300.000
G1 X14.516 Y15.516 Z-1.000 F300.000
G2 X15.216 Y15.229 Z-1.000 I0.001 J-0.994 K0.000 F300.000
G1 X17.029 Y17.042 Z-1.000 F300.000
G3 X17.742 Y16.742 Z-1.000 I0.710 J0.689 K0.000 F300.000
G1 X19.557 Y16.742 Z-1.000 F300.000
G1 X15.516 Y12.701 Z-1.000 F300.000
G1 X15.516 Y12.290 Z-1.000 F300.000
G1 X17.934 Y12.290 Z-1.000 F300.000
G1 X19.990 Y14.346 Z-1.000 F300.000
G3 X20.968 Y13.516 Z-1.000 I0.970 J0.152 K0.000 F300.000
G1 X21.988 Y13.516 Z-1.000 F300.000
G1 X20.763 Y12.290 Z-1.000 F300.000
G2 X21.934 Y11.549 Z-1.000 I0.170 J-1.027 K0.000 F300.000
G2 X21.968 Y10.667 Z-1.000 I-3.333 J-0.570 K0.000 F300.000
G1 X23.194 Y11.893 Z-1.000 F300.000
G1 X23.194 Y9.065 Z-1.000 F300.000
G0 Z5.000
G0 X10.290 Y12.290 Z5.000
G0 X10.290 Y12.290 Z3.000
G1 X10.290 Y12.290 Z-1.000 F300.000
G1 X10.290 Y13.132 Z-1.000 F300.000
G1 X9.449 Y12.290 Z-1.000 F300.000
G1 X10.290 Y12.290 Z-1.000 F300.000
G0 Z5.000
G0 X7.065 Y9.906 Z5.000
G0 X7.065 Y9.906 Z3.000
G1 X7.065 Y9.906 Z-1.000 F300.000
G1 X2.997 Y5.839 Z-1.000 F300.000
G1 X5.826 Y5.839 Z-1.000 F300.000
G1 X7.352 Y7.365 Z-1.000 F300.000
G3 X8.065 Y7.065 Z-1.000 I0.710 J0.689 K0.000 F300.000
G1 X9.880 Y7.065 Z-1.000 F300.000
G1 X8.654 Y5.839 Z-1.000 F300.000
G1 X10.290 Y5.839 Z-1.000 F300.000
G1 X10.290 Y7.065 Z-1.000 F300.000
G1 X9.880 Y7.065 Z-1.000 F300.000
G0 Z5.000
G0 X2.613 Y11.111 Z5.000
G0 X2.613 Y11.111 Z3.000
G1 X2.613 Y11.111 Z-1.000 F300.000
G1 X2.613 Y13.516 Z-1.000 F300.000
G1 X4.839 Y13.516 Z-1.000 F300.000
G1 X5.045 Y13.543 Z-1.000 F300.000
G1 X2.613 Y11.111 Z-1.000 F300.000
G1 X2.613 Y8.283 Z-1.000 F300.000
G1 X11.072 Y16.742 Z-1.000 F300.000
G1 X13.900 Y16.742 Z-1.000 F300.000
G1 X12.675 Y15.516 Z-1.000 F300.000
G1 X11.290 Y15.516 Z-1.000 F300.000
G3 X10.290 Y14.516 Z-1.000 I0.000 J-1.000 K0.000 F300.000
G1 X10.290 Y13.132 Z-1.000 F300.000
G1 X9.449 Y12.290 Z-1.000 F300.000
G1 X8.065 Y12.290 Z-1.000 F300.000
G3 X7.065 Y11.290 Z-1.000 I0.000 J-1.000 K0.000 F300.000
G1 X7.065 Y9.906 Z-1.000 F300.000
G1 X2.997 Y5.839 Z-1.000 F300.000
G1 X1.613 Y5.839 Z-1.000 F300.000
G3 X0.613 Y4.839 Z-1.000 I0.000 J-1.000 K0.000 F300.000
G1 X0.613 Y3.454 Z-1.000 F300.000
G1 X-0.229 Y2.613 Z-1.000 F300.000
G1 X0.613 Y2.613 Z-1.000 F300.000
G1 X0.613 Y3.454 Z-1.000 F300.000
G0 Z5.000
G0 X-0.613 Y5.057 Z5.000
G0 X-0.613 Y5.057 Z3.000
G1 X-0.613 Y5.057 Z-1.000 F300.000
G1 X1.395 Y7.065 Z-1.000 F300.000
G1 X-0.613 Y7.065 Z-1.000 F300.000
G1 X-0.613 Y5.057 Z-1.000 F300.000
G0 Z5.000
G0 Z5.000
G0 X-0.613 Y5.057
G0 X28.419 Y28.419
G0 X28.419 Y28.419 Z3.000
G1 X28.419 Y28.419 Z-1.000 F300.000
G1 X42.548 Y28.419 Z-1.000 F300.000
G1 X42.548 Y42.548 Z-1.000 F300.000
G1 X34.050 Y42.548 Z-1.000 F300.000
G1 X34.050 Y41.323 Z-1.000 F300.000
G1 X30.645 Y41.323 Z-1.000 F300.000
G3 X29.645 Y40.323 Z-1.000 I0.000 J-1.000 K0.000 F300.000
G1 X29.645 Y30.645 Z-1.000 F300.000
G3 X30.645 Y29.645 Z-1.000 I1.000 J0.000 K0.000 F300.000
G1 X40.323 Y29.645 Z-1.000 F300.000
G3 X41.323 Y30.645 Z-1.000 I-0.000 J1.000 K0.000 F300.000
G1 X41.323 Y40.323 Z-1.000 F300.000
G3 X40.323 Y41.323 Z-1.000 I-1.000 J-0.000 K0.000 F300.000
G1 X34.050 Y41.323 Z-1.000 F300.000
G0 Z5.000
G0 X31.222 Y42.548 Z5.000
G0 X31.222 Y42.548 Z3.000
G1 X31.222 Y42.548 Z-1.000 F300.000
G1 X28.419 Y42.548 Z-1.000 F300.000
G1 X28.419 Y39.746 Z-1.000 F300.000
G1 X31.222 Y42.548 Z-1.000 F300.000
G1 X34.050 Y42.548 Z-1.000 F300.000
G1 X32.824 Y41.323 Z-1.000 F300.000
G1 X30.645 Y41.323 Z-1.000 F300.000
G3 X29.645 Y40.323 Z-1.000 I0.000 J-1.000 K0.000 F300.000
G1 X29.645 Y38.144 Z-1.000 F300.000
G1 X28.419 Y36.918 Z-1.000 F300.000
G1 X28.419 Y34.089 Z-1.000 F300.000
G1 X29.645 Y35.315 Z-1.000 F300.000
G1 X29.645 Y32.487 Z-1.000 F300.000
G1 X28.419 Y31.261 Z-1.000 F300.000
G1 X28.419 Y28.432 Z-1.000 F300.000
G1 X29.932 Y29.945 Z-1.000 F300.000
G3 X30.645 Y29.645 Z-1.000 I0.710 J0.689 K0.000 F300.000
G1 X32.460 Y29.645 Z-1.000 F300.000
G1 X31.235 Y28.419 Z-1.000 F300.000
G1 X34.063 Y28.419 Z-1.000 F300.000
G1 X35.289 Y29.645 Z-1.000 F300.000
G1 X38.117 Y29.645 Z-1.000 F300.000
G1 X36.892 Y28.419 Z-1.000 F300.000
G1 X39.720 Y28.419 Z-1.000 F300.000
G1 X42.548 Y31.248 Z-1.000 F300.000
G1 X42.548 Y28.419 Z-1.000 F300.000
G0 Z5.000
G0 X41.323 Y32.850 Z5.000
G0 X41.323 Y32.850 Z3.000
G1 X41.323 Y32.850 Z-1.000 F300.000
G1 X42.548 Y34.076 Z-1.000 F300.000
G1 X42.548 Y36.905 Z-1.000 F300.000
G1 X41.323 Y35.679 Z-1.000 F300.000
G1 X41.323 Y38.507 Z-1.000 F300.000
G1 X42.548 Y39.733 Z-1.000 F300.000
G1 X42.548 Y42.548 Z-1.000 F300.000
G1 X42.535 Y42.548 Z-1.000 F300.000
G1 X41.022 Y41.035 Z-1.000 F300.000
G3 X40.323 Y41.323 Z-1.000 I-0.699 J-0.707 K0.000 F300.000
G1 X38.481 Y41.323 Z-1.000 F300.000
G1 X39.707 Y42.548 Z-1.000 F300.000
G1 X36.878 Y42.548 Z-1.000 F300.000
G1 X35.653 Y41.323 Z-1.000 F300.000
G1 X32.824 Y41.323 Z-1.000 F300.000
G1 X34.050 Y42.548 Z-1.000 F300.000
G1 X28.419 Y42.548 Z-1.000 F300.000
G1 X28.419 Y28.419 Z-1.000 F300.000
G0 Z5.000
G0 Z5.000
G0 X28.419 Y28.419
G0 X23.194
G0 X23.194 Z3.000
G1 X23.194 Y28.419 Z-1.000 F300.000
G1 X23.194 Y24.194 Z-1.000 F300.000
G3 X24.194 Y23.194 Z-1.000 I1.000 J-0.000 K0.000 F300.000
G1 X46.774 Y23.194 Z-1.000 F300.000
G3 X47.774 Y24.194 Z-1.000 I-0.000 J1.000 K0.000 F300.000
G1 X47.774 Y46.774 Z-1.000 F300.000
G3 X46.774 Y47.774 Z-1.000 I-1.000 J-0.000 K0.000 F300.000
G1 X24.194 Y47.774 Z-1.000 F300.000
G3 X23.194 Y46.774 Z-1.000 I0.000 J-1.000 K0.000 F300.000
G1 X23.194 Y28.419 Z-1.000 F300.000
G0 Z5.000
G0 X21.968 Y25.791 Z5.000
G0 X21.968 Y25.791 Z3.000
G1 X21.968 Y25.791 Z-1.000 F300.000
G1 X23.194 Y27.017 Z-1.000 F300.000
G1 X23.194 Y29.845 Z-1.000 F300.000
G1 X21.562 Y28.213 Z-1.000 F300.000
G3 X20.968 Y28.419 Z-1.000 I-0.585 J-0.728 K0.000 F300.000
G1 X18.939 Y28.419 Z-1.000 F300.000
G1 X20.165 Y29.645 Z-1.000 F300.000
G1 X18.742 Y29.645 Z-1.000 F300.000
G1 X18.742 Y28.419 Z-1.000 F300.000
G1 X18.939 Y28.419 Z-1.000 F300.000
G0 Z5.000
G0 X21.968 Y31.448 Z5.000
G0 X21.968 Y31.448 Z3.000
G1 X21.968 Y31.448 Z-1.000 F300.000
G1 X23.194 Y32.674 Z-1.000 F300.000
G1 X23.194 Y35.502 Z-1.000 F300.000
G1 X21.901 Y34.209 Z-1.000 F300.000
G3 X20.968 Y34.871 Z-1.000 I-0.928 J-0.320 K0.000 F300.000
G1 X19.734 Y34.871 Z-1.000 F300.000
G1 X23.194 Y38.331 Z-1.000 F300.000
G1 X23.194 Y41.159 Z-1.000 F300.000
G1 X21.757 Y39.722 Z-1.000 F300.000
G3 X21.968 Y40.323 Z-1.000 I-0.725 J0.592 K0.000 F300.000
G1 X21.968 Y42.762 Z-1.000 F300.000
G1 X23.194 Y43.987 Z-1.000 F300.000
G1 X23.194 Y46.774 Z-1.000 F300.000
G1 X23.200 Y46.822 Z-1.000 F300.000
G1 X21.968 Y45.590 Z-1.000 F300.000
G0 Z5.000
G0 Y49.000 Z5.000
G0 Y49.000 Z3.000
G1 X21.968 Y49.000 Z-1.000 F300.000
G1 X49.000 Y49.000 Z-1.000 F300.000
G1 X49.000 Y-49.000 Z-1.000 F300.000
G1 X-49.000 Y-49.000 Z-1.000 F300.000
G1 X-49.000 Y49.000 Z-1.000 F300.000
G1 X21.968 Y49.000 Z-1.000 F300.000
G0 Z5.000
G0 X21.568 Y39.534 Z5.000
G0 X21.568 Y39.534 Z3.000
G1 X21.568 Y39.534 Z-1.000 F300.000
G2 X20.968 Y39.323 Z-1.000 I-0.555 J0.619 K0.000 F300.000
G1 X18.742 Y39.323 Z-1.000 F300.000
G1 X18.742 Y36.707 Z-1.000 F300.000
G1 X21.568 Y39.534 Z-1.000 F300.000
G0 Z5.000
G0 X10.290 Y44.548 Z5.000
G0 X10.290 Y44.548 Z3.000
G1 X10.290 Y44.548 Z-1.000 F300.000
G1 X9.612 Y44.548 Z-1.000 F300.000
G1 X10.290 Y45.226 Z-1.000 F300.000
G1 X10.290 Y44.548 Z-1.000 F300.000
G0 Z5.000
G0 X-0.078 Y49.000 Z5.000
G0 X-0.078 Y49.000 Z3.000
G1 X-0.078 Y49.000 Z-1.000 F300.000
G1 X-1.304 Y47.774 Z-1.000 F300.000
G1 X1.524 Y47.774 Z-1.000 F300.000
G1 X2.750 Y49.000 Z-1.000 F300.000
G1 X5.579 Y49.000 Z-1.000 F300.000
G1 X4.353 Y47.774 Z-1.000 F300.000
G1 X7.181 Y47.774 Z-1.000 F300.000
G1 X8.407 Y49.000 Z-1.000 F300.000
G1 X11.236 Y49.000 Z-1.000 F300.000
G1 X9.058 Y46.823 Z-1.000 F300.000
G1 X9.065 Y46.774 Z-1.000 F300.000
G1 X9.065 Y44.548 Z-1.000 F300.000
G1 X9.612 Y44.548 Z-1.000 F300.000
G1 X10.290 Y45.226 Z-1.000 F300.000
G1 X10.290 Y46.774 Z-1.000 F300.000
G2 X11.290 Y47.774 Z-1.000 I1.000 J-0.000 K0.000 F300.000
G1 X12.838 Y47.774 Z-1.000 F300.000
G1 X14.064 Y49.000 Z-1.000 F300.000
G1 X16.892 Y49.000 Z-1.000 F300.000
G1 X15.667 Y47.774 Z-1.000 F300.000
G1 X18.495 Y47.774 Z-1.000 F300.000
G1 X19.721 Y49.000 Z-1.000 F300.000
G1 X22.549 Y49.000 Z-1.000 F300.000
G1 X21.271 Y47.722 Z-1.000 F300.000
G2 X21.968 Y46.774 Z-1.000 I-0.286 J-0.941 K0.000 F300.000
G1 X21.968 Y45.590 Z-1.000 F300.000
G1 X23.200 Y46.822 Z-1.000 F300.000
G2 X24.146 Y47.768 Z-1.000 I0.980 J-0.034 K0.000 F300.000
G1 X25.378 Y49.000 Z-1.000 F300.000
G1 X28.206 Y49.000 Z-1.000 F300.000
G1 X26.980 Y47.774 Z-1.000 F300.000
G1 X29.809 Y47.774 Z-1.000 F300.000
G1 X31.035 Y49.000 Z-1.000 F300.000
G1 X33.863 Y49.000 Z-1.000 F300.000
G1 X32.637 Y47.774 Z-1.000 F300.000
G1 X35.466 Y47.774 Z-1.000 F300.000
G1 X36.691 Y49.000 Z-1.000 F300.000
G1 X39.520 Y49.000 Z-1.000 F300.000
G1 X38.294 Y47.774 Z-1.000 F300.000
G1 X41.122 Y47.774 Z-1.000 F300.000
G1 X42.348 Y49.000 Z-1.000 F300.000
G1 X45.177 Y49.000 Z-1.000 F300.000
G1 X43.951 Y47.774 Z-1.000 F300.000
G1 X46.774 Y47.774 Z-1.000 F300.000
G1 X46.779 Y47.774 Z-1.000 F300.000
G1 X48.005 Y49.000 Z-1.000 F300.000
G1 X49.000 Y49.000 Z-1.000 F300.000
G1 X49.000 Y47.167 Z-1.000 F300.000
G1 X47.774 Y45.941 Z-1.000 F300.000
G1 X47.774 Y43.112 Z-1.000 F300.000
G1 X49.000 Y44.338 Z-1.000 F300.000
G1 X49.000 Y41.510 Z-1.000 F300.000
G1 X47.774 Y40.284 Z-1.000 F300.000
G1 X47.774 Y37.455 Z-1.000 F300.000
G1 X49.000 Y38.681 Z-1.000 F300.000
G1 X49.000 Y35.853 Z-1.000 F300.000
G1 X47.774 Y34.627 Z-1.000 F300.000
G1 X47.774 Y31.799 Z-1.000 F300.000
G1 X49.000 Y33.024 Z-1.000 F300.000
G1 X49.000 Y30.196 Z-1.000 F300.000
G1 X47.774 Y28.970 Z-1.000 F300.000
G1 X47.774 Y26.142 Z-1.000 F300.000
G1 X49.000 Y27.368 Z-1.000 F300.000
G1 X49.000 Y24.539 Z-1.000 F300.000
G1 X43.083 Y18.622 Z-1.000 F300.000
G3 X42.668 Y18.207 Z-1.000 I0.404 J-0.819 K0.000 F300.000
G1 X39.977 Y15.516 Z-1.000 F300.000
G1 X42.548 Y15.516 Z-1.000 F300.000
G1 X42.548 Y17.742 Z-1.000 F300.000
G2 X42.668 Y18.207 Z-1.000 I0.927 J0.010 K0.000 F300.000
G0 Z5.000
G0 X38.374 Y16.742 Z5.000
G0 X38.374 Y16.742 Z3.000
G1 X38.374 Y16.742 Z-1.000 F300.000
G1 X38.097 Y16.742 Z-1.000 F300.000
G1 X38.097 Y16.464 Z-1.000 F300.000
G1 X38.374 Y16.742 Z-1.000 F300.000
G0 Z5.000
G0 X36.097 Y18.742 Z5.000
G0 X36.097 Y18.742 Z3.000
G1 X36.097 Y18.742 Z-1.000 F300.000
G1 X34.718 Y18.742 Z-1.000 F300.000
G1 X36.097 Y20.121 Z-1.000 F300.000
G1 X36.097 Y18.742 Z-1.000 F300.000
G0 Z5.000
G0 X32.871 Y16.895 Z5.000
G0 X32.871 Y16.895 Z3.000
G1 X32.871 Y16.895 Z-1.000 F300.000
G1 X32.871 Y15.516 Z-1.000 F300.000
G1 X31.492 Y15.516 Z-1.000 F300.000
G1 X32.871 Y16.895 Z-1.000 F300.000
G0 Z5.000
G0 X35.149 Y13.516 Z5.000
G0 X35.149 Y13.516 Z3.000
G1 X35.149 Y13.516 Z-1.000 F300.000
G1 X34.871 Y13.516 Z-1.000 F300.000
G1 X34.871 Y13.238 Z-1.000 F300.000
G1 X35.149 Y13.516 Z-1.000 F300.000
G1 X36.097 Y13.516 Z-1.000 F300.000
G1 X36.097 Y11.636 Z-1.000 F300.000
G1 X33.406 Y8.945 Z-1.000 F300.000
G3 X32.990 Y8.530 Z-1.000 I0.403 J-0.819 K0.000 F300.000
G1 X28.419 Y3.958 Z-1.000 F300.000
G1 X28.419 Y2.613 Z-1.000 F300.000
G1 X29.902 Y2.613 Z-1.000 F300.000
G1 X32.871 Y5.582 Z-1.000 F300.000
G1 X32.871 Y2.753 Z-1.000 F300.000
G1 X31.645 Y1.527 Z-1.000 F300.000
G1 X31.645 Y-1.301 Z-1.000 F300.000
G1 X32.871 Y-0.075 Z-1.000 F300.000
G1 X32.871 Y-2.904 Z-1.000 F300.000
G1 X31.479 Y-4.296 Z-1.000 F300.000
G2 X31.645 Y-4.839 Z-1.000 I-0.572 J-0.472 K0.000 F300.000
G1 X31.645 Y-6.958 Z-1.000 F300.000
G1 X32.871 Y-5.732 Z-1.000 F300.000
G1 X32.871 Y-8.561 Z-1.000 F300.000
G1 X28.419 Y-13.012 Z-1.000 F300.000
G0 Z5.000
G0 X29.645 Y-14.615 Z5.000
G0 X29.645 Y-14.615 Z3.000
G1 X29.645 Y-14.615 Z-1.000 F300.000
G1 X29.645 Y-16.742 Z-1.000 F300.000
G1 X27.518 Y-16.742 Z-1.000 F300.000
G1 X29.645 Y-14.615 Z-1.000 F300.000
G0 Z5.000
G0 X28.419 Y-10.184 Z5.000
G0 X28.419 Y-10.184 Z3.000
G1 X28.419 Y-10.184 Z-1.000 F300.000
G1 X29.539 Y-9.065 Z-1.000 F300.000
G1 X28.419 Y-9.065 Z-1.000 F300.000
G1 X28.419 Y-10.184 Z-1.000 F300.000
G0 Z5.000
G0 X23.194 Y-12.581 Z5.000
G0 X23.194 Y-12.581 Z3.000
G1 X23.194 Y-12.581 Z-1.000 F300.000
G1 X19.033 Y-16.742 Z-1.000 F300.000
G1 X21.861 Y-16.742 Z-1.000 F300.000
G1 X23.440 Y-15.163 Z-1.000 F300.000
G3 X24.194 Y-15.516 Z-1.000 I0.741 J0.600 K0.000 F300.000
G1 X25.915 Y-15.516 Z-1.000 F300.000
G1 X24.690 Y-16.742 Z-1.000 F300.000
G1 X27.518 Y-16.742 Z-1.000 F300.000
G1 X29.645 Y-14.615 Z-1.000 F300.000
G2 X30.744 Y-13.516 Z-1.000 I1.009 J0.089 K0.000 F300.000
G1 X32.882 Y-11.377 Z-1.000 F300.000
G3 X33.871 Y-12.290 Z-1.000 I0.982 J0.072 K0.000 F300.000
G1 X34.798 Y-12.290 Z-1.000 F300.000
G1 X33.572 Y-13.516 Z-1.000 F300.000
G1 X36.401 Y-13.516 Z-1.000 F300.000
G1 X37.626 Y-12.290 Z-1.000 F300.000
G1 X39.323 Y-12.290 Z-1.000 F300.000
G1 X39.323 Y-13.423 Z-1.000 F300.000
G1 X38.097 Y-14.648 Z-1.000 F300.000
G1 X38.097 Y-17.477 Z-1.000 F300.000
G1 X39.323 Y-16.251 Z-1.000 F300.000
G1 X39.323 Y-17.742 Z-1.000 F300.000
G3 X39.806 Y-18.596 Z-1.000 I0.990 J-0.003 K0.000 F300.000
G1 X38.434 Y-19.968 Z-1.000 F300.000
G1 X37.097 Y-19.968 Z-1.000 F300.000
G3 X36.097 Y-20.968 Z-1.000 I-0.000 J-1.000 K0.000 F300.000
G1 X36.097 Y-22.305 Z-1.000 F300.000
G1 X35.208 Y-23.194 Z-1.000 F300.000
G1 X36.097 Y-23.194 Z-1.000 F300.000
G1 X36.097 Y-22.305 Z-1.000 F300.000
G0 Z5.000
G0 X34.871 Y-20.703 Z5.000
G0 X34.871 Y-20.703 Z3.000
G1 X34.871 Y-20.703 Z-1.000 F300.000
G1 X36.832 Y-18.742 Z-1.000 F300.000
G1 X34.871 Y-18.742 Z-1.000 F300.000
G1 X34.871 Y-20.703 Z-1.000 F300.000
G0 Z5.000
G0 X39.806 Y-18.596 Z5.000
G0 X39.806 Y-18.596 Z3.000
G1 X39.806 Y-18.596 Z-1.000 F300.000
G1 X38.434 Y-19.968 Z-1.000 F300.000
G1 X41.263 Y-19.968 Z-1.000 F300.000
G1 X42.489 Y-18.742 Z-1.000 F300.000
G0 Z5.000
G0 X44.548 Y-16.682 Z5.000
G0 X44.548 Y-16.682 Z3.000
G1 X44.548 Y-16.682 Z-1.000 F300.000
G1 X45.714 Y-15.516 Z-1.000 F300.000
G1 X44.548 Y-15.516 Z-1.000 F300.000
G1 X44.548 Y-16.682 Z-1.000 F300.000
G0 Z5.000
G0 X47.747 Y-27.626 Z5.000
G0 X47.747 Y-27.626 Z3.000
G1 X47.747 Y-27.626 Z-1.000 F300.000
G1 X49.000 Y-26.373 Z-1.000 F300.000
G1 X49.000 Y-23.544 Z-1.000 F300.000
G1 X47.774 Y-24.770 Z-1.000 F300.000
G1 X47.774 Y-21.942 Z-1.000 F300.000
G1 X49.000 Y-20.716 Z-1.000 F300.000
G1 X49.000 Y-17.887 Z-1.000 F300.000
G1 X46.903 Y-19.985 Z-1.000 F300.000
G1 X46.774 Y-19.968 Z-1.000 F300.000
G1 X44.091 Y-19.968 Z-1.000 F300.000
G1 X49.000 Y-15.059 Z-1.000 F300.000
G1 X49.000 Y-12.230 Z-1.000 F300.000
G1 X47.774 Y-13.456 Z-1.000 F300.000
G1 X47.774 Y-10.628 Z-1.000 F300.000
G1 X49.000 Y-9.402 Z-1.000 F300.000
G1 X49.000 Y-6.574 Z-1.000 F300.000
G1 X47.774 Y-7.799 Z-1.000 F300.000
G1 X47.774 Y-4.971 Z-1.000 F300.000
G1 X49.000 Y-3.745 Z-1.000 F300.000
G1 X49.000 Y-0.917 Z-1.000 F300.000
G1 X46.078 Y-3.839 Z-1.000 F300.000
G1 X44.548 Y-3.839 Z-1.000 F300.000
G1 X44.548 Y-2.613 Z-1.000 F300.000
G1 X46.774 Y-2.613 Z-1.000 F300.000
G3 X47.774 Y-1.613 Z-1.000 I-0.000 J1.000 K0.000 F300.000
G1 X47.774 Y0.686 Z-1.000 F300.000
G1 X49.000 Y1.912 Z-1.000 F300.000
G1 X49.000 Y4.740 Z-1.000 F300.000
G1 X47.774 Y3.514 Z-1.000 F300.000
G1 X47.774 Y6.343 Z-1.000 F300.000
G1 X49.000 Y7.569 Z-1.000 F300.000
G1 X49.000 Y10.397 Z-1.000 F300.000
G1 X47.421 Y8.818 Z-1.000 F300.000
G3 X46.774 Y9.065 Z-1.000 I-0.641 J-0.710 K0.000 F300.000
G1 X44.839 Y9.065 Z-1.000 F300.000
G1 X46.065 Y10.290 Z-1.000 F300.000
G1 X44.548 Y10.290 Z-1.000 F300.000
G1 X44.548 Y9.065 Z-1.000 F300.000
G1 X44.839 Y9.065 Z-1.000 F300.000
G0 Z5.000
G0 X47.774 Y12.000 Z5.000
G0 X47.774 Y12.000 Z3.000
G1 X47.774 Y12.000 Z-1.000 F300.000
G1 X49.000 Y13.225 Z-1.000 F300.000
G1 X49.000 Y16.054 Z-1.000 F300.000
G1 X47.774 Y14.828 Z-1.000 F300.000
G1 X47.774 Y17.656 Z-1.000 F300.000
G1 X49.000 Y18.882 Z-1.000 F300.000
G1 X49.000 Y21.711 Z-1.000 F300.000
G1 X46.031 Y18.742 Z-1.000 F300.000
G1 X43.548 Y18.742 Z-1.000 F300.000
G3 X43.083 Y18.622 Z-1.000 I-0.010 J-0.927 K0.000 F300.000
G1 X49.000 Y24.539 Z-1.000 F300.000
G0 Z5.000
G0 X44.826 Y23.194 Z5.000
G0 X44.826 Y23.194 Z3.000
G1 X44.826 Y23.194 Z-1.000 F300.000
G1 X41.323 Y19.690 Z-1.000 F300.000
G1 X41.323 Y20.968 Z-1.000 F300.000
G3 X40.692 Y21.888 Z-1.000 I-0.966 J0.014 K0.000 F300.000
G1 X41.998 Y23.194 Z-1.000 F300.000
G1 X39.169 Y23.194 Z-1.000 F300.000
G1 X37.943 Y21.968 Z-1.000 F300.000
G3 X36.838 Y21.934 Z-1.000 I-0.423 J-4.215 K0.000 F300.000
G3 X36.097 Y20.968 Z-1.000 I0.259 J-0.966 K0.000 F300.000
G1 X36.097 Y20.121 Z-1.000 F300.000
G1 X34.718 Y18.742 Z-1.000 F300.000
G3 X33.612 Y18.708 Z-1.000 I-0.423 J-4.215 K0.000 F300.000
G3 X32.871 Y17.742 Z-1.000 I0.259 J-0.966 K0.000 F300.000
G1 X32.871 Y16.895 Z-1.000 F300.000
G1 X31.492 Y15.516 Z-1.000 F300.000
G1 X28.663 Y15.516 Z-1.000 F300.000
G1 X36.341 Y23.194 Z-1.000 F300.000
G1 X33.512 Y23.194 Z-1.000 F300.000
G1 X28.419 Y18.101 Z-1.000 F300.000
G1 X28.419 Y20.929 Z-1.000 F300.000
G1 X30.684 Y23.194 Z-1.000 F300.000
G1 X27.855 Y23.194 Z-1.000 F300.000
G1 X26.630 Y21.968 Z-1.000 F300.000
G1 X23.801 Y21.968 Z-1.000 F300.000
G1 X25.027 Y23.194 Z-1.000 F300.000
G2 X23.935 Y23.228 Z-1.000 I-0.417 J4.166 K0.000 F300.000
G2 X23.194 Y24.189 Z-1.000 I0.258 J0.964 K0.000 F300.000
G1 X20.973 Y21.968 Z-1.000 F300.000
G1 X18.742 Y21.968 Z-1.000 F300.000
G1 X18.742 Y22.565 Z-1.000 F300.000
G1 X19.370 Y23.194 Z-1.000 F300.000
G1 X18.742 Y23.194 Z-1.000 F300.000
G1 X18.742 Y22.565 Z-1.000 F300.000
G0 Z5.000
G0 X28.419 Y9.615 Z5.000
G0 X28.419 Y9.615 Z3.000
G1 X28.419 Y9.615 Z-1.000 F300.000
G1 X29.094 Y10.290 Z-1.000 F300.000
G1 X28.419 Y10.290 Z-1.000 F300.000
G1 X28.419 Y9.615 Z-1.000 F300.000
G1 X28.419 Y6.787 Z-1.000 F300.000
G1 X31.923 Y10.290 Z-1.000 F300.000
G0 Z5.000
G0 X36.097 Y11.636 Z5.000
G0 X36.097 Y11.636 Z3.000
G1 X36.097 Y11.636 Z-1.000 F300.000
G1 X33.406 Y8.945 Z-1.000 F300.000
G2 X33.871 Y9.065 Z-1.000 I0.455 J-0.808 K0.000 F300.000
G1 X36.354 Y9.065 Z-1.000 F300.000
G1 X37.580 Y10.290 Z-1.000 F300.000
G1 X39.323 Y10.290 Z-1.000 F300.000
G1 X39.323 Y9.205 Z-1.000 F300.000
G1 X38.097 Y7.979 Z-1.000 F300.000
G1 X38.097 Y5.151 Z-1.000 F300.000
G1 X39.323 Y6.376 Z-1.000 F300.000
G1 X39.323 Y4.839 Z-1.000 F300.000
G3 X39.780 Y4.005 Z-1.000 I0.976 J-0.006 K0.000 F300.000
G1 X38.097 Y2.322 Z-1.000 F300.000
G1 X38.097 Y-0.506 Z-1.000 F300.000
G1 X39.323 Y0.720 Z-1.000 F300.000
G1 X39.323 Y1.613 Z-1.000 F300.000
G2 X40.064 Y2.579 Z-1.000 I1.000 J0.000 K0.000 F300.000
G2 X41.216 Y2.613 Z-1.000 I0.706 J-4.359 K0.000 F300.000
G1 X42.442 Y3.839 Z-1.000 F300.000
G1 X42.548 Y3.839 Z-1.000 F300.000
G1 X42.548 Y2.613 Z-1.000 F300.000
G1 X41.216 Y2.613 Z-1.000 F300.000
G0 Z5.000
G0 X38.097 Y-0.506 Z5.000
G0 X38.097 Y-0.506 Z3.000
G1 X38.097 Y-0.506 Z-1.000 F300.000
G1 X39.323 Y0.720 Z-1.000 F300.000
G1 X39.323 Y-2.109 Z-1.000 F300.000
G1 X38.097 Y-3.335 Z-1.000 F300.000
G1 X38.097 Y-6.163 Z-1.000 F300.000
G1 X39.323 Y-4.937 Z-1.000 F300.000
G1 X39.323 Y-7.065 Z-1.000 F300.000
G1 X38.097 Y-7.065 Z-1.000 F300.000
G1 X38.097 Y-6.163 Z-1.000 F300.000
G0 Z5.000
G0 X30.333 Y-2.613 Z5.000
G0 X30.333 Y-2.613 Z3.000
G1 X30.333 Y-2.613 Z-1.000 F300.000
G1 X29.107 Y-3.839 Z-1.000 F300.000
G1 X26.279 Y-3.839 Z-1.000 F300.000
G1 X27.505 Y-2.613 Z-1.000 F300.000
G2 X26.419 Y-1.613 Z-1.000 I-0.080 J1.002 K0.000 F300.000
G1 X26.419 Y-0.870 Z-1.000 F300.000
G1 X25.194 Y-2.096 Z-1.000 F300.000
G3 X25.159 Y-1.354 Z-1.000 I-2.834 J0.241 K0.000 F300.000
G3 X24.194 Y-0.613 Z-1.000 I-0.966 J-0.259 K0.000 F300.000
G1 X23.848 Y-0.613 Z-1.000 F300.000
G1 X25.074 Y0.613 Z-1.000 F300.000
G1 X22.245 Y0.613 Z-1.000 F300.000
G1 X21.020 Y-0.613 Z-1.000 F300.000
G1 X18.191 Y-0.613 Z-1.000 F300.000
G1 X19.417 Y0.613 Z-1.000 F300.000
G0 Z5.000
G0 X16.742 Y-2.062 Z5.000
G0 X16.742 Y-2.062 Z3.000
G1 X16.742 Y-2.062 Z-1.000 F300.000
G1 X14.965 Y-3.839 Z-1.000 F300.000
G1 X16.742 Y-3.839 Z-1.000 F300.000
G1 X16.742 Y-2.062 Z-1.000 F300.000
G0 Z5.000
G0 X13.363 Y-2.613 Z5.000
G0 X13.363 Y-2.613 Z3.000
G1 X13.363 Y-2.613 Z-1.000 F300.000
G1 X9.065 Y-6.911 Z-1.000 F300.000
G1 X9.065 Y-4.083 Z-1.000 F300.000
G1 X9.065 Y-2.613 Z-1.000 F300.000
G1 X10.534 Y-2.613 Z-1.000 F300.000
G1 X9.065 Y-4.083 Z-1.000 F300.000
G0 Z5.000
G0 X13.516 Y-5.288 Z5.000
G0 X13.516 Y-5.288 Z3.000
G1 X13.516 Y-5.288 Z-1.000 F300.000
G1 X13.516 Y-7.065 Z-1.000 F300.000
G1 X11.740 Y-7.065 Z-1.000 F300.000
G1 X13.516 Y-5.288 Z-1.000 F300.000
G2 X13.550 Y-4.580 Z-1.000 I2.706 J0.225 K0.000 F300.000
G2 X14.516 Y-3.839 Z-1.000 I0.966 J-0.259 K0.000 F300.000
G1 X14.965 Y-3.839 Z-1.000 F300.000
G1 X16.742 Y-2.062 Z-1.000 F300.000
G2 X16.776 Y-1.354 Z-1.000 I2.706 J0.225 K0.000 F300.000
G2 X17.742 Y-0.613 Z-1.000 I0.966 J-0.259 K0.000 F300.000
G1 X18.191 Y-0.613 Z-1.000 F300.000
G1 X19.417 Y0.613 Z-1.000 F300.000
G1 X17.742 Y0.613 Z-1.000 F300.000
G2 X16.968 Y0.993 Z-1.000 I-0.013 J0.952 K0.000 F300.000
G1 X15.516 Y-0.460 Z-1.000 F300.000
G1 X15.516 Y1.613 Z-1.000 F300.000
G3 X15.329 Y2.182 Z-1.000 I-0.780 J0.059 K0.000 F300.000
G1 X16.742 Y3.595 Z-1.000 F300.000
G1 X16.742 Y3.839 Z-1.000 F300.000
G1 X14.157 Y3.839 Z-1.000 F300.000
G1 X12.932 Y2.613 Z-1.000 F300.000
G1 X12.290 Y2.613 Z-1.000 F300.000
G1 X12.290 Y3.839 Z-1.000 F300.000
G1 X14.157 Y3.839 Z-1.000 F300.000
G0 Z5.000
G0 X9.342 Y-12.290 Z5.000
G0 X9.342 Y-12.290 Z3.000
G1 X9.342 Y-12.290 Z-1.000 F300.000
G1 X9.065 Y-12.568 Z-1.000 F300.000
G1 X9.065 Y-12.290 Z-1.000 F300.000
G1 X9.342 Y-12.290 Z-1.000 F300.000
G1 X12.171 Y-12.290 Z-1.000 F300.000
G1 X10.945 Y-13.516 Z-1.000 F300.000
G1 X11.290 Y-13.516 Z-1.000 F300.000
G2 X12.256 Y-14.257 Z-1.000 I0.000 J-1.000 K0.000 F300.000
G2 X12.290 Y-14.999 Z-1.000 I-2.800 J-0.500 K0.000 F300.000
G1 X16.742 Y-10.547 Z-1.000 F300.000
G1 X16.742 Y-11.290 Z-1.000 F300.000
G3 X17.827 Y-12.290 Z-1.000 I1.005 J0.002 K0.000 F300.000
G1 X12.277 Y-17.840 Z-1.000 F300.000
G0 Z5.000
G0 X10.150 Y-19.968 Z5.000
G0 X10.150 Y-19.968 Z3.000
G1 X10.150 Y-19.968 Z-1.000 F300.000
G1 X11.389 Y-18.729 Z-1.000 F300.000
G1 X11.290 Y-18.742 Z-1.000 F300.000
G1 X9.065 Y-18.742 Z-1.000 F300.000
G1 X9.065 Y-19.968 Z-1.000 F300.000
G1 X10.150 Y-19.968 Z-1.000 F300.000
G1 X11.290 Y-19.968 Z-1.000 F300.000
G2 X12.251 Y-20.696 Z-1.000 I0.001 J-0.996 K0.000 F300.000
G1 X20.656 Y-12.290 Z-1.000 F300.000
G1 X23.194 Y-12.290 Z-1.000 F300.000
G1 X23.194 Y-12.581 Z-1.000 F300.000
G1 X19.033 Y-16.742 Z-1.000 F300.000
G1 X17.742 Y-16.742 Z-1.000 F300.000
G3 X16.742 Y-17.742 Z-1.000 I-0.000 J-1.000 K0.000 F300.000
G1 X16.742 Y-19.033 Z-1.000 F300.000
G1 X15.807 Y-19.968 Z-1.000 F300.000
G1 X14.516 Y-19.968 Z-1.000 F300.000
G3 X13.516 Y-20.968 Z-1.000 I-0.000 J-1.000 K0.000 F300.000
G1 X13.516 Y-22.258 Z-1.000 F300.000
G1 X12.581 Y-23.194 Z-1.000 F300.000
G1 X13.516 Y-23.194 Z-1.000 F300.000
G1 X13.516 Y-22.258 Z-1.000 F300.000
G0 Z5.000
G0 X15.807 Y-19.968 Z5.000
G0 X15.807 Y-19.968 Z3.000
G1 X15.807 Y-19.968 Z-1.000 F300.000
G1 X16.742 Y-19.968 Z-1.000 F300.000
G1 X16.742 Y-19.033 Z-1.000 F300.000
G1 X15.807 Y-19.968 Z-1.000 F300.000
G0 Z5.000
G0 X6.958 Y-31.645 Z5.000
G0 X6.958 Y-31.645 Z3.000
G1 X6.958 Y-31.645 Z-1.000 F300.000
G1 X5.839 Y-31.645 Z-1.000 F300.000
G1 X5.839 Y-32.764 Z-1.000 F300.000
G1 X6.958 Y-31.645 Z-1.000 F300.000
G1 X7.065 Y-31.645 Z-1.000 F300.000
G1 X7.065 Y-33.871 Z-1.000 F300.000
G3 X7.158 Y-34.273 Z-1.000 I0.798 J-0.027 K0.000 F300.000
G1 X5.335 Y-36.097 Z-1.000 F300.000
G1 X4.839 Y-36.097 Z-1.000 F300.000
G3 X3.873 Y-36.838 Z-1.000 I-0.000 J-1.000 K0.000 F300.000
G3 X3.839 Y-37.593 Z-1.000 I2.850 J-0.507 K0.000 F300.000
G1 X2.613 Y-38.819 Z-1.000 F300.000
G1 X2.613 Y-41.647 Z-1.000 F300.000
G1 X3.850 Y-40.410 Z-1.000 F300.000
G3 X4.839 Y-41.323 Z-1.000 I0.982 J0.072 K0.000 F300.000
G1 X5.766 Y-41.323 Z-1.000 F300.000
G1 X4.454 Y-42.635 Z-1.000 F300.000
G3 X3.925 Y-43.163 Z-1.000 I0.312 J-0.840 K0.000 F300.000
G1 X2.613 Y-44.475 Z-1.000 F300.000
G1 X2.613 Y-44.475 Z-1.000 F300.000
G1 X2.613 Y-37.097 Z-1.000 F300.000
G3 X1.613 Y-36.097 Z-1.000 I-1.000 J-0.000 K0.000 F300.000
G1 X-20.968 Y-36.097 Z-1.000 F300.000
G3 X-21.968 Y-37.097 Z-1.000 I0.000 J-1.000 K0.000 F300.000
G1 X-21.968 Y-46.774 Z-1.000 F300.000
G3 X-20.968 Y-47.774 Z-1.000 I1.000 J0.000 K0.000 F300.000
G1 X1.613 Y-47.774 Z-1.000 F300.000
G3 X2.613 Y-46.774 Z-1.000 I-0.000 J1.000 K0.000 F300.000
G1 X2.613 Y-44.475 Z-1.000 F300.000
G1 X3.839 Y-44.475 Z-1.000 F300.000
G1 X3.839 Y-46.774 Z-1.000 F300.000
G3 X4.839 Y-47.774 Z-1.000 I1.000 J0.000 K0.000 F300.000
G1 X8.065 Y-47.774 Z-1.000 F300.000
G3 X9.065 Y-46.774 Z-1.000 I-0.000 J1.000 K0.000 F300.000
G1 X9.065 Y-43.548 Z-1.000 F300.000
G3 X8.065 Y-42.548 Z-1.000 I-1.000 J-0.000 K0.000 F300.000
G1 X4.839 Y-42.548 Z-1.000 F300.000
G3 X3.839 Y-43.548 Z-1.000 I0.000 J-1.000 K0.000 F300.000
G1 X3.839 Y-44.475 Z-1.000 F300.000
G0 Z5.000
G0 X4.605 Y-41.295 Z5.000
G0 X4.605 Y-41.295 Z3.000
G1 X4.605 Y-41.295 Z-1.000 F300.000
G3 X4.839 Y-41.323 Z-1.000 I0.234 J0.972 K0.000 F300.000
G1 X8.065 Y-41.323 Z-1.000 F300.000
G3 X9.065 Y-40.323 Z-1.000 I-0.000 J1.000 K0.000 F300.000
G1 X9.065 Y-37.097 Z-1.000 F300.000
G3 X8.065 Y-36.097 Z-1.000 I-1.000 J-0.000 K0.000 F300.000
G1 X4.839 Y-36.097 Z-1.000 F300.000
G3 X3.839 Y-37.097 Z-1.000 I0.000 J-1.000 K0.000 F300.000
G1 X3.839 Y-40.323 Z-1.000 F300.000
G3 X4.605 Y-41.295 Z-1.000 I1.000 J0.000 K0.000 F300.000
G0 Z5.000
G0 X9.065 Y-38.024 Z5.000
G0 X9.065 Y-38.024 Z3.000
G1 X9.065 Y-38.024 Z-1.000 F300.000
G1 X10.290 Y-36.798 Z-1.000 F300.000
G1 X10.290 Y-34.871 Z-1.000 F300.000
G1 X9.389 Y-34.871 Z-1.000 F300.000
G1 X8.152 Y-36.108 Z-1.000 F300.000
G1 X8.065 Y-36.097 Z-1.000 F300.000
G1 X5.335 Y-36.097 Z-1.000 F300.000
G1 X7.158 Y-34.273 Z-1.000 F300.000
G0 Z5.000
G0 X3.732 Y-34.871 Z5.000
G0 X3.732 Y-34.871 Z3.000
G1 X3.732 Y-34.871 Z-1.000 F300.000
G1 X2.260 Y-36.343 Z-1.000 F300.000
G3 X1.613 Y-36.097 Z-1.000 I-0.641 J-0.710 K0.000 F300.000
G1 X-0.322 Y-36.097 Z-1.000 F300.000
G1 X0.904 Y-34.871 Z-1.000 F300.000
G1 X-1.925 Y-34.871 Z-1.000 F300.000
G1 X-3.151 Y-36.097 Z-1.000 F300.000
G1 X-5.979 Y-36.097 Z-1.000 F300.000
G1 X-4.753 Y-34.871 Z-1.000 F300.000
G1 X-7.582 Y-34.871 Z-1.000 F300.000
G1 X-8.807 Y-36.097 Z-1.000 F300.000
G1 X-11.636 Y-36.097 Z-1.000 F300.000
G1 X-10.410 Y-34.871 Z-1.000 F300.000
G2 X-11.549 Y-34.837 Z-1.000 I-0.440 J4.343 K0.000 F300.000
G2 X-12.284 Y-33.917 Z-1.000 I0.248 J0.952 K0.000 F300.000
G1 X-14.464 Y-36.097 Z-1.000 F300.000
G1 X-17.293 Y-36.097 Z-1.000 F300.000
G1 X-16.067 Y-34.871 Z-1.000 F300.000
G1 X-18.895 Y-34.871 Z-1.000 F300.000
G1 X-20.121 Y-36.097 Z-1.000 F300.000
G3 X-21.227 Y-36.131 Z-1.000 I-0.423 J-4.215 K0.000 F300.000
G3 X-21.968 Y-37.097 Z-1.000 I0.259 J-0.966 K0.000 F300.000
G1 X-21.968 Y-37.943 Z-1.000 F300.000
G1 X-23.194 Y-39.169 Z-1.000 F300.000
G1 X-23.194 Y-36.341 Z-1.000 F300.000
G1 X-21.537 Y-34.684 Z-1.000 F300.000
G2 X-21.968 Y-33.871 Z-1.000 I0.534 J0.804 K0.000 F300.000
G1 X-21.968 Y-32.287 Z-1.000 F300.000
G1 X-23.194 Y-33.512 Z-1.000 F300.000
G1 X-23.194 Y-30.684 Z-1.000 F300.000
G1 X-21.968 Y-29.458 Z-1.000 F300.000
G1 X-21.968 Y-26.630 Z-1.000 F300.000
G1 X-23.194 Y-27.855 Z-1.000 F300.000
G1 X-23.194 Y-25.027 Z-1.000 F300.000
G1 X-21.968 Y-23.801 Z-1.000 F300.000
G1 X-21.968 Y-20.973 Z-1.000 F300.000
G1 X-24.189 Y-23.194 Z-1.000 F300.000
G1 X-24.194 Y-23.194 Z-1.000 F300.000
G1 X-46.774 Y-23.194 Z-1.000 F300.000
G3 X-47.774 Y-24.194 Z-1.000 I0.000 J-1.000 K0.000 F300.000
G1 X-47.774 Y-46.774 Z-1.000 F300.000
G3 X-46.774 Y-47.774 Z-1.000 I1.000 J0.000 K0.000 F300.000
G1 X-24.194 Y-47.774 Z-1.000 F300.000
G3 X-23.194 Y-46.774 Z-1.000 I-0.000 J1.000 K0.000 F300.000
G1 X-23.194 Y-24.194 Z-1.000 F300.000
G3 X-24.194 Y-23.194 Z-1.000 I-1.000 J-0.000 K0.000 F300.000
G0 Z5.000
G0 X-23.194 Y-19.370 Z5.000
G0 X-23.194 Y-19.370 Z3.000
G1 X-23.194 Y-19.370 Z-1.000 F300.000
G1 X-23.194 Y-18.742 Z-1.000 F300.000
G1 X-22.565 Y-18.742 Z-1.000 F300.000
G1 X-23.194 Y-19.370 Z-1.000 F300.000
G0 Z5.000
G0 X-20.963 Y-19.968 Z5.000
G0 X-20.963 Y-19.968 Z3.000
G1 X-20.963 Y-19.968 Z-1.000 F300.000
G1 X-18.742 Y-19.968 Z-1.000 F300.000
G1 X-18.742 Y-18.742 Z-1.000 F300.000
G1 X-19.737 Y-18.742 Z-1.000 F300.000
G1 X-20.963 Y-19.968 Z-1.000 F300.000
G3 X-21.968 Y-20.973 Z-1.000 I-0.005 J-1.000 K0.000 F300.000
G1 X-24.189 Y-23.194 Z-1.000 F300.000
G1 X-24.194 Y-23.194 Z-1.000 F300.000
G1 X-27.017 Y-23.194 Z-1.000 F300.000
G1 X-25.791 Y-21.968 Z-1.000 F300.000
G1 X-28.620 Y-21.968 Z-1.000 F300.000
G1 X-29.845 Y-23.194 Z-1.000 F300.000
G1 X-32.674 Y-23.194 Z-1.000 F300.000
G1 X-31.448 Y-21.968 Z-1.000 F300.000
G1 X-33.871 Y-21.968 Z-1.000 F300.000
G2 X-34.209 Y-21.901 Z-1.000 I-0.044 J0.665 K0.000 F300.000
G1 X-35.502 Y-23.194 Z-1.000 F300.000
G1 X-38.331 Y-23.194 Z-1.000 F300.000
G1 X-37.105 Y-21.968 Z-1.000 F300.000
G1 X-39.933 Y-21.968 Z-1.000 F300.000
G1 X-41.159 Y-23.194 Z-1.000 F300.000
G1 X-43.987 Y-23.194 Z-1.000 F300.000
G1 X-41.323 Y-20.529 Z-1.000 F300.000
G1 X-41.323 Y-18.742 Z-1.000 F300.000
G1 X-42.364 Y-18.742 Z-1.000 F300.000
G1 X-42.548 Y-18.926 Z-1.000 F300.000
G1 X-42.548 Y-18.742 Z-1.000 F300.000
G1 X-42.364 Y-18.742 Z-1.000 F300.000
G0 Z5.000
G0 X-46.021 Y-16.742 Z5.000
G0 X-46.021 Y-16.742 Z3.000
G1 X-46.021 Y-16.742 Z-1.000 F300.000
G1 X-44.548 Y-16.742 Z-1.000 F300.000
G1 X-44.548 Y-15.516 Z-1.000 F300.000
G1 X-44.795 Y-15.516 Z-1.000 F300.000
G1 X-46.021 Y-16.742 Z-1.000 F300.000
G3 X-47.033 Y-16.776 Z-1.000 I-0.377 J-3.860 K0.000 F300.000
G3 X-47.774 Y-17.742 Z-1.000 I0.259 J-0.966 K0.000 F300.000
G1 X-47.774 Y-18.495 Z-1.000 F300.000
G1 X-49.000 Y-19.721 Z-1.000 F300.000
G1 X-49.000 Y-16.892 Z-1.000 F300.000
G1 X-47.396 Y-15.289 Z-1.000 F300.000
G2 X-47.774 Y-14.516 Z-1.000 I0.574 J0.760 K0.000 F300.000
G1 X-47.774 Y-12.838 Z-1.000 F300.000
G1 X-49.000 Y-14.064 Z-1.000 F300.000
G0 Z5.000
G0 Y-19.721 Z5.000
G0 Y-19.721 Z3.000
G1 X-49.000 Y-19.721 Z-1.000 F300.000
G1 X-47.774 Y-18.495 Z-1.000 F300.000
G1 X-47.774 Y-20.968 Z-1.000 F300.000
G3 X-47.722 Y-21.271 Z-1.000 I0.592 J-0.054 K0.000 F300.000
G1 X-49.000 Y-22.549 Z-1.000 F300.000
G1 X-49.000 Y-25.378 Z-1.000 F300.000
G1 X-47.768 Y-24.146 Z-1.000 F300.000
G2 X-46.822 Y-23.200 Z-1.000 I0.980 J-0.034 K0.000 F300.000
G1 X-45.590 Y-21.968 Z-1.000 F300.000
G0 Z5.000
G0 X-49.000 Y-25.378 Z5.000
G0 X-49.000 Y-25.378 Z3.000
G1 X-49.000 Y-25.378 Z-1.000 F300.000
G1 X-47.768 Y-24.146 Z-1.000 F300.000
G1 X-47.774 Y-24.194 Z-1.000 F300.000
G1 X-47.774 Y-26.980 Z-1.000 F300.000
G1 X-49.000 Y-28.206 Z-1.000 F300.000
G1 X-49.000 Y-31.035 Z-1.000 F300.000
G1 X-47.774 Y-29.809 Z-1.000 F300.000
G1 X-47.774 Y-32.637 Z-1.000 F300.000
G1 X-49.000 Y-33.863 Z-1.000 F300.000
G1 X-49.000 Y-36.691 Z-1.000 F300.000
G1 X-47.774 Y-35.466 Z-1.000 F300.000
G1 X-47.774 Y-38.294 Z-1.000 F300.000
G1 X-49.000 Y-39.520 Z-1.000 F300.000
G1 X-49.000 Y-42.348 Z-1.000 F300.000
G1 X-47.774 Y-41.122 Z-1.000 F300.000
G1 X-47.774 Y-43.951 Z-1.000 F300.000
G1 X-49.000 Y-45.177 Z-1.000 F300.000
G1 X-49.000 Y-48.005 Z-1.000 F300.000
G1 X-47.774 Y-46.779 Z-1.000 F300.000
G3 X-47.033 Y-47.740 Z-1.000 I0.998 J0.003 K0.000 F300.000
G3 X-45.941 Y-47.774 Z-1.000 I0.676 J4.131 K0.000 F300.000
G1 X-47.167 Y-49.000 Z-1.000 F300.000
G1 X-44.338 Y-49.000 Z-1.000 F300.000
G1 X-43.112 Y-47.774 Z-1.000 F300.000
G1 X-40.284 Y-47.774 Z-1.000 F300.000
G1 X-41.510 Y-49.000 Z-1.000 F300.000
G1 X-38.681 Y-49.000 Z-1.000 F300.000
G1 X-37.455 Y-47.774 Z-1.000 F300.000
G1 X-34.627 Y-47.774 Z-1.000 F300.000
G1 X-35.853 Y-49.000 Z-1.000 F300.000
G1 X-33.024 Y-49.000 Z-1.000 F300.000
G1 X-31.799 Y-47.774 Z-1.000 F300.000
G1 X-28.970 Y-47.774 Z-1.000 F300.000
G1 X-30.196 Y-49.000 Z-1.000 F300.000
G1 X-27.368 Y-49.000 Z-1.000 F300.000
G1 X-26.142 Y-47.774 Z-1.000 F300.000
G0 Z5.000
G0 X-23.194 Y-39.169 Z5.000
G0 X-23.194 Y-39.169 Z3.000
G1 X-23.194 Y-39.169 Z-1.000 F300.000
G1 X-21.968 Y-37.943 Z-1.000 F300.000
G1 X-21.968 Y-40.772 Z-1.000 F300.000
G1 X-23.194 Y-41.998 Z-1.000 F300.000
G1 X-23.194 Y-44.826 Z-1.000 F300.000
G1 X-21.968 Y-43.600 Z-1.000 F300.000
G1 X-21.968 Y-46.429 Z-1.000 F300.000
G1 X-24.539 Y-49.000 Z-1.000 F300.000
G1 X-21.711 Y-49.000 Z-1.000 F300.000
G1 X-20.485 Y-47.774 Z-1.000 F300.000
G1 X-17.656 Y-47.774 Z-1.000 F300.000
G1 X-18.882 Y-49.000 Z-1.000 F300.000
G1 X-16.054 Y-49.000 Z-1.000 F300.000
G1 X-14.828 Y-47.774 Z-1.000 F300.000
G1 X-12.000 Y-47.774 Z-1.000 F300.000
G1 X-13.225 Y-49.000 Z-1.000 F300.000
G1 X-10.397 Y-49.000 Z-1.000 F300.000
G1 X-9.171 Y-47.774 Z-1.000 F300.000
G1 X-6.343 Y-47.774 Z-1.000 F300.000
G1 X-7.569 Y-49.000 Z-1.000 F300.000
G1 X-4.740 Y-49.000 Z-1.000 F300.000
G1 X-3.514 Y-47.774 Z-1.000 F300.000
G1 X-0.686 Y-47.774 Z-1.000 F300.000
G1 X-1.912 Y-49.000 Z-1.000 F300.000
G1 X0.917 Y-49.000 Z-1.000 F300.000
G1 X3.839 Y-46.078 Z-1.000 F300.000
G1 X3.839 Y-46.774 Z-1.000 F300.000
G3 X4.971 Y-47.774 Z-1.000 I1.012 J0.005 K0.000 F300.000
G1 X3.745 Y-49.000 Z-1.000 F300.000
G1 X6.574 Y-49.000 Z-1.000 F300.000
G1 X7.799 Y-47.774 Z-1.000 F300.000
G0 Z5.000
G0 X13.456 Z5.000
G0 X13.456 Z3.000
G1 X13.456 Y-47.774 Z-1.000 F300.000
G1 X12.230 Y-49.000 Z-1.000 F300.000
G1 X9.402 Y-49.000 Z-1.000 F300.000
G1 X10.774 Y-47.628 Z-1.000 F300.000
G2 X10.290 Y-46.774 Z-1.000 I0.507 J0.851 K0.000 F300.000
G1 X10.290 Y-45.283 Z-1.000 F300.000
G1 X9.065 Y-46.509 Z-1.000 F300.000
G1 X9.065 Y-43.681 Z-1.000 F300.000
G1 X10.290 Y-42.455 Z-1.000 F300.000
G1 X10.290 Y-39.626 Z-1.000 F300.000
G1 X7.368 Y-42.548 Z-1.000 F300.000
G1 X4.839 Y-42.548 Z-1.000 F300.000
G3 X4.454 Y-42.635 Z-1.000 I-0.031 J-0.762 K0.000 F300.000
G1 X5.766 Y-41.323 Z-1.000 F300.000
G1 X8.065 Y-41.323 Z-1.000 F300.000
G3 X9.065 Y-40.323 Z-1.000 I-0.000 J1.000 K0.000 F300.000
G1 X9.065 Y-38.024 Z-1.000 F300.000
G1 X10.290 Y-36.798 Z-1.000 F300.000
G0 Z5.000
G0 X16.682 Y-44.548 Z5.000
G0 X16.682 Y-44.548 Z3.000
G1 X16.682 Y-44.548 Z-1.000 F300.000
G1 X15.516 Y-44.548 Z-1.000 F300.000
G1 X15.516 Y-45.714 Z-1.000 F300.000
G1 X16.682 Y-44.548 Z-1.000 F300.000
G1 X16.742 Y-44.548 Z-1.000 F300.000
G1 X16.742 Y-46.774 Z-1.000 F300.000
G3 X16.849 Y-47.210 Z-1.000 I0.866 J-0.018 K0.000 F300.000
G1 X15.059 Y-49.000 Z-1.000 F300.000
G1 X17.887 Y-49.000 Z-1.000 F300.000
G1 X19.113 Y-47.774 Z-1.000 F300.000
G1 X17.887 Y-49.000 Z-1.000 F300.000
G1 X19.113 Y-47.774 Z-1.000 F300.000
G1 X20.968 Y-47.774 Z-1.000 F300.000
G3 X21.968 Y-46.774 Z-1.000 I-0.000 J1.000 K0.000 F300.000
G1 X21.968 Y-44.920 Z-1.000 F300.000
G1 X23.194 Y-43.694 Z-1.000 F300.000
G1 X23.194 Y-46.522 Z-1.000 F300.000
G1 X20.716 Y-49.000 Z-1.000 F300.000
G1 X23.544 Y-49.000 Z-1.000 F300.000
G1 X24.770 Y-47.774 Z-1.000 F300.000
G1 X27.598 Y-47.774 Z-1.000 F300.000
G1 X26.373 Y-49.000 Z-1.000 F300.000
G1 X29.201 Y-49.000 Z-1.000 F300.000
G1 X30.427 Y-47.774 Z-1.000 F300.000
G1 X33.255 Y-47.774 Z-1.000 F300.000
G1 X32.029 Y-49.000 Z-1.000 F300.000
G1 X34.858 Y-49.000 Z-1.000 F300.000
G1 X36.084 Y-47.774 Z-1.000 F300.000
G1 X36.084 Y-47.774 Z-1.000 F300.000
G1 X37.097 Y-47.774 Z-1.000 F300.000
G3 X38.097 Y-46.774 Z-1.000 I-0.000 J1.000 K0.000 F300.000
G1 X38.097 Y-43.548 Z-1.000 F300.000
G3 X37.097 Y-42.548 Z-1.000 I-1.000 J-0.000 K0.000 F300.000
G1 X24.194 Y-42.548 Z-1.000 F300.000
G3 X23.194 Y-43.548 Z-1.000 I-0.000 J-1.000 K0.000 F300.000
G1 X23.194 Y-46.774 Z-1.000 F300.000
G3 X24.194 Y-47.774 Z-1.000 I1.000 J0.000 K0.000 F300.000
G1 X36.084 Y-47.774 Z-1.000 F300.000
G0 Z5.000
G0 X39.349 Y-47.004 Z5.000
G0 X39.349 Y-47.004 Z3.000
G1 X39.349 Y-47.004 Z-1.000 F300.000
G3 X40.323 Y-47.774 Z-1.000 I0.973 J0.230 K0.000 F300.000
G1 X46.774 Y-47.774 Z-1.000 F300.000
G3 X47.774 Y-46.774 Z-1.000 I-0.000 J1.000 K0.000 F300.000
G1 X47.774 Y-43.548 Z-1.000 F300.000
G3 X46.774 Y-42.548 Z-1.000 I-1.000 J-0.000 K0.000 F300.000
G1 X44.548 Y-42.548 Z-1.000 F300.000
G1 X44.548 Y-41.323 Z-1.000 F300.000
G1 X46.774 Y-41.323 Z-1.000 F300.000
G3 X47.774 Y-40.323 Z-1.000 I-0.000 J1.000 K0.000 F300.000
G1 X47.774 Y-37.097 Z-1.000 F300.000
G3 X46.774 Y-36.097 Z-1.000 I-1.000 J-0.000 K0.000 F300.000
G1 X43.548 Y-36.097 Z-1.000 F300.000
G3 X42.548 Y-37.097 Z-1.000 I-0.000 J-1.000 K0.000 F300.000
G1 X42.548 Y-39.323 Z-1.000 F300.000
G1 X40.323 Y-39.323 Z-1.000 F300.000
G3 X39.323 Y-40.323 Z-1.000 I-0.000 J-1.000 K0.000 F300.000
G1 X39.323 Y-46.774 Z-1.000 F300.000
G3 X39.349 Y-47.004 Z-1.000 I1.000 J0.000 K0.000 F300.000
G0 Z5.000
G0 X36.878 Y-41.323 Z5.000
G0 X36.878 Y-41.323 Z3.000
G1 X36.878 Y-41.323 Z-1.000 F300.000
G1 X35.653 Y-42.548 Z-1.000 F300.000
G1 X32.824 Y-42.548 Z-1.000 F300.000
G1 X34.050 Y-41.323 Z-1.000 F300.000
G1 X31.222 Y-41.323 Z-1.000 F300.000
G1 X29.996 Y-42.548 Z-1.000 F300.000
G1 X27.167 Y-42.548 Z-1.000 F300.000
G1 X29.645 Y-40.071 Z-1.000 F300.000
G1 X29.645 Y-38.097 Z-1.000 F300.000
G1 X28.791 Y-38.097 Z-1.000 F300.000
G1 X24.339 Y-42.548 Z-1.000 F300.000
G3 X23.194 Y-43.694 Z-1.000 I-0.126 J-1.019 K0.000 F300.000
G1 X21.968 Y-44.920 Z-1.000 F300.000
G1 X21.968 Y-42.091 Z-1.000 F300.000
G1 X22.736 Y-41.323 Z-1.000 F300.000
G1 X21.968 Y-41.323 Z-1.000 F300.000
G1 X21.968 Y-42.091 Z-1.000 F300.000
G0 Z5.000
G0 X25.194 Y-38.865 Z5.000
G0 X25.194 Y-38.865 Z3.000
G1 X25.194 Y-38.865 Z-1.000 F300.000
G1 X26.527 Y-37.532 Z-1.000 F300.000
G2 X26.419 Y-37.097 Z-1.000 I0.759 J0.418 K0.000 F300.000
G1 X26.419 Y-34.871 Z-1.000 F300.000
G1 X26.359 Y-34.871 Z-1.000 F300.000
G1 X24.867 Y-36.364 Z-1.000 F300.000
G3 X24.194 Y-36.097 Z-1.000 I-0.670 J-0.707 K0.000 F300.000
G1 X22.305 Y-36.097 Z-1.000 F300.000
G1 X23.531 Y-34.871 Z-1.000 F300.000
G1 X21.968 Y-34.871 Z-1.000 F300.000
G1 X21.968 Y-36.097 Z-1.000 F300.000
G1 X22.305 Y-36.097 Z-1.000 F300.000
G0 Z5.000
G0 X14.775 Y-47.740 Z5.000
G0 X14.775 Y-47.740 Z3.000
G1 X14.775 Y-47.740 Z-1.000 F300.000
G3 X15.516 Y-46.774 Z-1.000 I-0.259 J0.966 K0.000 F300.000
G1 X15.516 Y-44.548 Z-1.000 F300.000
G1 X16.742 Y-44.548 Z-1.000 F300.000
G1 X16.742 Y-46.774 Z-1.000 F300.000
G3 X17.742 Y-47.774 Z-1.000 I1.000 J0.000 K0.000 F300.000
G1 X20.968 Y-47.774 Z-1.000 F300.000
G3 X21.968 Y-46.774 Z-1.000 I-0.000 J1.000 K0.000 F300.000
G1 X21.968 Y-41.323 Z-1.000 F300.000
G1 X24.194 Y-41.323 Z-1.000 F300.000
G3 X25.194 Y-40.323 Z-1.000 I-0.000 J1.000 K0.000 F300.000
G1 X25.194 Y-37.097 Z-1.000 F300.000
G3 X24.194 Y-36.097 Z-1.000 I-1.000 J-0.000 K0.000 F300.000
G1 X21.968 Y-36.097 Z-1.000 F300.000
G1 X21.968 Y-34.871 Z-1.000 F300.000
G1 X26.419 Y-34.871 Z-1.000 F300.000
G1 X26.419 Y-37.097 Z-1.000 F300.000
G3 X27.419 Y-38.097 Z-1.000 I1.000 J0.000 K0.000 F300.000
G1 X29.645 Y-38.097 Z-1.000 F300.000
G1 X29.645 Y-40.323 Z-1.000 F300.000
G3 X30.645 Y-41.323 Z-1.000 I1.000 J0.000 K0.000 F300.000
G1 X37.097 Y-41.323 Z-1.000 F300.000
G3 X38.097 Y-40.323 Z-1.000 I-0.000 J1.000 K0.000 F300.000
G1 X38.097 Y-38.097 Z-1.000 F300.000
G1 X40.323 Y-38.097 Z-1.000 F300.000
G3 X41.323 Y-37.097 Z-1.000 I-0.000 J1.000 K0.000 F300.000
G1 X41.323 Y-34.871 Z-1.000 F300.000
G1 X46.774 Y-34.871 Z-1.000 F300.000
G3 X47.774 Y-33.871 Z-1.000 I-0.000 J1.000 K0.000 F300.000
G1 X47.774 Y-30.645 Z-1.000 F300.000
G3 X46.774 Y-29.645 Z-1.000 I-1.000 J-0.000 K0.000 F300.000
G1 X44.548 Y-29.645 Z-1.000 F300.000
G1 X44.548 Y-28.419 Z-1.000 F300.000
G1 X46.774 Y-28.419 Z-1.000 F300.000
G3 X47.774 Y-27.419 Z-1.000 I-0.000 J1.000 K0.000 F300.000
G1 X47.774 Y-20.968 Z-1.000 F300.000
G3 X46.774 Y-19.968 Z-1.000 I-1.000 J-0.000 K0.000 F300.000
G1 X37.097 Y-19.968 Z-1.000 F300.000
G3 X36.097 Y-20.968 Z-1.000 I-0.000 J-1.000 K0.000 F300.000
G1 X36.097 Y-23.194 Z-1.000 F300.000
G1 X34.871 Y-23.194 Z-1.000 F300.000
G1 X34.871 Y-18.742 Z-1.000 F300.000
G1 X37.097 Y-18.742 Z-1.000 F300.000
G3 X38.097 Y-17.742 Z-1.000 I-0.000 J1.000 K0.000 F300.000
G1 X38.097 Y-14.516 Z-1.000 F300.000
G3 X37.097 Y-13.516 Z-1.000 I-1.000 J-0.000 K0.000 F300.000
G1 X30.645 Y-13.516 Z-1.000 F300.000
G3 X29.645 Y-14.516 Z-1.000 I-0.000 J-1.000 K0.000 F300.000
G1 X29.645 Y-16.742 Z-1.000 F300.000
G1 X17.742 Y-16.742 Z-1.000 F300.000
G3 X16.742 Y-17.742 Z-1.000 I-0.000 J-1.000 K0.000 F300.000
G1 X16.742 Y-19.968 Z-1.000 F300.000
G1 X14.516 Y-19.968 Z-1.000 F300.000
G3 X13.516 Y-20.968 Z-1.000 I-0.000 J-1.000 K0.000 F300.000
G1 X13.516 Y-23.194 Z-1.000 F300.000
G1 X12.290 Y-23.194 Z-1.000 F300.000
G1 X12.290 Y-20.968 Z-1.000 F300.000
G3 X11.290 Y-19.968 Z-1.000 I-1.000 J-0.000 K0.000 F300.000
G1 X9.065 Y-19.968 Z-1.000 F300.000
G1 X9.065 Y-18.742 Z-1.000 F300.000
G1 X11.290 Y-18.742 Z-1.000 F300.000
G3 X12.290 Y-17.742 Z-1.000 I-0.000 J1.000 K0.000 F300.000
G1 X12.290 Y-14.516 Z-1.000 F300.000
G3 X11.290 Y-13.516 Z-1.000 I-1.000 J-0.000 K0.000 F300.000
G1 X9.065 Y-13.516 Z-1.000 F300.000
G1 X9.065 Y-12.290 Z-1.000 F300.000
G1 X14.516 Y-12.290 Z-1.000 F300.000
G3 X15.516 Y-11.290 Z-1.000 I-0.000 J1.000 K0.000 F300.000
G1 X15.516 Y-9.065 Z-1.000 F300.000
G1 X16.742 Y-9.065 Z-1.000 F300.000
G1 X16.742 Y-11.290 Z-1.000 F300.000
G3 X17.742 Y-12.290 Z-1.000 I1.000 J0.000 K0.000 F300.000
G1 X23.194 Y-12.290 Z-1.000 F300.000
G1 X23.194 Y-14.516 Z-1.000 F300.000
G3 X24.194 Y-15.516 Z-1.000 I1.000 J0.000 K0.000 F300.000
G1 X27.419 Y-15.516 Z-1.000 F300.000
G3 X28.419 Y-14.516 Z-1.000 I-0.000 J1.000 K0.000 F300.000
G1 X28.419 Y-9.065 Z-1.000 F300.000
G1 X30.645 Y-9.065 Z-1.000 F300.000
G3 X31.645 Y-8.065 Z-1.000 I-0.000 J1.000 K0.000 F300.000
G1 X31.645 Y-4.839 Z-1.000 F300.000
G3 X30.645 Y-3.839 Z-1.000 I-1.000 J-0.000 K0.000 F300.000
G1 X25.194 Y-3.839 Z-1.000 F300.000
G1 X25.194 Y-1.613 Z-1.000 F300.000
G3 X24.194 Y-0.613 Z-1.000 I-1.000 J-0.000 K0.000 F300.000
G1 X17.742 Y-0.613 Z-1.000 F300.000
G3 X16.742 Y-1.613 Z-1.000 I-0.000 J-1.000 K0.000 F300.000
G1 X16.742 Y-3.839 Z-1.000 F300.000
G1 X14.516 Y-3.839 Z-1.000 F300.000
G3 X13.516 Y-4.839 Z-1.000 I-0.000 J-1.000 K0.000 F300.000
G1 X13.516 Y-7.065 Z-1.000 F300.000
G1 X9.065 Y-7.065 Z-1.000 F300.000
G1 X9.065 Y-2.613 Z-1.000 F300.000
G1 X14.516 Y-2.613 Z-1.000 F300.000
G3 X15.516 Y-1.613 Z-1.000 I-0.000 J1.000 K0.000 F300.000
G1 X15.516 Y1.613 Z-1.000 F300.000
G3 X14.516 Y2.613 Z-1.000 I-1.000 J-0.000 K0.000 F300.000
G1 X12.290 Y2.613 Z-1.000 F300.000
G1 X12.290 Y3.839 Z-1.000 F300.000
G1 X16.742 Y3.839 Z-1.000 F300.000
G1 X16.742 Y1.613 Z-1.000 F300.000
G3 X17.742 Y0.613 Z-1.000 I1.000 J0.000 K0.000 F300.000
G1 X26.419 Y0.613 Z-1.000 F300.000
G1 X26.419 Y-1.613 Z-1.000 F300.000
G3 X27.419 Y-2.613 Z-1.000 I1.000 J0.000 K0.000 F300.000
G1 X30.645 Y-2.613 Z-1.000 F300.000
G3 X31.645 Y-1.613 Z-1.000 I-0.000 J1.000 K0.000 F300.000
G1 X31.645 Y1.613 Z-1.000 F300.000
G3 X30.645 Y2.613 Z-1.000 I-1.000 J-0.000 K0.000 F300.000
G1 X28.419 Y2.613 Z-1.000 F300.000
G1 X28.419 Y10.290 Z-1.000 F300.000
G1 X33.871 Y10.290 Z-1.000 F300.000
G3 X34.871 Y11.290 Z-1.000 I-0.000 J1.000 K0.000 F300.000
G1 X34.871 Y13.516 Z-1.000 F300.000
G1 X36.097 Y13.516 Z-1.000 F300.000
G1 X36.097 Y11.290 Z-1.000 F300.000
G3 X37.097 Y10.290 Z-1.000 I1.000 J0.000 K0.000 F300.000
G1 X39.323 Y10.290 Z-1.000 F300.000
G1 X39.323 Y4.839 Z-1.000 F300.000
G3 X40.323 Y3.839 Z-1.000 I1.000 J-0.000 K0.000 F300.000
G1 X42.548 Y3.839 Z-1.000 F300.000
G1 X42.548 Y2.613 Z-1.000 F300.000
G1 X40.323 Y2.613 Z-1.000 F300.000
G3 X39.323 Y1.613 Z-1.000 I0.000 J-1.000 K0.000 F300.000
G1 X39.323 Y-7.065 Z-1.000 F300.000
G1 X38.097 Y-7.065 Z-1.000 F300.000
G1 X38.097 Y8.065 Z-1.000 F300.000
G3 X37.097 Y9.065 Z-1.000 I-1.000 J-0.000 K0.000 F300.000
G1 X33.871 Y9.065 Z-1.000 F300.000
G3 X32.871 Y8.065 Z-1.000 I0.000 J-1.000 K0.000 F300.000
G1 X32.871 Y-11.290 Z-1.000 F300.000
G3 X33.871 Y-12.290 Z-1.000 I1.000 J0.000 K0.000 F300.000
G1 X39.323 Y-12.290 Z-1.000 F300.000
G1 X39.323 Y-17.742 Z-1.000 F300.000
G3 X40.323 Y-18.742 Z-1.000 I1.000 J0.000 K0.000 F300.000
G1 X43.548 Y-18.742 Z-1.000 F300.000
G3 X44.548 Y-17.742 Z-1.000 I-0.000 J1.000 K0.000 F300.000
G1 X44.548 Y-15.516 Z-1.000 F300.000
G1 X46.774 Y-15.516 Z-1.000 F300.000
G3 X47.774 Y-14.516 Z-1.000 I-0.000 J1.000 K0.000 F300.000
G1 X47.774 Y-4.839 Z-1.000 F300.000
G3 X46.774 Y-3.839 Z-1.000 I-1.000 J-0.000 K0.000 F300.000
G1 X44.548 Y-3.839 Z-1.000 F300.000
G1 X44.548 Y-2.613 Z-1.000 F300.000
G1 X46.774 Y-2.613 Z-1.000 F300.000
G3 X47.774 Y-1.613 Z-1.000 I-0.000 J1.000 K0.000 F300.000
G1 X47.774 Y8.065 Z-1.000 F300.000
G3 X46.774 Y9.065 Z-1.000 I-1.000 J-0.000 K0.000 F300.000
G1 X44.548 Y9.065 Z-1.000 F300.000
G1 X44.548 Y10.290 Z-1.000 F300.000
G1 X46.774 Y10.290 Z-1.000 F300.000
G3 X47.774 Y11.290 Z-1.000 I-0.000 J1.000 K0.000 F300.000
G1 X47.774 Y17.742 Z-1.000 F300.000
G3 X46.774 Y18.742 Z-1.000 I-1.000 J-0.000 K0.000 F300.000
G1 X43.548 Y18.742 Z-1.000 F300.000
G3 X42.548 Y17.742 Z-1.000 I0.000 J-1.000 K0.000 F300.000
G1 X42.548 Y15.516 Z-1.000 F300.000
G1 X38.097 Y15.516 Z-1.000 F300.000
G1 X38.097 Y16.742 Z-1.000 F300.000
G1 X40.323 Y16.742 Z-1.000 F300.000
G3 X41.323 Y17.742 Z-1.000 I-0.000 J1.000 K0.000 F300.000
G1 X41.323 Y20.968 Z-1.000 F300.000
G3 X40.323 Y21.968 Z-1.000 I-1.000 J-0.000 K0.000 F300.000
G1 X37.097 Y21.968 Z-1.000 F300.000
G3 X36.097 Y20.968 Z-1.000 I0.000 J-1.000 K0.000 F300.000
G1 X36.097 Y18.742 Z-1.000 F300.000
G1 X33.871 Y18.742 Z-1.000 F300.000
G3 X32.871 Y17.742 Z-1.000 I0.000 J-1.000 K0.000 F300.000
G1 X32.871 Y15.516 Z-1.000 F300.000
G1 X28.419 Y15.516 Z-1.000 F300.000
G1 X28.419 Y20.968 Z-1.000 F300.000
G3 X27.419 Y21.968 Z-1.000 I-1.000 J-0.000 K0.000 F300.000
G1 X18.742 Y21.968 Z-1.000 F300.000
G1 X18.742 Y23.194 Z-1.000 F300.000
G1 X20.968 Y23.194 Z-1.000 F300.000
G3 X21.968 Y24.194 Z-1.000 I-0.000 J1.000 K0.000 F300.000
G1 X21.968 Y27.419 Z-1.000 F300.000
G3 X20.968 Y28.419 Z-1.000 I-1.000 J-0.000 K0.000 F300.000
G1 X18.742 Y28.419 Z-1.000 F300.000
G1 X18.742 Y29.645 Z-1.000 F300.000
G1 X20.968 Y29.645 Z-1.000 F300.000
G3 X21.968 Y30.645 Z-1.000 I-0.000 J1.000 K0.000 F300.000
G1 X21.968 Y33.871 Z-1.000 F300.000
G3 X20.968 Y34.871 Z-1.000 I-1.000 J-0.000 K0.000 F300.000
G1 X18.742 Y34.871 Z-1.000 F300.000
G1 X18.742 Y39.323 Z-1.000 F300.000
G1 X20.968 Y39.323 Z-1.000 F300.000
G3 X21.968 Y40.323 Z-1.000 I-0.000 J1.000 K0.000 F300.000
G1 X21.968 Y46.774 Z-1.000 F300.000
G3 X20.968 Y47.774 Z-1.000 I-1.000 J-0.000 K0.000 F300.000
G1 X11.290 Y47.774 Z-1.000 F300.000
G3 X10.290 Y46.774 Z-1.000 I0.000 J-1.000 K0.000 F300.000
G1 X10.290 Y44.548 Z-1.000 F300.000
G1 X9.065 Y44.548 Z-1.000 F300.000
G1 X9.065 Y46.774 Z-1.000 F300.000
G3 X8.065 Y47.774 Z-1.000 I-1.000 J-0.000 K0.000 F300.000
G1 X-1.613 Y47.774 Z-1.000 F300.000
G3 X-2.613 Y46.774 Z-1.000 I0.000 J-1.000 K0.000 F300.000
G1 X-2.613 Y44.548 Z-1.000 F300.000
G1 X-3.839 Y44.548 Z-1.000 F300.000
G1 X-3.839 Y46.774 Z-1.000 F300.000
G3 X-4.839 Y47.774 Z-1.000 I-1.000 J-0.000 K0.000 F300.000
G1 X-8.065 Y47.774 Z-1.000 F300.000
G3 X-9.065 Y46.774 Z-1.000 I0.000 J-1.000 K0.000 F300.000
G1 X-9.065 Y44.548 Z-1.000 F300.000
G1 X-10.290 Y44.548 Z-1.000 F300.000
G1 X-10.290 Y46.774 Z-1.000 F300.000
G3 X-11.290 Y47.774 Z-1.000 I-1.000 J-0.000 K0.000 F300.000
G1 X-17.742 Y47.774 Z-1.000 F300.000
G3 X-18.742 Y46.774 Z-1.000 I0.000 J-1.000 K0.000 F300.000
G1 X-18.742 Y43.548 Z-1.000 F300.000
G3 X-17.832 Y42.560 Z-1.000 I0.985 J-0.006 K0.000 F300.000
G1 X-19.069 Y41.323 Z-1.000 F300.000
G1 X-16.241 Y41.323 Z-1.000 F300.000
G1 X-15.516 Y42.047 Z-1.000 F300.000
G1 X-15.516 Y41.323 Z-1.000 F300.000
G1 X-16.241 Y41.323 Z-1.000 F300.000
G0 Z5.000
G0 X-17.832 Y42.560 Z5.000
G0 X-17.832 Y42.560 Z3.000
G1 X-17.832 Y42.560 Z-1.000 F300.000
G1 X-17.742 Y42.548 Z-1.000 F300.000
G1 X-15.516 Y42.548 Z-1.000 F300.000
G1 X-15.516 Y41.323 Z-1.000 F300.000
G1 X-20.968 Y41.323 Z-1.000 F300.000
G3 X-21.968 Y40.323 Z-1.000 I0.000 J-1.000 K0.000 F300.000
G1 X-21.968 Y37.097 Z-1.000 F300.000
G3 X-20.968 Y36.097 Z-1.000 I1.000 J0.000 K0.000 F300.000
G1 X-18.742 Y36.097 Z-1.000 F300.000
G1 X-18.742 Y33.871 Z-1.000 F300.000
G3 X-17.742 Y32.871 Z-1.000 I1.000 J0.000 K0.000 F300.000
G1 X-15.516 Y32.871 Z-1.000 F300.000
G1 X-15.516 Y31.645 Z-1.000 F300.000
G1 X-17.742 Y31.645 Z-1.000 F300.000
G3 X-18.742 Y30.645 Z-1.000 I0.000 J-1.000 K0.000 F300.000
G1 X-18.742 Y28.419 Z-1.000 F300.000
G1 X-20.968 Y28.419 Z-1.000 F300.000
G3 X-21.968 Y27.419 Z-1.000 I0.000 J-1.000 K0.000 F300.000
G1 X-21.968 Y21.968 Z-1.000 F300.000
G1 X-33.871 Y21.968 Z-1.000 F300.000
G3 X-34.871 Y20.968 Z-1.000 I0.000 J-1.000 K0.000 F300.000
G1 X-34.871 Y18.742 Z-1.000 F300.000
G1 X-36.097 Y18.742 Z-1.000 F300.000
G1 X-36.097 Y20.968 Z-1.000 F300.000
G3 X-37.097 Y21.968 Z-1.000 I-1.000 J-0.000 K0.000 F300.000
G1 X-46.774 Y21.968 Z-1.000 F300.000
G3 X-47.774 Y20.968 Z-1.000 I0.000 J-1.000 K0.000 F300.000
G1 X-47.774 Y17.742 Z-1.000 F300.000
G3 X-46.774 Y16.742 Z-1.000 I1.000 J0.000 K0.000 F300.000
G1 X-44.548 Y16.742 Z-1.000 F300.000
G1 X-44.548 Y14.516 Z-1.000 F300.000
G3 X-43.548 Y13.516 Z-1.000 I1.000 J0.000 K0.000 F300.000
G1 X-38.097 Y13.516 Z-1.000 F300.000
G1 X-38.097 Y11.290 Z-1.000 F300.000
G3 X-37.097 Y10.290 Z-1.000 I1.000 J0.000 K0.000 F300.000
G1 X-34.871 Y10.290 Z-1.000 F300.000
G1 X-34.871 Y9.065 Z-1.000 F300.000
G1 X-40.323 Y9.065 Z-1.000 F300.000
G3 X-41.323 Y8.065 Z-1.000 I0.000 J-1.000 K0.000 F300.000
G1 X-41.323 Y5.839 Z-1.000 F300.000
G1 X-43.548 Y5.839 Z-1.000 F300.000
G3 X-44.548 Y4.839 Z-1.000 I0.000 J-1.000 K0.000 F300.000
G1 X-44.548 Y2.613 Z-1.000 F300.000
G1 X-46.774 Y2.613 Z-1.000 F300.000
G3 X-47.774 Y1.613 Z-1.000 I0.000 J-1.000 K0.000 F300.000
G1 X-47.774 Y-8.065 Z-1.000 F300.000
G3 X-46.774 Y-9.065 Z-1.000 I1.000 J0.000 K0.000 F300.000
G1 X-37.097 Y-9.065 Z-1.000 F300.000
G3 X-36.097 Y-8.065 Z-1.000 I-0.000 J1.000 K0.000 F300.000
G1 X-36.097 Y0.613 Z-1.000 F300.000
G1 X-34.871 Y0.613 Z-1.000 F300.000
G1 X-34.871 Y-8.065 Z-1.000 F300.000
G3 X-33.871 Y-9.065 Z-1.000 I1.000 J0.000 K0.000 F300.000
G1 X-31.645 Y-9.065 Z-1.000 F300.000
G1 X-31.645 Y-13.516 Z-1.000 F300.000
G1 X-42.548 Y-13.516 Z-1.000 F300.000
G1 X-42.548 Y-11.290 Z-1.000 F300.000
G3 X-43.548 Y-10.290 Z-1.000 I-1.000 J-0.000 K0.000 F300.000
G1 X-46.774 Y-10.290 Z-1.000 F300.000
G3 X-47.774 Y-11.290 Z-1.000 I0.000 J-1.000 K0.000 F300.000
G1 X-47.774 Y-14.516 Z-1.000 F300.000
G3 X-46.774 Y-15.516 Z-1.000 I1.000 J0.000 K0.000 F300.000
G1 X-44.548 Y-15.516 Z-1.000 F300.000
G1 X-44.548 Y-16.742 Z-1.000 F300.000
G1 X-46.774 Y-16.742 Z-1.000 F300.000
G3 X-47.774 Y-17.742 Z-1.000 I0.000 J-1.000 K0.000 F300.000
G1 X-47.774 Y-20.968 Z-1.000 F300.000
G3 X-46.774 Y-21.968 Z-1.000 I1.000 J0.000 K0.000 F300.000
G1 X-43.548 Y-21.968 Z-1.000 F300.000
G3 X-42.548 Y-20.968 Z-1.000 I-0.000 J1.000 K0.000 F300.000
G1 X-42.548 Y-18.742 Z-1.000 F300.000
G1 X-41.323 Y-18.742 Z-1.000 F300.000
G1 X-41.323 Y-20.968 Z-1.000 F300.000
G3 X-40.323 Y-21.968 Z-1.000 I1.000 J0.000 K0.000 F300.000
G1 X-37.097 Y-21.968 Z-1.000 F300.000
G3 X-36.097 Y-20.968 Z-1.000 I-0.000 J1.000 K0.000 F300.000
G1 X-36.097 Y-18.742 Z-1.000 F300.000
G1 X-34.871 Y-18.742 Z-1.000 F300.000
G1 X-34.871 Y-20.968 Z-1.000 F300.000
G3 X-33.871 Y-21.968 Z-1.000 I1.000 J0.000 K0.000 F300.000
G1 X-24.194 Y-21.968 Z-1.000 F300.000
G3 X-23.194 Y-20.968 Z-1.000 I-0.000 J1.000 K0.000 F300.000
G1 X-23.194 Y-18.742 Z-1.000 F300.000
G1 X-18.742 Y-18.742 Z-1.000 F300.000
G1 X-18.742 Y-19.968 Z-1.000 F300.000
G1 X-20.968 Y-19.968 Z-1.000 F300.000
G3 X-21.968 Y-20.968 Z-1.000 I0.000 J-1.000 K0.000 F300.000
G1 X-21.968 Y-33.871 Z-1.000 F300.000
G3 X-20.968 Y-34.871 Z-1.000 I1.000 J0.000 K0.000 F300.000
G1 X-14.516 Y-34.871 Z-1.000 F300.000
G3 X-13.516 Y-33.871 Z-1.000 I-0.000 J1.000 K0.000 F300.000
G1 X-13.516 Y-30.645 Z-1.000 F300.000
G3 X-14.516 Y-29.645 Z-1.000 I-1.000 J-0.000 K0.000 F300.000
G1 X-16.742 Y-29.645 Z-1.000 F300.000
G1 X-16.742 Y-21.968 Z-1.000 F300.000
G1 X-15.516 Y-21.968 Z-1.000 F300.000
G1 X-15.516 Y-24.194 Z-1.000 F300.000
G3 X-14.516 Y-25.194 Z-1.000 I1.000 J0.000 K0.000 F300.000
G1 X-12.290 Y-25.194 Z-1.000 F300.000
G1 X-12.290 Y-27.419 Z-1.000 F300.000
G3 X-11.290 Y-28.419 Z-1.000 I1.000 J0.000 K0.000 F300.000
G1 X-2.613 Y-28.419 Z-1.000 F300.000
G1 X-2.613 Y-29.645 Z-1.000 F300.000
G1 X-11.290 Y-29.645 Z-1.000 F300.000
G3 X-12.290 Y-30.645 Z-1.000 I0.000 J-1.000 K0.000 F300.000
G1 X-12.290 Y-33.871 Z-1.000 F300.000
G3 X-11.290 Y-34.871 Z-1.000 I1.000 J0.000 K0.000 F300.000
G1 X4.839 Y-34.871 Z-1.000 F300.000
G3 X5.839 Y-33.871 Z-1.000 I-0.000 J1.000 K0.000 F300.000
G1 X5.839 Y-31.645 Z-1.000 F300.000
G1 X7.065 Y-31.645 Z-1.000 F300.000
G1 X7.065 Y-33.871 Z-1.000 F300.000
G3 X8.065 Y-34.871 Z-1.000 I1.000 J0.000 K0.000 F300.000
G1 X10.290 Y-34.871 Z-1.000 F300.000
G1 X10.290 Y-46.774 Z-1.000 F300.000
G3 X11.290 Y-47.774 Z-1.000 I1.000 J0.000 K0.000 F300.000
G1 X14.516 Y-47.774 Z-1.000 F300.000
G1 X14.775 Y-47.740 Z-1.000 F300.000
G0 Z5.000
G0 X38.097 Y-40.104 Z5.000
G0 X38.097 Y-40.104 Z3.000
G1 X38.097 Y-40.104 Z-1.000 F300.000
G1 X40.104 Y-38.097 Z-1.000 F300.000
G1 X38.097 Y-38.097 Z-1.000 F300.000
G1 X38.097 Y-40.104 Z-1.000 F300.000
G0 Z5.000
G0 X41.707 Y-39.323 Z5.000
G0 X41.707 Y-39.323 Z3.000
G1 X41.707 Y-39.323 Z-1.000 F300.000
G1 X42.548 Y-39.323 Z-1.000 F300.000
G1 X42.548 Y-38.481 Z-1.000 F300.000
G1 X41.707 Y-39.323 Z-1.000 F300.000
G0 Z5.000
G0 X44.548 Y-42.138 Z5.000
G0 X44.548 Y-42.138 Z3.000
G1 X44.548 Y-42.138 Z-1.000 F300.000
G1 X44.548 Y-41.323 Z-1.000 F300.000
G1 X45.364 Y-41.323 Z-1.000 F300.000
G1 X44.548 Y-42.138 Z-1.000 F300.000
G1 X44.548 Y-42.548 Z-1.000 F300.000
G1 X46.774 Y-42.548 Z-1.000 F300.000
G1 X46.944 Y-42.571 Z-1.000 F300.000
G1 X49.000 Y-40.515 Z-1.000 F300.000
G1 X49.000 Y-43.343 Z-1.000 F300.000
G1 X47.774 Y-44.569 Z-1.000 F300.000
G0 Z5.000
G0 X49.000 Y-49.000 Z5.000
G0 X49.000 Y-49.000 Z3.000
G1 X49.000 Y-49.000 Z-1.000 F300.000
G1 X49.000 Y-46.172 Z-1.000 F300.000
G1 X46.172 Y-49.000 Z-1.000 F300.000
G1 X43.343 Y-49.000 Z-1.000 F300.000
G1 X44.569 Y-47.774 Z-1.000 F300.000
G1 X41.741 Y-47.774 Z-1.000 F300.000
G1 X40.515 Y-49.000 Z-1.000 F300.000
G1 X37.686 Y-49.000 Z-1.000 F300.000
G1 X39.444 Y-47.243 Z-1.000 F300.000
G2 X39.323 Y-46.774 Z-1.000 I0.814 J0.460 K0.000 F300.000
G1 X39.323 Y-44.535 Z-1.000 F300.000
G1 X38.097 Y-45.761 Z-1.000 F300.000
G1 X38.097 Y-43.548 Z-1.000 F300.000
G3 X37.968 Y-43.061 Z-1.000 I-0.973 J0.004 K0.000 F300.000
G1 X39.323 Y-41.707 Z-1.000 F300.000
G1 X39.323 Y-40.323 Z-1.000 F300.000
G2 X40.323 Y-39.323 Z-1.000 I1.000 J0.000 K0.000 F300.000
G1 X41.707 Y-39.323 Z-1.000 F300.000
G1 X42.548 Y-38.481 Z-1.000 F300.000
G1 X42.548 Y-37.097 Z-1.000 F300.000
G2 X43.548 Y-36.097 Z-1.000 I1.000 J-0.000 K0.000 F300.000
G1 X44.933 Y-36.097 Z-1.000 F300.000
G1 X46.158 Y-34.871 Z-1.000 F300.000
G1 X43.330 Y-34.871 Z-1.000 F300.000
G1 X41.323 Y-34.871 Z-1.000 F300.000
G1 X41.323 Y-36.878 Z-1.000 F300.000
G1 X43.330 Y-34.871 Z-1.000 F300.000
G0 Z5.000
G0 X47.774 Y-33.255 Z5.000
G0 X47.774 Y-33.255 Z3.000
G1 X47.774 Y-33.255 Z-1.000 F300.000
G1 X49.000 Y-32.029 Z-1.000 F300.000
G1 X49.000 Y-29.201 Z-1.000 F300.000
G1 X47.749 Y-30.452 Z-1.000 F300.000
G3 X46.774 Y-29.645 Z-1.000 I-0.968 J-0.177 K0.000 F300.000
G1 X45.727 Y-29.645 Z-1.000 F300.000
G1 X46.980 Y-28.392 Z-1.000 F300.000
G1 X46.774 Y-28.419 Z-1.000 F300.000
G1 X44.548 Y-28.419 Z-1.000 F300.000
G1 X44.548 Y-29.645 Z-1.000 F300.000
G1 X45.727 Y-29.645 Z-1.000 F300.000
G0 Z5.000
G0 X49.000 Y-32.029 Z5.000
G0 X49.000 Y-32.029 Z3.000
G1 X49.000 Y-32.029 Z-1.000 F300.000
G1 X47.774 Y-33.255 Z-1.000 F300.000
G1 X47.774 Y-33.871 Z-1.000 F300.000
G2 X47.033 Y-34.837 Z-1.000 I-1.000 J-0.000 K0.000 F300.000
G2 X46.158 Y-34.871 Z-1.000 I-0.567 J3.304 K0.000 F300.000
G1 X44.933 Y-36.097 Z-1.000 F300.000
G1 X46.774 Y-36.097 Z-1.000 F300.000
G2 X47.474 Y-36.384 Z-1.000 I0.001 J-0.994 K0.000 F300.000
G1 X49.000 Y-34.858 Z-1.000 F300.000
G1 X49.000 Y-37.686 Z-1.000 F300.000
G1 X47.774 Y-38.912 Z-1.000 F300.000
G0 Z5.000
G0 X-3.958 Y-28.419 Z5.000
G0 X-3.958 Y-28.419 Z3.000
G1 X-3.958 Y-28.419 Z-1.000 F300.000
G1 X-2.613 Y-28.419 Z-1.000 F300.000
G1 X-2.613 Y-29.645 Z-1.000 F300.000
G1 X-5.184 Y-29.645 Z-1.000 F300.000
G1 X-3.958 Y-28.419 Z-1.000 F300.000
G1 X-6.787 Y-28.419 Z-1.000 F300.000
G1 X-8.013 Y-29.645 Z-1.000 F300.000
G1 X-10.841 Y-29.645 Z-1.000 F300.000
G1 X-9.615 Y-28.419 Z-1.000 F300.000
G0 Z5.000
G0 X-13.516 Y-32.320 Z5.000
G0 X-13.516 Y-32.320 Z3.000
G1 X-13.516 Y-32.320 Z-1.000 F300.000
G1 X-12.290 Y-31.094 Z-1.000 F300.000
G2 X-12.256 Y-30.386 Z-1.000 I2.706 J0.225 K0.000 F300.000
G2 X-11.290 Y-29.645 Z-1.000 I0.966 J-0.259 K0.000 F300.000
G1 X-10.841 Y-29.645 Z-1.000 F300.000
G1 X-9.615 Y-28.419 Z-1.000 F300.000
G1 X-11.290 Y-28.419 Z-1.000 F300.000
G2 X-12.064 Y-28.040 Z-1.000 I-0.013 J0.952 K0.000 F300.000
G1 X-13.896 Y-29.871 Z-1.000 F300.000
G3 X-14.516 Y-29.645 Z-1.000 I-0.613 J-0.716 K0.000 F300.000
G1 X-16.498 Y-29.645 Z-1.000 F300.000
G1 X-12.290 Y-25.438 Z-1.000 F300.000
G1 X-12.290 Y-25.194 Z-1.000 F300.000
G1 X-14.516 Y-25.194 Z-1.000 F300.000
G2 X-14.821 Y-25.140 Z-1.000 I-0.053 J0.596 K0.000 F300.000
G1 X-16.742 Y-27.061 Z-1.000 F300.000
G1 X-16.742 Y-24.232 Z-1.000 F300.000
G1 X-16.742 Y-21.968 Z-1.000 F300.000
G1 X-15.516 Y-21.968 Z-1.000 F300.000
G1 X-15.516 Y-23.006 Z-1.000 F300.000
G1 X-16.742 Y-24.232 Z-1.000 F300.000
G0 Z5.000
G0 X-34.871 Y-19.734 Z5.000
G0 X-34.871 Y-19.734 Z3.000
G1 X-34.871 Y-19.734 Z-1.000 F300.000
G1 X-36.097 Y-20.960 Z-1.000 F300.000
G1 X-36.097 Y-18.742 Z-1.000 F300.000
G1 X-34.871 Y-18.742 Z-1.000 F300.000
G1 X-34.871 Y-19.734 Z-1.000 F300.000
G0 Z5.000
G0 X-31.645 Y-10.851 Z5.000
G0 X-31.645 Y-10.851 Z3.000
G1 X-31.645 Y-10.851 Z-1.000 F300.000
G1 X-31.645 Y-13.516 Z-1.000 F300.000
G1 X-34.310 Y-13.516 Z-1.000 F300.000
G1 X-31.645 Y-10.851 Z-1.000 F300.000
G1 X-31.645 Y-9.065 Z-1.000 F300.000
G1 X-32.687 Y-9.065 Z-1.000 F300.000
G1 X-37.138 Y-13.516 Z-1.000 F300.000
G1 X-39.967 Y-13.516 Z-1.000 F300.000
G1 X-34.819 Y-8.368 Z-1.000 F300.000
G2 X-34.871 Y-8.065 Z-1.000 I0.540 J0.250 K0.000 F300.000
G1 X-34.871 Y-5.592 Z-1.000 F300.000
G1 X-36.097 Y-6.818 Z-1.000 F300.000
G1 X-36.097 Y-3.989 Z-1.000 F300.000
G1 X-34.871 Y-2.763 Z-1.000 F300.000
G1 X-34.871 Y0.065 Z-1.000 F300.000
G1 X-36.097 Y-1.161 Z-1.000 F300.000
G1 X-36.097 Y0.613 Z-1.000 F300.000
G1 X-34.871 Y0.613 Z-1.000 F300.000
G1 X-34.871 Y0.065 Z-1.000 F300.000
G0 Z5.000
G0 X-41.323 Y5.839 Z5.000
G0 X-41.323 Y5.839 Z3.000
G1 X-41.323 Y5.839 Z-1.000 F300.000
G1 X-41.323 Y7.756 Z-1.000 F300.000
G1 X-43.239 Y5.839 Z-1.000 F300.000
G1 X-41.323 Y5.839 Z-1.000 F300.000
G0 Z5.000
G0 X-42.841 Y7.357 Z5.000
G0 X-42.841 Y7.357 Z3.000
G1 X-42.841 Y7.357 Z-1.000 F300.000
G3 X-42.548 Y8.065 Z-1.000 I-0.707 J0.707 K0.000 F300.000
G1 X-42.548 Y11.290 Z-1.000 F300.000
G3 X-43.548 Y12.290 Z-1.000 I-1.000 J-0.000 K0.000 F300.000
G1 X-46.774 Y12.290 Z-1.000 F300.000
G3 X-47.774 Y11.290 Z-1.000 I0.000 J-1.000 K0.000 F300.000
G1 X-47.774 Y8.065 Z-1.000 F300.000
G3 X-46.774 Y7.065 Z-1.000 I1.000 J0.000 K0.000 F300.000
G1 X-43.548 Y7.065 Z-1.000 F300.000
G3 X-42.841 Y7.357 Z-1.000 I0.000 J1.000 K0.000 F300.000
G0 Z5.000
G0 X-44.842 Y7.065 Z5.000
G0 X-44.842 Y7.065 Z3.000
G1 X-44.842 Y7.065 Z-1.000 F300.000
G1 X-49.000 Y2.907 Z-1.000 F300.000
G1 X-49.000 Y5.735 Z-1.000 F300.000
G1 X-47.423 Y7.312 Z-1.000 F300.000
G2 X-47.774 Y8.065 Z-1.000 I0.602 J0.740 K0.000 F300.000
G1 X-47.774 Y9.789 Z-1.000 F300.000
G1 X-49.000 Y8.563 Z-1.000 F300.000
G0 Z5.000
G0 X-44.757 Y4.321 Z5.000
G0 X-44.757 Y4.321 Z3.000
G1 X-44.757 Y4.321 Z-1.000 F300.000
G1 X-46.465 Y2.613 Z-1.000 F300.000
G1 X-44.548 Y2.613 Z-1.000 F300.000
G1 X-44.548 Y4.530 Z-1.000 F300.000
G1 X-44.757 Y4.321 Z-1.000 F300.000
G0 Z5.000
G0 X-37.185 Y9.065 Z5.000
G0 X-37.185 Y9.065 Z3.000
G1 X-37.185 Y9.065 Z-1.000 F300.000
G1 X-34.871 Y9.065 Z-1.000 F300.000
G1 X-34.871 Y10.290 Z-1.000 F300.000
G1 X-35.959 Y10.290 Z-1.000 F300.000
G1 X-37.185 Y9.065 Z-1.000 F300.000
G1 X-40.014 Y9.065 Z-1.000 F300.000
G1 X-38.058 Y11.020 Z-1.000 F300.000
G0 Z5.000
G0 X-34.871 Y19.864 Z5.000
G0 X-34.871 Y19.864 Z3.000
G1 X-34.871 Y19.864 Z-1.000 F300.000
G1 X-34.871 Y18.742 Z-1.000 F300.000
G1 X-35.993 Y18.742 Z-1.000 F300.000
G1 X-34.871 Y19.864 Z-1.000 F300.000
G1 X-34.871 Y20.968 Z-1.000 F300.000
G2 X-33.871 Y21.968 Z-1.000 I1.000 J-0.000 K0.000 F300.000
G1 X-32.767 Y21.968 Z-1.000 F300.000
G1 X-31.541 Y23.194 Z-1.000 F300.000
G1 X-34.370 Y23.194 Z-1.000 F300.000
G1 X-36.191 Y21.372 Z-1.000 F300.000
G3 X-37.097 Y21.968 Z-1.000 I-0.899 J-0.381 K0.000 F300.000
G1 X-38.424 Y21.968 Z-1.000 F300.000
G1 X-37.198 Y23.194 Z-1.000 F300.000
G1 X-40.027 Y23.194 Z-1.000 F300.000
G1 X-41.253 Y21.968 Z-1.000 F300.000
G1 X-44.081 Y21.968 Z-1.000 F300.000
G1 X-42.855 Y23.194 Z-1.000 F300.000
G1 X-45.684 Y23.194 Z-1.000 F300.000
G1 X-46.930 Y21.947 Z-1.000 F300.000
G3 X-47.754 Y21.123 Z-1.000 I0.126 J-0.950 K0.000 F300.000
G1 X-49.000 Y19.877 Z-1.000 F300.000
G1 X-49.000 Y22.706 Z-1.000 F300.000
G1 X-47.744 Y23.962 Z-1.000 F300.000
G1 X-47.774 Y24.194 Z-1.000 F300.000
G1 X-47.774 Y26.760 Z-1.000 F300.000
G1 X-49.000 Y25.534 Z-1.000 F300.000
G1 X-49.000 Y28.362 Z-1.000 F300.000
G1 X-47.774 Y29.588 Z-1.000 F300.000
G1 X-47.774 Y32.417 Z-1.000 F300.000
G1 X-49.000 Y31.191 Z-1.000 F300.000
G1 X-49.000 Y34.019 Z-1.000 F300.000
G1 X-47.774 Y35.245 Z-1.000 F300.000
G1 X-47.774 Y38.074 Z-1.000 F300.000
G1 X-49.000 Y36.848 Z-1.000 F300.000
G1 X-49.000 Y39.676 Z-1.000 F300.000
G1 X-47.774 Y40.902 Z-1.000 F300.000
G1 X-47.774 Y43.730 Z-1.000 F300.000
G1 X-49.000 Y42.505 Z-1.000 F300.000
G1 X-49.000 Y45.333 Z-1.000 F300.000
G1 X-47.774 Y46.559 Z-1.000 F300.000
G2 X-46.559 Y47.774 Z-1.000 I1.037 J0.179 K0.000 F300.000
G1 X-45.333 Y49.000 Z-1.000 F300.000
G1 X-48.161 Y49.000 Z-1.000 F300.000
G1 X-49.000 Y48.161 Z-1.000 F300.000
G1 X-49.000 Y49.000 Z-1.000 F300.000
G1 X-48.161 Y49.000 Z-1.000 F300.000
G1 X-47.303 Y47.623 Z-1.000 F300.000
G3 X-47.774 Y46.774 Z-1.000 I0.529 J-0.849 K0.000 F300.000
G1 X-47.774 Y24.194 Z-1.000 F300.000
G3 X-46.774 Y23.194 Z-1.000 I1.000 J0.000 K0.000 F300.000
G1 X-24.194 Y23.194 Z-1.000 F300.000
G3 X-23.194 Y24.194 Z-1.000 I-0.000 J1.000 K0.000 F300.000
G1 X-23.194 Y46.774 Z-1.000 F300.000
G3 X-24.194 Y47.774 Z-1.000 I-1.000 J-0.000 K0.000 F300.000
G1 X-46.774 Y47.774 Z-1.000 F300.000
G3 X-47.303 Y47.623 Z-1.000 I0.000 J-1.000 K0.000 F300.000
G0 Z5.000
G0 X-45.333 Y49.000 Z5.000
G0 X-45.333 Y49.000 Z3.000
G1 X-45.333 Y49.000 Z-1.000 F300.000
G1 X-46.559 Y47.774 Z-1.000 F300.000
G1 X-43.730 Y47.774 Z-1.000 F300.000
G1 X-42.505 Y49.000 Z-1.000 F300.000
G1 X-39.676 Y49.000 Z-1.000 F300.000
G1 X-40.902 Y47.774 Z-1.000 F300.000
G1 X-38.074 Y47.774 Z-1.000 F300.000
G1 X-36.848 Y49.000 Z-1.000 F300.000
G1 X-34.019 Y49.000 Z-1.000 F300.000
G1 X-35.245 Y47.774 Z-1.000 F300.000
G1 X-32.417 Y47.774 Z-1.000 F300.000
G1 X-31.191 Y49.000 Z-1.000 F300.000
G1 X-28.362 Y49.000 Z-1.000 F300.000
G1 X-29.588 Y47.774 Z-1.000 F300.000
G1 X-26.760 Y47.774 Z-1.000 F300.000
G1 X-25.534 Y49.000 Z-1.000 F300.000
G1 X-22.706 Y49.000 Z-1.000 F300.000
G1 X-23.962 Y47.744 Z-1.000 F300.000
G2 X-23.194 Y46.774 Z-1.000 I-0.223 J-0.966 K0.000 F300.000
G1 X-23.194 Y45.684 Z-1.000 F300.000
G1 X-19.877 Y49.000 Z-1.000 F300.000
G1 X-17.049 Y49.000 Z-1.000 F300.000
G1 X-23.194 Y42.855 Z-1.000 F300.000
G1 X-23.194 Y40.027 Z-1.000 F300.000
G1 X-18.742 Y44.478 Z-1.000 F300.000
G1 X-18.742 Y46.774 Z-1.000 F300.000
G2 X-17.742 Y47.774 Z-1.000 I1.000 J-0.000 K0.000 F300.000
G1 X-15.446 Y47.774 Z-1.000 F300.000
G1 X-14.220 Y49.000 Z-1.000 F300.000
G1 X-11.392 Y49.000 Z-1.000 F300.000
G1 X-12.618 Y47.774 Z-1.000 F300.000
G1 X-11.290 Y47.774 Z-1.000 F300.000
G2 X-10.385 Y47.179 Z-1.000 I0.006 J-0.977 K0.000 F300.000
G1 X-8.563 Y49.000 Z-1.000 F300.000
G1 X-5.735 Y49.000 Z-1.000 F300.000
G1 X-6.961 Y47.774 Z-1.000 F300.000
G1 X-8.065 Y47.774 Z-1.000 F300.000
G3 X-9.065 Y46.774 Z-1.000 I0.000 J-1.000 K0.000 F300.000
G1 X-9.065 Y45.671 Z-1.000 F300.000
G1 X-10.187 Y44.548 Z-1.000 F300.000
G1 X-9.065 Y44.548 Z-1.000 F300.000
G1 X-9.065 Y45.671 Z-1.000 F300.000
G0 Z5.000
G0 X-5.735 Y49.000 Z5.000
G0 X-5.735 Y49.000 Z3.000
G1 X-5.735 Y49.000 Z-1.000 F300.000
G1 X-6.961 Y47.774 Z-1.000 F300.000
G1 X-4.839 Y47.774 Z-1.000 F300.000
G2 X-4.298 Y47.609 Z-1.000 I0.008 J-0.943 K0.000 F300.000
G1 X-2.907 Y49.000 Z-1.000 F300.000
G1 X-0.078 Y49.000 Z-1.000 F300.000
G1 X-1.304 Y47.774 Z-1.000 F300.000
G3 X-2.320 Y47.481 Z-1.000 I-0.215 J-1.162 K0.000 F300.000
G3 X-2.613 Y46.465 Z-1.000 I0.870 J-0.801 K0.000 F300.000
G1 X-3.839 Y45.239 Z-1.000 F300.000
G1 X-3.839 Y44.548 Z-1.000 F300.000
G1 X-2.613 Y44.548 Z-1.000 F300.000
G1 X-2.613 Y46.465 Z-1.000 F300.000
G0 Z5.000
G0 X-15.516 Y32.871 Z5.000
G0 X-15.516 Y32.871 Z3.000
G1 X-15.516 Y32.871 Z-1.000 F300.000
G1 X-16.207 Y32.871 Z-1.000 F300.000
G1 X-17.433 Y31.645 Z-1.000 F300.000
G1 X-15.516 Y31.645 Z-1.000 F300.000
G1 X-15.516 Y32.871 Z-1.000 F300.000
G0 Z5.000
G0 X-18.742 Y30.336 Z5.000
G0 X-18.742 Y30.336 Z3.000
G1 X-18.742 Y30.336 Z-1.000 F300.000
G1 X-20.659 Y28.419 Z-1.000 F300.000
G1 X-18.742 Y28.419 Z-1.000 F300.000
G1 X-18.742 Y30.336 Z-1.000 F300.000
G0 Z5.000
G0 X-23.194 Y25.885 Z5.000
G0 X-23.194 Y25.885 Z3.000
G1 X-23.194 Y25.885 Z-1.000 F300.000
G1 X-21.968 Y27.110 Z-1.000 F300.000
G2 X-21.675 Y28.126 Z-1.000 I1.162 J0.215 K0.000 F300.000
G2 X-20.659 Y28.419 Z-1.000 I0.801 J-0.870 K0.000 F300.000
G1 X-18.742 Y30.336 Z-1.000 F300.000
G2 X-18.449 Y31.352 Z-1.000 I1.162 J0.215 K0.000 F300.000
G2 X-17.433 Y31.645 Z-1.000 I0.801 J-0.870 K0.000 F300.000
G1 X-16.207 Y32.871 Z-1.000 F300.000
G1 X-17.742 Y32.871 Z-1.000 F300.000
G2 X-18.577 Y33.330 Z-1.000 I-0.006 J0.977 K0.000 F300.000
G1 X-23.194 Y28.713 Z-1.000 F300.000
G1 X-23.194 Y31.541 Z-1.000 F300.000
G1 X-18.742 Y35.993 Z-1.000 F300.000
G1 X-18.742 Y36.097 Z-1.000 F300.000
G1 X-20.968 Y36.097 Z-1.000 F300.000
G2 X-21.372 Y36.191 Z-1.000 I-0.026 J0.802 K0.000 F300.000
G1 X-23.194 Y34.370 Z-1.000 F300.000
G1 X-23.194 Y37.198 Z-1.000 F300.000
G1 X-21.968 Y38.424 Z-1.000 F300.000
G1 X-21.968 Y40.323 Z-1.000 F300.000
G2 X-20.968 Y41.323 Z-1.000 I1.000 J-0.000 K0.000 F300.000
G1 X-19.069 Y41.323 Z-1.000 F300.000
G1 X-17.832 Y42.560 Z-1.000 F300.000
G2 X-18.742 Y43.548 Z-1.000 I0.074 J0.982 K0.000 F300.000
G1 X-18.742 Y44.478 Z-1.000 F300.000
G1 X-23.194 Y40.027 Z-1.000 F300.000
G0 Z5.000
G0 X-24.282 Y21.968 Z5.000
G0 X-24.282 Y21.968 Z3.000
G1 X-24.282 Y21.968 Z-1.000 F300.000
G1 X-21.968 Y21.968 Z-1.000 F300.000
G1 X-21.968 Y24.282 Z-1.000 F300.000
G1 X-24.282 Y21.968 Z-1.000 F300.000
G1 X-27.110 Y21.968 Z-1.000 F300.000
G1 X-25.885 Y23.194 Z-1.000 F300.000
G1 X-28.713 Y23.194 Z-1.000 F300.000
G1 X-29.939 Y21.968 Z-1.000 F300.000
G1 X-32.767 Y21.968 Z-1.000 F300.000
G1 X-31.541 Y23.194 Z-1.000 F300.000
G0 Z5.000
G0 X-49.000 Y19.877 Z5.000
G0 X-49.000 Y19.877 Z3.000
G1 X-49.000 Y19.877 Z-1.000 F300.000
G1 X-47.754 Y21.123 Z-1.000 F300.000
G1 X-47.774 Y20.968 Z-1.000 F300.000
G1 X-47.774 Y18.275 Z-1.000 F300.000
G1 X-49.000 Y17.049 Z-1.000 F300.000
G1 X-49.000 Y14.220 Z-1.000 F300.000
G1 X-46.478 Y16.742 Z-1.000 F300.000
G1 X-44.548 Y16.742 Z-1.000 F300.000
G1 X-44.548 Y15.843 Z-1.000 F300.000
G1 X-49.000 Y11.392 Z-1.000 F300.000
G1 X-49.000 Y8.563 Z-1.000 F300.000
G1 X-47.774 Y9.789 Z-1.000 F300.000
G1 X-47.774 Y11.290 Z-1.000 F300.000
G2 X-46.774 Y12.290 Z-1.000 I1.000 J-0.000 K0.000 F300.000
G1 X-45.273 Y12.290 Z-1.000 F300.000
G1 X-43.953 Y13.611 Z-1.000 F300.000
G3 X-43.548 Y13.516 Z-1.000 I0.378 J0.708 K0.000 F300.000
G1 X-41.219 Y13.516 Z-1.000 F300.000
G1 X-42.796 Y11.939 Z-1.000 F300.000
G2 X-42.548 Y11.290 Z-1.000 I-0.659 J-0.623 K0.000 F300.000
G1 X-42.548 Y9.358 Z-1.000 F300.000
G1 X-38.390 Y13.516 Z-1.000 F300.000
G1 X-38.097 Y13.516 Z-1.000 F300.000
G1 X-38.097 Y11.290 Z-1.000 F300.000
G3 X-38.058 Y11.020 Z-1.000 I0.524 J-0.063 K0.000 F300.000
G1 X-40.014 Y9.065 Z-1.000 F300.000
G3 X-41.030 Y8.772 Z-1.000 I-0.215 J-1.162 K0.000 F300.000
G3 X-41.323 Y7.756 Z-1.000 I0.870 J-0.801 K0.000 F300.000
G1 X-43.239 Y5.839 Z-1.000 F300.000
G3 X-44.256 Y5.546 Z-1.000 I-0.215 J-1.162 K0.000 F300.000
G3 X-44.548 Y4.530 Z-1.000 I0.870 J-0.801 K0.000 F300.000
G1 X-46.465 Y2.613 Z-1.000 F300.000
G3 X-47.481 Y2.320 Z-1.000 I-0.215 J-1.162 K0.000 F300.000
G3 X-47.774 Y1.304 Z-1.000 I0.870 J-0.801 K0.000 F300.000
G1 X-49.000 Y0.078 Z-1.000 F300.000
G1 X-49.000 Y-2.750 Z-1.000 F300.000
G1 X-47.774 Y-1.524 Z-1.000 F300.000
G1 X-47.774 Y-4.353 Z-1.000 F300.000
G1 X-49.000 Y-5.579 Z-1.000 F300.000
G1 X-49.000 Y-8.407 Z-1.000 F300.000
G1 X-47.774 Y-7.181 Z-1.000 F300.000
G1 X-47.774 Y-8.065 Z-1.000 F300.000
G3 X-46.823 Y-9.058 Z-1.000 I0.990 J-0.004 K0.000 F300.000
G1 X-49.000 Y-11.236 Z-1.000 F300.000
G1 X-49.000 Y-14.064 Z-1.000 F300.000
G1 X-47.774 Y-12.838 Z-1.000 F300.000
G1 X-47.774 Y-11.290 Z-1.000 F300.000
G2 X-46.774 Y-10.290 Z-1.000 I1.000 J-0.000 K0.000 F300.000
G1 X-45.226 Y-10.290 Z-1.000 F300.000
G1 X-44.001 Y-9.065 Z-1.000 F300.000
G1 X-41.172 Y-9.065 Z-1.000 F300.000
G1 X-42.776 Y-10.668 Z-1.000 F300.000
G2 X-42.548 Y-11.290 Z-1.000 I-0.637 J-0.586 K0.000 F300.000
G1 X-42.548 Y-13.269 Z-1.000 F300.000
G1 X-38.344 Y-9.065 Z-1.000 F300.000
G0 Z5.000
G0 Z5.000
G0 X-38.344 Y-9.065
G0 X41.323 Y-9.065
G0 X41.323 Y-9.065 Z3.000
G1 X41.323 Y-9.065 Z-1.000 F300.000
G1 X42.548 Y-9.065 Z-1.000 F300.000
G1 X42.548 Y-10.290 Z-1.000 F300.000
G1 X41.323 Y-10.290 Z-1.000 F300.000
G1 X41.323 Y-9.065 Z-1.000 F300.000
G1 X42.548 Y-9.065 Z-1.000 F300.000
G1 X42.548 Y-10.290 Z-1.000 F300.000
G1 X41.323 Y-10.290 Z-1.000 F300.000
G1 X41.323 Y-9.065 Z-1.000 F300.000
G0 Z5.000
G0 Z5.000
G0 X41.323 Y-9.065
G0 X38.515 Y-25.194
G0 X38.515 Y-25.194 Z3.000
G1 X38.515 Y-25.194 Z-1.000 F300.000
G1 X39.323 Y-25.194 Z-1.000 F300.000
G1 X39.323 Y-32.871 Z-1.000 F300.000
G1 X37.097 Y-32.871 Z-1.000 F300.000
G3 X36.097 Y-33.871 Z-1.000 I0.000 J-1.000 K0.000 F300.000
G1 X36.097 Y-36.097 Z-1.000 F300.000
G1 X34.871 Y-36.097 Z-1.000 F300.000
G1 X34.871 Y-31.645 Z-1.000 F300.000
G1 X37.097 Y-31.645 Z-1.000 F300.000
G3 X38.097 Y-30.645 Z-1.000 I-0.000 J1.000 K0.000 F300.000
G1 X38.097 Y-25.194 Z-1.000 F300.000
G1 X38.515 Y-25.194 Z-1.000 F300.000
G1 X38.097 Y-25.194 Z-1.000 F300.000
G1 X38.097 Y-25.612 Z-1.000 F300.000
G1 X38.515 Y-25.194 Z-1.000 F300.000
G1 X39.323 Y-25.194 Z-1.000 F300.000
G1 X39.323 Y-27.214 Z-1.000 F300.000
G1 X38.097 Y-28.440 Z-1.000 F300.000
G0 Z5.000
G0 X34.871 Y-31.666 Z5.000
G0 X34.871 Y-31.666 Z3.000
G1 X34.871 Y-31.666 Z-1.000 F300.000
G1 X34.892 Y-31.645 Z-1.000 F300.000
G3 X34.871 Y-31.645 Z-1.000 I-0.010 J-0.010 K0.000 F300.000
G3 X34.871 Y-31.666 Z-1.000 I0.010 J-0.010 K0.000 F300.000
G1 X34.871 Y-34.494 Z-1.000 F300.000
G1 X39.323 Y-30.043 Z-1.000 F300.000
G1 X39.323 Y-32.871 Z-1.000 F300.000
G1 X37.097 Y-32.871 Z-1.000 F300.000
G3 X36.097 Y-33.871 Z-1.000 I0.000 J-1.000 K0.000 F300.000
G1 X36.097 Y-36.097 Z-1.000 F300.000
G0 Z5.000
G0 Z5.000
G0 X36.097 Y-36.097
G0 X29.645 Y-29.645
G0 X29.645 Y-29.645 Z3.000
G1 X29.645 Y-29.645 Z-1.000 F300.000
G1 X29.645 Y-26.817 Z-1.000 F300.000
G1 X26.817 Y-29.645 Z-1.000 F300.000
G1 X23.988 Y-29.645 Z-1.000 F300.000
G1 X25.214 Y-28.419 Z-1.000 F300.000
G1 X24.194 Y-28.419 Z-1.000 F300.000
G2 X23.216 Y-27.589 Z-1.000 I-0.007 J0.982 K0.000 F300.000
G1 X21.968 Y-28.837 Z-1.000 F300.000
G1 X21.968 Y-26.009 Z-1.000 F300.000
G1 X23.194 Y-24.783 Z-1.000 F300.000
G2 X23.228 Y-23.935 Z-1.000 I3.239 J0.295 K0.000 F300.000
G2 X24.194 Y-23.194 Z-1.000 I0.966 J-0.259 K0.000 F300.000
G1 X24.783 Y-23.194 Z-1.000 F300.000
G1 X26.009 Y-21.968 Z-1.000 F300.000
G1 X23.180 Y-21.968 Z-1.000 F300.000
G1 X21.968 Y-21.968 Z-1.000 F300.000
G1 X21.968 Y-23.180 Z-1.000 F300.000
G1 X23.180 Y-21.968 Z-1.000 F300.000
G1 X23.779 Y-23.283 Z-1.000 F300.000
G3 X23.194 Y-24.194 Z-1.000 I0.414 J-0.910 K0.000 F300.000
G1 X23.194 Y-27.419 Z-1.000 F300.000
G3 X24.194 Y-28.419 Z-1.000 I1.000 J0.000 K0.000 F300.000
G1 X27.419 Y-28.419 Z-1.000 F300.000
G3 X28.419 Y-27.419 Z-1.000 I-0.000 J1.000 K0.000 F300.000
G1 X28.419 Y-24.194 Z-1.000 F300.000
G3 X27.419 Y-23.194 Z-1.000 I-1.000 J-0.000 K0.000 F300.000
G1 X24.194 Y-23.194 Z-1.000 F300.000
G3 X23.779 Y-23.283 Z-1.000 I0.000 J-1.000 K0.000 F300.000
G0 Z5.000
G0 X26.009 Y-21.968 Z5.000
G0 X26.009 Y-21.968 Z3.000
G1 X26.009 Y-21.968 Z-1.000 F300.000
G1 X29.645 Y-21.968 Z-1.000 F300.000
G1 X29.645 Y-29.645 Z-1.000 F300.000
G1 X21.968 Y-29.645 Z-1.000 F300.000
G1 X21.968 Y-29.645 Z-1.000 F300.000
G1 X21.968 Y-21.968 Z-1.000 F300.000
G1 X26.009 Y-21.968 Z-1.000 F300.000
G1 X24.783 Y-23.194 Z-1.000 F300.000
G1 X27.419 Y-23.194 Z-1.000 F300.000
G1 X27.589 Y-23.216 Z-1.000 F300.000
G1 X28.837 Y-21.968 Z-1.000 F300.000
G1 X29.645 Y-21.968 Z-1.000 F300.000
G1 X29.645 Y-23.988 Z-1.000 F300.000
G1 X28.419 Y-25.214 Z-1.000 F300.000
G0 Z5.000
G0 Z5.000
G0 X28.419 Y-25.214
G0 X16.742 Y-32.871
G0 X16.742 Y-32.871 Z3.000
G1 X16.742 Y-32.871 Z-1.000 F300.000
G1 X16.742 Y-30.043 Z-1.000 F300.000
G1 X15.516 Y-31.268 Z-1.000 F300.000
G3 X15.482 Y-30.386 Z-1.000 I-3.367 J0.312 K0.000 F300.000
G3 X14.311 Y-29.645 Z-1.000 I-1.001 J-0.286 K0.000 F300.000
G1 X15.537 Y-28.419 Z-1.000 F300.000
G1 X12.708 Y-28.419 Z-1.000 F300.000
G1 X11.482 Y-29.645 Z-1.000 F300.000
G1 X9.065 Y-29.645 Z-1.000 F300.000
G1 X9.065 Y-29.235 Z-1.000 F300.000
G1 X10.411 Y-27.888 Z-1.000 F300.000
G2 X10.290 Y-27.419 Z-1.000 I0.814 J0.460 K0.000 F300.000
G1 X10.290 Y-25.194 Z-1.000 F300.000
G1 X10.277 Y-25.194 Z-1.000 F300.000
G1 X8.764 Y-26.707 Z-1.000 F300.000
G3 X8.065 Y-26.419 Z-1.000 I-0.699 J-0.707 K0.000 F300.000
G1 X6.223 Y-26.419 Z-1.000 F300.000
G1 X7.577 Y-25.065 Z-1.000 F300.000
G0 Z5.000
G0 X3.839 Y-28.804 Z5.000
G0 X3.839 Y-28.804 Z3.000
G1 X3.839 Y-28.804 Z-1.000 F300.000
G1 X3.839 Y-29.645 Z-1.000 F300.000
G1 X2.997 Y-29.645 Z-1.000 F300.000
G1 X3.839 Y-28.804 Z-1.000 F300.000
G1 X3.839 Y-27.419 Z-1.000 F300.000
G2 X4.839 Y-26.419 Z-1.000 I1.000 J-0.000 K0.000 F300.000
G1 X6.223 Y-26.419 Z-1.000 F300.000
G1 X7.577 Y-25.065 Z-1.000 F300.000
G2 X7.065 Y-24.194 Z-1.000 I0.481 J0.870 K0.000 F300.000
G1 X7.065 Y-22.749 Z-1.000 F300.000
G1 X2.613 Y-27.201 Z-1.000 F300.000
G1 X2.613 Y-24.373 Z-1.000 F300.000
G1 X5.018 Y-21.968 Z-1.000 F300.000
G2 X3.839 Y-20.968 Z-1.000 I-0.158 J1.009 K0.000 F300.000
G1 X3.839 Y-20.318 Z-1.000 F300.000
G1 X2.613 Y-21.544 Z-1.000 F300.000
G1 X2.613 Y-18.742 Z-1.000 F300.000
G1 X3.839 Y-18.742 Z-1.000 F300.000
G1 X3.839 Y-20.318 Z-1.000 F300.000
G1 X3.839 Y-18.742 Z-1.000 F300.000
G1 X2.613 Y-18.742 Z-1.000 F300.000
G1 X2.613 Y-29.645 Z-1.000 F300.000
G1 X3.839 Y-29.645 Z-1.000 F300.000
G1 X3.839 Y-27.419 Z-1.000 F300.000
G2 X4.839 Y-26.419 Z-1.000 I1.000 J-0.000 K0.000 F300.000
G1 X8.065 Y-26.419 Z-1.000 F300.000
G2 X9.065 Y-27.419 Z-1.000 I-0.000 J-1.000 K0.000 F300.000
G1 X9.065 Y-29.645 Z-1.000 F300.000
G1 X14.516 Y-29.645 Z-1.000 F300.000
G2 X15.516 Y-30.645 Z-1.000 I-0.000 J-1.000 K0.000 F300.000
G1 X15.516 Y-32.871 Z-1.000 F300.000
G1 X16.742 Y-32.871 Z-1.000 F300.000
G1 X16.742 Y-28.419 Z-1.000 F300.000
G1 X11.290 Y-28.419 Z-1.000 F300.000
G2 X10.290 Y-27.419 Z-1.000 I0.000 J1.000 K0.000 F300.000
G1 X10.290 Y-25.194 Z-1.000 F300.000
G1 X8.065 Y-25.194 Z-1.000 F300.000
G2 X7.065 Y-24.194 Z-1.000 I0.000 J1.000 K0.000 F300.000
G1 X7.065 Y-21.968 Z-1.000 F300.000
G1 X4.839 Y-21.968 Z-1.000 F300.000
G2 X3.839 Y-20.968 Z-1.000 I0.000 J1.000 K0.000 F300.000
G1 X3.839 Y-20.318 Z-1.000 F300.000
G0 Z5.000
G0 Z5.000
G0 X3.839 Y-20.318
G0 X5.839 Y-16.742
G0 X5.839 Y-16.742 Z3.000
G1 X5.839 Y-16.742 Z-1.000 F300.000
G1 X5.839 Y-15.516 Z-1.000 F300.000
G1 X7.065 Y-15.516 Z-1.000 F300.000
G1 X7.065 Y-16.742 Z-1.000 F300.000
G1 X7.065 Y-16.742 Z-1.000 F300.000
G1 X5.839 Y-16.742 Z-1.000 F300.000
G1 X5.839 Y-15.516 Z-1.000 F300.000
G1 X7.065 Y-15.516 Z-1.000 F300.000
G1 X7.065 Y-16.742 Z-1.000 F300.000
G1 X5.839 Y-16.742 Z-1.000 F300.000
G0 Z5.000
G0 Z5.000
G0 X5.839 Y-16.742
G0 X0.613
G0 X0.613 Z3.000
G1 X0.613 Y-16.742 Z-1.000 F300.000
G1 X-0.613 Y-16.742 Z-1.000 F300.000
G1 X-0.613 Y-15.516 Z-1.000 F300.000
G1 X0.613 Y-15.516 Z-1.000 F300.000
G1 X0.613 Y-16.742 Z-1.000 F300.000
G1 X-0.613 Y-16.742 Z-1.000 F300.000
G1 X-0.613 Y-15.516 Z-1.000 F300.000
G1 X0.613 Y-15.516 Z-1.000 F300.000
G1 X0.613 Y-16.742 Z-1.000 F300.000
G0 Z5.000
G0 Z5.000
G0 X0.613 Y-16.742
G0 X-2.613 Y-18.742
G0 X-2.613 Y-18.742 Z3.000
G1 X-2.613 Y-18.742 Z-1.000 F300.000
G1 X-2.613 Y-23.194 Z-1.000 F300.000
G1 X-10.290 Y-23.194 Z-1.000 F300.000
G1 X-10.290 Y-21.968 Z-1.000 F300.000
G1 X-4.839 Y-21.968 Z-1.000 F300.000
G3 X-3.839 Y-20.968 Z-1.000 I-0.000 J1.000 K0.000 F300.000
G1 X-3.839 Y-18.763 Z-1.000 F300.000
G2 X-3.839 Y-18.742 Z-1.000 I0.010 J0.010 K0.000 F300.000
G2 X-3.818 Y-18.742 Z-1.000 I0.010 J-0.010 K0.000 F300.000
G1 X-3.839 Y-18.763 Z-1.000 F300.000
G1 X-3.839 Y-18.742 Z-1.000 F300.000
G1 X-2.613 Y-18.742 Z-1.000 F300.000
G0 Z5.000
G0 X-2.613 Y-23.194 Z5.000
G0 X-2.613 Y-23.194 Z3.000
G1 X-2.613 Y-23.194 Z-1.000 F300.000
G1 X-2.613 Y-20.365 Z-1.000 F300.000
G1 X-5.441 Y-23.194 Z-1.000 F300.000
G1 X-8.270 Y-23.194 Z-1.000 F300.000
G1 X-7.044 Y-21.968 Z-1.000 F300.000
G1 X-9.872 Y-21.968 Z-1.000 F300.000
G1 X-10.290 Y-22.386 Z-1.000 F300.000
G1 X-10.290 Y-21.968 Z-1.000 F300.000
G1 X-9.872 Y-21.968 Z-1.000 F300.000
G0 Z5.000
G0 Z5.000
G0 X-9.872 Y-21.968
G0 X-5.839 Y-16.742
G0 X-5.839 Y-16.742 Z3.000
G1 X-5.839 Y-16.742 Z-1.000 F300.000
G1 X-5.839 Y-13.914 Z-1.000 F300.000
G1 X-7.065 Y-15.139 Z-1.000 F300.000
G1 X-7.065 Y-12.311 Z-1.000 F300.000
G1 X-7.044 Y-12.290 Z-1.000 F300.000
G3 X-7.065 Y-12.311 Z-1.000 I-0.010 J-0.010 K0.000 F300.000
G1 X-7.065 Y-16.742 Z-1.000 F300.000
G1 X-5.839 Y-16.742 Z-1.000 F300.000
G1 X-5.839 Y-12.290 Z-1.000 F300.000
G1 X-7.065 Y-12.290 Z-1.000 F300.000
G1 X-7.065 Y-12.311 Z-1.000 F300.000
G0 Z5.000
G0 Z5.000
G0 X-7.065 Y-12.311
G0 X-9.065 Y-10.290
G0 X-9.065 Y-10.290 Z3.000
G1 X-9.065 Y-10.290 Z-1.000 F300.000
G1 X-11.290 Y-10.290 Z-1.000 F300.000
G3 X-12.290 Y-11.290 Z-1.000 I0.000 J-1.000 K0.000 F300.000
G1 X-12.290 Y-13.516 Z-1.000 F300.000
G1 X-14.516 Y-13.516 Z-1.000 F300.000
G3 X-15.516 Y-14.516 Z-1.000 I0.000 J-1.000 K0.000 F300.000
G1 X-15.516 Y-16.742 Z-1.000 F300.000
G1 X-16.742 Y-16.742 Z-1.000 F300.000
G1 X-16.742 Y-9.065 Z-1.000 F300.000
G1 X-16.324 Y-9.065 Z-1.000 F300.000
G1 X-16.742 Y-9.065 Z-1.000 F300.000
G1 X-16.742 Y-9.482 Z-1.000 F300.000
G1 X-16.324 Y-9.065 Z-1.000 F300.000
G1 X-14.516 Y-9.065 Z-1.000 F300.000
G3 X-13.516 Y-8.065 Z-1.000 I-0.000 J1.000 K0.000 F300.000
G1 X-13.516 Y-5.839 Z-1.000 F300.000
G1 X-12.290 Y-5.839 Z-1.000 F300.000
G1 X-12.290 Y-8.065 Z-1.000 F300.000
G3 X-11.290 Y-9.065 Z-1.000 I1.000 J-0.000 K0.000 F300.000
G1 X-9.065 Y-9.065 Z-1.000 F300.000
G1 X-9.065 Y-10.290 Z-1.000 F300.000
G0 Z5.000
G0 X-13.098 Y-5.839 Z5.000
G0 X-13.098 Y-5.839 Z3.000
G1 X-13.098 Y-5.839 Z-1.000 F300.000
G1 X-13.516 Y-5.839 Z-1.000 F300.000
G1 X-13.516 Y-6.257 Z-1.000 F300.000
G1 X-13.098 Y-5.839 Z-1.000 F300.000
G1 X-12.290 Y-5.839 Z-1.000 F300.000
G1 X-12.290 Y-7.859 Z-1.000 F300.000
G1 X-16.742 Y-12.311 Z-1.000 F300.000
G1 X-16.742 Y-15.139 Z-1.000 F300.000
G1 X-10.667 Y-9.065 Z-1.000 F300.000
