(Exported by FreeCAD)
(Post Processor: script_module)
(Output Time:2026-02-07 10:52:05.488190)
(Begin preamble)
G17 G90
G21
(Begin operation: Fixture)
(Path: Fixture)
G54
(Finish operation: Fixture)
(Begin operation: 2_5mmEndMill004)
(Path: 2_5mmEndMill004)
(2_5mmEndMill004)
(Begin toolchange)
( M6 T2 )
M3 S10000
(Finish operation: 2_5mmEndMill004)
(Begin operation: Profile002)
(Path: Profile002)
(Profile002)
(Compensated Tool Path. Diameter: 2.5)
G0 Z5.000
G0 X120.290 Y5.216
G0 Z3.000
G1 X120.290 Y5.216 Z-2.000 F360.000
G2 X121.250 Y4.000 Z-2.000 I-0.290 J-1.216 K0.000 F360.000
G1 X121.250 Y-4.000 Z-2.000 F360.000
G2 X120.000 Y-5.250 Z-2.000 I-1.250 J-0.000 K0.000 F360.000
G1 X115.250 Y-5.250 Z-2.000 F360.000
G1 X115.250 Y-8.000 Z-2.000 F360.000
G2 X114.000 Y-9.250 Z-2.000 I-1.250 J-0.000 K0.000 F360.000
G1 X-114.000 Y-9.250 Z-2.000 F360.000
G2 X-115.250 Y-8.000 Z-2.000 I-0.000 J1.250 K0.000 F360.000
G1 X-115.250 Y-5.250 Z-2.000 F360.000
G1 X-120.000 Y-5.250 Z-2.000 F360.000
G2 X-121.250 Y-4.000 Z-2.000 I-0.000 J1.250 K0.000 F360.000
G1 X-121.250 Y4.000 Z-2.000 F360.000
G2 X-120.000 Y5.250 Z-2.000 I1.250 J0.000 K0.000 F360.000
G1 X-115.250 Y5.250 Z-2.000 F360.000
G1 X-115.250 Y8.000 Z-2.000 F360.000
G2 X-114.000 Y9.250 Z-2.000 I1.250 J0.000 K0.000 F360.000
G1 X114.000 Y9.250 Z-2.000 F360.000
G2 X115.250 Y8.000 Z-2.000 I0.000 J-1.250 K0.000 F360.000
G1 X115.250 Y5.250 Z-2.000 F360.000
G1 X120.000 Y5.250 Z-2.000 F360.000
G2 X120.290 Y5.216 Z-2.000 I0.000 J-1.250 K0.000 F360.000
G1 X120.290 Y5.216 Z-4.000 F360.000
G2 X121.250 Y4.000 Z-4.000 I-0.290 J-1.216 K0.000 F360.000
G1 X121.250 Y-4.000 Z-4.000 F360.000
G2 X120.000 Y-5.250 Z-4.000 I-1.250 J-0.000 K0.000 F360.000
G1 X115.250 Y-5.250 Z-4.000 F360.000
G1 X115.250 Y-8.000 Z-4.000 F360.000
G2 X114.000 Y-9.250 Z-4.000 I-1.250 J-0.000 K0.000 F360.000
G1 X-114.000 Y-9.250 Z-4.000 F360.000
G2 X-115.250 Y-8.000 Z-4.000 I-0.000 J1.250 K0.000 F360.000
G1 X-115.250 Y-5.250 Z-4.000 F360.000
G1 X-120.000 Y-5.250 Z-4.000 F360.000
G2 X-121.250 Y-4.000 Z-4.000 I-0.000 J1.250 K0.000 F360.000
G1 X-121.250 Y4.000 Z-4.000 F360.000
G2 X-120.000 Y5.250 Z-4.000 I1.250 J0.000 K0.000 F360.000
G1 X-115.250 Y5.250 Z-4.000 F360.000
G1 X-115.250 Y8.000 Z-4.000 F360.000
G2 X-114.000 Y9.250 Z-4.000 I1.250 J0.000 K0.000 F360.000
G1 X114.000 Y9.250 Z-4.000 F360.000
G2 X115.250 Y8.000 Z-4.000 I0.000 J-1.250 K0.000 F360.000
G1 X115.250 Y5.250 Z-4.000 F360.000
G1 X120.000 Y5.250 Z-4.000 F360.000
G2 X120.290 Y5.216 Z-4.000 I0.000 J-1.250 K0.000 F360.000
G1 X120.290 Y5.216 Z-6.000 F360.000
G2 X121.250 Y4.000 Z-6.000 I-0.290 J-1.216 K0.000 F360.000
G1 X121.250 Y-4.000 Z-6.000 F360.000
G2 X120.000 Y-5.250 Z-6.000 I-1.250 J-0.000 K0.000 F360.000
G1 X115.250 Y-5.250 Z-6.000 F360.000
G1 X115.250 Y-8.000 Z-6.000 F360.000
G2 X114.000 Y-9.250 Z-6.000 I-1.250 J-0.000 K0.000 F360.000
G1 X-114.000 Y-9.250 Z-6.000 F360.000
G2 X-115.250 Y-8.000 Z-6.000 I-0.000 J1.250 K0.000 F360.000
G1 X-115.250 Y-5.250 Z-6.000 F360.000
G1 X-120.000 Y-5.250 Z-6.000 F360.000
G2 X-121.250 Y-4.000 Z-6.000 I-0.000 J1.250 K0.000 F360.000
G1 X-121.250 Y4.000 Z-6.000 F360.000
G2 X-120.000 Y5.250 Z-6.000 I1.250 J0.000 K0.000 F360.000
G1 X-115.250 Y5.250 Z-6.000 F360.000
G1 X-115.250 Y8.000 Z-6.000 F360.000
G2 X-114.000 Y9.250 Z-6.000 I1.250 J0.000 K0.000 F360.000
G1 X114.000 Y9.250 Z-6.000 F360.000
G2 X115.250 Y8.000 Z-6.000 I0.000 J-1.250 K0.000 F360.000
G1 X115.250 Y5.250 Z-6.000 F360.000
G1 X120.000 Y5.250 Z-6.000 F360.000
G2 X120.290 Y5.216 Z-6.000 I0.000 J-1.250 K0.000 F360.000
G1 X120.290 Y5.216 Z-8.000 F360.000
G2 X121.250 Y4.000 Z-8.000 I-0.290 J-1.216 K0.000 F360.000
G1 X121.250 Y-4.000 Z-8.000 F360.000
G2 X120.000 Y-5.250 Z-8.000 I-1.250 J-0.000 K0.000 F360.000
G1 X115.250 Y-5.250 Z-8.000 F360.000
G1 X115.250 Y-8.000 Z-8.000 F360.000
G2 X114.000 Y-9.250 Z-8.000 I-1.250 J-0.000 K0.000 F360.000
G1 X-114.000 Y-9.250 Z-8.000 F360.000
G2 X-115.250 Y-8.000 Z-8.000 I-0.000 J1.250 K0.000 F360.000
G1 X-115.250 Y-5.250 Z-8.000 F360.000
G1 X-120.000 Y-5.250 Z-8.000 F360.000
G2 X-121.250 Y-4.000 Z-8.000 I-0.000 J1.250 K0.000 F360.000
G1 X-121.250 Y4.000 Z-8.000 F360.000
G2 X-120.000 Y5.250 Z-8.000 I1.250 J0.000 K0.000 F360.000
G1 X-115.250 Y5.250 Z-8.000 F360.000
G1 X-115.250 Y8.000 Z-8.000 F360.000
G2 X-114.000 Y9.250 Z-8.000 I1.250 J0.000 K0.000 F360.000
G1 X114.000 Y9.250 Z-8.000 F360.000
G2 X115.250 Y8.000 Z-8.000 I0.000 J-1.250 K0.000 F360.000
G1 X115.250 Y5.250 Z-8.000 F360.000
G1 X120.000 Y5.250 Z-8.000 F360.000
G2 X120.290 Y5.216 Z-8.000 I0.000 J-1.250 K0.000 F360.000
G1 X120.290 Y5.216 Z-10.000 F360.000
G2 X121.250 Y4.000 Z-10.000 I-0.290 J-1.216 K0.000 F360.000
G1 X121.250 Y-4.000 Z-10.000 F360.000
G2 X120.000 Y-5.250 Z-10.000 I-1.250 J-0.000 K0.000 F360.000
G1 X115.250 Y-5.250 Z-10.000 F360.000
G1 X115.250 Y-8.000 Z-10.000 F360.000
G2 X114.000 Y-9.250 Z-10.000 I-1.250 J-0.000 K0.000 F360.000
G1 X-114.000 Y-9.250 Z-10.000 F360.000
G2 X-115.250 Y-8.000 Z-10.000 I-0.000 J1.250 K0.000 F360.000
G1 X-115.250 Y-5.250 Z-10.000 F360.000
G1 X-120.000 Y-5.250 Z-10.000 F360.000
G2 X-121.250 Y-4.000 Z-10.000 I-0.000 J1.250 K0.000 F360.000
G1 X-121.250 Y4.000 Z-10.000 F360.000
G2 X-120.000 Y5.250 Z-10.000 I1.250 J0.000 K0.000 F360.000
G1 X-115.250 Y5.250 Z-10.000 F360.000
G1 X-115.250 Y8.000 Z-10.000 F360.000
G2 X-114.000 Y9.250 Z-10.000 I1.250 J0.000 K0.000 F360.000
G1 X114.000 Y9.250 Z-10.000 F360.000
G2 X115.250 Y8.000 Z-10.000 I0.000 J-1.250 K0.000 F360.000
G1 X115.250 Y5.250 Z-10.000 F360.000
G1 X120.000 Y5.250 Z-10.000 F360.000
G2 X120.290 Y5.216 Z-10.000 I0.000 J-1.250 K0.000 F360.000
G1 X120.290 Y5.216 Z-12.000 F360.000
G2 X121.250 Y4.000 Z-12.000 I-0.290 J-1.216 K0.000 F360.000
G1 X121.250 Y-4.000 Z-12.000 F360.000
G2 X120.000 Y-5.250 Z-12.000 I-1.250 J-0.000 K0.000 F360.000
G1 X115.250 Y-5.250 Z-12.000 F360.000
G1 X115.250 Y-8.000 Z-12.000 F360.000
G2 X114.000 Y-9.250 Z-12.000 I-1.250 J-0.000 K0.000 F360.000
G1 X-114.000 Y-9.250 Z-12.000 F360.000
G2 X-115.250 Y-8.000 Z-12.000 I-0.000 J1.250 K0.000 F360.000
G1 X-115.250 Y-5.250 Z-12.000 F360.000
G1 X-120.000 Y-5.250 Z-12.000 F360.000
G2 X-121.250 Y-4.000 Z-12.000 I-0.000 J1.250 K0.000 F360.000
G1 X-121.250 Y4.000 Z-12.000 F360.000
G2 X-120.000 Y5.250 Z-12.000 I1.250 J0.000 K0.000 F360.000
G1 X-115.250 Y5.250 Z-12.000 F360.000
G1 X-115.250 Y8.000 Z-12.000 F360.000
G2 X-114.000 Y9.250 Z-12.000 I1.250 J0.000 K0.000 F360.000
G1 X114.000 Y9.250 Z-12.000 F360.000
G2 X115.250 Y8.000 Z-12.000 I0.000 J-1.250 K0.000 F360.000
G1 X115.250 Y5.250 Z-12.000 F360.000
G1 X120.000 Y5.250 Z-12.000 F360.000
G2 X120.290 Y5.216 Z-12.000 I0.000 J-1.250 K0.000 F360.000
G1 X120.290 Y5.216 Z-14.000 F360.000
G2 X121.250 Y4.000 Z-14.000 I-0.290 J-1.216 K0.000 F360.000
G1 X121.250 Y-4.000 Z-14.000 F360.000
G2 X120.000 Y-5.250 Z-14.000 I-1.250 J-0.000 K0.000 F360.000
G1 X115.250 Y-5.250 Z-14.000 F360.000
G1 X115.250 Y-8.000 Z-14.000 F360.000
G2 X114.000 Y-9.250 Z-14.000 I-1.250 J-0.000 K0.000 F360.000
G1 X-114.000 Y-9.250 Z-14.000 F360.000
G2 X-115.250 Y-8.000 Z-14.000 I-0.000 J1.250 K0.000 F360.000
G1 X-115.250 Y-5.250 Z-14.000 F360.000
G1 X-120.000 Y-5.250 Z-14.000 F360.000
G2 X-121.250 Y-4.000 Z-14.000 I-0.000 J1.250 K0.000 F360.000
G1 X-121.250 Y4.000 Z-14.000 F360.000
G2 X-120.000 Y5.250 Z-14.000 I1.250 J0.000 K0.000 F360.000
G1 X-115.250 Y5.250 Z-14.000 F360.000
G1 X-115.250 Y8.000 Z-14.000 F360.000
G2 X-114.000 Y9.250 Z-14.000 I1.250 J0.000 K0.000 F360.000
G1 X114.000 Y9.250 Z-14.000 F360.000
G2 X115.250 Y8.000 Z-14.000 I0.000 J-1.250 K0.000 F360.000
G1 X115.250 Y5.250 Z-14.000 F360.000
G1 X120.000 Y5.250 Z-14.000 F360.000
G2 X120.290 Y5.216 Z-14.000 I0.000 J-1.250 K0.000 F360.000
G1 X120.290 Y5.216 Z-16.000 F360.000
G2 X121.250 Y4.000 Z-16.000 I-0.290 J-1.216 K0.000 F360.000
G1 X121.250 Y-4.000 Z-16.000 F360.000
G2 X120.000 Y-5.250 Z-16.000 I-1.250 J-0.000 K0.000 F360.000
G1 X115.250 Y-5.250 Z-16.000 F360.000
G1 X115.250 Y-8.000 Z-16.000 F360.000
G2 X114.000 Y-9.250 Z-16.000 I-1.250 J-0.000 K0.000 F360.000
G1 X-114.000 Y-9.250 Z-16.000 F360.000
G2 X-115.250 Y-8.000 Z-16.000 I-0.000 J1.250 K0.000 F360.000
G1 X-115.250 Y-5.250 Z-16.000 F360.000
G1 X-120.000 Y-5.250 Z-16.000 F360.000
G2 X-121.250 Y-4.000 Z-16.000 I-0.000 J1.250 K0.000 F360.000
G1 X-121.250 Y4.000 Z-16.000 F360.000
G2 X-120.000 Y5.250 Z-16.000 I1.250 J0.000 K0.000 F360.000
G1 X-115.250 Y5.250 Z-16.000 F360.000
G1 X-115.250 Y8.000 Z-16.000 F360.000
G2 X-114.000 Y9.250 Z-16.000 I1.250 J0.000 K0.000 F360.000
G1 X114.000 Y9.250 Z-16.000 F360.000
G2 X115.250 Y8.000 Z-16.000 I0.000 J-1.250 K0.000 F360.000
G1 X115.250 Y5.250 Z-16.000 F360.000
G1 X120.000 Y5.250 Z-16.000 F360.000
G2 X120.290 Y5.216 Z-16.000 I0.000 J-1.250 K0.000 F360.000
G1 X120.290 Y5.216 Z-18.000 F360.000
G2 X121.250 Y4.000 Z-18.000 I-0.290 J-1.216 K0.000 F360.000
G1 X121.250 Y-4.000 Z-18.000 F360.000
G2 X120.000 Y-5.250 Z-18.000 I-1.250 J-0.000 K0.000 F360.000
G1 X115.250 Y-5.250 Z-18.000 F360.000
G1 X115.250 Y-8.000 Z-18.000 F360.000
G2 X114.000 Y-9.250 Z-18.000 I-1.250 J-0.000 K0.000 F360.000
G1 X-114.000 Y-9.250 Z-18.000 F360.000
G2 X-115.250 Y-8.000 Z-18.000 I-0.000 J1.250 K0.000 F360.000
G1 X-115.250 Y-5.250 Z-18.000 F360.000
G1 X-120.000 Y-5.250 Z-18.000 F360.000
G2 X-121.250 Y-4.000 Z-18.000 I-0.000 J1.250 K0.000 F360.000
G1 X-121.250 Y4.000 Z-18.000 F360.000
G2 X-120.000 Y5.250 Z-18.000 I1.250 J0.000 K0.000 F360.000
G1 X-115.250 Y5.250 Z-18.000 F360.000
G1 X-115.250 Y8.000 Z-18.000 F360.000
G2 X-114.000 Y9.250 Z-18.000 I1.250 J0.000 K0.000 F360.000
G1 X114.000 Y9.250 Z-18.000 F360.000
G2 X115.250 Y8.000 Z-18.000 I0.000 J-1.250 K0.000 F360.000
G1 X115.250 Y5.250 Z-18.000 F360.000
G1 X120.000 Y5.250 Z-18.000 F360.000
G2 X120.290 Y5.216 Z-18.000 I0.000 J-1.250 K0.000 F360.000
G1 X120.290 Y5.216 Z-20.000 F360.000
G2 X121.250 Y4.000 Z-20.000 I-0.290 J-1.216 K0.000 F360.000
G1 X121.250 Y-4.000 Z-20.000 F360.000
G2 X120.000 Y-5.250 Z-20.000 I-1.250 J-0.000 K0.000 F360.000
G1 X115.250 Y-5.250 Z-20.000 F360.000
G1 X115.250 Y-8.000 Z-20.000 F360.000
G2 X114.000 Y-9.250 Z-20.000 I-1.250 J-0.000 K0.000 F360.000
G1 X-114.000 Y-9.250 Z-20.000 F360.000
G2 X-115.250 Y-8.000 Z-20.000 I-0.000 J1.250 K0.000 F360.000
G1 X-115.250 Y-5.250 Z-20.000 F360.000
G1 X-120.000 Y-5.250 Z-20.000 F360.000
G2 X-121.250 Y-4.000 Z-20.000 I-0.000 J1.250 K0.000 F360.000
G1 X-121.250 Y4.000 Z-20.000 F360.000
G2 X-120.000 Y5.250 Z-20.000 I1.250 J0.000 K0.000 F360.000
G1 X-115.250 Y5.250 Z-20.000 F360.000
G1 X-115.250 Y8.000 Z-20.000 F360.000
G2 X-114.000 Y9.250 Z-20.000 I1.250 J0.000 K0.000 F360.000
G1 X114.000 Y9.250 Z-20.000 F360.000
G2 X115.250 Y8.000 Z-20.000 I0.000 J-1.250 K0.000 F360.000
G1 X115.250 Y5.250 Z-20.000 F360.000
G1 X120.000 Y5.250 Z-20.000 F360.000
G2 X120.290 Y5.216 Z-20.000 I0.000 J-1.250 K0.000 F360.000
G1 X120.290 Y5.216 Z-22.000 F360.000
G2 X121.250 Y4.000 Z-22.000 I-0.290 J-1.216 K0.000 F360.000
G1 X121.250 Y-4.000 Z-22.000 F360.000
G2 X120.000 Y-5.250 Z-22.000 I-1.250 J-0.000 K0.000 F360.000
G1 X115.250 Y-5.250 Z-22.000 F360.000
G1 X115.250 Y-8.000 Z-22.000 F360.000
G2 X114.000 Y-9.250 Z-22.000 I-1.250 J-0.000 K0.000 F360.000
G1 X-114.000 Y-9.250 Z-22.000 F360.000
G2 X-115.250 Y-8.000 Z-22.000 I-0.000 J1.250 K0.000 F360.000
G1 X-115.250 Y-5.250 Z-22.000 F360.000
G1 X-120.000 Y-5.250 Z-22.000 F360.000
G2 X-121.250 Y-4.000 Z-22.000 I-0.000 J1.250 K0.000 F360.000
G1 X-121.250 Y4.000 Z-22.000 F360.000
G2 X-120.000 Y5.250 Z-22.000 I1.250 J0.000 K0.000 F360.000
G1 X-115.250 Y5.250 Z-22.000 F360.000
G1 X-115.250 Y8.000 Z-22.000 F360.000
G2 X-114.000 Y9.250 Z-22.000 I1.250 J0.000 K0.000 F360.000
G1 X114.000 Y9.250 Z-22.000 F360.000
G2 X115.250 Y8.000 Z-22.000 I0.000 J-1.250 K0.000 F360.000
G1 X115.250 Y5.250 Z-22.000 F360.000
G1 X120.000 Y5.250 Z-22.000 F360.000
G2 X120.290 Y5.216 Z-22.000 I0.000 J-1.250 K0.000 F360.000
G0 Z5.000
G0 Z5.000
(Finish operation: Profile002)
(Begin postamble)
M5
G17 G90
M2
