(Exported by FreeCAD)
(Post Processor: script_module)
(Output Time:2026-02-06 16:44:24.799574)
(Begin preamble)
G17 G90
G21
(Begin operation: Fixture)
(Path: Fixture)
G54
(Finish operation: Fixture)
(Begin operation: 2_5mmEndMill002)
(Path: 2_5mmEndMill002)
(2_5mmEndMill002)
(Begin toolchange)
( M6 T2 )
M3 S10000
(Finish operation: 2_5mmEndMill002)
(Begin operation: Profile)
(Path: Profile)
(Profile)
(Compensated Tool Path. Diameter: 2.5)
G0 Z5.000
G0 X98.760 Y0.010
G0 Z3.000
G1 X98.760 Y0.010 Z-2.500 F300.000
G1 X98.760 Y-0.010 Z-2.500 F300.000
G1 X80.240 Y-0.010 Z-2.500 F300.000
G1 X80.240 Y0.010 Z-2.500 F300.000
G1 X98.760 Y0.010 Z-2.500 F300.000
G1 X98.760 Y0.010 Z-5.000 F300.000
G1 X98.760 Y-0.010 Z-5.000 F300.000
G1 X80.240 Y-0.010 Z-5.000 F300.000
G1 X80.240 Y0.010 Z-5.000 F300.000
G1 X98.760 Y0.010 Z-5.000 F300.000
G1 X98.760 Y0.010 Z-7.500 F300.000
G1 X98.760 Y-0.010 Z-7.500 F300.000
G1 X80.240 Y-0.010 Z-7.500 F300.000
G1 X80.240 Y0.010 Z-7.500 F300.000
G1 X98.760 Y0.010 Z-7.500 F300.000
G1 X98.760 Y0.010 Z-10.000 F300.000
G1 X98.760 Y-0.010 Z-10.000 F300.000
G1 X80.240 Y-0.010 Z-10.000 F300.000
G1 X80.240 Y0.010 Z-10.000 F300.000
G1 X98.760 Y0.010 Z-10.000 F300.000
G1 X98.760 Y0.010 Z-12.500 F300.000
G1 X98.760 Y-0.010 Z-12.500 F300.000
G1 X80.240 Y-0.010 Z-12.500 F300.000
G1 X80.240 Y0.010 Z-12.500 F300.000
G1 X98.760 Y0.010 Z-12.500 F300.000
G1 X98.760 Y0.010 Z-15.000 F300.000
G1 X98.760 Y-0.010 Z-15.000 F300.000
G1 X80.240 Y-0.010 Z-15.000 F300.000
G1 X80.240 Y0.010 Z-15.000 F300.000
G1 X98.760 Y0.010 Z-15.000 F300.000
G1 X98.760 Y0.010 Z-17.500 F300.000
G1 X98.760 Y-0.010 Z-17.500 F300.000
G1 X80.240 Y-0.010 Z-17.500 F300.000
G1 X80.240 Y0.010 Z-17.500 F300.000
G1 X98.760 Y0.010 Z-17.500 F300.000
G1 X98.760 Y0.010 Z-20.000 F300.000
G1 X98.760 Y-0.010 Z-20.000 F300.000
G1 X80.240 Y-0.010 Z-20.000 F300.000
G1 X80.240 Y0.010 Z-20.000 F300.000
G1 X98.760 Y0.010 Z-20.000 F300.000
G1 X98.760 Y0.010 Z-22.000 F300.000
G1 X98.760 Y-0.010 Z-22.000 F300.000
G1 X80.240 Y-0.010 Z-22.000 F300.000
G1 X80.240 Y0.010 Z-22.000 F300.000
G1 X98.760 Y0.010 Z-22.000 F300.000
G0 Z5.000
G0 Z5.000
(Finish operation: Profile)
(Begin operation: Pocket_Shape)
(Path: Pocket_Shape)
(Pocket_Shape)
G0 Z5.000
G0 X-21.250 Y-2.750
G0 Z3.000
G1 X-21.250 Y-2.750 Z-2.500 F300.000
G1 X-21.250 Y2.750 Z-2.500 F300.000
G1 X-23.750 Y2.750 Z-2.500 F300.000
G1 X-23.750 Y-2.750 Z-2.500 F300.000
G1 X-26.250 Y-2.750 Z-2.500 F300.000
G1 X-26.250 Y2.750 Z-2.500 F300.000
G1 X-28.750 Y2.750 Z-2.500 F300.000
G1 X-28.750 Y-2.750 Z-2.500 F300.000
G1 X-31.250 Y-2.750 Z-2.500 F300.000
G1 X-31.250 Y2.750 Z-2.500 F300.000
G1 X-33.750 Y2.750 Z-2.500 F300.000
G1 X-33.750 Y-2.750 Z-2.500 F300.000
G1 X-36.250 Y-2.750 Z-2.500 F300.000
G1 X-36.250 Y2.750 Z-2.500 F300.000
G1 X-38.750 Y2.750 Z-2.500 F300.000
G1 X-40.750 Y2.750 Z-2.500 F300.000
G1 X-40.750 Y-2.750 Z-2.500 F300.000
G1 X-21.250 Y-2.750 Z-2.500 F300.000
G1 X-21.250 Y2.750 Z-2.500 F300.000
G1 X-38.750 Y2.750 Z-2.500 F300.000
G1 X-38.750 Y-2.750 Z-2.500 F300.000
G1 X-40.750 Y-2.750 Z-2.500 F300.000
G1 X-40.750 Y2.750 Z-2.500 F300.000
G1 X-38.750 Y2.750 Z-2.500 F300.000
G1 X-38.750 Y2.750 Z-5.000 F300.000
G1 X-40.750 Y2.750 Z-5.000 F300.000
G1 X-40.750 Y-2.750 Z-5.000 F300.000
G1 X-38.750 Y-2.750 Z-5.000 F300.000
G1 X-38.750 Y2.750 Z-5.000 F300.000
G1 X-21.250 Y2.750 Z-5.000 F300.000
G1 X-21.250 Y-2.750 Z-5.000 F300.000
G1 X-40.750 Y-2.750 Z-5.000 F300.000
G1 X-40.750 Y2.750 Z-5.000 F300.000
G1 X-38.750 Y2.750 Z-5.000 F300.000
G1 X-36.250 Y2.750 Z-5.000 F300.000
G1 X-36.250 Y-2.750 Z-5.000 F300.000
G1 X-33.750 Y-2.750 Z-5.000 F300.000
G1 X-33.750 Y2.750 Z-5.000 F300.000
G1 X-31.250 Y2.750 Z-5.000 F300.000
G1 X-31.250 Y-2.750 Z-5.000 F300.000
G1 X-28.750 Y-2.750 Z-5.000 F300.000
G1 X-28.750 Y2.750 Z-5.000 F300.000
G1 X-26.250 Y2.750 Z-5.000 F300.000
G1 X-26.250 Y-2.750 Z-5.000 F300.000
G1 X-23.750 Y-2.750 Z-5.000 F300.000
G1 X-23.750 Y2.750 Z-5.000 F300.000
G1 X-21.250 Y2.750 Z-5.000 F300.000
G1 X-21.250 Y-2.750 Z-5.000 F300.000
G1 X-21.250 Y-2.750 Z-6.000 F300.000
G1 X-21.250 Y2.750 Z-6.000 F300.000
G1 X-23.750 Y2.750 Z-6.000 F300.000
G1 X-23.750 Y-2.750 Z-6.000 F300.000
G1 X-26.250 Y-2.750 Z-6.000 F300.000
G1 X-26.250 Y2.750 Z-6.000 F300.000
G1 X-28.750 Y2.750 Z-6.000 F300.000
G1 X-28.750 Y-2.750 Z-6.000 F300.000
G1 X-31.250 Y-2.750 Z-6.000 F300.000
G1 X-31.250 Y2.750 Z-6.000 F300.000
G1 X-33.750 Y2.750 Z-6.000 F300.000
G1 X-33.750 Y-2.750 Z-6.000 F300.000
G1 X-36.250 Y-2.750 Z-6.000 F300.000
G1 X-36.250 Y2.750 Z-6.000 F300.000
G1 X-38.750 Y2.750 Z-6.000 F300.000
G1 X-40.750 Y2.750 Z-6.000 F300.000
G1 X-40.750 Y-2.750 Z-6.000 F300.000
G1 X-21.250 Y-2.750 Z-6.000 F300.000
G1 X-21.250 Y2.750 Z-6.000 F300.000
G1 X-38.750 Y2.750 Z-6.000 F300.000
G1 X-38.750 Y-2.750 Z-6.000 F300.000
G1 X-40.750 Y-2.750 Z-6.000 F300.000
G1 X-40.750 Y2.750 Z-6.000 F300.000
G1 X-38.750 Y2.750 Z-6.000 F300.000
G0 Z5.000
G0 Z5.000
(Finish operation: Pocket_Shape)
(Begin operation: Profile001)
(Path: Profile001)
(Profile001)
(Compensated Tool Path. Diameter: 2.5)
G0 Z5.000
G0 X100.884 Y9.884
G0 Z3.000
G1 X100.884 Y9.884 Z-2.500 F300.000
G2 X101.250 Y9.000 Z-2.500 I-0.884 J-0.884 K0.000 F300.000
G1 X101.250 Y1.250 Z-2.500 F300.000
G2 X100.000 Y0.000 Z-2.500 I-1.250 J-0.000 K0.000 F300.000
G2 X101.250 Y-1.250 Z-2.500 I0.000 J-1.250 K0.000 F300.000
G1 X101.250 Y-9.000 Z-2.500 F300.000
G2 X100.000 Y-10.250 Z-2.500 I-1.250 J-0.000 K0.000 F300.000
G1 X-80.000 Y-10.250 Z-2.500 F300.000
G2 X-81.211 Y-9.311 Z-2.500 I0.000 J1.250 K0.000 F300.000
G2 X-81.250 Y-8.250 Z-2.500 I4.179 J0.686 K0.000 F300.000
G1 X-88.750 Y-8.250 Z-2.500 F300.000
G1 X-88.750 Y-9.000 Z-2.500 F300.000
G2 X-90.000 Y-10.250 Z-2.500 I-1.250 J-0.000 K0.000 F300.000
G1 X-100.000 Y-10.250 Z-2.500 F300.000
G2 X-101.250 Y-9.000 Z-2.500 I-0.000 J1.250 K0.000 F300.000
G1 X-101.250 Y9.000 Z-2.500 F300.000
G2 X-100.000 Y10.250 Z-2.500 I1.250 J0.000 K0.000 F300.000
G1 X-90.000 Y10.250 Z-2.500 F300.000
G2 X-88.789 Y9.311 Z-2.500 I-0.000 J-1.250 K0.000 F300.000
G2 X-88.750 Y8.250 Z-2.500 I-4.179 J-0.686 K0.000 F300.000
G1 X-81.250 Y8.250 Z-2.500 F300.000
G1 X-81.250 Y9.000 Z-2.500 F300.000
G2 X-80.000 Y10.250 Z-2.500 I1.250 J0.000 K0.000 F300.000
G1 X100.000 Y10.250 Z-2.500 F300.000
G2 X100.884 Y9.884 Z-2.500 I0.000 J-1.250 K0.000 F300.000
G1 X100.884 Y9.884 Z-5.000 F300.000
G2 X101.250 Y9.000 Z-5.000 I-0.884 J-0.884 K0.000 F300.000
G1 X101.250 Y1.250 Z-5.000 F300.000
G2 X100.000 Y0.000 Z-5.000 I-1.250 J-0.000 K0.000 F300.000
G2 X101.250 Y-1.250 Z-5.000 I0.000 J-1.250 K0.000 F300.000
G1 X101.250 Y-9.000 Z-5.000 F300.000
G2 X100.000 Y-10.250 Z-5.000 I-1.250 J-0.000 K0.000 F300.000
G1 X-80.000 Y-10.250 Z-5.000 F300.000
G2 X-81.211 Y-9.311 Z-5.000 I0.000 J1.250 K0.000 F300.000
G2 X-81.250 Y-8.250 Z-5.000 I4.179 J0.686 K0.000 F300.000
G1 X-88.750 Y-8.250 Z-5.000 F300.000
G1 X-88.750 Y-9.000 Z-5.000 F300.000
G2 X-90.000 Y-10.250 Z-5.000 I-1.250 J-0.000 K0.000 F300.000
G1 X-100.000 Y-10.250 Z-5.000 F300.000
G2 X-101.250 Y-9.000 Z-5.000 I-0.000 J1.250 K0.000 F300.000
G1 X-101.250 Y9.000 Z-5.000 F300.000
G2 X-100.000 Y10.250 Z-5.000 I1.250 J0.000 K0.000 F300.000
G1 X-90.000 Y10.250 Z-5.000 F300.000
G2 X-88.789 Y9.311 Z-5.000 I-0.000 J-1.250 K0.000 F300.000
G2 X-88.750 Y8.250 Z-5.000 I-4.179 J-0.686 K0.000 F300.000
G1 X-81.250 Y8.250 Z-5.000 F300.000
G1 X-81.250 Y9.000 Z-5.000 F300.000
G2 X-80.000 Y10.250 Z-5.000 I1.250 J0.000 K0.000 F300.000
G1 X100.000 Y10.250 Z-5.000 F300.000
G2 X100.884 Y9.884 Z-5.000 I0.000 J-1.250 K0.000 F300.000
G1 X100.884 Y9.884 Z-7.500 F300.000
G2 X101.250 Y9.000 Z-7.500 I-0.884 J-0.884 K0.000 F300.000
G1 X101.250 Y1.250 Z-7.500 F300.000
G2 X100.000 Y0.000 Z-7.500 I-1.250 J-0.000 K0.000 F300.000
G2 X101.250 Y-1.250 Z-7.500 I0.000 J-1.250 K0.000 F300.000
G1 X101.250 Y-9.000 Z-7.500 F300.000
G2 X100.000 Y-10.250 Z-7.500 I-1.250 J-0.000 K0.000 F300.000
G1 X-80.000 Y-10.250 Z-7.500 F300.000
G2 X-81.211 Y-9.311 Z-7.500 I0.000 J1.250 K0.000 F300.000
G2 X-81.250 Y-8.250 Z-7.500 I4.179 J0.686 K0.000 F300.000
G1 X-88.750 Y-8.250 Z-7.500 F300.000
G1 X-88.750 Y-9.000 Z-7.500 F300.000
G2 X-90.000 Y-10.250 Z-7.500 I-1.250 J-0.000 K0.000 F300.000
G1 X-100.000 Y-10.250 Z-7.500 F300.000
G2 X-101.250 Y-9.000 Z-7.500 I-0.000 J1.250 K0.000 F300.000
G1 X-101.250 Y9.000 Z-7.500 F300.000
G2 X-100.000 Y10.250 Z-7.500 I1.250 J0.000 K0.000 F300.000
G1 X-90.000 Y10.250 Z-7.500 F300.000
G2 X-88.789 Y9.311 Z-7.500 I-0.000 J-1.250 K0.000 F300.000
G2 X-88.750 Y8.250 Z-7.500 I-4.179 J-0.686 K0.000 F300.000
G1 X-81.250 Y8.250 Z-7.500 F300.000
G1 X-81.250 Y9.000 Z-7.500 F300.000
G2 X-80.000 Y10.250 Z-7.500 I1.250 J0.000 K0.000 F300.000
G1 X100.000 Y10.250 Z-7.500 F300.000
G2 X100.884 Y9.884 Z-7.500 I0.000 J-1.250 K0.000 F300.000
G1 X100.884 Y9.884 Z-10.000 F300.000
G2 X101.250 Y9.000 Z-10.000 I-0.884 J-0.884 K0.000 F300.000
G1 X101.250 Y1.250 Z-10.000 F300.000
G2 X100.000 Y0.000 Z-10.000 I-1.250 J-0.000 K0.000 F300.000
G2 X101.250 Y-1.250 Z-10.000 I0.000 J-1.250 K0.000 F300.000
G1 X101.250 Y-9.000 Z-10.000 F300.000
G2 X100.000 Y-10.250 Z-10.000 I-1.250 J-0.000 K0.000 F300.000
G1 X-80.000 Y-10.250 Z-10.000 F300.000
G2 X-81.211 Y-9.311 Z-10.000 I0.000 J1.250 K0.000 F300.000
G2 X-81.250 Y-8.250 Z-10.000 I4.179 J0.686 K0.000 F300.000
G1 X-88.750 Y-8.250 Z-10.000 F300.000
G1 X-88.750 Y-9.000 Z-10.000 F300.000
G2 X-90.000 Y-10.250 Z-10.000 I-1.250 J-0.000 K0.000 F300.000
G1 X-100.000 Y-10.250 Z-10.000 F300.000
G2 X-101.250 Y-9.000 Z-10.000 I-0.000 J1.250 K0.000 F300.000
G1 X-101.250 Y9.000 Z-10.000 F300.000
G2 X-100.000 Y10.250 Z-10.000 I1.250 J0.000 K0.000 F300.000
G1 X-90.000 Y10.250 Z-10.000 F300.000
G2 X-88.789 Y9.311 Z-10.000 I-0.000 J-1.250 K0.000 F300.000
G2 X-88.750 Y8.250 Z-10.000 I-4.179 J-0.686 K0.000 F300.000
G1 X-81.250 Y8.250 Z-10.000 F300.000
G1 X-81.250 Y9.000 Z-10.000 F300.000
G2 X-80.000 Y10.250 Z-10.000 I1.250 J0.000 K0.000 F300.000
G1 X100.000 Y10.250 Z-10.000 F300.000
G2 X100.884 Y9.884 Z-10.000 I0.000 J-1.250 K0.000 F300.000
G1 X100.884 Y9.884 Z-12.500 F300.000
G2 X101.250 Y9.000 Z-12.500 I-0.884 J-0.884 K0.000 F300.000
G1 X101.250 Y1.250 Z-12.500 F300.000
G2 X100.000 Y0.000 Z-12.500 I-1.250 J-0.000 K0.000 F300.000
G2 X101.250 Y-1.250 Z-12.500 I0.000 J-1.250 K0.000 F300.000
G1 X101.250 Y-9.000 Z-12.500 F300.000
G2 X100.000 Y-10.250 Z-12.500 I-1.250 J-0.000 K0.000 F300.000
G1 X-80.000 Y-10.250 Z-12.500 F300.000
G2 X-81.211 Y-9.311 Z-12.500 I0.000 J1.250 K0.000 F300.000
G2 X-81.250 Y-8.250 Z-12.500 I4.179 J0.686 K0.000 F300.000
G1 X-88.750 Y-8.250 Z-12.500 F300.000
G1 X-88.750 Y-9.000 Z-12.500 F300.000
G2 X-90.000 Y-10.250 Z-12.500 I-1.250 J-0.000 K0.000 F300.000
G1 X-100.000 Y-10.250 Z-12.500 F300.000
G2 X-101.250 Y-9.000 Z-12.500 I-0.000 J1.250 K0.000 F300.000
G1 X-101.250 Y9.000 Z-12.500 F300.000
G2 X-100.000 Y10.250 Z-12.500 I1.250 J0.000 K0.000 F300.000
G1 X-90.000 Y10.250 Z-12.500 F300.000
G2 X-88.789 Y9.311 Z-12.500 I-0.000 J-1.250 K0.000 F300.000
G2 X-88.750 Y8.250 Z-12.500 I-4.179 J-0.686 K0.000 F300.000
G1 X-81.250 Y8.250 Z-12.500 F300.000
G1 X-81.250 Y9.000 Z-12.500 F300.000
G2 X-80.000 Y10.250 Z-12.500 I1.250 J0.000 K0.000 F300.000
G1 X100.000 Y10.250 Z-12.500 F300.000
G2 X100.884 Y9.884 Z-12.500 I0.000 J-1.250 K0.000 F300.000
G1 X100.884 Y9.884 Z-15.000 F300.000
G2 X101.250 Y9.000 Z-15.000 I-0.884 J-0.884 K0.000 F300.000
G1 X101.250 Y1.250 Z-15.000 F300.000
G2 X100.000 Y0.000 Z-15.000 I-1.250 J-0.000 K0.000 F300.000
G2 X101.250 Y-1.250 Z-15.000 I0.000 J-1.250 K0.000 F300.000
G1 X101.250 Y-9.000 Z-15.000 F300.000
G2 X100.000 Y-10.250 Z-15.000 I-1.250 J-0.000 K0.000 F300.000
G1 X-80.000 Y-10.250 Z-15.000 F300.000
G2 X-81.211 Y-9.311 Z-15.000 I0.000 J1.250 K0.000 F300.000
G2 X-81.250 Y-8.250 Z-15.000 I4.179 J0.686 K0.000 F300.000
G1 X-88.750 Y-8.250 Z-15.000 F300.000
G1 X-88.750 Y-9.000 Z-15.000 F300.000
G2 X-90.000 Y-10.250 Z-15.000 I-1.250 J-0.000 K0.000 F300.000
G1 X-100.000 Y-10.250 Z-15.000 F300.000
G2 X-101.250 Y-9.000 Z-15.000 I-0.000 J1.250 K0.000 F300.000
G1 X-101.250 Y9.000 Z-15.000 F300.000
G2 X-100.000 Y10.250 Z-15.000 I1.250 J0.000 K0.000 F300.000
G1 X-90.000 Y10.250 Z-15.000 F300.000
G2 X-88.789 Y9.311 Z-15.000 I-0.000 J-1.250 K0.000 F300.000
G2 X-88.750 Y8.250 Z-15.000 I-4.179 J-0.686 K0.000 F300.000
G1 X-81.250 Y8.250 Z-15.000 F300.000
G1 X-81.250 Y9.000 Z-15.000 F300.000
G2 X-80.000 Y10.250 Z-15.000 I1.250 J0.000 K0.000 F300.000
G1 X100.000 Y10.250 Z-15.000 F300.000
G2 X100.884 Y9.884 Z-15.000 I0.000 J-1.250 K0.000 F300.000
G1 X100.884 Y9.884 Z-17.500 F300.000
G2 X101.250 Y9.000 Z-17.500 I-0.884 J-0.884 K0.000 F300.000
G1 X101.250 Y1.250 Z-17.500 F300.000
G2 X100.000 Y0.000 Z-17.500 I-1.250 J-0.000 K0.000 F300.000
G2 X101.250 Y-1.250 Z-17.500 I0.000 J-1.250 K0.000 F300.000
G1 X101.250 Y-9.000 Z-17.500 F300.000
G2 X100.000 Y-10.250 Z-17.500 I-1.250 J-0.000 K0.000 F300.000
G1 X-80.000 Y-10.250 Z-17.500 F300.000
G2 X-81.211 Y-9.311 Z-17.500 I0.000 J1.250 K0.000 F300.000
G2 X-81.250 Y-8.250 Z-17.500 I4.179 J0.686 K0.000 F300.000
G1 X-88.750 Y-8.250 Z-17.500 F300.000
G1 X-88.750 Y-9.000 Z-17.500 F300.000
G2 X-90.000 Y-10.250 Z-17.500 I-1.250 J-0.000 K0.000 F300.000
G1 X-100.000 Y-10.250 Z-17.500 F300.000
G2 X-101.250 Y-9.000 Z-17.500 I-0.000 J1.250 K0.000 F300.000
G1 X-101.250 Y9.000 Z-17.500 F300.000
G2 X-100.000 Y10.250 Z-17.500 I1.250 J0.000 K0.000 F300.000
G1 X-90.000 Y10.250 Z-17.500 F300.000
G2 X-88.789 Y9.311 Z-17.500 I-0.000 J-1.250 K0.000 F300.000
G2 X-88.750 Y8.250 Z-17.500 I-4.179 J-0.686 K0.000 F300.000
G1 X-81.250 Y8.250 Z-17.500 F300.000
G1 X-81.250 Y9.000 Z-17.500 F300.000
G2 X-80.000 Y10.250 Z-17.500 I1.250 J0.000 K0.000 F300.000
G1 X100.000 Y10.250 Z-17.500 F300.000
G2 X100.884 Y9.884 Z-17.500 I0.000 J-1.250 K0.000 F300.000
G1 X100.884 Y9.884 Z-20.000 F300.000
G2 X101.250 Y9.000 Z-20.000 I-0.884 J-0.884 K0.000 F300.000
G1 X101.250 Y1.250 Z-20.000 F300.000
G2 X100.000 Y0.000 Z-20.000 I-1.250 J-0.000 K0.000 F300.000
G2 X101.250 Y-1.250 Z-20.000 I0.000 J-1.250 K0.000 F300.000
G1 X101.250 Y-9.000 Z-20.000 F300.000
G2 X100.000 Y-10.250 Z-20.000 I-1.250 J-0.000 K0.000 F300.000
G1 X-80.000 Y-10.250 Z-20.000 F300.000
G2 X-81.211 Y-9.311 Z-20.000 I0.000 J1.250 K0.000 F300.000
G2 X-81.250 Y-8.250 Z-20.000 I4.179 J0.686 K0.000 F300.000
G1 X-88.750 Y-8.250 Z-20.000 F300.000
G1 X-88.750 Y-9.000 Z-20.000 F300.000
G2 X-90.000 Y-10.250 Z-20.000 I-1.250 J-0.000 K0.000 F300.000
G1 X-100.000 Y-10.250 Z-20.000 F300.000
G2 X-101.250 Y-9.000 Z-20.000 I-0.000 J1.250 K0.000 F300.000
G1 X-101.250 Y9.000 Z-20.000 F300.000
G2 X-100.000 Y10.250 Z-20.000 I1.250 J0.000 K0.000 F300.000
G1 X-90.000 Y10.250 Z-20.000 F300.000
G2 X-88.789 Y9.311 Z-20.000 I-0.000 J-1.250 K0.000 F300.000
G2 X-88.750 Y8.250 Z-20.000 I-4.179 J-0.686 K0.000 F300.000
G1 X-81.250 Y8.250 Z-20.000 F300.000
G1 X-81.250 Y9.000 Z-20.000 F300.000
G2 X-80.000 Y10.250 Z-20.000 I1.250 J0.000 K0.000 F300.000
G1 X100.000 Y10.250 Z-20.000 F300.000
G2 X100.884 Y9.884 Z-20.000 I0.000 J-1.250 K0.000 F300.000
G1 X100.884 Y9.884 Z-22.000 F300.000
G2 X101.250 Y9.000 Z-22.000 I-0.884 J-0.884 K0.000 F300.000
G1 X101.250 Y1.250 Z-22.000 F300.000
G2 X100.000 Y0.000 Z-22.000 I-1.250 J-0.000 K0.000 F300.000
G2 X101.250 Y-1.250 Z-22.000 I0.000 J-1.250 K0.000 F300.000
G1 X101.250 Y-9.000 Z-22.000 F300.000
G2 X100.000 Y-10.250 Z-22.000 I-1.250 J-0.000 K0.000 F300.000
G1 X-80.000 Y-10.250 Z-22.000 F300.000
G2 X-81.211 Y-9.311 Z-22.000 I0.000 J1.250 K0.000 F300.000
G2 X-81.250 Y-8.250 Z-22.000 I4.179 J0.686 K0.000 F300.000
G1 X-88.750 Y-8.250 Z-22.000 F300.000
G1 X-88.750 Y-9.000 Z-22.000 F300.000
G2 X-90.000 Y-10.250 Z-22.000 I-1.250 J-0.000 K0.000 F300.000
G1 X-100.000 Y-10.250 Z-22.000 F300.000
G2 X-101.250 Y-9.000 Z-22.000 I-0.000 J1.250 K0.000 F300.000
G1 X-101.250 Y9.000 Z-22.000 F300.000
G2 X-100.000 Y10.250 Z-22.000 I1.250 J0.000 K0.000 F300.000
G1 X-90.000 Y10.250 Z-22.000 F300.000
G2 X-88.789 Y9.311 Z-22.000 I-0.000 J-1.250 K0.000 F300.000
G2 X-88.750 Y8.250 Z-22.000 I-4.179 J-0.686 K0.000 F300.000
G1 X-81.250 Y8.250 Z-22.000 F300.000
G1 X-81.250 Y9.000 Z-22.000 F300.000
G2 X-80.000 Y10.250 Z-22.000 I1.250 J0.000 K0.000 F300.000
G1 X100.000 Y10.250 Z-22.000 F300.000
G2 X100.884 Y9.884 Z-22.000 I0.000 J-1.250 K0.000 F300.000
G0 Z5.000
G0 Z5.000
(Finish operation: Profile001)
(Begin postamble)
M5
G17 G90
M2
