(Exported by FreeCAD)
(Post Processor: script_module)
(Output Time:2025-08-14 21:47:29.116989)
(Begin preamble)
G17 G90
G21
(Begin operation: Fixture)
(Path: Fixture)
G54
(Finish operation: Fixture)
(Begin operation: 3mm_Endmill001)
(Path: 3mm_Endmill001)
(3mm_Endmill001)
(Begin toolchange)
( M6 T2 )
M3 S20000
(Finish operation: 3mm_Endmill001)
(Begin operation: Profile)
(Path: Profile)
(Profile)
(Compensated Tool Path. Diameter: 3.0)
G0 Z5.000
G0 X2.119 Y2.119
G0 Z3.000
G1 X2.119 Y2.119 Z-3.000 F600.000
G2 X0.776 Y-2.895 Z-3.000 I-2.119 J-2.119 K0.000 F600.000
G2 X-2.895 Y-0.776 Z-3.000 I-0.776 J2.895 K0.000 F600.000
G2 X-0.776 Y2.895 Z-3.000 I2.895 J0.776 K0.000 F600.000
G2 X2.119 Y2.119 Z-3.000 I0.776 J-2.895 K0.000 F600.000
G1 X2.119 Y2.119 Z-6.000 F600.000
G2 X0.776 Y-2.895 Z-6.000 I-2.119 J-2.119 K0.000 F600.000
G2 X-2.895 Y-0.776 Z-6.000 I-0.776 J2.895 K0.000 F600.000
G2 X-0.776 Y2.895 Z-6.000 I2.895 J0.776 K0.000 F600.000
G2 X2.119 Y2.119 Z-6.000 I0.776 J-2.895 K0.000 F600.000
G1 X2.119 Y2.119 Z-9.000 F600.000
G2 X0.776 Y-2.895 Z-9.000 I-2.119 J-2.119 K0.000 F600.000
G2 X-2.895 Y-0.776 Z-9.000 I-0.776 J2.895 K0.000 F600.000
G2 X-0.776 Y2.895 Z-9.000 I2.895 J0.776 K0.000 F600.000
G2 X2.119 Y2.119 Z-9.000 I0.776 J-2.895 K0.000 F600.000
G1 X2.119 Y2.119 Z-12.000 F600.000
G2 X0.776 Y-2.895 Z-12.000 I-2.119 J-2.119 K0.000 F600.000
G2 X-2.895 Y-0.776 Z-12.000 I-0.776 J2.895 K0.000 F600.000
G2 X-0.776 Y2.895 Z-12.000 I2.895 J0.776 K0.000 F600.000
G2 X2.119 Y2.119 Z-12.000 I0.776 J-2.895 K0.000 F600.000
G1 X2.119 Y2.119 Z-15.000 F600.000
G2 X0.776 Y-2.895 Z-15.000 I-2.119 J-2.119 K0.000 F600.000
G2 X-2.895 Y-0.776 Z-15.000 I-0.776 J2.895 K0.000 F600.000
G2 X-0.776 Y2.895 Z-15.000 I2.895 J0.776 K0.000 F600.000
G2 X2.119 Y2.119 Z-15.000 I0.776 J-2.895 K0.000 F600.000
G1 X2.119 Y2.119 Z-18.000 F600.000
G2 X0.776 Y-2.895 Z-18.000 I-2.119 J-2.119 K0.000 F600.000
G2 X-2.895 Y-0.776 Z-18.000 I-0.776 J2.895 K0.000 F600.000
G2 X-0.776 Y2.895 Z-18.000 I2.895 J0.776 K0.000 F600.000
G2 X2.119 Y2.119 Z-18.000 I0.776 J-2.895 K0.000 F600.000
G1 X2.119 Y2.119 Z-20.000 F600.000
G2 X0.776 Y-2.895 Z-20.000 I-2.119 J-2.119 K0.000 F600.000
G2 X-2.895 Y-0.776 Z-20.000 I-0.776 J2.895 K0.000 F600.000
G2 X-0.776 Y2.895 Z-20.000 I2.895 J0.776 K0.000 F600.000
G2 X2.119 Y2.119 Z-20.000 I0.776 J-2.895 K0.000 F600.000
G0 Z5.000
G0 Z5.000
(Finish operation: Profile)
(Begin operation: Pocket_Shape)
(Path: Pocket_Shape)
(Pocket_Shape)
G0 Z5.000
G0 X-18.592 Y1.408
G0 Z3.000
G1 X-18.592 Y1.408 Z-2.000 F600.000
G2 X-20.029 Y-1.991 Z-2.000 I-1.408 J-1.408 K0.000 F600.000
G2 X-19.972 Y1.991 Z-2.000 I0.029 J1.991 K0.000 F600.000
G2 X-18.592 Y1.408 Z-2.000 I-0.028 J-1.991 K0.000 F600.000
G0 Z5.000
G0 X-21.342 Y1.470 Z5.000
G0 X-21.342 Y1.470 Z3.000
G1 X-21.342 Y1.470 Z-2.000 F600.000
G3 X-20.499 Y-1.927 Z-2.000 I1.341 J-1.470 K0.000 F600.000
G1 X-18.074 Y0.499 Z-2.000 F600.000
G2 X-20.499 Y-1.927 Z-2.000 I-1.926 J-0.500 K0.000 F600.000
G0 Z5.000
G0 Z5.000
(Finish operation: Pocket_Shape)
(Begin operation: Pocket_Shape001)
(Path: Pocket_Shape001)
(Pocket_Shape001)
G0 Z5.000
G0 X-19.801 Y0.199
G0 Z3.000
G1 X-19.801 Y0.199 Z-3.000 F600.000
G2 X-19.799 Y-0.197 Z-3.000 I-0.199 J-0.199 K0.000 F600.000
G2 X-20.201 Y0.197 Z-3.000 I-0.201 J0.197 K0.000 F600.000
G2 X-19.803 Y0.201 Z-3.000 I0.201 J-0.197 K0.000 F600.000
G2 X-19.799 Y-0.197 Z-3.000 I-0.197 J-0.201 K0.000 F600.000
G2 X-20.201 Y0.197 Z-3.000 I-0.201 J0.197 K0.000 F600.000
G2 X-19.801 Y0.199 Z-3.000 I0.201 J-0.197 K0.000 F600.000
G1 X-19.801 Y0.199 Z-6.000 F600.000
G2 X-19.799 Y-0.197 Z-6.000 I-0.199 J-0.199 K0.000 F600.000
G2 X-20.201 Y0.197 Z-6.000 I-0.201 J0.197 K0.000 F600.000
G2 X-19.803 Y0.201 Z-6.000 I0.201 J-0.197 K0.000 F600.000
G2 X-19.799 Y-0.197 Z-6.000 I-0.197 J-0.201 K0.000 F600.000
G2 X-20.201 Y0.197 Z-6.000 I-0.201 J0.197 K0.000 F600.000
G2 X-19.801 Y0.199 Z-6.000 I0.201 J-0.197 K0.000 F600.000
G1 X-19.801 Y0.199 Z-9.000 F600.000
G2 X-19.799 Y-0.197 Z-9.000 I-0.199 J-0.199 K0.000 F600.000
G2 X-20.201 Y0.197 Z-9.000 I-0.201 J0.197 K0.000 F600.000
G2 X-19.803 Y0.201 Z-9.000 I0.201 J-0.197 K0.000 F600.000
G2 X-19.799 Y-0.197 Z-9.000 I-0.197 J-0.201 K0.000 F600.000
G2 X-20.201 Y0.197 Z-9.000 I-0.201 J0.197 K0.000 F600.000
G2 X-19.801 Y0.199 Z-9.000 I0.201 J-0.197 K0.000 F600.000
G1 X-19.801 Y0.199 Z-12.000 F600.000
G2 X-19.799 Y-0.197 Z-12.000 I-0.199 J-0.199 K0.000 F600.000
G2 X-20.201 Y0.197 Z-12.000 I-0.201 J0.197 K0.000 F600.000
G2 X-19.803 Y0.201 Z-12.000 I0.201 J-0.197 K0.000 F600.000
G2 X-19.799 Y-0.197 Z-12.000 I-0.197 J-0.201 K0.000 F600.000
G2 X-20.201 Y0.197 Z-12.000 I-0.201 J0.197 K0.000 F600.000
G2 X-19.801 Y0.199 Z-12.000 I0.201 J-0.197 K0.000 F600.000
G1 X-19.801 Y0.199 Z-15.000 F600.000
G2 X-19.799 Y-0.197 Z-15.000 I-0.199 J-0.199 K0.000 F600.000
G2 X-20.201 Y0.197 Z-15.000 I-0.201 J0.197 K0.000 F600.000
G2 X-19.803 Y0.201 Z-15.000 I0.201 J-0.197 K0.000 F600.000
G2 X-19.799 Y-0.197 Z-15.000 I-0.197 J-0.201 K0.000 F600.000
G2 X-20.201 Y0.197 Z-15.000 I-0.201 J0.197 K0.000 F600.000
G2 X-19.801 Y0.199 Z-15.000 I0.201 J-0.197 K0.000 F600.000
G1 X-19.801 Y0.199 Z-18.000 F600.000
G2 X-19.799 Y-0.197 Z-18.000 I-0.199 J-0.199 K0.000 F600.000
G2 X-20.201 Y0.197 Z-18.000 I-0.201 J0.197 K0.000 F600.000
G2 X-19.803 Y0.201 Z-18.000 I0.201 J-0.197 K0.000 F600.000
G2 X-19.799 Y-0.197 Z-18.000 I-0.197 J-0.201 K0.000 F600.000
G2 X-20.201 Y0.197 Z-18.000 I-0.201 J0.197 K0.000 F600.000
G2 X-19.801 Y0.199 Z-18.000 I0.201 J-0.197 K0.000 F600.000
G1 X-19.801 Y0.199 Z-20.000 F600.000
G2 X-19.799 Y-0.197 Z-20.000 I-0.199 J-0.199 K0.000 F600.000
G2 X-20.201 Y0.197 Z-20.000 I-0.201 J0.197 K0.000 F600.000
G2 X-19.803 Y0.201 Z-20.000 I0.201 J-0.197 K0.000 F600.000
G2 X-19.799 Y-0.197 Z-20.000 I-0.197 J-0.201 K0.000 F600.000
G2 X-20.201 Y0.197 Z-20.000 I-0.201 J0.197 K0.000 F600.000
G2 X-19.801 Y0.199 Z-20.000 I0.201 J-0.197 K0.000 F600.000
G0 Z5.000
G0 Z5.000
(Finish operation: Pocket_Shape001)
(Begin operation: Pocket_Shape002)
(Path: Pocket_Shape002)
(Pocket_Shape002)
G0 Z5.000
G0 X0.000 Y0.000
G0 X18.658 Y1.471
G0 X18.658 Y1.471 Z3.000
G1 X18.658 Y1.471 Z-2.000 F600.000
G3 X19.501 Y-1.927 Z-2.000 I1.341 J-1.470 K0.000 F600.000
G3 X20.523 Y1.921 Z-2.000 I0.499 J1.927 K0.000 F600.000
G3 X18.079 Y0.523 Z-2.000 I-0.523 J-1.921 K0.000 F600.000
G3 X19.478 Y-1.921 Z-2.000 I1.921 J-0.523 K0.000 F600.000
G1 X19.501 Y-1.927 Z-2.000 F600.000
G1 X21.926 Y0.499 Z-2.000 F600.000
G2 X19.501 Y-1.927 Z-2.000 I-1.926 J-0.500 K0.000 F600.000
G0 Z5.000
G0 Z5.000
(Finish operation: Pocket_Shape002)
(Begin operation: Pocket_Shape003)
(Path: Pocket_Shape003)
(Pocket_Shape003)
G0 Z5.000
G0 X0.000 Y0.000
G0 X19.718 Y0.000
G0 X19.718 Y0.000 Z3.000
G1 X19.718 Y0.000 Z-3.000 F600.000
G2 X19.799 Y0.197 Z-3.000 I0.282 J0.000 K0.000 F600.000
G2 X20.197 Y0.201 Z-3.000 I0.201 J-0.197 K0.000 F600.000
G2 X20.201 Y-0.197 Z-3.000 I-0.197 J-0.201 K0.000 F600.000
G2 X19.799 Y0.197 Z-3.000 I-0.201 J0.197 K0.000 F600.000
G2 X20.197 Y0.201 Z-3.000 I0.201 J-0.197 K0.000 F600.000
G2 X20.201 Y-0.197 Z-3.000 I-0.197 J-0.201 K0.000 F600.000
G2 X19.718 Y0.000 Z-3.000 I-0.201 J0.197 K0.000 F600.000
G1 X19.718 Y0.000 Z-6.000 F600.000
G2 X19.799 Y0.197 Z-6.000 I0.282 J0.000 K0.000 F600.000
G2 X20.197 Y0.201 Z-6.000 I0.201 J-0.197 K0.000 F600.000
G2 X20.201 Y-0.197 Z-6.000 I-0.197 J-0.201 K0.000 F600.000
G2 X19.799 Y0.197 Z-6.000 I-0.201 J0.197 K0.000 F600.000
G2 X20.197 Y0.201 Z-6.000 I0.201 J-0.197 K0.000 F600.000
G2 X20.201 Y-0.197 Z-6.000 I-0.197 J-0.201 K0.000 F600.000
G2 X19.718 Y0.000 Z-6.000 I-0.201 J0.197 K0.000 F600.000
G1 X19.718 Y0.000 Z-9.000 F600.000
G2 X19.799 Y0.197 Z-9.000 I0.282 J0.000 K0.000 F600.000
G2 X20.197 Y0.201 Z-9.000 I0.201 J-0.197 K0.000 F600.000
G2 X20.201 Y-0.197 Z-9.000 I-0.197 J-0.201 K0.000 F600.000
G2 X19.799 Y0.197 Z-9.000 I-0.201 J0.197 K0.000 F600.000
G2 X20.197 Y0.201 Z-9.000 I0.201 J-0.197 K0.000 F600.000
G2 X20.201 Y-0.197 Z-9.000 I-0.197 J-0.201 K0.000 F600.000
G2 X19.718 Y0.000 Z-9.000 I-0.201 J0.197 K0.000 F600.000
G1 X19.718 Y0.000 Z-12.000 F600.000
G2 X19.799 Y0.197 Z-12.000 I0.282 J0.000 K0.000 F600.000
G2 X20.197 Y0.201 Z-12.000 I0.201 J-0.197 K0.000 F600.000
G2 X20.201 Y-0.197 Z-12.000 I-0.197 J-0.201 K0.000 F600.000
G2 X19.799 Y0.197 Z-12.000 I-0.201 J0.197 K0.000 F600.000
G2 X20.197 Y0.201 Z-12.000 I0.201 J-0.197 K0.000 F600.000
G2 X20.201 Y-0.197 Z-12.000 I-0.197 J-0.201 K0.000 F600.000
G2 X19.718 Y0.000 Z-12.000 I-0.201 J0.197 K0.000 F600.000
G1 X19.718 Y0.000 Z-15.000 F600.000
G2 X19.799 Y0.197 Z-15.000 I0.282 J0.000 K0.000 F600.000
G2 X20.197 Y0.201 Z-15.000 I0.201 J-0.197 K0.000 F600.000
G2 X20.201 Y-0.197 Z-15.000 I-0.197 J-0.201 K0.000 F600.000
G2 X19.799 Y0.197 Z-15.000 I-0.201 J0.197 K0.000 F600.000
G2 X20.197 Y0.201 Z-15.000 I0.201 J-0.197 K0.000 F600.000
G2 X20.201 Y-0.197 Z-15.000 I-0.197 J-0.201 K0.000 F600.000
G2 X19.718 Y0.000 Z-15.000 I-0.201 J0.197 K0.000 F600.000
G1 X19.718 Y0.000 Z-18.000 F600.000
G2 X19.799 Y0.197 Z-18.000 I0.282 J0.000 K0.000 F600.000
G2 X20.197 Y0.201 Z-18.000 I0.201 J-0.197 K0.000 F600.000
G2 X20.201 Y-0.197 Z-18.000 I-0.197 J-0.201 K0.000 F600.000
G2 X19.799 Y0.197 Z-18.000 I-0.201 J0.197 K0.000 F600.000
G2 X20.197 Y0.201 Z-18.000 I0.201 J-0.197 K0.000 F600.000
G2 X20.201 Y-0.197 Z-18.000 I-0.197 J-0.201 K0.000 F600.000
G2 X19.718 Y0.000 Z-18.000 I-0.201 J0.197 K0.000 F600.000
G1 X19.718 Y0.000 Z-20.000 F600.000
G2 X19.799 Y0.197 Z-20.000 I0.282 J0.000 K0.000 F600.000
G2 X20.197 Y0.201 Z-20.000 I0.201 J-0.197 K0.000 F600.000
G2 X20.201 Y-0.197 Z-20.000 I-0.197 J-0.201 K0.000 F600.000
G2 X19.799 Y0.197 Z-20.000 I-0.201 J0.197 K0.000 F600.000
G2 X20.197 Y0.201 Z-20.000 I0.201 J-0.197 K0.000 F600.000
G2 X20.201 Y-0.197 Z-20.000 I-0.197 J-0.201 K0.000 F600.000
G2 X19.718 Y0.000 Z-20.000 I-0.201 J0.197 K0.000 F600.000
G0 Z5.000
G0 Z5.000
(Finish operation: Pocket_Shape003)
(Begin postamble)
M5
G17 G90
M2
