(Exported by FreeCAD)
(Post Processor: script_module)
(Output Time:2025-08-14 19:36:46.368877)
(Begin preamble)
G17 G90
G21
(Begin operation: Fixture)
(Path: Fixture)
G54
(Finish operation: Fixture)
(Begin operation: 3mm_Endmill001)
(Path: 3mm_Endmill001)
(3mm_Endmill001)
(Begin toolchange)
( M6 T2 )
M3 S10000
(Finish operation: 3mm_Endmill001)
(Begin operation: Profile)
(Path: Profile)
(Profile)
(Compensated Tool Path. Diameter: 3.0)
G0 Z5.000
G0 X0.000 Y0.000
G0 X52.500 Y17.500
G0 X52.500 Y17.500 Z3.000
G1 X52.500 Y17.500 Z-3.000 F600.000
G1 X52.500 Y34.500 Z-3.000 F600.000
G1 X79.500 Y34.500 Z-3.000 F600.000
G1 X79.500 Y17.500 Z-3.000 F600.000
G1 X52.500 Y17.500 Z-3.000 F600.000
G1 X52.500 Y17.500 Z-6.000 F600.000
G1 X52.500 Y34.500 Z-6.000 F600.000
G1 X79.500 Y34.500 Z-6.000 F600.000
G1 X79.500 Y17.500 Z-6.000 F600.000
G1 X52.500 Y17.500 Z-6.000 F600.000
G1 X52.500 Y17.500 Z-9.000 F600.000
G1 X52.500 Y34.500 Z-9.000 F600.000
G1 X79.500 Y34.500 Z-9.000 F600.000
G1 X79.500 Y17.500 Z-9.000 F600.000
G1 X52.500 Y17.500 Z-9.000 F600.000
G1 X52.500 Y17.500 Z-12.000 F600.000
G1 X52.500 Y34.500 Z-12.000 F600.000
G1 X79.500 Y34.500 Z-12.000 F600.000
G1 X79.500 Y17.500 Z-12.000 F600.000
G1 X52.500 Y17.500 Z-12.000 F600.000
G1 X52.500 Y17.500 Z-15.000 F600.000
G1 X52.500 Y34.500 Z-15.000 F600.000
G1 X79.500 Y34.500 Z-15.000 F600.000
G1 X79.500 Y17.500 Z-15.000 F600.000
G1 X52.500 Y17.500 Z-15.000 F600.000
G1 X52.500 Y17.500 Z-18.000 F600.000
G1 X52.500 Y34.500 Z-18.000 F600.000
G1 X79.500 Y34.500 Z-18.000 F600.000
G1 X79.500 Y17.500 Z-18.000 F600.000
G1 X52.500 Y17.500 Z-18.000 F600.000
G1 X52.500 Y17.500 Z-20.000 F600.000
G1 X52.500 Y34.500 Z-20.000 F600.000
G1 X79.500 Y34.500 Z-20.000 F600.000
G1 X79.500 Y17.500 Z-20.000 F600.000
G1 X52.500 Y17.500 Z-20.000 F600.000
G0 Z5.000
G0 Z5.000
(Finish operation: Profile)
(Begin operation: Pocket_Shape)
(Path: Pocket_Shape)
(Pocket_Shape)
G0 Z5.000
G0 X0.000 Y0.000
G0 X52.502 Y7.502
G0 X52.502 Y7.502 Z3.000
G1 X52.502 Y7.502 Z-3.000 F600.000
G1 X52.500 Y7.535 Z-3.000 F600.000
G1 X52.500 Y14.465 Z-3.000 F600.000
G1 X52.502 Y14.498 Z-3.000 F600.000
G1 X52.535 Y14.500 Z-3.000 F600.000
G1 X80.791 Y14.500 Z-3.000 F600.000
G3 X82.500 Y16.208 Z-3.000 I0.159 J1.549 K0.000 F600.000
G1 X82.500 Y34.465 Z-3.000 F600.000
G1 X82.502 Y34.498 Z-3.000 F600.000
G1 X82.535 Y34.500 Z-3.000 F600.000
G1 X99.465 Y34.500 Z-3.000 F600.000
G1 X99.498 Y34.498 Z-3.000 F600.000
G1 X99.500 Y34.465 Z-3.000 F600.000
G1 X99.500 Y7.535 Z-3.000 F600.000
G1 X99.498 Y7.502 Z-3.000 F600.000
G1 X99.465 Y7.500 Z-3.000 F600.000
G1 X52.535 Y7.500 Z-3.000 F600.000
G1 X52.502 Y7.502 Z-3.000 F600.000
G1 X52.502 Y7.502 Z-6.000 F600.000
G1 X52.500 Y7.535 Z-6.000 F600.000
G1 X52.500 Y14.465 Z-6.000 F600.000
G1 X52.502 Y14.498 Z-6.000 F600.000
G1 X52.535 Y14.500 Z-6.000 F600.000
G1 X80.791 Y14.500 Z-6.000 F600.000
G3 X82.500 Y16.208 Z-6.000 I0.159 J1.549 K0.000 F600.000
G1 X82.500 Y34.465 Z-6.000 F600.000
G1 X82.502 Y34.498 Z-6.000 F600.000
G1 X82.535 Y34.500 Z-6.000 F600.000
G1 X99.465 Y34.500 Z-6.000 F600.000
G1 X99.498 Y34.498 Z-6.000 F600.000
G1 X99.500 Y34.465 Z-6.000 F600.000
G1 X99.500 Y7.535 Z-6.000 F600.000
G1 X99.498 Y7.502 Z-6.000 F600.000
G1 X99.465 Y7.500 Z-6.000 F600.000
G1 X52.535 Y7.500 Z-6.000 F600.000
G1 X52.502 Y7.502 Z-6.000 F600.000
G1 X52.502 Y7.502 Z-8.000 F600.000
G1 X52.500 Y7.535 Z-8.000 F600.000
G1 X52.500 Y14.465 Z-8.000 F600.000
G1 X52.502 Y14.498 Z-8.000 F600.000
G1 X52.535 Y14.500 Z-8.000 F600.000
G1 X80.791 Y14.500 Z-8.000 F600.000
G3 X82.500 Y16.208 Z-8.000 I0.159 J1.549 K0.000 F600.000
G1 X82.500 Y34.465 Z-8.000 F600.000
G1 X82.502 Y34.498 Z-8.000 F600.000
G1 X82.535 Y34.500 Z-8.000 F600.000
G1 X99.465 Y34.500 Z-8.000 F600.000
G1 X99.498 Y34.498 Z-8.000 F600.000
G1 X99.500 Y34.465 Z-8.000 F600.000
G1 X99.500 Y7.535 Z-8.000 F600.000
G1 X99.498 Y7.502 Z-8.000 F600.000
G1 X99.465 Y7.500 Z-8.000 F600.000
G1 X52.535 Y7.500 Z-8.000 F600.000
G1 X52.502 Y7.502 Z-8.000 F600.000
G0 Z5.000
G0 X52.502 Y14.498 Z5.000
G0 X52.502 Y14.498 Z3.000
G1 X52.502 Y14.498 Z-3.000 F600.000
G1 X52.500 Y14.465 Z-3.000 F600.000
G1 X52.500 Y10.254 Z-3.000 F600.000
G1 X56.746 Y14.500 Z-3.000 F600.000
G1 X60.988 Y14.500 Z-3.000 F600.000
G1 X53.988 Y7.500 Z-3.000 F600.000
G1 X58.231 Y7.500 Z-3.000 F600.000
G1 X65.231 Y14.500 Z-3.000 F600.000
G1 X69.474 Y14.500 Z-3.000 F600.000
G1 X62.474 Y7.500 Z-3.000 F600.000
G1 X66.716 Y7.500 Z-3.000 F600.000
G1 X73.716 Y14.500 Z-3.000 F600.000
G1 X77.959 Y14.500 Z-3.000 F600.000
G1 X70.959 Y7.500 Z-3.000 F600.000
G1 X70.959 Y7.500 Z-6.000 F600.000
G1 X77.959 Y14.500 Z-6.000 F600.000
G1 X73.716 Y14.500 Z-6.000 F600.000
G1 X66.716 Y7.500 Z-6.000 F600.000
G1 X62.474 Y7.500 Z-6.000 F600.000
G1 X69.474 Y14.500 Z-6.000 F600.000
G1 X65.231 Y14.500 Z-6.000 F600.000
G1 X58.231 Y7.500 Z-6.000 F600.000
G1 X53.988 Y7.500 Z-6.000 F600.000
G1 X60.988 Y14.500 Z-6.000 F600.000
G1 X56.746 Y14.500 Z-6.000 F600.000
G1 X52.500 Y10.254 Z-6.000 F600.000
G1 X52.500 Y14.465 Z-6.000 F600.000
G1 X52.502 Y14.498 Z-6.000 F600.000
G1 X52.502 Y14.498 Z-8.000 F600.000
G1 X52.500 Y14.465 Z-8.000 F600.000
G1 X52.500 Y10.254 Z-8.000 F600.000
G1 X56.746 Y14.500 Z-8.000 F600.000
G1 X60.988 Y14.500 Z-8.000 F600.000
G1 X53.988 Y7.500 Z-8.000 F600.000
G1 X58.231 Y7.500 Z-8.000 F600.000
G1 X65.231 Y14.500 Z-8.000 F600.000
G1 X69.474 Y14.500 Z-8.000 F600.000
G1 X62.474 Y7.500 Z-8.000 F600.000
G1 X66.716 Y7.500 Z-8.000 F600.000
G1 X73.716 Y14.500 Z-8.000 F600.000
G1 X77.959 Y14.500 Z-8.000 F600.000
G1 X70.959 Y7.500 Z-8.000 F600.000
G0 Z5.000
G0 X99.500 Y10.585 Z5.000
G0 X99.500 Y10.585 Z3.000
G1 X99.500 Y10.585 Z-3.000 F600.000
G1 X99.500 Y7.535 Z-3.000 F600.000
G1 X99.498 Y7.502 Z-3.000 F600.000
G1 X99.465 Y7.500 Z-3.000 F600.000
G1 X96.415 Y7.500 Z-3.000 F600.000
G1 X99.500 Y10.585 Z-3.000 F600.000
G1 X99.500 Y14.828 Z-3.000 F600.000
G1 X92.172 Y7.500 Z-3.000 F600.000
G1 X87.929 Y7.500 Z-3.000 F600.000
G1 X99.500 Y19.071 Z-3.000 F600.000
G1 X99.500 Y23.313 Z-3.000 F600.000
G1 X83.687 Y7.500 Z-3.000 F600.000
G1 X79.444 Y7.500 Z-3.000 F600.000
G1 X99.500 Y27.556 Z-3.000 F600.000
G1 X99.500 Y31.798 Z-3.000 F600.000
G1 X75.202 Y7.500 Z-3.000 F600.000
G1 X70.959 Y7.500 Z-3.000 F600.000
G1 X77.959 Y14.500 Z-3.000 F600.000
G1 X80.791 Y14.500 Z-3.000 F600.000
G3 X82.500 Y16.208 Z-3.000 I0.159 J1.549 K0.000 F600.000
G1 X82.500 Y19.041 Z-3.000 F600.000
G1 X97.959 Y34.500 Z-3.000 F600.000
G1 X93.716 Y34.500 Z-3.000 F600.000
G1 X82.500 Y23.284 Z-3.000 F600.000
G1 X82.500 Y27.526 Z-3.000 F600.000
G1 X89.474 Y34.500 Z-3.000 F600.000
G1 X85.231 Y34.500 Z-3.000 F600.000
G1 X82.500 Y31.769 Z-3.000 F600.000
G1 X82.500 Y34.465 Z-3.000 F600.000
G1 X82.502 Y34.498 Z-3.000 F600.000
G1 X82.535 Y34.500 Z-3.000 F600.000
G1 X85.231 Y34.500 Z-3.000 F600.000
G1 X85.231 Y34.500 Z-6.000 F600.000
G1 X82.535 Y34.500 Z-6.000 F600.000
G1 X82.502 Y34.498 Z-6.000 F600.000
G1 X82.500 Y34.465 Z-6.000 F600.000
G1 X82.500 Y31.769 Z-6.000 F600.000
G1 X85.231 Y34.500 Z-6.000 F600.000
G1 X89.474 Y34.500 Z-6.000 F600.000
G1 X82.500 Y27.526 Z-6.000 F600.000
G1 X82.500 Y23.284 Z-6.000 F600.000
G1 X93.716 Y34.500 Z-6.000 F600.000
G1 X97.959 Y34.500 Z-6.000 F600.000
G1 X82.500 Y19.041 Z-6.000 F600.000
G1 X82.500 Y16.208 Z-6.000 F600.000
G2 X80.791 Y14.500 Z-6.000 I-1.550 J-0.159 K0.000 F600.000
G1 X77.959 Y14.500 Z-6.000 F600.000
G1 X70.959 Y7.500 Z-6.000 F600.000
G1 X75.202 Y7.500 Z-6.000 F600.000
G1 X99.500 Y31.798 Z-6.000 F600.000
G1 X99.500 Y27.556 Z-6.000 F600.000
G1 X79.444 Y7.500 Z-6.000 F600.000
G1 X83.687 Y7.500 Z-6.000 F600.000
G1 X99.500 Y23.313 Z-6.000 F600.000
G1 X99.500 Y19.071 Z-6.000 F600.000
G1 X87.929 Y7.500 Z-6.000 F600.000
G1 X92.172 Y7.500 Z-6.000 F600.000
G1 X99.500 Y14.828 Z-6.000 F600.000
G1 X99.500 Y10.585 Z-6.000 F600.000
G1 X96.415 Y7.500 Z-6.000 F600.000
G1 X99.465 Y7.500 Z-6.000 F600.000
G1 X99.498 Y7.502 Z-6.000 F600.000
G1 X99.500 Y7.535 Z-6.000 F600.000
G1 X99.500 Y10.585 Z-6.000 F600.000
G1 X99.500 Y10.585 Z-8.000 F600.000
G1 X99.500 Y7.535 Z-8.000 F600.000
G1 X99.498 Y7.502 Z-8.000 F600.000
G1 X99.465 Y7.500 Z-8.000 F600.000
G1 X96.415 Y7.500 Z-8.000 F600.000
G1 X99.500 Y10.585 Z-8.000 F600.000
G1 X99.500 Y14.828 Z-8.000 F600.000
G1 X92.172 Y7.500 Z-8.000 F600.000
G1 X87.929 Y7.500 Z-8.000 F600.000
G1 X99.500 Y19.071 Z-8.000 F600.000
G1 X99.500 Y23.313 Z-8.000 F600.000
G1 X83.687 Y7.500 Z-8.000 F600.000
G1 X79.444 Y7.500 Z-8.000 F600.000
G1 X99.500 Y27.556 Z-8.000 F600.000
G1 X99.500 Y31.798 Z-8.000 F600.000
G1 X75.202 Y7.500 Z-8.000 F600.000
G1 X70.959 Y7.500 Z-8.000 F600.000
G1 X77.959 Y14.500 Z-8.000 F600.000
G1 X80.791 Y14.500 Z-8.000 F600.000
G3 X82.500 Y16.208 Z-8.000 I0.159 J1.549 K0.000 F600.000
G1 X82.500 Y19.041 Z-8.000 F600.000
G1 X97.959 Y34.500 Z-8.000 F600.000
G1 X93.716 Y34.500 Z-8.000 F600.000
G1 X82.500 Y23.284 Z-8.000 F600.000
G1 X82.500 Y27.526 Z-8.000 F600.000
G1 X89.474 Y34.500 Z-8.000 F600.000
G1 X85.231 Y34.500 Z-8.000 F600.000
G1 X82.500 Y31.769 Z-8.000 F600.000
G1 X82.500 Y34.465 Z-8.000 F600.000
G1 X82.502 Y34.498 Z-8.000 F600.000
G1 X82.535 Y34.500 Z-8.000 F600.000
G1 X85.231 Y34.500 Z-8.000 F600.000
G0 Z5.000
G0 Z5.000
(Finish operation: Pocket_Shape)
(Begin operation: Profile001)
(Path: Profile001)
(Profile001)
(Compensated Tool Path. Diameter: 3.0)
G0 Z5.000
G0 X107.061 Y57.061
G0 Z3.000
G1 X107.061 Y57.061 Z-3.000 F600.000
G2 X107.500 Y56.000 Z-3.000 I-1.061 J-1.061 K0.000 F600.000
G1 X107.500 Y6.000 Z-3.000 F600.000
G2 X106.000 Y4.500 Z-3.000 I-1.500 J0.000 K0.000 F600.000
G1 X6.000 Y4.500 Z-3.000 F600.000
G2 X4.500 Y6.000 Z-3.000 I0.000 J1.500 K0.000 F600.000
G1 X4.500 Y56.000 Z-3.000 F600.000
G2 X6.000 Y57.500 Z-3.000 I1.500 J-0.000 K0.000 F600.000
G1 X106.000 Y57.500 Z-3.000 F600.000
G2 X107.061 Y57.061 Z-3.000 I-0.000 J-1.500 K0.000 F600.000
G1 X107.061 Y57.061 Z-6.000 F600.000
G2 X107.500 Y56.000 Z-6.000 I-1.061 J-1.061 K0.000 F600.000
G1 X107.500 Y6.000 Z-6.000 F600.000
G2 X106.000 Y4.500 Z-6.000 I-1.500 J0.000 K0.000 F600.000
G1 X6.000 Y4.500 Z-6.000 F600.000
G2 X4.500 Y6.000 Z-6.000 I0.000 J1.500 K0.000 F600.000
G1 X4.500 Y56.000 Z-6.000 F600.000
G2 X6.000 Y57.500 Z-6.000 I1.500 J-0.000 K0.000 F600.000
G1 X106.000 Y57.500 Z-6.000 F600.000
G2 X107.061 Y57.061 Z-6.000 I-0.000 J-1.500 K0.000 F600.000
G1 X107.061 Y57.061 Z-9.000 F600.000
G2 X107.500 Y56.000 Z-9.000 I-1.061 J-1.061 K0.000 F600.000
G1 X107.500 Y6.000 Z-9.000 F600.000
G2 X106.000 Y4.500 Z-9.000 I-1.500 J0.000 K0.000 F600.000
G1 X6.000 Y4.500 Z-9.000 F600.000
G2 X4.500 Y6.000 Z-9.000 I0.000 J1.500 K0.000 F600.000
G1 X4.500 Y56.000 Z-9.000 F600.000
G2 X6.000 Y57.500 Z-9.000 I1.500 J-0.000 K0.000 F600.000
G1 X106.000 Y57.500 Z-9.000 F600.000
G2 X107.061 Y57.061 Z-9.000 I-0.000 J-1.500 K0.000 F600.000
G1 X107.061 Y57.061 Z-12.000 F600.000
G2 X107.500 Y56.000 Z-12.000 I-1.061 J-1.061 K0.000 F600.000
G1 X107.500 Y6.000 Z-12.000 F600.000
G2 X106.000 Y4.500 Z-12.000 I-1.500 J0.000 K0.000 F600.000
G1 X6.000 Y4.500 Z-12.000 F600.000
G2 X4.500 Y6.000 Z-12.000 I0.000 J1.500 K0.000 F600.000
G1 X4.500 Y56.000 Z-12.000 F600.000
G2 X6.000 Y57.500 Z-12.000 I1.500 J-0.000 K0.000 F600.000
G1 X106.000 Y57.500 Z-12.000 F600.000
G2 X107.061 Y57.061 Z-12.000 I-0.000 J-1.500 K0.000 F600.000
G1 X107.061 Y57.061 Z-15.000 F600.000
G2 X107.500 Y56.000 Z-15.000 I-1.061 J-1.061 K0.000 F600.000
G1 X107.500 Y6.000 Z-15.000 F600.000
G2 X106.000 Y4.500 Z-15.000 I-1.500 J0.000 K0.000 F600.000
G1 X6.000 Y4.500 Z-15.000 F600.000
G2 X4.500 Y6.000 Z-15.000 I0.000 J1.500 K0.000 F600.000
G1 X4.500 Y56.000 Z-15.000 F600.000
G2 X6.000 Y57.500 Z-15.000 I1.500 J-0.000 K0.000 F600.000
G1 X106.000 Y57.500 Z-15.000 F600.000
G2 X107.061 Y57.061 Z-15.000 I-0.000 J-1.500 K0.000 F600.000
G1 X107.061 Y57.061 Z-18.000 F600.000
G2 X107.500 Y56.000 Z-18.000 I-1.061 J-1.061 K0.000 F600.000
G1 X107.500 Y6.000 Z-18.000 F600.000
G2 X106.000 Y4.500 Z-18.000 I-1.500 J0.000 K0.000 F600.000
G1 X6.000 Y4.500 Z-18.000 F600.000
G2 X4.500 Y6.000 Z-18.000 I0.000 J1.500 K0.000 F600.000
G1 X4.500 Y56.000 Z-18.000 F600.000
G2 X6.000 Y57.500 Z-18.000 I1.500 J-0.000 K0.000 F600.000
G1 X106.000 Y57.500 Z-18.000 F600.000
G2 X107.061 Y57.061 Z-18.000 I-0.000 J-1.500 K0.000 F600.000
G1 X107.061 Y57.061 Z-20.000 F600.000
G2 X107.500 Y56.000 Z-20.000 I-1.061 J-1.061 K0.000 F600.000
G1 X107.500 Y6.000 Z-20.000 F600.000
G2 X106.000 Y4.500 Z-20.000 I-1.500 J0.000 K0.000 F600.000
G1 X6.000 Y4.500 Z-20.000 F600.000
G2 X4.500 Y6.000 Z-20.000 I0.000 J1.500 K0.000 F600.000
G1 X4.500 Y56.000 Z-20.000 F600.000
G2 X6.000 Y57.500 Z-20.000 I1.500 J-0.000 K0.000 F600.000
G1 X106.000 Y57.500 Z-20.000 F600.000
G2 X107.061 Y57.061 Z-20.000 I-0.000 J-1.500 K0.000 F600.000
G0 Z5.000
G0 Z5.000
(Finish operation: Profile001)
(Begin postamble)
M5
G17 G90
M2
