(Exported by FreeCAD)
(Post Processor: script_module)
(Output Time:2025-08-14 16:35:36.670258)
(Begin preamble)
G17 G90
G21
(Begin operation: Fixture)
(Path: Fixture)
G54
(Finish operation: Fixture)
(Begin operation: 3mm_Endmill001)
(Path: 3mm_Endmill001)
(3mm_Endmill001)
(Begin toolchange)
( M6 T2 )
M3 S10000
(Finish operation: 3mm_Endmill001)
(Begin operation: Profile)
(Path: Profile)
(Profile)
(Compensated Tool Path. Diameter: 3.0)
G0 Z5.000
G0 X14.057 Y66.057
G0 Z3.000
G1 X14.057 Y66.057 Z-3.000 F600.000
G2 X13.462 Y63.578 Z-3.000 I-1.057 J-1.057 K0.000 F600.000
G2 X12.538 Y66.422 Z-3.000 I-0.462 J1.422 K0.000 F600.000
G2 X14.057 Y66.057 Z-3.000 I0.462 J-1.422 K0.000 F600.000
G1 X14.057 Y66.057 Z-6.000 F600.000
G2 X13.462 Y63.578 Z-6.000 I-1.057 J-1.057 K0.000 F600.000
G2 X12.538 Y66.422 Z-6.000 I-0.462 J1.422 K0.000 F600.000
G2 X14.057 Y66.057 Z-6.000 I0.462 J-1.422 K0.000 F600.000
G1 X14.057 Y66.057 Z-9.000 F600.000
G2 X13.462 Y63.578 Z-9.000 I-1.057 J-1.057 K0.000 F600.000
G2 X12.538 Y66.422 Z-9.000 I-0.462 J1.422 K0.000 F600.000
G2 X14.057 Y66.057 Z-9.000 I0.462 J-1.422 K0.000 F600.000
G1 X14.057 Y66.057 Z-12.000 F600.000
G2 X13.462 Y63.578 Z-12.000 I-1.057 J-1.057 K0.000 F600.000
G2 X12.538 Y66.422 Z-12.000 I-0.462 J1.422 K0.000 F600.000
G2 X14.057 Y66.057 Z-12.000 I0.462 J-1.422 K0.000 F600.000
G1 X14.057 Y66.057 Z-15.000 F600.000
G2 X13.462 Y63.578 Z-15.000 I-1.057 J-1.057 K0.000 F600.000
G2 X12.538 Y66.422 Z-15.000 I-0.462 J1.422 K0.000 F600.000
G2 X14.057 Y66.057 Z-15.000 I0.462 J-1.422 K0.000 F600.000
G1 X14.057 Y66.057 Z-18.000 F600.000
G2 X13.462 Y63.578 Z-18.000 I-1.057 J-1.057 K0.000 F600.000
G2 X12.538 Y66.422 Z-18.000 I-0.462 J1.422 K0.000 F600.000
G2 X14.057 Y66.057 Z-18.000 I0.462 J-1.422 K0.000 F600.000
G1 X14.057 Y66.057 Z-20.000 F600.000
G2 X13.462 Y63.578 Z-20.000 I-1.057 J-1.057 K0.000 F600.000
G2 X12.538 Y66.422 Z-20.000 I-0.462 J1.422 K0.000 F600.000
G2 X14.057 Y66.057 Z-20.000 I0.462 J-1.422 K0.000 F600.000
G0 Z5.000
G0 Z5.000
(Finish operation: Profile)
(Begin operation: Profile001)
(Path: Profile001)
(Profile001)
(Compensated Tool Path. Diameter: 3.0)
G0 Z5.000
G0 X14.057 Y86.057
G0 Z3.000
G1 X14.057 Y86.057 Z-3.000 F600.000
G2 X13.462 Y83.578 Z-3.000 I-1.057 J-1.057 K0.000 F600.000
G2 X12.538 Y86.422 Z-3.000 I-0.462 J1.422 K0.000 F600.000
G2 X14.057 Y86.057 Z-3.000 I0.462 J-1.422 K0.000 F600.000
G1 X14.057 Y86.057 Z-6.000 F600.000
G2 X13.462 Y83.578 Z-6.000 I-1.057 J-1.057 K0.000 F600.000
G2 X12.538 Y86.422 Z-6.000 I-0.462 J1.422 K0.000 F600.000
G2 X14.057 Y86.057 Z-6.000 I0.462 J-1.422 K0.000 F600.000
G1 X14.057 Y86.057 Z-9.000 F600.000
G2 X13.462 Y83.578 Z-9.000 I-1.057 J-1.057 K0.000 F600.000
G2 X12.538 Y86.422 Z-9.000 I-0.462 J1.422 K0.000 F600.000
G2 X14.057 Y86.057 Z-9.000 I0.462 J-1.422 K0.000 F600.000
G1 X14.057 Y86.057 Z-12.000 F600.000
G2 X13.462 Y83.578 Z-12.000 I-1.057 J-1.057 K0.000 F600.000
G2 X12.538 Y86.422 Z-12.000 I-0.462 J1.422 K0.000 F600.000
G2 X14.057 Y86.057 Z-12.000 I0.462 J-1.422 K0.000 F600.000
G1 X14.057 Y86.057 Z-15.000 F600.000
G2 X13.462 Y83.578 Z-15.000 I-1.057 J-1.057 K0.000 F600.000
G2 X12.538 Y86.422 Z-15.000 I-0.462 J1.422 K0.000 F600.000
G2 X14.057 Y86.057 Z-15.000 I0.462 J-1.422 K0.000 F600.000
G1 X14.057 Y86.057 Z-18.000 F600.000
G2 X13.462 Y83.578 Z-18.000 I-1.057 J-1.057 K0.000 F600.000
G2 X12.538 Y86.422 Z-18.000 I-0.462 J1.422 K0.000 F600.000
G2 X14.057 Y86.057 Z-18.000 I0.462 J-1.422 K0.000 F600.000
G1 X14.057 Y86.057 Z-20.000 F600.000
G2 X13.462 Y83.578 Z-20.000 I-1.057 J-1.057 K0.000 F600.000
G2 X12.538 Y86.422 Z-20.000 I-0.462 J1.422 K0.000 F600.000
G2 X14.057 Y86.057 Z-20.000 I0.462 J-1.422 K0.000 F600.000
G0 Z5.000
G0 Z5.000
(Finish operation: Profile001)
(Begin operation: Profile002)
(Path: Profile002)
(Profile002)
(Compensated Tool Path. Diameter: 3.0)
G0 Z5.000
G0 X27.473 Y87.473
G0 Z3.000
G1 X27.473 Y87.473 Z-3.000 F600.000
G2 X25.639 Y81.562 Z-3.000 I-2.473 J-2.473 K0.000 F600.000
G2 X24.361 Y88.438 Z-3.000 I-0.639 J3.438 K0.000 F600.000
G2 X27.473 Y87.473 Z-3.000 I0.639 J-3.438 K0.000 F600.000
G1 X27.473 Y87.473 Z-6.000 F600.000
G2 X25.639 Y81.562 Z-6.000 I-2.473 J-2.473 K0.000 F600.000
G2 X24.361 Y88.438 Z-6.000 I-0.639 J3.438 K0.000 F600.000
G2 X27.473 Y87.473 Z-6.000 I0.639 J-3.438 K0.000 F600.000
G1 X27.473 Y87.473 Z-9.000 F600.000
G2 X25.639 Y81.562 Z-9.000 I-2.473 J-2.473 K0.000 F600.000
G2 X24.361 Y88.438 Z-9.000 I-0.639 J3.438 K0.000 F600.000
G2 X27.473 Y87.473 Z-9.000 I0.639 J-3.438 K0.000 F600.000
G1 X27.473 Y87.473 Z-12.000 F600.000
G2 X25.639 Y81.562 Z-12.000 I-2.473 J-2.473 K0.000 F600.000
G2 X24.361 Y88.438 Z-12.000 I-0.639 J3.438 K0.000 F600.000
G2 X27.473 Y87.473 Z-12.000 I0.639 J-3.438 K0.000 F600.000
G1 X27.473 Y87.473 Z-15.000 F600.000
G2 X25.639 Y81.562 Z-15.000 I-2.473 J-2.473 K0.000 F600.000
G2 X24.361 Y88.438 Z-15.000 I-0.639 J3.438 K0.000 F600.000
G2 X27.473 Y87.473 Z-15.000 I0.639 J-3.438 K0.000 F600.000
G1 X27.473 Y87.473 Z-18.000 F600.000
G2 X25.639 Y81.562 Z-18.000 I-2.473 J-2.473 K0.000 F600.000
G2 X24.361 Y88.438 Z-18.000 I-0.639 J3.438 K0.000 F600.000
G2 X27.473 Y87.473 Z-18.000 I0.639 J-3.438 K0.000 F600.000
G1 X27.473 Y87.473 Z-20.000 F600.000
G2 X25.639 Y81.562 Z-20.000 I-2.473 J-2.473 K0.000 F600.000
G2 X24.361 Y88.438 Z-20.000 I-0.639 J3.438 K0.000 F600.000
G2 X27.473 Y87.473 Z-20.000 I0.639 J-3.438 K0.000 F600.000
G0 Z5.000
G0 Z5.000
(Finish operation: Profile002)
(Begin operation: Profile003)
(Path: Profile003)
(Profile003)
(Compensated Tool Path. Diameter: 3.0)
G0 Z5.000
G0 X27.000 Y70.000
G0 Z3.000
G1 X27.000 Y70.000 Z-3.000 F600.000
G1 X27.000 Y60.000 Z-3.000 F600.000
G1 X23.000 Y60.000 Z-3.000 F600.000
G1 X23.000 Y70.000 Z-3.000 F600.000
G1 X27.000 Y70.000 Z-3.000 F600.000
G1 X27.000 Y70.000 Z-6.000 F600.000
G1 X27.000 Y60.000 Z-6.000 F600.000
G1 X23.000 Y60.000 Z-6.000 F600.000
G1 X23.000 Y70.000 Z-6.000 F600.000
G1 X27.000 Y70.000 Z-6.000 F600.000
G1 X27.000 Y70.000 Z-9.000 F600.000
G1 X27.000 Y60.000 Z-9.000 F600.000
G1 X23.000 Y60.000 Z-9.000 F600.000
G1 X23.000 Y70.000 Z-9.000 F600.000
G1 X27.000 Y70.000 Z-9.000 F600.000
G1 X27.000 Y70.000 Z-12.000 F600.000
G1 X27.000 Y60.000 Z-12.000 F600.000
G1 X23.000 Y60.000 Z-12.000 F600.000
G1 X23.000 Y70.000 Z-12.000 F600.000
G1 X27.000 Y70.000 Z-12.000 F600.000
G1 X27.000 Y70.000 Z-15.000 F600.000
G1 X27.000 Y60.000 Z-15.000 F600.000
G1 X23.000 Y60.000 Z-15.000 F600.000
G1 X23.000 Y70.000 Z-15.000 F600.000
G1 X27.000 Y70.000 Z-15.000 F600.000
G1 X27.000 Y70.000 Z-18.000 F600.000
G1 X27.000 Y60.000 Z-18.000 F600.000
G1 X23.000 Y60.000 Z-18.000 F600.000
G1 X23.000 Y70.000 Z-18.000 F600.000
G1 X27.000 Y70.000 Z-18.000 F600.000
G1 X27.000 Y70.000 Z-20.000 F600.000
G1 X27.000 Y60.000 Z-20.000 F600.000
G1 X23.000 Y60.000 Z-20.000 F600.000
G1 X23.000 Y70.000 Z-20.000 F600.000
G1 X27.000 Y70.000 Z-20.000 F600.000
G0 Z5.000
G0 Z5.000
(Finish operation: Profile003)
(Begin operation: Profile004)
(Path: Profile004)
(Profile004)
(Compensated Tool Path. Diameter: 3.0)
G0 Z5.000
G0 X0.000 Y0.000
G0 X6.500 Y51.500
G0 X6.500 Y51.500 Z3.000
G1 X6.500 Y51.500 Z-3.000 F600.000
G1 X6.500 Y98.500 Z-3.000 F600.000
G1 X33.500 Y98.500 Z-3.000 F600.000
G1 X33.500 Y80.000 Z-3.000 F600.000
G3 X35.000 Y78.500 Z-3.000 I1.500 J0.000 K0.000 F600.000
G1 X263.500 Y78.500 Z-3.000 F600.000
G1 X263.500 Y51.500 Z-3.000 F600.000
G1 X6.500 Y51.500 Z-3.000 F600.000
G1 X6.500 Y51.500 Z-6.000 F600.000
G1 X6.500 Y98.500 Z-6.000 F600.000
G1 X33.500 Y98.500 Z-6.000 F600.000
G1 X33.500 Y80.000 Z-6.000 F600.000
G3 X35.000 Y78.500 Z-6.000 I1.500 J0.000 K0.000 F600.000
G1 X263.500 Y78.500 Z-6.000 F600.000
G1 X263.500 Y51.500 Z-6.000 F600.000
G1 X6.500 Y51.500 Z-6.000 F600.000
G1 X6.500 Y51.500 Z-9.000 F600.000
G1 X6.500 Y98.500 Z-9.000 F600.000
G1 X33.500 Y98.500 Z-9.000 F600.000
G1 X33.500 Y80.000 Z-9.000 F600.000
G3 X35.000 Y78.500 Z-9.000 I1.500 J0.000 K0.000 F600.000
G1 X263.500 Y78.500 Z-9.000 F600.000
G1 X263.500 Y51.500 Z-9.000 F600.000
G1 X6.500 Y51.500 Z-9.000 F600.000
G1 X6.500 Y51.500 Z-12.000 F600.000
G1 X6.500 Y98.500 Z-12.000 F600.000
G1 X33.500 Y98.500 Z-12.000 F600.000
G1 X33.500 Y80.000 Z-12.000 F600.000
G3 X35.000 Y78.500 Z-12.000 I1.500 J0.000 K0.000 F600.000
G1 X263.500 Y78.500 Z-12.000 F600.000
G1 X263.500 Y51.500 Z-12.000 F600.000
G1 X6.500 Y51.500 Z-12.000 F600.000
G1 X6.500 Y51.500 Z-15.000 F600.000
G1 X6.500 Y98.500 Z-15.000 F600.000
G1 X33.500 Y98.500 Z-15.000 F600.000
G1 X33.500 Y80.000 Z-15.000 F600.000
G3 X35.000 Y78.500 Z-15.000 I1.500 J0.000 K0.000 F600.000
G1 X263.500 Y78.500 Z-15.000 F600.000
G1 X263.500 Y51.500 Z-15.000 F600.000
G1 X6.500 Y51.500 Z-15.000 F600.000
G1 X6.500 Y51.500 Z-18.000 F600.000
G1 X6.500 Y98.500 Z-18.000 F600.000
G1 X33.500 Y98.500 Z-18.000 F600.000
G1 X33.500 Y80.000 Z-18.000 F600.000
G3 X35.000 Y78.500 Z-18.000 I1.500 J0.000 K0.000 F600.000
G1 X263.500 Y78.500 Z-18.000 F600.000
G1 X263.500 Y51.500 Z-18.000 F600.000
G1 X6.500 Y51.500 Z-18.000 F600.000
G1 X6.500 Y51.500 Z-20.000 F600.000
G1 X6.500 Y98.500 Z-20.000 F600.000
G1 X33.500 Y98.500 Z-20.000 F600.000
G1 X33.500 Y80.000 Z-20.000 F600.000
G3 X35.000 Y78.500 Z-20.000 I1.500 J0.000 K0.000 F600.000
G1 X263.500 Y78.500 Z-20.000 F600.000
G1 X263.500 Y51.500 Z-20.000 F600.000
G1 X6.500 Y51.500 Z-20.000 F600.000
G0 Z5.000
G0 Z5.000
(Finish operation: Profile004)
(Begin operation: Profile005)
(Path: Profile005)
(Profile005)
(Compensated Tool Path. Diameter: 3.0)
G0 Z5.000
G0 X25.000 Y117.000
G0 Z3.000
G1 X25.000 Y117.000 Z-3.000 F600.000
G1 X25.000 Y113.000 Z-3.000 F600.000
G1 X15.000 Y113.000 Z-3.000 F600.000
G1 X15.000 Y117.000 Z-3.000 F600.000
G1 X25.000 Y117.000 Z-3.000 F600.000
G1 X25.000 Y117.000 Z-6.000 F600.000
G1 X25.000 Y113.000 Z-6.000 F600.000
G1 X15.000 Y113.000 Z-6.000 F600.000
G1 X15.000 Y117.000 Z-6.000 F600.000
G1 X25.000 Y117.000 Z-6.000 F600.000
G1 X25.000 Y117.000 Z-9.000 F600.000
G1 X25.000 Y113.000 Z-9.000 F600.000
G1 X15.000 Y113.000 Z-9.000 F600.000
G1 X15.000 Y117.000 Z-9.000 F600.000
G1 X25.000 Y117.000 Z-9.000 F600.000
G1 X25.000 Y117.000 Z-12.000 F600.000
G1 X25.000 Y113.000 Z-12.000 F600.000
G1 X15.000 Y113.000 Z-12.000 F600.000
G1 X15.000 Y117.000 Z-12.000 F600.000
G1 X25.000 Y117.000 Z-12.000 F600.000
G1 X25.000 Y117.000 Z-15.000 F600.000
G1 X25.000 Y113.000 Z-15.000 F600.000
G1 X15.000 Y113.000 Z-15.000 F600.000
G1 X15.000 Y117.000 Z-15.000 F600.000
G1 X25.000 Y117.000 Z-15.000 F600.000
G1 X25.000 Y117.000 Z-18.000 F600.000
G1 X25.000 Y113.000 Z-18.000 F600.000
G1 X15.000 Y113.000 Z-18.000 F600.000
G1 X15.000 Y117.000 Z-18.000 F600.000
G1 X25.000 Y117.000 Z-18.000 F600.000
G1 X25.000 Y117.000 Z-20.000 F600.000
G1 X25.000 Y113.000 Z-20.000 F600.000
G1 X15.000 Y113.000 Z-20.000 F600.000
G1 X15.000 Y117.000 Z-20.000 F600.000
G1 X25.000 Y117.000 Z-20.000 F600.000
G0 Z5.000
G0 Z5.000
(Finish operation: Profile005)
(Begin operation: Profile006)
(Path: Profile006)
(Profile006)
(Compensated Tool Path. Diameter: 3.0)
G0 Z5.000
G0 X21.057 Y128.057
G0 Z3.000
G1 X21.057 Y128.057 Z-3.000 F600.000
G2 X20.462 Y125.578 Z-3.000 I-1.057 J-1.057 K0.000 F600.000
G2 X19.538 Y128.422 Z-3.000 I-0.462 J1.422 K0.000 F600.000
G2 X21.057 Y128.057 Z-3.000 I0.462 J-1.422 K0.000 F600.000
G1 X21.057 Y128.057 Z-6.000 F600.000
G2 X20.462 Y125.578 Z-6.000 I-1.057 J-1.057 K0.000 F600.000
G2 X19.538 Y128.422 Z-6.000 I-0.462 J1.422 K0.000 F600.000
G2 X21.057 Y128.057 Z-6.000 I0.462 J-1.422 K0.000 F600.000
G1 X21.057 Y128.057 Z-9.000 F600.000
G2 X20.462 Y125.578 Z-9.000 I-1.057 J-1.057 K0.000 F600.000
G2 X19.538 Y128.422 Z-9.000 I-0.462 J1.422 K0.000 F600.000
G2 X21.057 Y128.057 Z-9.000 I0.462 J-1.422 K0.000 F600.000
G1 X21.057 Y128.057 Z-12.000 F600.000
G2 X20.462 Y125.578 Z-12.000 I-1.057 J-1.057 K0.000 F600.000
G2 X19.538 Y128.422 Z-12.000 I-0.462 J1.422 K0.000 F600.000
G2 X21.057 Y128.057 Z-12.000 I0.462 J-1.422 K0.000 F600.000
G1 X21.057 Y128.057 Z-15.000 F600.000
G2 X20.462 Y125.578 Z-15.000 I-1.057 J-1.057 K0.000 F600.000
G2 X19.538 Y128.422 Z-15.000 I-0.462 J1.422 K0.000 F600.000
G2 X21.057 Y128.057 Z-15.000 I0.462 J-1.422 K0.000 F600.000
G1 X21.057 Y128.057 Z-18.000 F600.000
G2 X20.462 Y125.578 Z-18.000 I-1.057 J-1.057 K0.000 F600.000
G2 X19.538 Y128.422 Z-18.000 I-0.462 J1.422 K0.000 F600.000
G2 X21.057 Y128.057 Z-18.000 I0.462 J-1.422 K0.000 F600.000
G1 X21.057 Y128.057 Z-20.000 F600.000
G2 X20.462 Y125.578 Z-20.000 I-1.057 J-1.057 K0.000 F600.000
G2 X19.538 Y128.422 Z-20.000 I-0.462 J1.422 K0.000 F600.000
G2 X21.057 Y128.057 Z-20.000 I0.462 J-1.422 K0.000 F600.000
G0 Z5.000
G0 Z5.000
(Finish operation: Profile006)
(Begin operation: Profile007)
(Path: Profile007)
(Profile007)
(Compensated Tool Path. Diameter: 3.0)
G0 Z5.000
G0 X41.057 Y128.057
G0 Z3.000
G1 X41.057 Y128.057 Z-3.000 F600.000
G2 X40.462 Y125.578 Z-3.000 I-1.057 J-1.057 K0.000 F600.000
G2 X39.538 Y128.422 Z-3.000 I-0.462 J1.422 K0.000 F600.000
G2 X41.057 Y128.057 Z-3.000 I0.462 J-1.422 K0.000 F600.000
G1 X41.057 Y128.057 Z-6.000 F600.000
G2 X40.462 Y125.578 Z-6.000 I-1.057 J-1.057 K0.000 F600.000
G2 X39.538 Y128.422 Z-6.000 I-0.462 J1.422 K0.000 F600.000
G2 X41.057 Y128.057 Z-6.000 I0.462 J-1.422 K0.000 F600.000
G1 X41.057 Y128.057 Z-9.000 F600.000
G2 X40.462 Y125.578 Z-9.000 I-1.057 J-1.057 K0.000 F600.000
G2 X39.538 Y128.422 Z-9.000 I-0.462 J1.422 K0.000 F600.000
G2 X41.057 Y128.057 Z-9.000 I0.462 J-1.422 K0.000 F600.000
G1 X41.057 Y128.057 Z-12.000 F600.000
G2 X40.462 Y125.578 Z-12.000 I-1.057 J-1.057 K0.000 F600.000
G2 X39.538 Y128.422 Z-12.000 I-0.462 J1.422 K0.000 F600.000
G2 X41.057 Y128.057 Z-12.000 I0.462 J-1.422 K0.000 F600.000
G1 X41.057 Y128.057 Z-15.000 F600.000
G2 X40.462 Y125.578 Z-15.000 I-1.057 J-1.057 K0.000 F600.000
G2 X39.538 Y128.422 Z-15.000 I-0.462 J1.422 K0.000 F600.000
G2 X41.057 Y128.057 Z-15.000 I0.462 J-1.422 K0.000 F600.000
G1 X41.057 Y128.057 Z-18.000 F600.000
G2 X40.462 Y125.578 Z-18.000 I-1.057 J-1.057 K0.000 F600.000
G2 X39.538 Y128.422 Z-18.000 I-0.462 J1.422 K0.000 F600.000
G2 X41.057 Y128.057 Z-18.000 I0.462 J-1.422 K0.000 F600.000
G1 X41.057 Y128.057 Z-20.000 F600.000
G2 X40.462 Y125.578 Z-20.000 I-1.057 J-1.057 K0.000 F600.000
G2 X39.538 Y128.422 Z-20.000 I-0.462 J1.422 K0.000 F600.000
G2 X41.057 Y128.057 Z-20.000 I0.462 J-1.422 K0.000 F600.000
G0 Z5.000
G0 Z5.000
(Finish operation: Profile007)
(Begin operation: Profile008)
(Path: Profile008)
(Profile008)
(Compensated Tool Path. Diameter: 3.0)
G0 Z5.000
G0 X42.473 Y117.473
G0 Z3.000
G1 X42.473 Y117.473 Z-3.000 F600.000
G2 X40.639 Y111.562 Z-3.000 I-2.473 J-2.473 K0.000 F600.000
G2 X39.361 Y118.438 Z-3.000 I-0.639 J3.438 K0.000 F600.000
G2 X42.473 Y117.473 Z-3.000 I0.639 J-3.438 K0.000 F600.000
G1 X42.473 Y117.473 Z-6.000 F600.000
G2 X40.639 Y111.562 Z-6.000 I-2.473 J-2.473 K0.000 F600.000
G2 X39.361 Y118.438 Z-6.000 I-0.639 J3.438 K0.000 F600.000
G2 X42.473 Y117.473 Z-6.000 I0.639 J-3.438 K0.000 F600.000
G1 X42.473 Y117.473 Z-9.000 F600.000
G2 X40.639 Y111.562 Z-9.000 I-2.473 J-2.473 K0.000 F600.000
G2 X39.361 Y118.438 Z-9.000 I-0.639 J3.438 K0.000 F600.000
G2 X42.473 Y117.473 Z-9.000 I0.639 J-3.438 K0.000 F600.000
G1 X42.473 Y117.473 Z-12.000 F600.000
G2 X40.639 Y111.562 Z-12.000 I-2.473 J-2.473 K0.000 F600.000
G2 X39.361 Y118.438 Z-12.000 I-0.639 J3.438 K0.000 F600.000
G2 X42.473 Y117.473 Z-12.000 I0.639 J-3.438 K0.000 F600.000
G1 X42.473 Y117.473 Z-15.000 F600.000
G2 X40.639 Y111.562 Z-15.000 I-2.473 J-2.473 K0.000 F600.000
G2 X39.361 Y118.438 Z-15.000 I-0.639 J3.438 K0.000 F600.000
G2 X42.473 Y117.473 Z-15.000 I0.639 J-3.438 K0.000 F600.000
G1 X42.473 Y117.473 Z-18.000 F600.000
G2 X40.639 Y111.562 Z-18.000 I-2.473 J-2.473 K0.000 F600.000
G2 X39.361 Y118.438 Z-18.000 I-0.639 J3.438 K0.000 F600.000
G2 X42.473 Y117.473 Z-18.000 I0.639 J-3.438 K0.000 F600.000
G1 X42.473 Y117.473 Z-20.000 F600.000
G2 X40.639 Y111.562 Z-20.000 I-2.473 J-2.473 K0.000 F600.000
G2 X39.361 Y118.438 Z-20.000 I-0.639 J3.438 K0.000 F600.000
G2 X42.473 Y117.473 Z-20.000 I0.639 J-3.438 K0.000 F600.000
G0 Z5.000
G0 Z5.000
(Finish operation: Profile008)
(Begin operation: Profile009)
(Path: Profile009)
(Profile009)
(Compensated Tool Path. Diameter: 3.0)
G0 Z5.000
G0 X56.061 Y136.061
G0 Z3.000
G1 X56.061 Y136.061 Z-3.000 F600.000
G2 X56.500 Y135.000 Z-3.000 I-1.061 J-1.061 K0.000 F600.000
G1 X56.500 Y105.000 Z-3.000 F600.000
G2 X55.000 Y103.500 Z-3.000 I-1.500 J0.000 K0.000 F600.000
G1 X5.000 Y103.500 Z-3.000 F600.000
G2 X3.500 Y105.000 Z-3.000 I0.000 J1.500 K0.000 F600.000
G1 X3.500 Y135.000 Z-3.000 F600.000
G2 X5.000 Y136.500 Z-3.000 I1.500 J-0.000 K0.000 F600.000
G1 X55.000 Y136.500 Z-3.000 F600.000
G2 X56.061 Y136.061 Z-3.000 I-0.000 J-1.500 K0.000 F600.000
G1 X56.061 Y136.061 Z-6.000 F600.000
G2 X56.500 Y135.000 Z-6.000 I-1.061 J-1.061 K0.000 F600.000
G1 X56.500 Y105.000 Z-6.000 F600.000
G2 X55.000 Y103.500 Z-6.000 I-1.500 J0.000 K0.000 F600.000
G1 X5.000 Y103.500 Z-6.000 F600.000
G2 X3.500 Y105.000 Z-6.000 I0.000 J1.500 K0.000 F600.000
G1 X3.500 Y135.000 Z-6.000 F600.000
G2 X5.000 Y136.500 Z-6.000 I1.500 J-0.000 K0.000 F600.000
G1 X55.000 Y136.500 Z-6.000 F600.000
G2 X56.061 Y136.061 Z-6.000 I-0.000 J-1.500 K0.000 F600.000
G1 X56.061 Y136.061 Z-9.000 F600.000
G2 X56.500 Y135.000 Z-9.000 I-1.061 J-1.061 K0.000 F600.000
G1 X56.500 Y105.000 Z-9.000 F600.000
G2 X55.000 Y103.500 Z-9.000 I-1.500 J0.000 K0.000 F600.000
G1 X5.000 Y103.500 Z-9.000 F600.000
G2 X3.500 Y105.000 Z-9.000 I0.000 J1.500 K0.000 F600.000
G1 X3.500 Y135.000 Z-9.000 F600.000
G2 X5.000 Y136.500 Z-9.000 I1.500 J-0.000 K0.000 F600.000
G1 X55.000 Y136.500 Z-9.000 F600.000
G2 X56.061 Y136.061 Z-9.000 I-0.000 J-1.500 K0.000 F600.000
G1 X56.061 Y136.061 Z-12.000 F600.000
G2 X56.500 Y135.000 Z-12.000 I-1.061 J-1.061 K0.000 F600.000
G1 X56.500 Y105.000 Z-12.000 F600.000
G2 X55.000 Y103.500 Z-12.000 I-1.500 J0.000 K0.000 F600.000
G1 X5.000 Y103.500 Z-12.000 F600.000
G2 X3.500 Y105.000 Z-12.000 I0.000 J1.500 K0.000 F600.000
G1 X3.500 Y135.000 Z-12.000 F600.000
G2 X5.000 Y136.500 Z-12.000 I1.500 J-0.000 K0.000 F600.000
G1 X55.000 Y136.500 Z-12.000 F600.000
G2 X56.061 Y136.061 Z-12.000 I-0.000 J-1.500 K0.000 F600.000
G1 X56.061 Y136.061 Z-15.000 F600.000
G2 X56.500 Y135.000 Z-15.000 I-1.061 J-1.061 K0.000 F600.000
G1 X56.500 Y105.000 Z-15.000 F600.000
G2 X55.000 Y103.500 Z-15.000 I-1.500 J0.000 K0.000 F600.000
G1 X5.000 Y103.500 Z-15.000 F600.000
G2 X3.500 Y105.000 Z-15.000 I0.000 J1.500 K0.000 F600.000
G1 X3.500 Y135.000 Z-15.000 F600.000
G2 X5.000 Y136.500 Z-15.000 I1.500 J-0.000 K0.000 F600.000
G1 X55.000 Y136.500 Z-15.000 F600.000
G2 X56.061 Y136.061 Z-15.000 I-0.000 J-1.500 K0.000 F600.000
G1 X56.061 Y136.061 Z-18.000 F600.000
G2 X56.500 Y135.000 Z-18.000 I-1.061 J-1.061 K0.000 F600.000
G1 X56.500 Y105.000 Z-18.000 F600.000
G2 X55.000 Y103.500 Z-18.000 I-1.500 J0.000 K0.000 F600.000
G1 X5.000 Y103.500 Z-18.000 F600.000
G2 X3.500 Y105.000 Z-18.000 I0.000 J1.500 K0.000 F600.000
G1 X3.500 Y135.000 Z-18.000 F600.000
G2 X5.000 Y136.500 Z-18.000 I1.500 J-0.000 K0.000 F600.000
G1 X55.000 Y136.500 Z-18.000 F600.000
G2 X56.061 Y136.061 Z-18.000 I-0.000 J-1.500 K0.000 F600.000
G1 X56.061 Y136.061 Z-20.000 F600.000
G2 X56.500 Y135.000 Z-20.000 I-1.061 J-1.061 K0.000 F600.000
G1 X56.500 Y105.000 Z-20.000 F600.000
G2 X55.000 Y103.500 Z-20.000 I-1.500 J0.000 K0.000 F600.000
G1 X5.000 Y103.500 Z-20.000 F600.000
G2 X3.500 Y105.000 Z-20.000 I0.000 J1.500 K0.000 F600.000
G1 X3.500 Y135.000 Z-20.000 F600.000
G2 X5.000 Y136.500 Z-20.000 I1.500 J-0.000 K0.000 F600.000
G1 X55.000 Y136.500 Z-20.000 F600.000
G2 X56.061 Y136.061 Z-20.000 I-0.000 J-1.500 K0.000 F600.000
G0 Z5.000
G0 Z5.000
(Finish operation: Profile009)
(Begin operation: Profile010)
(Path: Profile010)
(Profile010)
(Compensated Tool Path. Diameter: 3.0)
G0 Z5.000
G0 X0.000 Y0.000
G0 X106.500 Y101.500
G0 X106.500 Y101.500 Z3.000
G1 X106.500 Y101.500 Z-3.000 F600.000
G1 X106.500 Y118.500 Z-3.000 F600.000
G1 X133.500 Y118.500 Z-3.000 F600.000
G1 X133.500 Y101.500 Z-3.000 F600.000
G1 X106.500 Y101.500 Z-3.000 F600.000
G1 X106.500 Y101.500 Z-6.000 F600.000
G1 X106.500 Y118.500 Z-6.000 F600.000
G1 X133.500 Y118.500 Z-6.000 F600.000
G1 X133.500 Y101.500 Z-6.000 F600.000
G1 X106.500 Y101.500 Z-6.000 F600.000
G1 X106.500 Y101.500 Z-9.000 F600.000
G1 X106.500 Y118.500 Z-9.000 F600.000
G1 X133.500 Y118.500 Z-9.000 F600.000
G1 X133.500 Y101.500 Z-9.000 F600.000
G1 X106.500 Y101.500 Z-9.000 F600.000
G1 X106.500 Y101.500 Z-12.000 F600.000
G1 X106.500 Y118.500 Z-12.000 F600.000
G1 X133.500 Y118.500 Z-12.000 F600.000
G1 X133.500 Y101.500 Z-12.000 F600.000
G1 X106.500 Y101.500 Z-12.000 F600.000
G1 X106.500 Y101.500 Z-15.000 F600.000
G1 X106.500 Y118.500 Z-15.000 F600.000
G1 X133.500 Y118.500 Z-15.000 F600.000
G1 X133.500 Y101.500 Z-15.000 F600.000
G1 X106.500 Y101.500 Z-15.000 F600.000
G1 X106.500 Y101.500 Z-18.000 F600.000
G1 X106.500 Y118.500 Z-18.000 F600.000
G1 X133.500 Y118.500 Z-18.000 F600.000
G1 X133.500 Y101.500 Z-18.000 F600.000
G1 X106.500 Y101.500 Z-18.000 F600.000
G1 X106.500 Y101.500 Z-20.000 F600.000
G1 X106.500 Y118.500 Z-20.000 F600.000
G1 X133.500 Y118.500 Z-20.000 F600.000
G1 X133.500 Y101.500 Z-20.000 F600.000
G1 X106.500 Y101.500 Z-20.000 F600.000
G0 Z5.000
G0 Z5.000
(Finish operation: Profile010)
(Begin operation: Pocket_Shape)
(Path: Pocket_Shape)
(Pocket_Shape)
G0 Z5.000
G0 X0.000 Y0.000
G0 X106.500 Y95.412
G0 X106.500 Y95.412 Z3.000
G1 X106.500 Y95.412 Z-3.000 F600.000
G1 X109.588 Y98.500 Z-3.000 F600.000
G1 X106.500 Y98.500 Z-3.000 F600.000
G1 X106.500 Y95.412 Z-3.000 F600.000
G1 X106.500 Y91.500 Z-3.000 F600.000
G1 X106.831 Y91.500 Z-3.000 F600.000
G1 X113.831 Y98.500 Z-3.000 F600.000
G1 X118.074 Y98.500 Z-3.000 F600.000
G1 X111.074 Y91.500 Z-3.000 F600.000
G1 X115.316 Y91.500 Z-3.000 F600.000
G1 X122.316 Y98.500 Z-3.000 F600.000
G1 X126.559 Y98.500 Z-3.000 F600.000
G1 X119.559 Y91.500 Z-3.000 F600.000
G1 X123.802 Y91.500 Z-3.000 F600.000
G1 X130.802 Y98.500 Z-3.000 F600.000
G1 X135.000 Y98.500 Z-3.000 F600.000
G1 X135.050 Y98.506 Z-3.000 F600.000
G1 X128.044 Y91.500 Z-3.000 F600.000
G1 X132.287 Y91.500 Z-3.000 F600.000
G1 X153.500 Y112.713 Z-3.000 F600.000
G1 X153.500 Y108.471 Z-3.000 F600.000
G1 X136.529 Y91.500 Z-3.000 F600.000
G1 X140.772 Y91.500 Z-3.000 F600.000
G1 X153.500 Y104.228 Z-3.000 F600.000
G1 X153.500 Y99.985 Z-3.000 F600.000
G1 X145.015 Y91.500 Z-3.000 F600.000
G1 X149.257 Y91.500 Z-3.000 F600.000
G1 X153.500 Y95.743 Z-3.000 F600.000
G1 X153.500 Y91.500 Z-3.000 F600.000
G1 X153.500 Y91.500 Z-6.000 F600.000
G1 X153.500 Y95.743 Z-6.000 F600.000
G1 X149.257 Y91.500 Z-6.000 F600.000
G1 X145.015 Y91.500 Z-6.000 F600.000
G1 X153.500 Y99.985 Z-6.000 F600.000
G1 X153.500 Y104.228 Z-6.000 F600.000
G1 X140.772 Y91.500 Z-6.000 F600.000
G1 X136.529 Y91.500 Z-6.000 F600.000
G1 X153.500 Y108.471 Z-6.000 F600.000
G1 X153.500 Y112.713 Z-6.000 F600.000
G1 X132.287 Y91.500 Z-6.000 F600.000
G1 X128.044 Y91.500 Z-6.000 F600.000
G1 X135.050 Y98.506 Z-6.000 F600.000
G1 X135.000 Y98.500 Z-6.000 F600.000
G1 X130.802 Y98.500 Z-6.000 F600.000
G1 X123.802 Y91.500 Z-6.000 F600.000
G1 X119.559 Y91.500 Z-6.000 F600.000
G1 X126.559 Y98.500 Z-6.000 F600.000
G1 X122.316 Y98.500 Z-6.000 F600.000
G1 X115.316 Y91.500 Z-6.000 F600.000
G1 X111.074 Y91.500 Z-6.000 F600.000
G1 X118.074 Y98.500 Z-6.000 F600.000
G1 X113.831 Y98.500 Z-6.000 F600.000
G1 X106.831 Y91.500 Z-6.000 F600.000
G1 X106.500 Y91.500 Z-6.000 F600.000
G1 X106.500 Y95.412 Z-6.000 F600.000
G1 X106.500 Y98.500 Z-6.000 F600.000
G1 X109.588 Y98.500 Z-6.000 F600.000
G1 X106.500 Y95.412 Z-6.000 F600.000
G1 X106.500 Y95.412 Z-8.000 F600.000
G1 X109.588 Y98.500 Z-8.000 F600.000
G1 X106.500 Y98.500 Z-8.000 F600.000
G1 X106.500 Y95.412 Z-8.000 F600.000
G1 X106.500 Y91.500 Z-8.000 F600.000
G1 X106.831 Y91.500 Z-8.000 F600.000
G1 X113.831 Y98.500 Z-8.000 F600.000
G1 X118.074 Y98.500 Z-8.000 F600.000
G1 X111.074 Y91.500 Z-8.000 F600.000
G1 X115.316 Y91.500 Z-8.000 F600.000
G1 X122.316 Y98.500 Z-8.000 F600.000
G1 X126.559 Y98.500 Z-8.000 F600.000
G1 X119.559 Y91.500 Z-8.000 F600.000
G1 X123.802 Y91.500 Z-8.000 F600.000
G1 X130.802 Y98.500 Z-8.000 F600.000
G1 X135.000 Y98.500 Z-8.000 F600.000
G1 X135.050 Y98.506 Z-8.000 F600.000
G1 X128.044 Y91.500 Z-8.000 F600.000
G1 X132.287 Y91.500 Z-8.000 F600.000
G1 X153.500 Y112.713 Z-8.000 F600.000
G1 X153.500 Y108.471 Z-8.000 F600.000
G1 X136.529 Y91.500 Z-8.000 F600.000
G1 X140.772 Y91.500 Z-8.000 F600.000
G1 X153.500 Y104.228 Z-8.000 F600.000
G1 X153.500 Y99.985 Z-8.000 F600.000
G1 X145.015 Y91.500 Z-8.000 F600.000
G1 X149.257 Y91.500 Z-8.000 F600.000
G1 X153.500 Y95.743 Z-8.000 F600.000
G1 X153.500 Y91.500 Z-8.000 F600.000
G0 Z5.000
G0 X136.494 Y99.950 Z5.000
G0 X136.494 Y99.950 Z3.000
G1 X136.494 Y99.950 Z-3.000 F600.000
G1 X153.500 Y116.956 Z-3.000 F600.000
G1 X153.500 Y118.500 Z-3.000 F600.000
G1 X150.802 Y118.500 Z-3.000 F600.000
G1 X136.500 Y104.198 Z-3.000 F600.000
G1 X136.500 Y108.441 Z-3.000 F600.000
G1 X146.559 Y118.500 Z-3.000 F600.000
G1 X142.316 Y118.500 Z-3.000 F600.000
G1 X136.500 Y112.684 Z-3.000 F600.000
G1 X136.500 Y116.926 Z-3.000 F600.000
G1 X138.074 Y118.500 Z-3.000 F600.000
G1 X136.500 Y118.500 Z-3.000 F600.000
G1 X136.500 Y100.000 Z-3.000 F600.000
G2 X135.000 Y98.500 Z-3.000 I-1.500 J0.000 K0.000 F600.000
G1 X106.500 Y98.500 Z-3.000 F600.000
G1 X106.500 Y91.500 Z-3.000 F600.000
G1 X153.500 Y91.500 Z-3.000 F600.000
G1 X153.500 Y118.500 Z-3.000 F600.000
G1 X136.500 Y118.500 Z-3.000 F600.000
G1 X136.500 Y116.926 Z-3.000 F600.000
G1 X136.500 Y116.926 Z-6.000 F600.000
G1 X136.500 Y118.500 Z-6.000 F600.000
G1 X153.500 Y118.500 Z-6.000 F600.000
G1 X153.500 Y91.500 Z-6.000 F600.000
G1 X106.500 Y91.500 Z-6.000 F600.000
G1 X106.500 Y98.500 Z-6.000 F600.000
G1 X135.000 Y98.500 Z-6.000 F600.000
G3 X136.500 Y100.000 Z-6.000 I-0.000 J1.500 K0.000 F600.000
G1 X136.500 Y118.500 Z-6.000 F600.000
G1 X138.074 Y118.500 Z-6.000 F600.000
G1 X136.500 Y116.926 Z-6.000 F600.000
G1 X136.500 Y112.684 Z-6.000 F600.000
G1 X142.316 Y118.500 Z-6.000 F600.000
G1 X146.559 Y118.500 Z-6.000 F600.000
G1 X136.500 Y108.441 Z-6.000 F600.000
G1 X136.500 Y104.198 Z-6.000 F600.000
G1 X150.802 Y118.500 Z-6.000 F600.000
G1 X153.500 Y118.500 Z-6.000 F600.000
G1 X153.500 Y116.956 Z-6.000 F600.000
G1 X136.494 Y99.950 Z-6.000 F600.000
G1 X136.494 Y99.950 Z-8.000 F600.000
G1 X153.500 Y116.956 Z-8.000 F600.000
G1 X153.500 Y118.500 Z-8.000 F600.000
G1 X150.802 Y118.500 Z-8.000 F600.000
G1 X136.500 Y104.198 Z-8.000 F600.000
G1 X136.500 Y108.441 Z-8.000 F600.000
G1 X146.559 Y118.500 Z-8.000 F600.000
G1 X142.316 Y118.500 Z-8.000 F600.000
G1 X136.500 Y112.684 Z-8.000 F600.000
G1 X136.500 Y116.926 Z-8.000 F600.000
G1 X138.074 Y118.500 Z-8.000 F600.000
G1 X136.500 Y118.500 Z-8.000 F600.000
G1 X136.500 Y100.000 Z-8.000 F600.000
G2 X135.000 Y98.500 Z-8.000 I-1.500 J0.000 K0.000 F600.000
G1 X106.500 Y98.500 Z-8.000 F600.000
G1 X106.500 Y91.500 Z-8.000 F600.000
G1 X153.500 Y91.500 Z-8.000 F600.000
G1 X153.500 Y118.500 Z-8.000 F600.000
G1 X136.500 Y118.500 Z-8.000 F600.000
G1 X136.500 Y116.926 Z-8.000 F600.000
G0 Z5.000
G0 Z5.000
(Finish operation: Pocket_Shape)
(Begin operation: Profile011)
(Path: Profile011)
(Profile011)
(Compensated Tool Path. Diameter: 3.0)
G0 Z5.000
G0 X161.061 Y141.061
G0 Z3.000
G1 X161.061 Y141.061 Z-3.000 F600.000
G2 X161.500 Y140.000 Z-3.000 I-1.061 J-1.061 K0.000 F600.000
G1 X161.500 Y90.000 Z-3.000 F600.000
G2 X160.000 Y88.500 Z-3.000 I-1.500 J0.000 K0.000 F600.000
G1 X60.000 Y88.500 Z-3.000 F600.000
G2 X58.500 Y90.000 Z-3.000 I0.000 J1.500 K0.000 F600.000
G1 X58.500 Y140.000 Z-3.000 F600.000
G2 X60.000 Y141.500 Z-3.000 I1.500 J-0.000 K0.000 F600.000
G1 X160.000 Y141.500 Z-3.000 F600.000
G2 X161.061 Y141.061 Z-3.000 I-0.000 J-1.500 K0.000 F600.000
G1 X161.061 Y141.061 Z-6.000 F600.000
G2 X161.500 Y140.000 Z-6.000 I-1.061 J-1.061 K0.000 F600.000
G1 X161.500 Y90.000 Z-6.000 F600.000
G2 X160.000 Y88.500 Z-6.000 I-1.500 J0.000 K0.000 F600.000
G1 X60.000 Y88.500 Z-6.000 F600.000
G2 X58.500 Y90.000 Z-6.000 I0.000 J1.500 K0.000 F600.000
G1 X58.500 Y140.000 Z-6.000 F600.000
G2 X60.000 Y141.500 Z-6.000 I1.500 J-0.000 K0.000 F600.000
G1 X160.000 Y141.500 Z-6.000 F600.000
G2 X161.061 Y141.061 Z-6.000 I-0.000 J-1.500 K0.000 F600.000
G1 X161.061 Y141.061 Z-9.000 F600.000
G2 X161.500 Y140.000 Z-9.000 I-1.061 J-1.061 K0.000 F600.000
G1 X161.500 Y90.000 Z-9.000 F600.000
G2 X160.000 Y88.500 Z-9.000 I-1.500 J0.000 K0.000 F600.000
G1 X60.000 Y88.500 Z-9.000 F600.000
G2 X58.500 Y90.000 Z-9.000 I0.000 J1.500 K0.000 F600.000
G1 X58.500 Y140.000 Z-9.000 F600.000
G2 X60.000 Y141.500 Z-9.000 I1.500 J-0.000 K0.000 F600.000
G1 X160.000 Y141.500 Z-9.000 F600.000
G2 X161.061 Y141.061 Z-9.000 I-0.000 J-1.500 K0.000 F600.000
G1 X161.061 Y141.061 Z-12.000 F600.000
G2 X161.500 Y140.000 Z-12.000 I-1.061 J-1.061 K0.000 F600.000
G1 X161.500 Y90.000 Z-12.000 F600.000
G2 X160.000 Y88.500 Z-12.000 I-1.500 J0.000 K0.000 F600.000
G1 X60.000 Y88.500 Z-12.000 F600.000
G2 X58.500 Y90.000 Z-12.000 I0.000 J1.500 K0.000 F600.000
G1 X58.500 Y140.000 Z-12.000 F600.000
G2 X60.000 Y141.500 Z-12.000 I1.500 J-0.000 K0.000 F600.000
G1 X160.000 Y141.500 Z-12.000 F600.000
G2 X161.061 Y141.061 Z-12.000 I-0.000 J-1.500 K0.000 F600.000
G1 X161.061 Y141.061 Z-15.000 F600.000
G2 X161.500 Y140.000 Z-15.000 I-1.061 J-1.061 K0.000 F600.000
G1 X161.500 Y90.000 Z-15.000 F600.000
G2 X160.000 Y88.500 Z-15.000 I-1.500 J0.000 K0.000 F600.000
G1 X60.000 Y88.500 Z-15.000 F600.000
G2 X58.500 Y90.000 Z-15.000 I0.000 J1.500 K0.000 F600.000
G1 X58.500 Y140.000 Z-15.000 F600.000
G2 X60.000 Y141.500 Z-15.000 I1.500 J-0.000 K0.000 F600.000
G1 X160.000 Y141.500 Z-15.000 F600.000
G2 X161.061 Y141.061 Z-15.000 I-0.000 J-1.500 K0.000 F600.000
G1 X161.061 Y141.061 Z-18.000 F600.000
G2 X161.500 Y140.000 Z-18.000 I-1.061 J-1.061 K0.000 F600.000
G1 X161.500 Y90.000 Z-18.000 F600.000
G2 X160.000 Y88.500 Z-18.000 I-1.500 J0.000 K0.000 F600.000
G1 X60.000 Y88.500 Z-18.000 F600.000
G2 X58.500 Y90.000 Z-18.000 I0.000 J1.500 K0.000 F600.000
G1 X58.500 Y140.000 Z-18.000 F600.000
G2 X60.000 Y141.500 Z-18.000 I1.500 J-0.000 K0.000 F600.000
G1 X160.000 Y141.500 Z-18.000 F600.000
G2 X161.061 Y141.061 Z-18.000 I-0.000 J-1.500 K0.000 F600.000
G1 X161.061 Y141.061 Z-20.000 F600.000
G2 X161.500 Y140.000 Z-20.000 I-1.061 J-1.061 K0.000 F600.000
G1 X161.500 Y90.000 Z-20.000 F600.000
G2 X160.000 Y88.500 Z-20.000 I-1.500 J0.000 K0.000 F600.000
G1 X60.000 Y88.500 Z-20.000 F600.000
G2 X58.500 Y90.000 Z-20.000 I0.000 J1.500 K0.000 F600.000
G1 X58.500 Y140.000 Z-20.000 F600.000
G2 X60.000 Y141.500 Z-20.000 I1.500 J-0.000 K0.000 F600.000
G1 X160.000 Y141.500 Z-20.000 F600.000
G2 X161.061 Y141.061 Z-20.000 I-0.000 J-1.500 K0.000 F600.000
G0 Z5.000
G0 Z5.000
(Finish operation: Profile011)
(Begin postamble)
M5
G17 G90
M2
