(Exported by FreeCAD)
(Post Processor: script_module)
(Output Time:2025-08-15 14:26:17.984900)
(Begin preamble)
G17 G90
G21
(Begin operation: Fixture)
(Path: Fixture)
G54
(Finish operation: Fixture)
(Begin operation: 3mm_Endmill001)
(Path: 3mm_Endmill001)
(3mm_Endmill001)
(Begin toolchange)
( M6 T2 )
M3 S10000
(Finish operation: 3mm_Endmill001)
(Begin operation: Pocket_Shape)
(Path: Pocket_Shape)
(Pocket_Shape)
G0 Z5.000
G0 X0.000 Y0.000
G0 X15.000 Y-9.415
G0 X15.000 Y-9.415 Z3.000
G1 X15.000 Y-9.415 Z-3.000 F600.000
G1 X15.000 Y-12.465 Z-3.000 F600.000
G1 X14.998 Y-12.498 Z-3.000 F600.000
G1 X14.965 Y-12.500 Z-3.000 F600.000
G1 X-14.965 Y-12.500 Z-3.000 F600.000
G1 X-14.998 Y-12.498 Z-3.000 F600.000
G1 X-15.000 Y-12.465 Z-3.000 F600.000
G1 X-15.000 Y11.465 Z-3.000 F600.000
G1 X-14.998 Y11.498 Z-3.000 F600.000
G1 X-14.965 Y11.500 Z-3.000 F600.000
G1 X14.965 Y11.500 Z-3.000 F600.000
G1 X14.998 Y11.498 Z-3.000 F600.000
G1 X15.000 Y11.465 Z-3.000 F600.000
G1 X15.000 Y-12.465 Z-3.000 F600.000
G1 X14.998 Y-12.498 Z-3.000 F600.000
G1 X14.965 Y-12.500 Z-3.000 F600.000
G1 X11.915 Y-12.500 Z-3.000 F600.000
G1 X15.000 Y-9.415 Z-3.000 F600.000
G1 X15.000 Y-5.172 Z-3.000 F600.000
G1 X7.672 Y-12.500 Z-3.000 F600.000
G1 X3.430 Y-12.500 Z-3.000 F600.000
G1 X15.000 Y-0.930 Z-3.000 F600.000
G1 X15.000 Y3.313 Z-3.000 F600.000
G1 X-0.813 Y-12.500 Z-3.000 F600.000
G1 X-5.056 Y-12.500 Z-3.000 F600.000
G1 X15.000 Y7.556 Z-3.000 F600.000
G1 X15.000 Y11.465 Z-3.000 F600.000
G1 X14.998 Y11.498 Z-3.000 F600.000
G3 X14.702 Y11.500 Z-3.000 I-0.165 J-3.204 K0.000 F600.000
G1 X-9.298 Y-12.500 Z-3.000 F600.000
G1 X-13.541 Y-12.500 Z-3.000 F600.000
G1 X10.459 Y11.500 Z-3.000 F600.000
G1 X6.216 Y11.500 Z-3.000 F600.000
G1 X-15.000 Y-9.716 Z-3.000 F600.000
G1 X-15.000 Y-5.474 Z-3.000 F600.000
G1 X1.974 Y11.500 Z-3.000 F600.000
G1 X-2.269 Y11.500 Z-3.000 F600.000
G1 X-15.000 Y-1.231 Z-3.000 F600.000
G1 X-15.000 Y3.012 Z-3.000 F600.000
G1 X-6.512 Y11.500 Z-3.000 F600.000
G1 X-10.754 Y11.500 Z-3.000 F600.000
G1 X-15.000 Y7.254 Z-3.000 F600.000
G1 X-15.000 Y11.465 Z-3.000 F600.000
G1 X-14.998 Y11.498 Z-3.000 F600.000
G1 X-14.998 Y11.498 Z-6.000 F600.000
G1 X-15.000 Y11.465 Z-6.000 F600.000
G1 X-15.000 Y7.254 Z-6.000 F600.000
G1 X-10.754 Y11.500 Z-6.000 F600.000
G1 X-6.512 Y11.500 Z-6.000 F600.000
G1 X-15.000 Y3.012 Z-6.000 F600.000
G1 X-15.000 Y-1.231 Z-6.000 F600.000
G1 X-2.269 Y11.500 Z-6.000 F600.000
G1 X1.974 Y11.500 Z-6.000 F600.000
G1 X-15.000 Y-5.474 Z-6.000 F600.000
G1 X-15.000 Y-9.716 Z-6.000 F600.000
G1 X6.216 Y11.500 Z-6.000 F600.000
G1 X10.459 Y11.500 Z-6.000 F600.000
G1 X-13.541 Y-12.500 Z-6.000 F600.000
G1 X-9.298 Y-12.500 Z-6.000 F600.000
G1 X14.702 Y11.500 Z-6.000 F600.000
G2 X14.998 Y11.498 Z-6.000 I0.132 J-3.205 K0.000 F600.000
G1 X15.000 Y11.465 Z-6.000 F600.000
G1 X15.000 Y7.556 Z-6.000 F600.000
G1 X-5.056 Y-12.500 Z-6.000 F600.000
G1 X-0.813 Y-12.500 Z-6.000 F600.000
G1 X15.000 Y3.313 Z-6.000 F600.000
G1 X15.000 Y-0.930 Z-6.000 F600.000
G1 X3.430 Y-12.500 Z-6.000 F600.000
G1 X7.672 Y-12.500 Z-6.000 F600.000
G1 X15.000 Y-5.172 Z-6.000 F600.000
G1 X15.000 Y-9.415 Z-6.000 F600.000
G1 X11.915 Y-12.500 Z-6.000 F600.000
G1 X14.965 Y-12.500 Z-6.000 F600.000
G1 X14.998 Y-12.498 Z-6.000 F600.000
G1 X15.000 Y-12.465 Z-6.000 F600.000
G1 X15.000 Y11.465 Z-6.000 F600.000
G1 X14.998 Y11.498 Z-6.000 F600.000
G1 X14.965 Y11.500 Z-6.000 F600.000
G1 X-14.965 Y11.500 Z-6.000 F600.000
G1 X-14.998 Y11.498 Z-6.000 F600.000
G1 X-15.000 Y11.465 Z-6.000 F600.000
G1 X-15.000 Y-12.465 Z-6.000 F600.000
G1 X-14.998 Y-12.498 Z-6.000 F600.000
G1 X-14.965 Y-12.500 Z-6.000 F600.000
G1 X14.965 Y-12.500 Z-6.000 F600.000
G1 X14.998 Y-12.498 Z-6.000 F600.000
G1 X15.000 Y-12.465 Z-6.000 F600.000
G1 X15.000 Y-9.415 Z-6.000 F600.000
G1 X15.000 Y-9.415 Z-9.000 F600.000
G1 X15.000 Y-12.465 Z-9.000 F600.000
G1 X14.998 Y-12.498 Z-9.000 F600.000
G1 X14.965 Y-12.500 Z-9.000 F600.000
G1 X-14.965 Y-12.500 Z-9.000 F600.000
G1 X-14.998 Y-12.498 Z-9.000 F600.000
G1 X-15.000 Y-12.465 Z-9.000 F600.000
G1 X-15.000 Y11.465 Z-9.000 F600.000
G1 X-14.998 Y11.498 Z-9.000 F600.000
G1 X-14.965 Y11.500 Z-9.000 F600.000
G1 X14.965 Y11.500 Z-9.000 F600.000
G1 X14.998 Y11.498 Z-9.000 F600.000
G1 X15.000 Y11.465 Z-9.000 F600.000
G1 X15.000 Y-12.465 Z-9.000 F600.000
G1 X14.998 Y-12.498 Z-9.000 F600.000
G1 X14.965 Y-12.500 Z-9.000 F600.000
G1 X11.915 Y-12.500 Z-9.000 F600.000
G1 X15.000 Y-9.415 Z-9.000 F600.000
G1 X15.000 Y-5.172 Z-9.000 F600.000
G1 X7.672 Y-12.500 Z-9.000 F600.000
G1 X3.430 Y-12.500 Z-9.000 F600.000
G1 X15.000 Y-0.930 Z-9.000 F600.000
G1 X15.000 Y3.313 Z-9.000 F600.000
G1 X-0.813 Y-12.500 Z-9.000 F600.000
G1 X-5.056 Y-12.500 Z-9.000 F600.000
G1 X15.000 Y7.556 Z-9.000 F600.000
G1 X15.000 Y11.465 Z-9.000 F600.000
G1 X14.998 Y11.498 Z-9.000 F600.000
G3 X14.702 Y11.500 Z-9.000 I-0.165 J-3.204 K0.000 F600.000
G1 X-9.298 Y-12.500 Z-9.000 F600.000
G1 X-13.541 Y-12.500 Z-9.000 F600.000
G1 X10.459 Y11.500 Z-9.000 F600.000
G1 X6.216 Y11.500 Z-9.000 F600.000
G1 X-15.000 Y-9.716 Z-9.000 F600.000
G1 X-15.000 Y-5.474 Z-9.000 F600.000
G1 X1.974 Y11.500 Z-9.000 F600.000
G1 X-2.269 Y11.500 Z-9.000 F600.000
G1 X-15.000 Y-1.231 Z-9.000 F600.000
G1 X-15.000 Y3.012 Z-9.000 F600.000
G1 X-6.512 Y11.500 Z-9.000 F600.000
G1 X-10.754 Y11.500 Z-9.000 F600.000
G1 X-15.000 Y7.254 Z-9.000 F600.000
G1 X-15.000 Y11.465 Z-9.000 F600.000
G1 X-14.998 Y11.498 Z-9.000 F600.000
G1 X-14.998 Y11.498 Z-12.000 F600.000
G1 X-15.000 Y11.465 Z-12.000 F600.000
G1 X-15.000 Y7.254 Z-12.000 F600.000
G1 X-10.754 Y11.500 Z-12.000 F600.000
G1 X-6.512 Y11.500 Z-12.000 F600.000
G1 X-15.000 Y3.012 Z-12.000 F600.000
G1 X-15.000 Y-1.231 Z-12.000 F600.000
G1 X-2.269 Y11.500 Z-12.000 F600.000
G1 X1.974 Y11.500 Z-12.000 F600.000
G1 X-15.000 Y-5.474 Z-12.000 F600.000
G1 X-15.000 Y-9.716 Z-12.000 F600.000
G1 X6.216 Y11.500 Z-12.000 F600.000
G1 X10.459 Y11.500 Z-12.000 F600.000
G1 X-13.541 Y-12.500 Z-12.000 F600.000
G1 X-9.298 Y-12.500 Z-12.000 F600.000
G1 X14.702 Y11.500 Z-12.000 F600.000
G2 X14.998 Y11.498 Z-12.000 I0.132 J-3.205 K0.000 F600.000
G1 X15.000 Y11.465 Z-12.000 F600.000
G1 X15.000 Y7.556 Z-12.000 F600.000
G1 X-5.056 Y-12.500 Z-12.000 F600.000
G1 X-0.813 Y-12.500 Z-12.000 F600.000
G1 X15.000 Y3.313 Z-12.000 F600.000
G1 X15.000 Y-0.930 Z-12.000 F600.000
G1 X3.430 Y-12.500 Z-12.000 F600.000
G1 X7.672 Y-12.500 Z-12.000 F600.000
G1 X15.000 Y-5.172 Z-12.000 F600.000
G1 X15.000 Y-9.415 Z-12.000 F600.000
G1 X11.915 Y-12.500 Z-12.000 F600.000
G1 X14.965 Y-12.500 Z-12.000 F600.000
G1 X14.998 Y-12.498 Z-12.000 F600.000
G1 X15.000 Y-12.465 Z-12.000 F600.000
G1 X15.000 Y11.465 Z-12.000 F600.000
G1 X14.998 Y11.498 Z-12.000 F600.000
G1 X14.965 Y11.500 Z-12.000 F600.000
G1 X-14.965 Y11.500 Z-12.000 F600.000
G1 X-14.998 Y11.498 Z-12.000 F600.000
G1 X-15.000 Y11.465 Z-12.000 F600.000
G1 X-15.000 Y-12.465 Z-12.000 F600.000
G1 X-14.998 Y-12.498 Z-12.000 F600.000
G1 X-14.965 Y-12.500 Z-12.000 F600.000
G1 X14.965 Y-12.500 Z-12.000 F600.000
G1 X14.998 Y-12.498 Z-12.000 F600.000
G1 X15.000 Y-12.465 Z-12.000 F600.000
G1 X15.000 Y-9.415 Z-12.000 F600.000
G1 X15.000 Y-9.415 Z-15.000 F600.000
G1 X15.000 Y-12.465 Z-15.000 F600.000
G1 X14.998 Y-12.498 Z-15.000 F600.000
G1 X14.965 Y-12.500 Z-15.000 F600.000
G1 X-14.965 Y-12.500 Z-15.000 F600.000
G1 X-14.998 Y-12.498 Z-15.000 F600.000
G1 X-15.000 Y-12.465 Z-15.000 F600.000
G1 X-15.000 Y11.465 Z-15.000 F600.000
G1 X-14.998 Y11.498 Z-15.000 F600.000
G1 X-14.965 Y11.500 Z-15.000 F600.000
G1 X14.965 Y11.500 Z-15.000 F600.000
G1 X14.998 Y11.498 Z-15.000 F600.000
G1 X15.000 Y11.465 Z-15.000 F600.000
G1 X15.000 Y-12.465 Z-15.000 F600.000
G1 X14.998 Y-12.498 Z-15.000 F600.000
G1 X14.965 Y-12.500 Z-15.000 F600.000
G1 X11.915 Y-12.500 Z-15.000 F600.000
G1 X15.000 Y-9.415 Z-15.000 F600.000
G1 X15.000 Y-5.172 Z-15.000 F600.000
G1 X7.672 Y-12.500 Z-15.000 F600.000
G1 X3.430 Y-12.500 Z-15.000 F600.000
G1 X15.000 Y-0.930 Z-15.000 F600.000
G1 X15.000 Y3.313 Z-15.000 F600.000
G1 X-0.813 Y-12.500 Z-15.000 F600.000
G1 X-5.056 Y-12.500 Z-15.000 F600.000
G1 X15.000 Y7.556 Z-15.000 F600.000
G1 X15.000 Y11.465 Z-15.000 F600.000
G1 X14.998 Y11.498 Z-15.000 F600.000
G3 X14.702 Y11.500 Z-15.000 I-0.165 J-3.204 K0.000 F600.000
G1 X-9.298 Y-12.500 Z-15.000 F600.000
G1 X-13.541 Y-12.500 Z-15.000 F600.000
G1 X10.459 Y11.500 Z-15.000 F600.000
G1 X6.216 Y11.500 Z-15.000 F600.000
G1 X-15.000 Y-9.716 Z-15.000 F600.000
G1 X-15.000 Y-5.474 Z-15.000 F600.000
G1 X1.974 Y11.500 Z-15.000 F600.000
G1 X-2.269 Y11.500 Z-15.000 F600.000
G1 X-15.000 Y-1.231 Z-15.000 F600.000
G1 X-15.000 Y3.012 Z-15.000 F600.000
G1 X-6.512 Y11.500 Z-15.000 F600.000
G1 X-10.754 Y11.500 Z-15.000 F600.000
G1 X-15.000 Y7.254 Z-15.000 F600.000
G1 X-15.000 Y11.465 Z-15.000 F600.000
G1 X-14.998 Y11.498 Z-15.000 F600.000
G1 X-14.998 Y11.498 Z-18.000 F600.000
G1 X-15.000 Y11.465 Z-18.000 F600.000
G1 X-15.000 Y7.254 Z-18.000 F600.000
G1 X-10.754 Y11.500 Z-18.000 F600.000
G1 X-6.512 Y11.500 Z-18.000 F600.000
G1 X-15.000 Y3.012 Z-18.000 F600.000
G1 X-15.000 Y-1.231 Z-18.000 F600.000
G1 X-2.269 Y11.500 Z-18.000 F600.000
G1 X1.974 Y11.500 Z-18.000 F600.000
G1 X-15.000 Y-5.474 Z-18.000 F600.000
G1 X-15.000 Y-9.716 Z-18.000 F600.000
G1 X6.216 Y11.500 Z-18.000 F600.000
G1 X10.459 Y11.500 Z-18.000 F600.000
G1 X-13.541 Y-12.500 Z-18.000 F600.000
G1 X-9.298 Y-12.500 Z-18.000 F600.000
G1 X14.702 Y11.500 Z-18.000 F600.000
G2 X14.998 Y11.498 Z-18.000 I0.132 J-3.205 K0.000 F600.000
G1 X15.000 Y11.465 Z-18.000 F600.000
G1 X15.000 Y7.556 Z-18.000 F600.000
G1 X-5.056 Y-12.500 Z-18.000 F600.000
G1 X-0.813 Y-12.500 Z-18.000 F600.000
G1 X15.000 Y3.313 Z-18.000 F600.000
G1 X15.000 Y-0.930 Z-18.000 F600.000
G1 X3.430 Y-12.500 Z-18.000 F600.000
G1 X7.672 Y-12.500 Z-18.000 F600.000
G1 X15.000 Y-5.172 Z-18.000 F600.000
G1 X15.000 Y-9.415 Z-18.000 F600.000
G1 X11.915 Y-12.500 Z-18.000 F600.000
G1 X14.965 Y-12.500 Z-18.000 F600.000
G1 X14.998 Y-12.498 Z-18.000 F600.000
G1 X15.000 Y-12.465 Z-18.000 F600.000
G1 X15.000 Y11.465 Z-18.000 F600.000
G1 X14.998 Y11.498 Z-18.000 F600.000
G1 X14.965 Y11.500 Z-18.000 F600.000
G1 X-14.965 Y11.500 Z-18.000 F600.000
G1 X-14.998 Y11.498 Z-18.000 F600.000
G1 X-15.000 Y11.465 Z-18.000 F600.000
G1 X-15.000 Y-12.465 Z-18.000 F600.000
G1 X-14.998 Y-12.498 Z-18.000 F600.000
G1 X-14.965 Y-12.500 Z-18.000 F600.000
G1 X14.965 Y-12.500 Z-18.000 F600.000
G1 X14.998 Y-12.498 Z-18.000 F600.000
G1 X15.000 Y-12.465 Z-18.000 F600.000
G1 X15.000 Y-9.415 Z-18.000 F600.000
G0 Z5.000
G0 Z5.000
(Finish operation: Pocket_Shape)
(Begin operation: Profile)
(Path: Profile)
(Profile)
(Compensated Tool Path. Diameter: 3.0)
G0 Z5.000
G0 X0.000 Y0.000
G0 Y27.481
G0 Y27.481 Z3.000
G1 X0.000 Y27.481 Z-3.000 F600.000
G1 X45.000 Y27.481 Z-3.000 F600.000
G2 X46.299 Y25.231 Z-3.000 I0.000 J-1.500 K0.000 F600.000
G1 X1.299 Y-52.712 Z-3.000 F600.000
G2 X0.750 Y-53.261 Z-3.000 I-1.299 J0.750 K0.000 F600.000
G2 X-1.299 Y-52.712 Z-3.000 I-0.750 J1.299 K0.000 F600.000
G1 X-46.299 Y25.231 Z-3.000 F600.000
G2 X-45.000 Y27.481 Z-3.000 I1.299 J0.750 K0.000 F600.000
G1 X0.000 Y27.481 Z-3.000 F600.000
G1 X0.000 Y27.481 Z-6.000 F600.000
G1 X45.000 Y27.481 Z-6.000 F600.000
G2 X46.299 Y25.231 Z-6.000 I0.000 J-1.500 K0.000 F600.000
G1 X1.299 Y-52.712 Z-6.000 F600.000
G2 X0.750 Y-53.261 Z-6.000 I-1.299 J0.750 K0.000 F600.000
G2 X-1.299 Y-52.712 Z-6.000 I-0.750 J1.299 K0.000 F600.000
G1 X-46.299 Y25.231 Z-6.000 F600.000
G2 X-45.000 Y27.481 Z-6.000 I1.299 J0.750 K0.000 F600.000
G1 X0.000 Y27.481 Z-6.000 F600.000
G1 X0.000 Y27.481 Z-9.000 F600.000
G1 X45.000 Y27.481 Z-9.000 F600.000
G2 X46.299 Y25.231 Z-9.000 I0.000 J-1.500 K0.000 F600.000
G1 X1.299 Y-52.712 Z-9.000 F600.000
G2 X0.750 Y-53.261 Z-9.000 I-1.299 J0.750 K0.000 F600.000
G2 X-1.299 Y-52.712 Z-9.000 I-0.750 J1.299 K0.000 F600.000
G1 X-46.299 Y25.231 Z-9.000 F600.000
G2 X-45.000 Y27.481 Z-9.000 I1.299 J0.750 K0.000 F600.000
G1 X0.000 Y27.481 Z-9.000 F600.000
G1 X0.000 Y27.481 Z-12.000 F600.000
G1 X45.000 Y27.481 Z-12.000 F600.000
G2 X46.299 Y25.231 Z-12.000 I0.000 J-1.500 K0.000 F600.000
G1 X1.299 Y-52.712 Z-12.000 F600.000
G2 X0.750 Y-53.261 Z-12.000 I-1.299 J0.750 K0.000 F600.000
G2 X-1.299 Y-52.712 Z-12.000 I-0.750 J1.299 K0.000 F600.000
G1 X-46.299 Y25.231 Z-12.000 F600.000
G2 X-45.000 Y27.481 Z-12.000 I1.299 J0.750 K0.000 F600.000
G1 X0.000 Y27.481 Z-12.000 F600.000
G1 X0.000 Y27.481 Z-15.000 F600.000
G1 X45.000 Y27.481 Z-15.000 F600.000
G2 X46.299 Y25.231 Z-15.000 I0.000 J-1.500 K0.000 F600.000
G1 X1.299 Y-52.712 Z-15.000 F600.000
G2 X0.750 Y-53.261 Z-15.000 I-1.299 J0.750 K0.000 F600.000
G2 X-1.299 Y-52.712 Z-15.000 I-0.750 J1.299 K0.000 F600.000
G1 X-46.299 Y25.231 Z-15.000 F600.000
G2 X-45.000 Y27.481 Z-15.000 I1.299 J0.750 K0.000 F600.000
G1 X0.000 Y27.481 Z-15.000 F600.000
G1 X0.000 Y27.481 Z-18.000 F600.000
G1 X45.000 Y27.481 Z-18.000 F600.000
G2 X46.299 Y25.231 Z-18.000 I0.000 J-1.500 K0.000 F600.000
G1 X1.299 Y-52.712 Z-18.000 F600.000
G2 X0.750 Y-53.261 Z-18.000 I-1.299 J0.750 K0.000 F600.000
G2 X-1.299 Y-52.712 Z-18.000 I-0.750 J1.299 K0.000 F600.000
G1 X-46.299 Y25.231 Z-18.000 F600.000
G2 X-45.000 Y27.481 Z-18.000 I1.299 J0.750 K0.000 F600.000
G1 X0.000 Y27.481 Z-18.000 F600.000
G1 X0.000 Y27.481 Z-20.000 F600.000
G1 X45.000 Y27.481 Z-20.000 F600.000
G2 X46.299 Y25.231 Z-20.000 I0.000 J-1.500 K0.000 F600.000
G1 X1.299 Y-52.712 Z-20.000 F600.000
G2 X0.750 Y-53.261 Z-20.000 I-1.299 J0.750 K0.000 F600.000
G2 X-1.299 Y-52.712 Z-20.000 I-0.750 J1.299 K0.000 F600.000
G1 X-46.299 Y25.231 Z-20.000 F600.000
G2 X-45.000 Y27.481 Z-20.000 I1.299 J0.750 K0.000 F600.000
G1 X0.000 Y27.481 Z-20.000 F600.000
G0 Z5.000
G0 Z5.000
(Finish operation: Profile)
(Begin postamble)
M5
G17 G90
M2
