(Exported by FreeCAD)
(Post Processor: script_module)
(Output Time:2025-03-28 19:40:52.203077)
(Begin preamble)
G17 G90
G21
(Begin operation: Fixture)
(Path: Fixture)
G54
(Finish operation: Fixture)
(Begin operation: 3mm_Endmill003)
(Path: 3mm_Endmill003)
(3mm_Endmill003)
(Begin toolchange)
( M6 T2 )
M3 S10000
(Finish operation: 3mm_Endmill003)
(Begin operation: Profile)
(Path: Profile)
(Profile)
(Compensated Tool Path. Diameter: 3.0)
G0 Z25.000
G0 X0.000 Y0.000
G0 X1.298 Y-11.425
G0 X1.298 Y-11.425 Z23.000
G1 X1.298 Y-11.425 Z17.000 F600.000
G2 X-11.425 Y-1.298 Z17.000 I-1.298 J11.425 K0.000 F600.000
G2 X-1.298 Y11.425 Z17.000 I11.425 J1.298 K0.000 F600.000
G2 X1.298 Y-11.425 Z17.000 I1.298 J-11.425 K0.000 F600.000
G1 X1.298 Y-11.425 Z14.000 F600.000
G2 X-11.425 Y-1.298 Z14.000 I-1.298 J11.425 K0.000 F600.000
G2 X-1.298 Y11.425 Z14.000 I11.425 J1.298 K0.000 F600.000
G2 X1.298 Y-11.425 Z14.000 I1.298 J-11.425 K0.000 F600.000
G1 X1.298 Y-11.425 Z11.000 F600.000
G2 X-11.425 Y-1.298 Z11.000 I-1.298 J11.425 K0.000 F600.000
G2 X-1.298 Y11.425 Z11.000 I11.425 J1.298 K0.000 F600.000
G2 X1.298 Y-11.425 Z11.000 I1.298 J-11.425 K0.000 F600.000
G1 X1.298 Y-11.425 Z8.000 F600.000
G2 X-11.425 Y-1.298 Z8.000 I-1.298 J11.425 K0.000 F600.000
G2 X-1.298 Y11.425 Z8.000 I11.425 J1.298 K0.000 F600.000
G2 X1.298 Y-11.425 Z8.000 I1.298 J-11.425 K0.000 F600.000
G1 X1.298 Y-11.425 Z5.000 F600.000
G2 X-11.425 Y-1.298 Z5.000 I-1.298 J11.425 K0.000 F600.000
G2 X-1.298 Y11.425 Z5.000 I11.425 J1.298 K0.000 F600.000
G2 X1.298 Y-11.425 Z5.000 I1.298 J-11.425 K0.000 F600.000
G1 X1.298 Y-11.425 Z2.000 F600.000
G2 X-11.425 Y-1.298 Z2.000 I-1.298 J11.425 K0.000 F600.000
G2 X-1.298 Y11.425 Z2.000 I11.425 J1.298 K0.000 F600.000
G2 X1.298 Y-11.425 Z2.000 I1.298 J-11.425 K0.000 F600.000
G1 X1.298 Y-11.425 Z0.000 F600.000
G2 X-11.425 Y-1.298 Z0.000 I-1.298 J11.425 K0.000 F600.000
G2 X-1.298 Y11.425 Z0.000 I11.425 J1.298 K0.000 F600.000
G2 X1.298 Y-11.425 Z0.000 I1.298 J-11.425 K0.000 F600.000
G0 Z25.000
G0 Z25.000
(Finish operation: Profile)
(Begin operation: Profile001)
(Path: Profile001)
(Profile001)
(Compensated Tool Path. Diameter: 3.0)
G0 Z25.000
G0 X29.345 Y29.345
G0 Z23.000
G1 X29.345 Y29.345 Z17.000 F600.000
G2 X2.760 Y-41.408 Z17.000 I-29.345 J-29.345 K0.000 F600.000
G2 X-2.760 Y41.408 Z17.000 I-2.760 J41.408 K0.000 F600.000
G2 X29.345 Y29.345 Z17.000 I2.760 J-41.408 K0.000 F600.000
G1 X29.345 Y29.345 Z14.000 F600.000
G2 X2.760 Y-41.408 Z14.000 I-29.345 J-29.345 K0.000 F600.000
G2 X-2.760 Y41.408 Z14.000 I-2.760 J41.408 K0.000 F600.000
G2 X29.345 Y29.345 Z14.000 I2.760 J-41.408 K0.000 F600.000
G1 X29.345 Y29.345 Z11.000 F600.000
G2 X2.760 Y-41.408 Z11.000 I-29.345 J-29.345 K0.000 F600.000
G2 X-2.760 Y41.408 Z11.000 I-2.760 J41.408 K0.000 F600.000
G2 X29.345 Y29.345 Z11.000 I2.760 J-41.408 K0.000 F600.000
G1 X29.345 Y29.345 Z8.000 F600.000
G2 X2.760 Y-41.408 Z8.000 I-29.345 J-29.345 K0.000 F600.000
G2 X-2.760 Y41.408 Z8.000 I-2.760 J41.408 K0.000 F600.000
G2 X29.345 Y29.345 Z8.000 I2.760 J-41.408 K0.000 F600.000
G1 X29.345 Y29.345 Z5.000 F600.000
G2 X2.760 Y-41.408 Z5.000 I-29.345 J-29.345 K0.000 F600.000
G2 X-2.760 Y41.408 Z5.000 I-2.760 J41.408 K0.000 F600.000
G2 X29.345 Y29.345 Z5.000 I2.760 J-41.408 K0.000 F600.000
G1 X29.345 Y29.345 Z2.000 F600.000
G2 X2.760 Y-41.408 Z2.000 I-29.345 J-29.345 K0.000 F600.000
G2 X-2.760 Y41.408 Z2.000 I-2.760 J41.408 K0.000 F600.000
G2 X29.345 Y29.345 Z2.000 I2.760 J-41.408 K0.000 F600.000
G1 X29.345 Y29.345 Z0.000 F600.000
G2 X2.760 Y-41.408 Z0.000 I-29.345 J-29.345 K0.000 F600.000
G2 X-2.760 Y41.408 Z0.000 I-2.760 J41.408 K0.000 F600.000
G2 X29.345 Y29.345 Z0.000 I2.760 J-41.408 K0.000 F600.000
G0 Z25.000
G0 Z25.000
(Finish operation: Profile001)
(Begin postamble)
M5
G17 G90
M2
