(Exported by FreeCAD)
(Post Processor: script_module)
(Output Time:2026-06-07 17:11:41.336874)
(Begin preamble)
G17 G90
G21
(Begin operation: Fixture)
(Path: Fixture)
G54
(Finish operation: Fixture)
(Begin operation: 3175001)
(Path: 3175001)
(3175001)
(Begin toolchange)
( M6 T2 )
M3 S10000
(Finish operation: 3175001)
(Begin operation: Profile)
(Path: Profile)
(Profile)
(Compensated Tool Path. Diameter: 3.17)
G0 Z5.000
G0 X-5.273 Y11.727
G0 Z3.000
G1 X-5.273 Y11.727 Z-3.000 F240.000
G2 X-14.584 Y-16.407 Z-3.000 I-11.727 J-11.727 K0.000 F240.000
G2 X-19.416 Y16.407 Z-3.000 I-2.416 J16.407 K0.000 F240.000
G2 X-5.273 Y11.727 Z-3.000 I2.416 J-16.407 K0.000 F240.000
G1 X-5.273 Y11.727 Z-6.000 F240.000
G2 X-14.584 Y-16.407 Z-6.000 I-11.727 J-11.727 K0.000 F240.000
G2 X-19.416 Y16.407 Z-6.000 I-2.416 J16.407 K0.000 F240.000
G2 X-5.273 Y11.727 Z-6.000 I2.416 J-16.407 K0.000 F240.000
G1 X-5.273 Y11.727 Z-9.000 F240.000
G2 X-14.584 Y-16.407 Z-9.000 I-11.727 J-11.727 K0.000 F240.000
G2 X-19.416 Y16.407 Z-9.000 I-2.416 J16.407 K0.000 F240.000
G2 X-5.273 Y11.727 Z-9.000 I2.416 J-16.407 K0.000 F240.000
G1 X-5.273 Y11.727 Z-11.000 F240.000
G2 X-14.584 Y-16.407 Z-11.000 I-11.727 J-11.727 K0.000 F240.000
G2 X-19.416 Y16.407 Z-11.000 I-2.416 J16.407 K0.000 F240.000
G2 X-5.273 Y11.727 Z-11.000 I2.416 J-16.407 K0.000 F240.000
G0 Z5.000
G0 Z5.000
(Finish operation: Profile)
(Begin operation: Profile001)
(Path: Profile001)
(Profile001)
(Compensated Tool Path. Diameter: 3.17)
G0 Z5.000
G0 X28.727 Y11.727
G0 Z3.000
G1 X28.727 Y11.727 Z-3.000 F240.000
G2 X19.416 Y-16.407 Z-3.000 I-11.727 J-11.727 K0.000 F240.000
G2 X14.584 Y16.407 Z-3.000 I-2.416 J16.407 K0.000 F240.000
G2 X28.727 Y11.727 Z-3.000 I2.416 J-16.407 K0.000 F240.000
G1 X28.727 Y11.727 Z-6.000 F240.000
G2 X19.416 Y-16.407 Z-6.000 I-11.727 J-11.727 K0.000 F240.000
G2 X14.584 Y16.407 Z-6.000 I-2.416 J16.407 K0.000 F240.000
G2 X28.727 Y11.727 Z-6.000 I2.416 J-16.407 K0.000 F240.000
G1 X28.727 Y11.727 Z-9.000 F240.000
G2 X19.416 Y-16.407 Z-9.000 I-11.727 J-11.727 K0.000 F240.000
G2 X14.584 Y16.407 Z-9.000 I-2.416 J16.407 K0.000 F240.000
G2 X28.727 Y11.727 Z-9.000 I2.416 J-16.407 K0.000 F240.000
G1 X28.727 Y11.727 Z-11.000 F240.000
G2 X19.416 Y-16.407 Z-11.000 I-11.727 J-11.727 K0.000 F240.000
G2 X14.584 Y16.407 Z-11.000 I-2.416 J16.407 K0.000 F240.000
G2 X28.727 Y11.727 Z-11.000 I2.416 J-16.407 K0.000 F240.000
G0 Z5.000
G0 Z5.000
(Finish operation: Profile001)
(Begin postamble)
M5
G17 G90
M2
