(Exported by FreeCAD)
(Post Processor: script_module)
(Output Time:2026-05-09 16:48:51.729417)
(Begin preamble)
G17 G90
G21
(Begin operation: Fixture)
(Path: Fixture)
G54
(Finish operation: Fixture)
(Begin operation: 3175001)
(Path: 3175001)
(3175001)
(Begin toolchange)
( M6 T2 )
M3 S10000
(Finish operation: 3175001)
(Begin operation: Profile)
(Path: Profile)
(Profile)
(Compensated Tool Path. Diameter: 3.17)
G0 Z5.000
G0 X33.126 Y2.509
G0 Z3.000
G1 X33.126 Y2.509 Z-2.000 F240.000
G1 X34.986 Y0.117 Z-2.000 F240.000
G1 X29.014 Y0.117 Z-2.000 F240.000
G1 X32.000 Y3.956 Z-2.000 F240.000
G1 X33.126 Y2.509 Z-2.000 F240.000
G1 X33.126 Y2.509 Z-4.000 F240.000
G1 X34.986 Y0.117 Z-4.000 F240.000
G1 X29.014 Y0.117 Z-4.000 F240.000
G1 X32.000 Y3.956 Z-4.000 F240.000
G1 X33.126 Y2.509 Z-4.000 F240.000
G1 X33.126 Y2.509 Z-6.000 F240.000
G1 X34.986 Y0.117 Z-6.000 F240.000
G1 X29.014 Y0.117 Z-6.000 F240.000
G1 X32.000 Y3.956 Z-6.000 F240.000
G1 X33.126 Y2.509 Z-6.000 F240.000
G0 Z5.000
G0 Z5.000
(Finish operation: Profile)
(Begin operation: Profile001)
(Path: Profile001)
(Profile001)
(Compensated Tool Path. Diameter: 3.17)
G0 Z5.000
G0 X28.276 Y-7.331
G0 Z3.000
G1 X28.276 Y-7.331 Z-2.000 F240.000
G1 X28.276 Y-11.866 Z-2.000 F240.000
G1 X26.954 Y-11.159 Z-2.000 F240.000
G1 X25.577 Y-10.030 Z-2.000 F240.000
G1 X24.483 Y-8.697 Z-2.000 F240.000
G1 X23.872 Y-7.331 Z-2.000 F240.000
G1 X28.276 Y-7.331 Z-2.000 F240.000
G1 X28.276 Y-7.331 Z-4.000 F240.000
G1 X28.276 Y-11.866 Z-4.000 F240.000
G1 X26.954 Y-11.159 Z-4.000 F240.000
G1 X25.577 Y-10.030 Z-4.000 F240.000
G1 X24.483 Y-8.697 Z-4.000 F240.000
G1 X23.872 Y-7.331 Z-4.000 F240.000
G1 X28.276 Y-7.331 Z-4.000 F240.000
G1 X28.276 Y-7.331 Z-6.000 F240.000
G1 X28.276 Y-11.866 Z-6.000 F240.000
G1 X26.954 Y-11.159 Z-6.000 F240.000
G1 X25.577 Y-10.030 Z-6.000 F240.000
G1 X24.483 Y-8.697 Z-6.000 F240.000
G1 X23.872 Y-7.331 Z-6.000 F240.000
G1 X28.276 Y-7.331 Z-6.000 F240.000
G0 Z5.000
G0 Z5.000
(Finish operation: Profile001)
(Begin operation: Profile002)
(Path: Profile002)
(Profile002)
(Compensated Tool Path. Diameter: 3.17)
G0 Z5.000
G0 X40.128 Y-7.331
G0 Z3.000
G1 X40.128 Y-7.331 Z-2.000 F240.000
G1 X39.517 Y-8.697 Z-2.000 F240.000
G1 X38.423 Y-10.030 Z-2.000 F240.000
G1 X37.046 Y-11.159 Z-2.000 F240.000
G1 X35.724 Y-11.866 Z-2.000 F240.000
G1 X35.724 Y-7.331 Z-2.000 F240.000
G1 X40.128 Y-7.331 Z-2.000 F240.000
G1 X40.128 Y-7.331 Z-4.000 F240.000
G1 X39.517 Y-8.697 Z-4.000 F240.000
G1 X38.423 Y-10.030 Z-4.000 F240.000
G1 X37.046 Y-11.159 Z-4.000 F240.000
G1 X35.724 Y-11.866 Z-4.000 F240.000
G1 X35.724 Y-7.331 Z-4.000 F240.000
G1 X40.128 Y-7.331 Z-4.000 F240.000
G1 X40.128 Y-7.331 Z-6.000 F240.000
G1 X39.517 Y-8.697 Z-6.000 F240.000
G1 X38.423 Y-10.030 Z-6.000 F240.000
G1 X37.046 Y-11.159 Z-6.000 F240.000
G1 X35.724 Y-11.866 Z-6.000 F240.000
G1 X35.724 Y-7.331 Z-6.000 F240.000
G1 X40.128 Y-7.331 Z-6.000 F240.000
G0 Z5.000
G0 Z5.000
(Finish operation: Profile002)
(Begin operation: Profile003)
(Path: Profile003)
(Profile003)
(Compensated Tool Path. Diameter: 3.17)
G0 Z5.000
G0 X23.959 Y-18.005
G0 Z3.000
G1 X23.959 Y-18.005 Z-2.000 F240.000
G1 X25.522 Y-18.840 Z-2.000 F240.000
G3 X26.490 Y-19.136 Z-2.000 I1.725 J3.903 K0.000 F240.000
G1 X14.039 Y-19.136 Z-2.000 F240.000
G1 X18.601 Y-13.271 Z-2.000 F240.000
G1 X20.186 Y-15.202 Z-2.000 F240.000
G1 X20.406 Y-15.421 Z-2.000 F240.000
G1 X22.675 Y-17.284 Z-2.000 F240.000
G1 X22.933 Y-17.456 Z-2.000 F240.000
G1 X23.959 Y-18.005 Z-2.000 F240.000
G1 X23.959 Y-18.005 Z-4.000 F240.000
G1 X25.522 Y-18.840 Z-4.000 F240.000
G3 X26.490 Y-19.136 Z-4.000 I1.725 J3.903 K0.000 F240.000
G1 X14.039 Y-19.136 Z-4.000 F240.000
G1 X18.601 Y-13.271 Z-4.000 F240.000
G1 X20.186 Y-15.202 Z-4.000 F240.000
G1 X20.406 Y-15.421 Z-4.000 F240.000
G1 X22.675 Y-17.284 Z-4.000 F240.000
G1 X22.933 Y-17.456 Z-4.000 F240.000
G1 X23.959 Y-18.005 Z-4.000 F240.000
G1 X23.959 Y-18.005 Z-6.000 F240.000
G1 X25.522 Y-18.840 Z-6.000 F240.000
G3 X26.490 Y-19.136 Z-6.000 I1.725 J3.903 K0.000 F240.000
G1 X14.039 Y-19.136 Z-6.000 F240.000
G1 X18.601 Y-13.271 Z-6.000 F240.000
G1 X20.186 Y-15.202 Z-6.000 F240.000
G1 X20.406 Y-15.421 Z-6.000 F240.000
G1 X22.675 Y-17.284 Z-6.000 F240.000
G1 X22.933 Y-17.456 Z-6.000 F240.000
G1 X23.959 Y-18.005 Z-6.000 F240.000
G0 Z5.000
G0 Z5.000
(Finish operation: Profile003)
(Begin operation: Profile004)
(Path: Profile004)
(Profile004)
(Compensated Tool Path. Diameter: 3.17)
G0 Z5.000
G0 X47.118 Y-15.482
G0 Z3.000
G1 X47.118 Y-15.482 Z-2.000 F240.000
G1 X49.961 Y-19.136 Z-2.000 F240.000
G1 X37.510 Y-19.136 Z-2.000 F240.000
G3 X38.478 Y-18.840 Z-2.000 I-0.757 J4.199 K0.000 F240.000
G1 X41.067 Y-17.456 Z-2.000 F240.000
G1 X41.325 Y-17.284 Z-2.000 F240.000
G1 X43.594 Y-15.421 Z-2.000 F240.000
G1 X43.814 Y-15.202 Z-2.000 F240.000
G1 X45.399 Y-13.271 Z-2.000 F240.000
G1 X47.118 Y-15.482 Z-2.000 F240.000
G1 X47.118 Y-15.482 Z-4.000 F240.000
G1 X49.961 Y-19.136 Z-4.000 F240.000
G1 X37.510 Y-19.136 Z-4.000 F240.000
G3 X38.478 Y-18.840 Z-4.000 I-0.757 J4.199 K0.000 F240.000
G1 X41.067 Y-17.456 Z-4.000 F240.000
G1 X41.325 Y-17.284 Z-4.000 F240.000
G1 X43.594 Y-15.421 Z-4.000 F240.000
G1 X43.814 Y-15.202 Z-4.000 F240.000
G1 X45.399 Y-13.271 Z-4.000 F240.000
G1 X47.118 Y-15.482 Z-4.000 F240.000
G1 X47.118 Y-15.482 Z-6.000 F240.000
G1 X49.961 Y-19.136 Z-6.000 F240.000
G1 X37.510 Y-19.136 Z-6.000 F240.000
G3 X38.478 Y-18.840 Z-6.000 I-0.757 J4.199 K0.000 F240.000
G1 X41.067 Y-17.456 Z-6.000 F240.000
G1 X41.325 Y-17.284 Z-6.000 F240.000
G1 X43.594 Y-15.421 Z-6.000 F240.000
G1 X43.814 Y-15.202 Z-6.000 F240.000
G1 X45.399 Y-13.271 Z-6.000 F240.000
G1 X47.118 Y-15.482 Z-6.000 F240.000
G0 Z5.000
G0 Z5.000
(Finish operation: Profile004)
(Begin operation: Profile005)
(Path: Profile005)
(Profile005)
(Compensated Tool Path. Diameter: 3.17)
G0 Z5.000
G0 X58.032 Y0.076
G0 Z3.000
G1 X58.032 Y0.076 Z-2.000 F240.000
G2 X59.256 Y-1.468 Z-2.000 I-0.360 J-1.543 K0.000 F240.000
G1 X59.256 Y-5.746 Z-2.000 F240.000
G2 X57.671 Y-7.331 Z-2.000 I-1.585 J-0.000 K0.000 F240.000
G1 X50.216 Y-7.331 Z-2.000 F240.000
G1 X63.201 Y-24.027 Z-2.000 F240.000
G2 X61.950 Y-26.585 Z-2.000 I-1.251 J-0.973 K0.000 F240.000
G1 X2.050 Y-26.585 Z-2.000 F240.000
G2 X0.799 Y-24.027 Z-2.000 I-0.000 J1.585 K0.000 F240.000
G1 X13.784 Y-7.331 Z-2.000 F240.000
G1 X6.329 Y-7.332 Z-2.000 F240.000
G2 X4.744 Y-5.747 Z-2.000 I-0.000 J1.585 K0.000 F240.000
G1 X4.744 Y-1.468 Z-2.000 F240.000
G2 X6.329 Y0.117 Z-2.000 I1.585 J0.000 K0.000 F240.000
G1 X19.578 Y0.117 Z-2.000 F240.000
G1 X28.276 Y11.300 Z-2.000 F240.000
G1 X28.276 Y22.064 Z-2.000 F240.000
G2 X29.861 Y23.649 Z-2.000 I1.585 J0.000 K0.000 F240.000
G1 X34.139 Y23.649 Z-2.000 F240.000
G2 X35.724 Y22.064 Z-2.000 I0.000 J-1.585 K0.000 F240.000
G1 X35.724 Y11.300 Z-2.000 F240.000
G1 X44.422 Y0.117 Z-2.000 F240.000
G1 X57.671 Y0.117 Z-2.000 F240.000
G2 X58.032 Y0.076 Z-2.000 I0.000 J-1.585 K0.000 F240.000
G1 X58.032 Y0.076 Z-4.000 F240.000
G2 X59.256 Y-1.468 Z-4.000 I-0.360 J-1.543 K0.000 F240.000
G1 X59.256 Y-5.746 Z-4.000 F240.000
G2 X57.671 Y-7.331 Z-4.000 I-1.585 J-0.000 K0.000 F240.000
G1 X50.216 Y-7.331 Z-4.000 F240.000
G1 X63.201 Y-24.027 Z-4.000 F240.000
G2 X61.950 Y-26.585 Z-4.000 I-1.251 J-0.973 K0.000 F240.000
G1 X2.050 Y-26.585 Z-4.000 F240.000
G2 X0.799 Y-24.027 Z-4.000 I-0.000 J1.585 K0.000 F240.000
G1 X13.784 Y-7.331 Z-4.000 F240.000
G1 X6.329 Y-7.332 Z-4.000 F240.000
G2 X4.744 Y-5.747 Z-4.000 I-0.000 J1.585 K0.000 F240.000
G1 X4.744 Y-1.468 Z-4.000 F240.000
G2 X6.329 Y0.117 Z-4.000 I1.585 J0.000 K0.000 F240.000
G1 X19.578 Y0.117 Z-4.000 F240.000
G1 X28.276 Y11.300 Z-4.000 F240.000
G1 X28.276 Y22.064 Z-4.000 F240.000
G2 X29.861 Y23.649 Z-4.000 I1.585 J0.000 K0.000 F240.000
G1 X34.139 Y23.649 Z-4.000 F240.000
G2 X35.724 Y22.064 Z-4.000 I0.000 J-1.585 K0.000 F240.000
G1 X35.724 Y11.300 Z-4.000 F240.000
G1 X44.422 Y0.117 Z-4.000 F240.000
G1 X57.671 Y0.117 Z-4.000 F240.000
G2 X58.032 Y0.076 Z-4.000 I0.000 J-1.585 K0.000 F240.000
G1 X58.032 Y0.076 Z-6.000 F240.000
G2 X59.256 Y-1.468 Z-6.000 I-0.360 J-1.543 K0.000 F240.000
G1 X59.256 Y-5.746 Z-6.000 F240.000
G2 X57.671 Y-7.331 Z-6.000 I-1.585 J-0.000 K0.000 F240.000
G1 X50.216 Y-7.331 Z-6.000 F240.000
G1 X63.201 Y-24.027 Z-6.000 F240.000
G2 X61.950 Y-26.585 Z-6.000 I-1.251 J-0.973 K0.000 F240.000
G1 X2.050 Y-26.585 Z-6.000 F240.000
G2 X0.799 Y-24.027 Z-6.000 I-0.000 J1.585 K0.000 F240.000
G1 X13.784 Y-7.331 Z-6.000 F240.000
G1 X6.329 Y-7.332 Z-6.000 F240.000
G2 X4.744 Y-5.747 Z-6.000 I-0.000 J1.585 K0.000 F240.000
G1 X4.744 Y-1.468 Z-6.000 F240.000
G2 X6.329 Y0.117 Z-6.000 I1.585 J0.000 K0.000 F240.000
G1 X19.578 Y0.117 Z-6.000 F240.000
G1 X28.276 Y11.300 Z-6.000 F240.000
G1 X28.276 Y22.064 Z-6.000 F240.000
G2 X29.861 Y23.649 Z-6.000 I1.585 J0.000 K0.000 F240.000
G1 X34.139 Y23.649 Z-6.000 F240.000
G2 X35.724 Y22.064 Z-6.000 I0.000 J-1.585 K0.000 F240.000
G1 X35.724 Y11.300 Z-6.000 F240.000
G1 X44.422 Y0.117 Z-6.000 F240.000
G1 X57.671 Y0.117 Z-6.000 F240.000
G2 X58.032 Y0.076 Z-6.000 I0.000 J-1.585 K0.000 F240.000
G0 Z5.000
G0 Z5.000
(Finish operation: Profile005)
(Begin operation: Profile006)
(Path: Profile006)
(Profile006)
(Compensated Tool Path. Diameter: 3.17)
G0 Z5.000
G0 X67.986 Y14.883
G0 Z3.000
G1 X67.986 Y14.883 Z-2.000 F240.000
G1 X65.000 Y11.044 Z-2.000 F240.000
G1 X62.014 Y14.883 Z-2.000 F240.000
G1 X67.986 Y14.883 Z-2.000 F240.000
G1 X67.986 Y14.883 Z-4.000 F240.000
G1 X65.000 Y11.044 Z-4.000 F240.000
G1 X62.014 Y14.883 Z-4.000 F240.000
G1 X67.986 Y14.883 Z-4.000 F240.000
G1 X67.986 Y14.883 Z-6.000 F240.000
G1 X65.000 Y11.044 Z-6.000 F240.000
G1 X62.014 Y14.883 Z-6.000 F240.000
G1 X67.986 Y14.883 Z-6.000 F240.000
G0 Z5.000
G0 Z5.000
(Finish operation: Profile006)
(Begin operation: Profile007)
(Path: Profile007)
(Profile007)
(Compensated Tool Path. Diameter: 3.17)
G0 Z5.000
G0 X71.423 Y25.030
G0 Z3.000
G1 X71.423 Y25.030 Z-2.000 F240.000
G1 X72.517 Y23.697 Z-2.000 F240.000
G1 X73.128 Y22.331 Z-2.000 F240.000
G1 X68.724 Y22.331 Z-2.000 F240.000
G1 X68.724 Y26.866 Z-2.000 F240.000
G1 X70.046 Y26.159 Z-2.000 F240.000
G1 X71.423 Y25.030 Z-2.000 F240.000
G0 Z5.000
G0 X67.986 Y14.883 Z5.000
G0 X67.986 Y14.883 Z3.000
G1 X67.986 Y14.883 Z-2.000 F240.000
G1 X65.000 Y11.044 Z-2.000 F240.000
G1 X62.014 Y14.883 Z-2.000 F240.000
G1 X67.986 Y14.883 Z-2.000 F240.000
G1 X67.986 Y14.883 Z-4.000 F240.000
G1 X65.000 Y11.044 Z-4.000 F240.000
G1 X62.014 Y14.883 Z-4.000 F240.000
G1 X67.986 Y14.883 Z-4.000 F240.000
G0 Z5.000
G0 X68.724 Y22.331 Z5.000
G0 X68.724 Y22.331 Z3.000
G1 X68.724 Y22.331 Z-4.000 F240.000
G1 X68.724 Y26.866 Z-4.000 F240.000
G1 X70.046 Y26.159 Z-4.000 F240.000
G1 X71.423 Y25.030 Z-4.000 F240.000
G1 X72.517 Y23.697 Z-4.000 F240.000
G1 X73.128 Y22.331 Z-4.000 F240.000
G1 X68.724 Y22.331 Z-4.000 F240.000
G1 X68.724 Y22.331 Z-6.000 F240.000
G1 X68.724 Y26.866 Z-6.000 F240.000
G1 X70.046 Y26.159 Z-6.000 F240.000
G1 X71.423 Y25.030 Z-6.000 F240.000
G1 X72.517 Y23.697 Z-6.000 F240.000
G1 X73.128 Y22.331 Z-6.000 F240.000
G1 X68.724 Y22.331 Z-6.000 F240.000
G0 Z5.000
G0 X67.986 Y14.883 Z5.000
G0 X67.986 Y14.883 Z3.000
G1 X67.986 Y14.883 Z-6.000 F240.000
G1 X65.000 Y11.044 Z-6.000 F240.000
G1 X62.014 Y14.883 Z-6.000 F240.000
G1 X67.986 Y14.883 Z-6.000 F240.000
G0 Z5.000
G0 Z5.000
(Finish operation: Profile007)
(Begin operation: Profile008)
(Path: Profile008)
(Profile008)
(Compensated Tool Path. Diameter: 3.17)
G0 Z5.000
G0 X61.276 Y26.866
G0 Z3.000
G1 X61.276 Y26.866 Z-2.000 F240.000
G1 X61.276 Y22.331 Z-2.000 F240.000
G1 X56.872 Y22.331 Z-2.000 F240.000
G1 X57.483 Y23.697 Z-2.000 F240.000
G1 X58.577 Y25.030 Z-2.000 F240.000
G1 X59.954 Y26.159 Z-2.000 F240.000
G1 X61.276 Y26.866 Z-2.000 F240.000
G1 X61.276 Y26.866 Z-4.000 F240.000
G1 X61.276 Y22.331 Z-4.000 F240.000
G1 X56.872 Y22.331 Z-4.000 F240.000
G1 X57.483 Y23.697 Z-4.000 F240.000
G1 X58.577 Y25.030 Z-4.000 F240.000
G1 X59.954 Y26.159 Z-4.000 F240.000
G1 X61.276 Y26.866 Z-4.000 F240.000
G1 X61.276 Y26.866 Z-6.000 F240.000
G1 X61.276 Y22.331 Z-6.000 F240.000
G1 X56.872 Y22.331 Z-6.000 F240.000
G1 X57.483 Y23.697 Z-6.000 F240.000
G1 X58.577 Y25.030 Z-6.000 F240.000
G1 X59.954 Y26.159 Z-6.000 F240.000
G1 X61.276 Y26.866 Z-6.000 F240.000
G0 Z5.000
G0 Z5.000
(Finish operation: Profile008)
(Begin operation: Profile009)
(Path: Profile009)
(Profile009)
(Compensated Tool Path. Diameter: 3.17)
G0 Z5.000
G0 X82.961 Y34.136
G0 Z3.000
G1 X82.961 Y34.136 Z-2.000 F240.000
G1 X78.399 Y28.271 Z-2.000 F240.000
G1 X76.814 Y30.202 Z-2.000 F240.000
G1 X76.594 Y30.421 Z-2.000 F240.000
G1 X74.325 Y32.284 Z-2.000 F240.000
G1 X74.067 Y32.456 Z-2.000 F240.000
G1 X71.478 Y33.840 Z-2.000 F240.000
G3 X70.510 Y34.136 Z-2.000 I-1.725 J-3.903 K0.000 F240.000
G1 X82.961 Y34.136 Z-2.000 F240.000
G0 Z5.000
G0 X61.276 Y26.866 Z5.000
G0 X61.276 Y26.866 Z3.000
G1 X61.276 Y26.866 Z-2.000 F240.000
G1 X61.276 Y22.331 Z-2.000 F240.000
G1 X56.872 Y22.331 Z-2.000 F240.000
G1 X57.483 Y23.697 Z-2.000 F240.000
G1 X58.577 Y25.030 Z-2.000 F240.000
G1 X59.954 Y26.159 Z-2.000 F240.000
G1 X61.276 Y26.866 Z-2.000 F240.000
G1 X61.276 Y26.866 Z-4.000 F240.000
G1 X61.276 Y22.331 Z-4.000 F240.000
G1 X56.872 Y22.331 Z-4.000 F240.000
G1 X57.483 Y23.697 Z-4.000 F240.000
G1 X58.577 Y25.030 Z-4.000 F240.000
G1 X59.954 Y26.159 Z-4.000 F240.000
G1 X61.276 Y26.866 Z-4.000 F240.000
G0 Z5.000
G0 X70.510 Y34.136 Z5.000
G0 X70.510 Y34.136 Z3.000
G1 X70.510 Y34.136 Z-4.000 F240.000
G1 X82.961 Y34.136 Z-4.000 F240.000
G1 X78.399 Y28.271 Z-4.000 F240.000
G1 X76.814 Y30.202 Z-4.000 F240.000
G1 X76.594 Y30.421 Z-4.000 F240.000
G1 X74.325 Y32.284 Z-4.000 F240.000
G1 X74.067 Y32.456 Z-4.000 F240.000
G1 X71.478 Y33.840 Z-4.000 F240.000
G3 X70.510 Y34.136 Z-4.000 I-1.725 J-3.903 K0.000 F240.000
G1 X70.510 Y34.136 Z-6.000 F240.000
G1 X82.961 Y34.136 Z-6.000 F240.000
G1 X78.399 Y28.271 Z-6.000 F240.000
G1 X76.814 Y30.202 Z-6.000 F240.000
G1 X76.594 Y30.421 Z-6.000 F240.000
G1 X74.325 Y32.284 Z-6.000 F240.000
G1 X74.067 Y32.456 Z-6.000 F240.000
G1 X71.478 Y33.840 Z-6.000 F240.000
G3 X70.510 Y34.136 Z-6.000 I-1.725 J-3.903 K0.000 F240.000
G0 Z5.000
G0 X61.276 Y26.866 Z5.000
G0 X61.276 Y26.866 Z3.000
G1 X61.276 Y26.866 Z-6.000 F240.000
G1 X61.276 Y22.331 Z-6.000 F240.000
G1 X56.872 Y22.331 Z-6.000 F240.000
G1 X57.483 Y23.697 Z-6.000 F240.000
G1 X58.577 Y25.030 Z-6.000 F240.000
G1 X59.954 Y26.159 Z-6.000 F240.000
G1 X61.276 Y26.866 Z-6.000 F240.000
G0 Z5.000
G0 Z5.000
(Finish operation: Profile009)
(Begin operation: Profile010)
(Path: Profile010)
(Profile010)
(Compensated Tool Path. Diameter: 3.17)
G0 Z5.000
G0 X59.490 Y34.136
G0 Z3.000
G1 X59.490 Y34.136 Z-2.000 F240.000
G3 X58.522 Y33.840 Z-2.000 I0.757 J-4.199 K0.000 F240.000
G1 X55.933 Y32.456 Z-2.000 F240.000
G1 X55.675 Y32.284 Z-2.000 F240.000
G1 X53.406 Y30.421 Z-2.000 F240.000
G1 X53.186 Y30.202 Z-2.000 F240.000
G1 X51.601 Y28.271 Z-2.000 F240.000
G1 X47.039 Y34.136 Z-2.000 F240.000
G1 X59.490 Y34.136 Z-2.000 F240.000
G1 X59.490 Y34.136 Z-4.000 F240.000
G3 X58.522 Y33.840 Z-4.000 I0.757 J-4.199 K0.000 F240.000
G1 X55.933 Y32.456 Z-4.000 F240.000
G1 X55.675 Y32.284 Z-4.000 F240.000
G1 X53.406 Y30.421 Z-4.000 F240.000
G1 X53.186 Y30.202 Z-4.000 F240.000
G1 X51.601 Y28.271 Z-4.000 F240.000
G1 X47.039 Y34.136 Z-4.000 F240.000
G1 X59.490 Y34.136 Z-4.000 F240.000
G1 X59.490 Y34.136 Z-6.000 F240.000
G3 X58.522 Y33.840 Z-6.000 I0.757 J-4.199 K0.000 F240.000
G1 X55.933 Y32.456 Z-6.000 F240.000
G1 X55.675 Y32.284 Z-6.000 F240.000
G1 X53.406 Y30.421 Z-6.000 F240.000
G1 X53.186 Y30.202 Z-6.000 F240.000
G1 X51.601 Y28.271 Z-6.000 F240.000
G1 X47.039 Y34.136 Z-6.000 F240.000
G1 X59.490 Y34.136 Z-6.000 F240.000
G0 Z5.000
G0 Z5.000
(Finish operation: Profile010)
(Begin operation: Profile011)
(Path: Profile011)
(Profile011)
(Compensated Tool Path. Diameter: 3.17)
G0 Z5.000
G0 X96.071 Y41.121
G0 Z3.000
G1 X96.071 Y41.121 Z-2.000 F240.000
G2 X96.201 Y39.027 Z-2.000 I-1.121 J-1.121 K0.000 F240.000
G1 X83.216 Y22.331 Z-2.000 F240.000
G1 X90.671 Y22.331 Z-2.000 F240.000
G2 X92.256 Y20.746 Z-2.000 I0.000 J-1.585 K0.000 F240.000
G1 X92.256 Y16.468 Z-2.000 F240.000
G2 X90.671 Y14.883 Z-2.000 I-1.585 J0.000 K0.000 F240.000
G1 X77.422 Y14.883 Z-2.000 F240.000
G1 X68.724 Y3.700 Z-2.000 F240.000
G1 X68.724 Y-7.064 Z-2.000 F240.000
G2 X67.139 Y-8.649 Z-2.000 I-1.585 J0.000 K0.000 F240.000
G1 X62.861 Y-8.649 Z-2.000 F240.000
G2 X61.276 Y-7.064 Z-2.000 I0.000 J1.585 K0.000 F240.000
G1 X61.276 Y3.700 Z-2.000 F240.000
G1 X52.578 Y14.883 Z-2.000 F240.000
G1 X39.329 Y14.883 Z-2.000 F240.000
G2 X37.744 Y16.468 Z-2.000 I0.000 J1.585 K0.000 F240.000
G1 X37.744 Y20.746 Z-2.000 F240.000
G2 X39.329 Y22.331 Z-2.000 I1.585 J0.000 K0.000 F240.000
G1 X46.784 Y22.331 Z-2.000 F240.000
G1 X33.799 Y39.027 Z-2.000 F240.000
G2 X35.050 Y41.585 Z-2.000 I1.251 J0.973 K0.000 F240.000
G1 X94.950 Y41.585 Z-2.000 F240.000
G2 X96.071 Y41.121 Z-2.000 I0.000 J-1.585 K0.000 F240.000
G1 X96.071 Y41.121 Z-4.000 F240.000
G2 X96.201 Y39.027 Z-4.000 I-1.121 J-1.121 K0.000 F240.000
G1 X83.216 Y22.331 Z-4.000 F240.000
G1 X90.671 Y22.331 Z-4.000 F240.000
G2 X92.256 Y20.746 Z-4.000 I0.000 J-1.585 K0.000 F240.000
G1 X92.256 Y16.468 Z-4.000 F240.000
G2 X90.671 Y14.883 Z-4.000 I-1.585 J0.000 K0.000 F240.000
G1 X77.422 Y14.883 Z-4.000 F240.000
G1 X68.724 Y3.700 Z-4.000 F240.000
G1 X68.724 Y-7.064 Z-4.000 F240.000
G2 X67.139 Y-8.649 Z-4.000 I-1.585 J0.000 K0.000 F240.000
G1 X62.861 Y-8.649 Z-4.000 F240.000
G2 X61.276 Y-7.064 Z-4.000 I0.000 J1.585 K0.000 F240.000
G1 X61.276 Y3.700 Z-4.000 F240.000
G1 X52.578 Y14.883 Z-4.000 F240.000
G1 X39.329 Y14.883 Z-4.000 F240.000
G2 X37.744 Y16.468 Z-4.000 I0.000 J1.585 K0.000 F240.000
G1 X37.744 Y20.746 Z-4.000 F240.000
G2 X39.329 Y22.331 Z-4.000 I1.585 J0.000 K0.000 F240.000
G1 X46.784 Y22.331 Z-4.000 F240.000
G1 X33.799 Y39.027 Z-4.000 F240.000
G2 X35.050 Y41.585 Z-4.000 I1.251 J0.973 K0.000 F240.000
G1 X94.950 Y41.585 Z-4.000 F240.000
G2 X96.071 Y41.121 Z-4.000 I0.000 J-1.585 K0.000 F240.000
G1 X96.071 Y41.121 Z-6.000 F240.000
G2 X96.201 Y39.027 Z-6.000 I-1.121 J-1.121 K0.000 F240.000
G1 X83.216 Y22.331 Z-6.000 F240.000
G1 X90.671 Y22.331 Z-6.000 F240.000
G2 X92.256 Y20.746 Z-6.000 I0.000 J-1.585 K0.000 F240.000
G1 X92.256 Y16.468 Z-6.000 F240.000
G2 X90.671 Y14.883 Z-6.000 I-1.585 J0.000 K0.000 F240.000
G1 X77.422 Y14.883 Z-6.000 F240.000
G1 X68.724 Y3.700 Z-6.000 F240.000
G1 X68.724 Y-7.064 Z-6.000 F240.000
G2 X67.139 Y-8.649 Z-6.000 I-1.585 J0.000 K0.000 F240.000
G1 X62.861 Y-8.649 Z-6.000 F240.000
G2 X61.276 Y-7.064 Z-6.000 I0.000 J1.585 K0.000 F240.000
G1 X61.276 Y3.700 Z-6.000 F240.000
G1 X52.578 Y14.883 Z-6.000 F240.000
G1 X39.329 Y14.883 Z-6.000 F240.000
G2 X37.744 Y16.468 Z-6.000 I0.000 J1.585 K0.000 F240.000
G1 X37.744 Y20.746 Z-6.000 F240.000
G2 X39.329 Y22.331 Z-6.000 I1.585 J0.000 K0.000 F240.000
G1 X46.784 Y22.331 Z-6.000 F240.000
G1 X33.799 Y39.027 Z-6.000 F240.000
G2 X35.050 Y41.585 Z-6.000 I1.251 J0.973 K0.000 F240.000
G1 X94.950 Y41.585 Z-6.000 F240.000
G2 X96.071 Y41.121 Z-6.000 I0.000 J-1.585 K0.000 F240.000
G0 Z5.000
G0 Z5.000
(Finish operation: Profile011)
(Begin operation: Profile012)
(Path: Profile012)
(Profile012)
(Compensated Tool Path. Diameter: 3.17)
G0 Z5.000
G0 X2.986 Y29.883
G0 Z3.000
G1 X2.986 Y29.883 Z-2.000 F240.000
G1 X0.000 Y26.044 Z-2.000 F240.000
G1 X-2.986 Y29.883 Z-2.000 F240.000
G1 X2.986 Y29.883 Z-2.000 F240.000
G1 X2.986 Y29.883 Z-4.000 F240.000
G1 X0.000 Y26.044 Z-4.000 F240.000
G1 X-2.986 Y29.883 Z-4.000 F240.000
G1 X2.986 Y29.883 Z-4.000 F240.000
G1 X2.986 Y29.883 Z-6.000 F240.000
G1 X0.000 Y26.044 Z-6.000 F240.000
G1 X-2.986 Y29.883 Z-6.000 F240.000
G1 X2.986 Y29.883 Z-6.000 F240.000
G0 Z5.000
G0 Z5.000
(Finish operation: Profile012)
(Begin operation: Profile013)
(Path: Profile013)
(Profile013)
(Compensated Tool Path. Diameter: 3.17)
G0 Z5.000
G0 X6.423 Y40.030
G0 Z3.000
G1 X6.423 Y40.030 Z-2.000 F240.000
G1 X7.517 Y38.697 Z-2.000 F240.000
G1 X8.128 Y37.331 Z-2.000 F240.000
G1 X3.724 Y37.331 Z-2.000 F240.000
G1 X3.724 Y41.866 Z-2.000 F240.000
G1 X5.046 Y41.159 Z-2.000 F240.000
G1 X6.423 Y40.030 Z-2.000 F240.000
G1 X6.423 Y40.030 Z-4.000 F240.000
G1 X7.517 Y38.697 Z-4.000 F240.000
G1 X8.128 Y37.331 Z-4.000 F240.000
G1 X3.724 Y37.331 Z-4.000 F240.000
G1 X3.724 Y41.866 Z-4.000 F240.000
G1 X5.046 Y41.159 Z-4.000 F240.000
G1 X6.423 Y40.030 Z-4.000 F240.000
G1 X6.423 Y40.030 Z-6.000 F240.000
G1 X7.517 Y38.697 Z-6.000 F240.000
G1 X8.128 Y37.331 Z-6.000 F240.000
G1 X3.724 Y37.331 Z-6.000 F240.000
G1 X3.724 Y41.866 Z-6.000 F240.000
G1 X5.046 Y41.159 Z-6.000 F240.000
G1 X6.423 Y40.030 Z-6.000 F240.000
G0 Z5.000
G0 Z5.000
(Finish operation: Profile013)
(Begin operation: Profile014)
(Path: Profile014)
(Profile014)
(Compensated Tool Path. Diameter: 3.17)
G0 Z5.000
G0 X-3.724 Y41.866
G0 Z3.000
G1 X-3.724 Y41.866 Z-2.000 F240.000
G1 X-3.724 Y37.331 Z-2.000 F240.000
G1 X-8.128 Y37.331 Z-2.000 F240.000
G1 X-7.517 Y38.697 Z-2.000 F240.000
G1 X-6.423 Y40.030 Z-2.000 F240.000
G1 X-5.046 Y41.159 Z-2.000 F240.000
G1 X-3.724 Y41.866 Z-2.000 F240.000
G1 X-3.724 Y41.866 Z-4.000 F240.000
G1 X-3.724 Y37.331 Z-4.000 F240.000
G1 X-8.128 Y37.331 Z-4.000 F240.000
G1 X-7.517 Y38.697 Z-4.000 F240.000
G1 X-6.423 Y40.030 Z-4.000 F240.000
G1 X-5.046 Y41.159 Z-4.000 F240.000
G1 X-3.724 Y41.866 Z-4.000 F240.000
G1 X-3.724 Y41.866 Z-6.000 F240.000
G1 X-3.724 Y37.331 Z-6.000 F240.000
G1 X-8.128 Y37.331 Z-6.000 F240.000
G1 X-7.517 Y38.697 Z-6.000 F240.000
G1 X-6.423 Y40.030 Z-6.000 F240.000
G1 X-5.046 Y41.159 Z-6.000 F240.000
G1 X-3.724 Y41.866 Z-6.000 F240.000
G0 Z5.000
G0 Z5.000
(Finish operation: Profile014)
(Begin operation: Profile015)
(Path: Profile015)
(Profile015)
(Compensated Tool Path. Diameter: 3.17)
G0 Z5.000
G0 X-5.510 Y49.136
G0 Z3.000
G1 X-5.510 Y49.136 Z-2.000 F240.000
G3 X-6.478 Y48.840 Z-2.000 I0.757 J-4.199 K0.000 F240.000
G1 X-9.067 Y47.456 Z-2.000 F240.000
G1 X-9.325 Y47.284 Z-2.000 F240.000
G1 X-11.594 Y45.421 Z-2.000 F240.000
G1 X-11.814 Y45.202 Z-2.000 F240.000
G1 X-13.399 Y43.271 Z-2.000 F240.000
G1 X-17.961 Y49.136 Z-2.000 F240.000
G1 X-5.510 Y49.136 Z-2.000 F240.000
G1 X-5.510 Y49.136 Z-4.000 F240.000
G3 X-6.478 Y48.840 Z-4.000 I0.757 J-4.199 K0.000 F240.000
G1 X-9.067 Y47.456 Z-4.000 F240.000
G1 X-9.325 Y47.284 Z-4.000 F240.000
G1 X-11.594 Y45.421 Z-4.000 F240.000
G1 X-11.814 Y45.202 Z-4.000 F240.000
G1 X-13.399 Y43.271 Z-4.000 F240.000
G1 X-17.961 Y49.136 Z-4.000 F240.000
G1 X-5.510 Y49.136 Z-4.000 F240.000
G1 X-5.510 Y49.136 Z-6.000 F240.000
G3 X-6.478 Y48.840 Z-6.000 I0.757 J-4.199 K0.000 F240.000
G1 X-9.067 Y47.456 Z-6.000 F240.000
G1 X-9.325 Y47.284 Z-6.000 F240.000
G1 X-11.594 Y45.421 Z-6.000 F240.000
G1 X-11.814 Y45.202 Z-6.000 F240.000
G1 X-13.399 Y43.271 Z-6.000 F240.000
G1 X-17.961 Y49.136 Z-6.000 F240.000
G1 X-5.510 Y49.136 Z-6.000 F240.000
G0 Z5.000
G0 Z5.000
(Finish operation: Profile015)
(Begin operation: Profile016)
(Path: Profile016)
(Profile016)
(Compensated Tool Path. Diameter: 3.17)
G0 Z5.000
G0 X17.961 Y49.136
G0 Z3.000
G1 X17.961 Y49.136 Z-2.000 F240.000
G1 X13.399 Y43.271 Z-2.000 F240.000
G1 X11.814 Y45.202 Z-2.000 F240.000
G1 X11.594 Y45.421 Z-2.000 F240.000
G1 X9.325 Y47.284 Z-2.000 F240.000
G1 X9.067 Y47.456 Z-2.000 F240.000
G1 X6.478 Y48.840 Z-2.000 F240.000
G3 X5.510 Y49.136 Z-2.000 I-1.725 J-3.903 K0.000 F240.000
G1 X17.961 Y49.136 Z-2.000 F240.000
G1 X17.961 Y49.136 Z-4.000 F240.000
G1 X13.399 Y43.271 Z-4.000 F240.000
G1 X11.814 Y45.202 Z-4.000 F240.000
G1 X11.594 Y45.421 Z-4.000 F240.000
G1 X9.325 Y47.284 Z-4.000 F240.000
G1 X9.067 Y47.456 Z-4.000 F240.000
G1 X6.478 Y48.840 Z-4.000 F240.000
G3 X5.510 Y49.136 Z-4.000 I-1.725 J-3.903 K0.000 F240.000
G1 X17.961 Y49.136 Z-4.000 F240.000
G1 X17.961 Y49.136 Z-6.000 F240.000
G1 X13.399 Y43.271 Z-6.000 F240.000
G1 X11.814 Y45.202 Z-6.000 F240.000
G1 X11.594 Y45.421 Z-6.000 F240.000
G1 X9.325 Y47.284 Z-6.000 F240.000
G1 X9.067 Y47.456 Z-6.000 F240.000
G1 X6.478 Y48.840 Z-6.000 F240.000
G3 X5.510 Y49.136 Z-6.000 I-1.725 J-3.903 K0.000 F240.000
G1 X17.961 Y49.136 Z-6.000 F240.000
G0 Z5.000
G0 Z5.000
(Finish operation: Profile016)
(Begin operation: Profile017)
(Path: Profile017)
(Profile017)
(Compensated Tool Path. Diameter: 3.17)
G0 Z5.000
G0 X31.071 Y56.121
G0 Z3.000
G1 X31.071 Y56.121 Z-2.000 F240.000
G2 X31.201 Y54.027 Z-2.000 I-1.121 J-1.121 K0.000 F240.000
G1 X18.216 Y37.331 Z-2.000 F240.000
G1 X25.671 Y37.331 Z-2.000 F240.000
G2 X27.256 Y35.746 Z-2.000 I0.000 J-1.585 K0.000 F240.000
G1 X27.256 Y31.468 Z-2.000 F240.000
G2 X25.671 Y29.883 Z-2.000 I-1.585 J0.000 K0.000 F240.000
G1 X12.422 Y29.883 Z-2.000 F240.000
G1 X3.724 Y18.700 Z-2.000 F240.000
G1 X3.724 Y7.936 Z-2.000 F240.000
G2 X2.139 Y6.351 Z-2.000 I-1.585 J0.000 K0.000 F240.000
G1 X-2.139 Y6.351 Z-2.000 F240.000
G2 X-3.724 Y7.936 Z-2.000 I0.000 J1.585 K0.000 F240.000
G1 X-3.724 Y18.700 Z-2.000 F240.000
G1 X-12.422 Y29.883 Z-2.000 F240.000
G1 X-25.671 Y29.883 Z-2.000 F240.000
G2 X-27.256 Y31.468 Z-2.000 I0.000 J1.585 K0.000 F240.000
G1 X-27.256 Y35.746 Z-2.000 F240.000
G2 X-25.671 Y37.331 Z-2.000 I1.585 J0.000 K0.000 F240.000
G1 X-18.216 Y37.331 Z-2.000 F240.000
G1 X-31.201 Y54.027 Z-2.000 F240.000
G2 X-29.950 Y56.585 Z-2.000 I1.251 J0.973 K0.000 F240.000
G1 X29.950 Y56.585 Z-2.000 F240.000
G2 X31.071 Y56.121 Z-2.000 I0.000 J-1.585 K0.000 F240.000
G1 X31.071 Y56.121 Z-4.000 F240.000
G2 X31.201 Y54.027 Z-4.000 I-1.121 J-1.121 K0.000 F240.000
G1 X18.216 Y37.331 Z-4.000 F240.000
G1 X25.671 Y37.331 Z-4.000 F240.000
G2 X27.256 Y35.746 Z-4.000 I0.000 J-1.585 K0.000 F240.000
G1 X27.256 Y31.468 Z-4.000 F240.000
G2 X25.671 Y29.883 Z-4.000 I-1.585 J0.000 K0.000 F240.000
G1 X12.422 Y29.883 Z-4.000 F240.000
G1 X3.724 Y18.700 Z-4.000 F240.000
G1 X3.724 Y7.936 Z-4.000 F240.000
G2 X2.139 Y6.351 Z-4.000 I-1.585 J0.000 K0.000 F240.000
G1 X-2.139 Y6.351 Z-4.000 F240.000
G2 X-3.724 Y7.936 Z-4.000 I0.000 J1.585 K0.000 F240.000
G1 X-3.724 Y18.700 Z-4.000 F240.000
G1 X-12.422 Y29.883 Z-4.000 F240.000
G1 X-25.671 Y29.883 Z-4.000 F240.000
G2 X-27.256 Y31.468 Z-4.000 I0.000 J1.585 K0.000 F240.000
G1 X-27.256 Y35.746 Z-4.000 F240.000
G2 X-25.671 Y37.331 Z-4.000 I1.585 J0.000 K0.000 F240.000
G1 X-18.216 Y37.331 Z-4.000 F240.000
G1 X-31.201 Y54.027 Z-4.000 F240.000
G2 X-29.950 Y56.585 Z-4.000 I1.251 J0.973 K0.000 F240.000
G1 X29.950 Y56.585 Z-4.000 F240.000
G2 X31.071 Y56.121 Z-4.000 I0.000 J-1.585 K0.000 F240.000
G1 X31.071 Y56.121 Z-6.000 F240.000
G2 X31.201 Y54.027 Z-6.000 I-1.121 J-1.121 K0.000 F240.000
G1 X18.216 Y37.331 Z-6.000 F240.000
G1 X25.671 Y37.331 Z-6.000 F240.000
G2 X27.256 Y35.746 Z-6.000 I0.000 J-1.585 K0.000 F240.000
G1 X27.256 Y31.468 Z-6.000 F240.000
G2 X25.671 Y29.883 Z-6.000 I-1.585 J0.000 K0.000 F240.000
G1 X12.422 Y29.883 Z-6.000 F240.000
G1 X3.724 Y18.700 Z-6.000 F240.000
G1 X3.724 Y7.936 Z-6.000 F240.000
G2 X2.139 Y6.351 Z-6.000 I-1.585 J0.000 K0.000 F240.000
G1 X-2.139 Y6.351 Z-6.000 F240.000
G2 X-3.724 Y7.936 Z-6.000 I0.000 J1.585 K0.000 F240.000
G1 X-3.724 Y18.700 Z-6.000 F240.000
G1 X-12.422 Y29.883 Z-6.000 F240.000
G1 X-25.671 Y29.883 Z-6.000 F240.000
G2 X-27.256 Y31.468 Z-6.000 I0.000 J1.585 K0.000 F240.000
G1 X-27.256 Y35.746 Z-6.000 F240.000
G2 X-25.671 Y37.331 Z-6.000 I1.585 J0.000 K0.000 F240.000
G1 X-18.216 Y37.331 Z-6.000 F240.000
G1 X-31.201 Y54.027 Z-6.000 F240.000
G2 X-29.950 Y56.585 Z-6.000 I1.251 J0.973 K0.000 F240.000
G1 X29.950 Y56.585 Z-6.000 F240.000
G2 X31.071 Y56.121 Z-6.000 I0.000 J-1.585 K0.000 F240.000
G0 Z5.000
G0 Z5.000
(Finish operation: Profile017)
(Begin operation: Profile018)
(Path: Profile018)
(Profile018)
(Compensated Tool Path. Diameter: 3.17)
G0 Z5.000
G0 X-47.039 Y34.136
G0 Z3.000
G1 X-47.039 Y34.136 Z-2.000 F240.000
G1 X-51.601 Y28.271 Z-2.000 F240.000
G1 X-53.186 Y30.202 Z-2.000 F240.000
G1 X-53.406 Y30.421 Z-2.000 F240.000
G1 X-55.675 Y32.284 Z-2.000 F240.000
G1 X-55.933 Y32.456 Z-2.000 F240.000
G1 X-58.522 Y33.840 Z-2.000 F240.000
G3 X-59.490 Y34.136 Z-2.000 I-1.725 J-3.903 K0.000 F240.000
G1 X-47.039 Y34.136 Z-2.000 F240.000
G1 X-47.039 Y34.136 Z-4.000 F240.000
G1 X-51.601 Y28.271 Z-4.000 F240.000
G1 X-53.186 Y30.202 Z-4.000 F240.000
G1 X-53.406 Y30.421 Z-4.000 F240.000
G1 X-55.675 Y32.284 Z-4.000 F240.000
G1 X-55.933 Y32.456 Z-4.000 F240.000
G1 X-58.522 Y33.840 Z-4.000 F240.000
G3 X-59.490 Y34.136 Z-4.000 I-1.725 J-3.903 K0.000 F240.000
G1 X-47.039 Y34.136 Z-4.000 F240.000
G1 X-47.039 Y34.136 Z-6.000 F240.000
G1 X-51.601 Y28.271 Z-6.000 F240.000
G1 X-53.186 Y30.202 Z-6.000 F240.000
G1 X-53.406 Y30.421 Z-6.000 F240.000
G1 X-55.675 Y32.284 Z-6.000 F240.000
G1 X-55.933 Y32.456 Z-6.000 F240.000
G1 X-58.522 Y33.840 Z-6.000 F240.000
G3 X-59.490 Y34.136 Z-6.000 I-1.725 J-3.903 K0.000 F240.000
G1 X-47.039 Y34.136 Z-6.000 F240.000
G0 Z5.000
G0 Z5.000
(Finish operation: Profile018)
(Begin operation: Profile019)
(Path: Profile019)
(Profile019)
(Compensated Tool Path. Diameter: 3.17)
G0 Z5.000
G0 X-70.510 Y34.136
G0 Z3.000
G1 X-70.510 Y34.136 Z-2.000 F240.000
G3 X-71.478 Y33.840 Z-2.000 I0.757 J-4.199 K0.000 F240.000
G1 X-74.067 Y32.456 Z-2.000 F240.000
G1 X-74.325 Y32.284 Z-2.000 F240.000
G1 X-76.594 Y30.421 Z-2.000 F240.000
G1 X-76.814 Y30.202 Z-2.000 F240.000
G1 X-78.399 Y28.271 Z-2.000 F240.000
G1 X-82.961 Y34.136 Z-2.000 F240.000
G1 X-70.510 Y34.136 Z-2.000 F240.000
G1 X-70.510 Y34.136 Z-4.000 F240.000
G3 X-71.478 Y33.840 Z-4.000 I0.757 J-4.199 K0.000 F240.000
G1 X-74.067 Y32.456 Z-4.000 F240.000
G1 X-74.325 Y32.284 Z-4.000 F240.000
G1 X-76.594 Y30.421 Z-4.000 F240.000
G1 X-76.814 Y30.202 Z-4.000 F240.000
G1 X-78.399 Y28.271 Z-4.000 F240.000
G1 X-82.961 Y34.136 Z-4.000 F240.000
G1 X-70.510 Y34.136 Z-4.000 F240.000
G1 X-70.510 Y34.136 Z-6.000 F240.000
G3 X-71.478 Y33.840 Z-6.000 I0.757 J-4.199 K0.000 F240.000
G1 X-74.067 Y32.456 Z-6.000 F240.000
G1 X-74.325 Y32.284 Z-6.000 F240.000
G1 X-76.594 Y30.421 Z-6.000 F240.000
G1 X-76.814 Y30.202 Z-6.000 F240.000
G1 X-78.399 Y28.271 Z-6.000 F240.000
G1 X-82.961 Y34.136 Z-6.000 F240.000
G1 X-70.510 Y34.136 Z-6.000 F240.000
G0 Z5.000
G0 Z5.000
(Finish operation: Profile019)
(Begin operation: Profile020)
(Path: Profile020)
(Profile020)
(Compensated Tool Path. Diameter: 3.17)
G0 Z5.000
G0 X-68.724 Y26.866
G0 Z3.000
G1 X-68.724 Y26.866 Z-2.000 F240.000
G1 X-68.724 Y22.331 Z-2.000 F240.000
G1 X-73.128 Y22.331 Z-2.000 F240.000
G1 X-72.517 Y23.697 Z-2.000 F240.000
G1 X-71.423 Y25.030 Z-2.000 F240.000
G1 X-70.046 Y26.159 Z-2.000 F240.000
G1 X-68.724 Y26.866 Z-2.000 F240.000
G1 X-68.724 Y26.866 Z-4.000 F240.000
G1 X-68.724 Y22.331 Z-4.000 F240.000
G1 X-73.128 Y22.331 Z-4.000 F240.000
G1 X-72.517 Y23.697 Z-4.000 F240.000
G1 X-71.423 Y25.030 Z-4.000 F240.000
G1 X-70.046 Y26.159 Z-4.000 F240.000
G1 X-68.724 Y26.866 Z-4.000 F240.000
G1 X-68.724 Y26.866 Z-6.000 F240.000
G1 X-68.724 Y22.331 Z-6.000 F240.000
G1 X-73.128 Y22.331 Z-6.000 F240.000
G1 X-72.517 Y23.697 Z-6.000 F240.000
G1 X-71.423 Y25.030 Z-6.000 F240.000
G1 X-70.046 Y26.159 Z-6.000 F240.000
G1 X-68.724 Y26.866 Z-6.000 F240.000
G0 Z5.000
G0 Z5.000
(Finish operation: Profile020)
(Begin operation: Profile021)
(Path: Profile021)
(Profile021)
(Compensated Tool Path. Diameter: 3.17)
G0 Z5.000
G0 X-58.577 Y25.030
G0 Z3.000
G1 X-58.577 Y25.030 Z-2.000 F240.000
G1 X-57.483 Y23.697 Z-2.000 F240.000
G1 X-56.872 Y22.331 Z-2.000 F240.000
G1 X-61.276 Y22.331 Z-2.000 F240.000
G1 X-61.276 Y26.866 Z-2.000 F240.000
G1 X-59.954 Y26.159 Z-2.000 F240.000
G1 X-58.577 Y25.030 Z-2.000 F240.000
G1 X-58.577 Y25.030 Z-4.000 F240.000
G1 X-57.483 Y23.697 Z-4.000 F240.000
G1 X-56.872 Y22.331 Z-4.000 F240.000
G1 X-61.276 Y22.331 Z-4.000 F240.000
G1 X-61.276 Y26.866 Z-4.000 F240.000
G1 X-59.954 Y26.159 Z-4.000 F240.000
G1 X-58.577 Y25.030 Z-4.000 F240.000
G1 X-58.577 Y25.030 Z-6.000 F240.000
G1 X-57.483 Y23.697 Z-6.000 F240.000
G1 X-56.872 Y22.331 Z-6.000 F240.000
G1 X-61.276 Y22.331 Z-6.000 F240.000
G1 X-61.276 Y26.866 Z-6.000 F240.000
G1 X-59.954 Y26.159 Z-6.000 F240.000
G1 X-58.577 Y25.030 Z-6.000 F240.000
G0 Z5.000
G0 Z5.000
(Finish operation: Profile021)
(Begin operation: Profile022)
(Path: Profile022)
(Profile022)
(Compensated Tool Path. Diameter: 3.17)
G0 Z5.000
G0 X-62.014 Y14.883
G0 Z3.000
G1 X-62.014 Y14.883 Z-2.000 F240.000
G1 X-65.000 Y11.044 Z-2.000 F240.000
G1 X-67.986 Y14.883 Z-2.000 F240.000
G1 X-62.014 Y14.883 Z-2.000 F240.000
G1 X-62.014 Y14.883 Z-4.000 F240.000
G1 X-65.000 Y11.044 Z-4.000 F240.000
G1 X-67.986 Y14.883 Z-4.000 F240.000
G1 X-62.014 Y14.883 Z-4.000 F240.000
G1 X-62.014 Y14.883 Z-6.000 F240.000
G1 X-65.000 Y11.044 Z-6.000 F240.000
G1 X-67.986 Y14.883 Z-6.000 F240.000
G1 X-62.014 Y14.883 Z-6.000 F240.000
G0 Z5.000
G0 Z5.000
(Finish operation: Profile022)
(Begin operation: Profile023)
(Path: Profile023)
(Profile023)
(Compensated Tool Path. Diameter: 3.17)
G0 Z5.000
G0 X-33.929 Y41.121
G0 Z3.000
G1 X-33.929 Y41.121 Z-2.000 F240.000
G2 X-33.799 Y39.027 Z-2.000 I-1.121 J-1.121 K0.000 F240.000
G1 X-46.784 Y22.331 Z-2.000 F240.000
G1 X-39.329 Y22.331 Z-2.000 F240.000
G2 X-37.744 Y20.746 Z-2.000 I0.000 J-1.585 K0.000 F240.000
G1 X-37.744 Y16.468 Z-2.000 F240.000
G2 X-39.329 Y14.883 Z-2.000 I-1.585 J0.000 K0.000 F240.000
G1 X-52.578 Y14.883 Z-2.000 F240.000
G1 X-61.276 Y3.700 Z-2.000 F240.000
G1 X-61.276 Y-7.064 Z-2.000 F240.000
G2 X-62.861 Y-8.649 Z-2.000 I-1.585 J0.000 K0.000 F240.000
G1 X-67.139 Y-8.649 Z-2.000 F240.000
G2 X-68.724 Y-7.064 Z-2.000 I0.000 J1.585 K0.000 F240.000
G1 X-68.724 Y3.700 Z-2.000 F240.000
G1 X-77.422 Y14.883 Z-2.000 F240.000
G1 X-90.671 Y14.883 Z-2.000 F240.000
G2 X-92.256 Y16.468 Z-2.000 I0.000 J1.585 K0.000 F240.000
G1 X-92.256 Y20.746 Z-2.000 F240.000
G2 X-90.671 Y22.331 Z-2.000 I1.585 J0.000 K0.000 F240.000
G1 X-83.216 Y22.331 Z-2.000 F240.000
G1 X-96.201 Y39.027 Z-2.000 F240.000
G2 X-94.950 Y41.585 Z-2.000 I1.251 J0.973 K0.000 F240.000
G1 X-35.050 Y41.585 Z-2.000 F240.000
G2 X-33.929 Y41.121 Z-2.000 I0.000 J-1.585 K0.000 F240.000
G1 X-33.929 Y41.121 Z-4.000 F240.000
G2 X-33.799 Y39.027 Z-4.000 I-1.121 J-1.121 K0.000 F240.000
G1 X-46.784 Y22.331 Z-4.000 F240.000
G1 X-39.329 Y22.331 Z-4.000 F240.000
G2 X-37.744 Y20.746 Z-4.000 I0.000 J-1.585 K0.000 F240.000
G1 X-37.744 Y16.468 Z-4.000 F240.000
G2 X-39.329 Y14.883 Z-4.000 I-1.585 J0.000 K0.000 F240.000
G1 X-52.578 Y14.883 Z-4.000 F240.000
G1 X-61.276 Y3.700 Z-4.000 F240.000
G1 X-61.276 Y-7.064 Z-4.000 F240.000
G2 X-62.861 Y-8.649 Z-4.000 I-1.585 J0.000 K0.000 F240.000
G1 X-67.139 Y-8.649 Z-4.000 F240.000
G2 X-68.724 Y-7.064 Z-4.000 I0.000 J1.585 K0.000 F240.000
G1 X-68.724 Y3.700 Z-4.000 F240.000
G1 X-77.422 Y14.883 Z-4.000 F240.000
G1 X-90.671 Y14.883 Z-4.000 F240.000
G2 X-92.256 Y16.468 Z-4.000 I0.000 J1.585 K0.000 F240.000
G1 X-92.256 Y20.746 Z-4.000 F240.000
G2 X-90.671 Y22.331 Z-4.000 I1.585 J0.000 K0.000 F240.000
G1 X-83.216 Y22.331 Z-4.000 F240.000
G1 X-96.201 Y39.027 Z-4.000 F240.000
G2 X-94.950 Y41.585 Z-4.000 I1.251 J0.973 K0.000 F240.000
G1 X-35.050 Y41.585 Z-4.000 F240.000
G2 X-33.929 Y41.121 Z-4.000 I0.000 J-1.585 K0.000 F240.000
G1 X-33.929 Y41.121 Z-6.000 F240.000
G2 X-33.799 Y39.027 Z-6.000 I-1.121 J-1.121 K0.000 F240.000
G1 X-46.784 Y22.331 Z-6.000 F240.000
G1 X-39.329 Y22.331 Z-6.000 F240.000
G2 X-37.744 Y20.746 Z-6.000 I0.000 J-1.585 K0.000 F240.000
G1 X-37.744 Y16.468 Z-6.000 F240.000
G2 X-39.329 Y14.883 Z-6.000 I-1.585 J0.000 K0.000 F240.000
G1 X-52.578 Y14.883 Z-6.000 F240.000
G1 X-61.276 Y3.700 Z-6.000 F240.000
G1 X-61.276 Y-7.064 Z-6.000 F240.000
G2 X-62.861 Y-8.649 Z-6.000 I-1.585 J0.000 K0.000 F240.000
G1 X-67.139 Y-8.649 Z-6.000 F240.000
G2 X-68.724 Y-7.064 Z-6.000 I0.000 J1.585 K0.000 F240.000
G1 X-68.724 Y3.700 Z-6.000 F240.000
G1 X-77.422 Y14.883 Z-6.000 F240.000
G1 X-90.671 Y14.883 Z-6.000 F240.000
G2 X-92.256 Y16.468 Z-6.000 I0.000 J1.585 K0.000 F240.000
G1 X-92.256 Y20.746 Z-6.000 F240.000
G2 X-90.671 Y22.331 Z-6.000 I1.585 J0.000 K0.000 F240.000
G1 X-83.216 Y22.331 Z-6.000 F240.000
G1 X-96.201 Y39.027 Z-6.000 F240.000
G2 X-94.950 Y41.585 Z-6.000 I1.251 J0.973 K0.000 F240.000
G1 X-35.050 Y41.585 Z-6.000 F240.000
G2 X-33.929 Y41.121 Z-6.000 I0.000 J-1.585 K0.000 F240.000
G0 Z5.000
G0 Z5.000
(Finish operation: Profile023)
(Begin operation: Profile024)
(Path: Profile024)
(Profile024)
(Compensated Tool Path. Diameter: 3.17)
G0 Z5.000
G0 X-30.874 Y2.509
G0 Z3.000
G1 X-30.874 Y2.509 Z-2.000 F240.000
G1 X-29.014 Y0.117 Z-2.000 F240.000
G1 X-34.986 Y0.117 Z-2.000 F240.000
G1 X-32.000 Y3.956 Z-2.000 F240.000
G1 X-30.874 Y2.509 Z-2.000 F240.000
G1 X-30.874 Y2.509 Z-4.000 F240.000
G1 X-29.014 Y0.117 Z-4.000 F240.000
G1 X-34.986 Y0.117 Z-4.000 F240.000
G1 X-32.000 Y3.956 Z-4.000 F240.000
G1 X-30.874 Y2.509 Z-4.000 F240.000
G1 X-30.874 Y2.509 Z-6.000 F240.000
G1 X-29.014 Y0.117 Z-6.000 F240.000
G1 X-34.986 Y0.117 Z-6.000 F240.000
G1 X-32.000 Y3.956 Z-6.000 F240.000
G1 X-30.874 Y2.509 Z-6.000 F240.000
G0 Z5.000
G0 Z5.000
(Finish operation: Profile024)
(Begin operation: Profile025)
(Path: Profile025)
(Profile025)
(Compensated Tool Path. Diameter: 3.17)
G0 Z5.000
G0 X-35.724 Y-7.331
G0 Z3.000
G1 X-35.724 Y-7.331 Z-2.000 F240.000
G1 X-35.724 Y-11.866 Z-2.000 F240.000
G1 X-37.046 Y-11.159 Z-2.000 F240.000
G1 X-38.423 Y-10.030 Z-2.000 F240.000
G1 X-39.517 Y-8.697 Z-2.000 F240.000
G1 X-40.128 Y-7.331 Z-2.000 F240.000
G1 X-35.724 Y-7.331 Z-2.000 F240.000
G1 X-35.724 Y-7.331 Z-4.000 F240.000
G1 X-35.724 Y-11.866 Z-4.000 F240.000
G1 X-37.046 Y-11.159 Z-4.000 F240.000
G1 X-38.423 Y-10.030 Z-4.000 F240.000
G1 X-39.517 Y-8.697 Z-4.000 F240.000
G1 X-40.128 Y-7.331 Z-4.000 F240.000
G1 X-35.724 Y-7.331 Z-4.000 F240.000
G1 X-35.724 Y-7.331 Z-6.000 F240.000
G1 X-35.724 Y-11.866 Z-6.000 F240.000
G1 X-37.046 Y-11.159 Z-6.000 F240.000
G1 X-38.423 Y-10.030 Z-6.000 F240.000
G1 X-39.517 Y-8.697 Z-6.000 F240.000
G1 X-40.128 Y-7.331 Z-6.000 F240.000
G1 X-35.724 Y-7.331 Z-6.000 F240.000
G0 Z5.000
G0 Z5.000
(Finish operation: Profile025)
(Begin operation: Profile026)
(Path: Profile026)
(Profile026)
(Compensated Tool Path. Diameter: 3.17)
G0 Z5.000
G0 X-23.872 Y-7.331
G0 Z3.000
G1 X-23.872 Y-7.331 Z-2.000 F240.000
G1 X-24.483 Y-8.697 Z-2.000 F240.000
G1 X-25.577 Y-10.030 Z-2.000 F240.000
G1 X-26.954 Y-11.159 Z-2.000 F240.000
G1 X-28.276 Y-11.866 Z-2.000 F240.000
G1 X-28.276 Y-7.331 Z-2.000 F240.000
G1 X-23.872 Y-7.331 Z-2.000 F240.000
G1 X-23.872 Y-7.331 Z-4.000 F240.000
G1 X-24.483 Y-8.697 Z-4.000 F240.000
G1 X-25.577 Y-10.030 Z-4.000 F240.000
G1 X-26.954 Y-11.159 Z-4.000 F240.000
G1 X-28.276 Y-11.866 Z-4.000 F240.000
G1 X-28.276 Y-7.331 Z-4.000 F240.000
G1 X-23.872 Y-7.331 Z-4.000 F240.000
G1 X-23.872 Y-7.331 Z-6.000 F240.000
G1 X-24.483 Y-8.697 Z-6.000 F240.000
G1 X-25.577 Y-10.030 Z-6.000 F240.000
G1 X-26.954 Y-11.159 Z-6.000 F240.000
G1 X-28.276 Y-11.866 Z-6.000 F240.000
G1 X-28.276 Y-7.331 Z-6.000 F240.000
G1 X-23.872 Y-7.331 Z-6.000 F240.000
G0 Z5.000
G0 Z5.000
(Finish operation: Profile026)
(Begin operation: Profile027)
(Path: Profile027)
(Profile027)
(Compensated Tool Path. Diameter: 3.17)
G0 Z5.000
G0 X-18.601 Y-13.271
G0 Z3.000
G1 X-18.601 Y-13.271 Z-2.000 F240.000
G1 X-14.039 Y-19.136 Z-2.000 F240.000
G1 X-26.490 Y-19.136 Z-2.000 F240.000
G3 X-25.522 Y-18.840 Z-2.000 I-0.757 J4.199 K0.000 F240.000
G1 X-22.933 Y-17.456 Z-2.000 F240.000
G1 X-22.675 Y-17.284 Z-2.000 F240.000
G1 X-20.406 Y-15.421 Z-2.000 F240.000
G1 X-20.186 Y-15.202 Z-2.000 F240.000
G1 X-18.601 Y-13.271 Z-2.000 F240.000
G0 Z5.000
G0 X-24.483 Y-8.697 Z5.000
G0 X-24.483 Y-8.697 Z3.000
G1 X-24.483 Y-8.697 Z-2.000 F240.000
G1 X-25.577 Y-10.030 Z-2.000 F240.000
G1 X-26.954 Y-11.159 Z-2.000 F240.000
G1 X-28.276 Y-11.866 Z-2.000 F240.000
G1 X-28.276 Y-7.331 Z-2.000 F240.000
G1 X-23.872 Y-7.331 Z-2.000 F240.000
G1 X-24.483 Y-8.697 Z-2.000 F240.000
G1 X-24.483 Y-8.697 Z-4.000 F240.000
G1 X-25.577 Y-10.030 Z-4.000 F240.000
G1 X-26.954 Y-11.159 Z-4.000 F240.000
G1 X-28.276 Y-11.866 Z-4.000 F240.000
G1 X-28.276 Y-7.331 Z-4.000 F240.000
G1 X-23.872 Y-7.331 Z-4.000 F240.000
G1 X-24.483 Y-8.697 Z-4.000 F240.000
G0 Z5.000
G0 X-18.726 Y-13.422 Z5.000
G0 X-18.726 Y-13.422 Z3.000
G1 X-18.726 Y-13.422 Z-4.000 F240.000
G1 X-18.601 Y-13.271 Z-4.000 F240.000
G1 X-14.039 Y-19.136 Z-4.000 F240.000
G1 X-26.490 Y-19.136 Z-4.000 F240.000
G3 X-25.522 Y-18.840 Z-4.000 I-0.757 J4.199 K0.000 F240.000
G1 X-22.933 Y-17.456 Z-4.000 F240.000
G1 X-22.675 Y-17.284 Z-4.000 F240.000
G1 X-20.406 Y-15.421 Z-4.000 F240.000
G1 X-20.186 Y-15.202 Z-4.000 F240.000
G1 X-18.726 Y-13.422 Z-4.000 F240.000
G1 X-18.726 Y-13.422 Z-6.000 F240.000
G1 X-18.601 Y-13.271 Z-6.000 F240.000
G1 X-14.039 Y-19.136 Z-6.000 F240.000
G1 X-26.490 Y-19.136 Z-6.000 F240.000
G3 X-25.522 Y-18.840 Z-6.000 I-0.757 J4.199 K0.000 F240.000
G1 X-22.933 Y-17.456 Z-6.000 F240.000
G1 X-22.675 Y-17.284 Z-6.000 F240.000
G1 X-20.406 Y-15.421 Z-6.000 F240.000
G1 X-20.186 Y-15.202 Z-6.000 F240.000
G1 X-18.726 Y-13.422 Z-6.000 F240.000
G0 Z5.000
G0 X-24.483 Y-8.697 Z5.000
G0 X-24.483 Y-8.697 Z3.000
G1 X-24.483 Y-8.697 Z-6.000 F240.000
G1 X-25.577 Y-10.030 Z-6.000 F240.000
G1 X-26.954 Y-11.159 Z-6.000 F240.000
G1 X-28.276 Y-11.866 Z-6.000 F240.000
G1 X-28.276 Y-7.331 Z-6.000 F240.000
G1 X-23.872 Y-7.331 Z-6.000 F240.000
G1 X-24.483 Y-8.697 Z-6.000 F240.000
G0 Z5.000
G0 Z5.000
(Finish operation: Profile027)
(Begin operation: Profile028)
(Path: Profile028)
(Profile028)
(Compensated Tool Path. Diameter: 3.17)
G0 Z5.000
G0 X-40.041 Y-18.005
G0 Z3.000
G1 X-40.041 Y-18.005 Z-2.000 F240.000
G1 X-38.478 Y-18.840 Z-2.000 F240.000
G3 X-37.510 Y-19.136 Z-2.000 I1.725 J3.903 K0.000 F240.000
G1 X-49.961 Y-19.136 Z-2.000 F240.000
G1 X-45.399 Y-13.271 Z-2.000 F240.000
G1 X-43.814 Y-15.202 Z-2.000 F240.000
G1 X-43.594 Y-15.421 Z-2.000 F240.000
G1 X-41.325 Y-17.284 Z-2.000 F240.000
G1 X-41.067 Y-17.456 Z-2.000 F240.000
G1 X-40.041 Y-18.005 Z-2.000 F240.000
G1 X-40.041 Y-18.005 Z-4.000 F240.000
G1 X-38.478 Y-18.840 Z-4.000 F240.000
G3 X-37.510 Y-19.136 Z-4.000 I1.725 J3.903 K0.000 F240.000
G1 X-49.961 Y-19.136 Z-4.000 F240.000
G1 X-45.399 Y-13.271 Z-4.000 F240.000
G1 X-43.814 Y-15.202 Z-4.000 F240.000
G1 X-43.594 Y-15.421 Z-4.000 F240.000
G1 X-41.325 Y-17.284 Z-4.000 F240.000
G1 X-41.067 Y-17.456 Z-4.000 F240.000
G1 X-40.041 Y-18.005 Z-4.000 F240.000
G1 X-40.041 Y-18.005 Z-6.000 F240.000
G1 X-38.478 Y-18.840 Z-6.000 F240.000
G3 X-37.510 Y-19.136 Z-6.000 I1.725 J3.903 K0.000 F240.000
G1 X-49.961 Y-19.136 Z-6.000 F240.000
G1 X-45.399 Y-13.271 Z-6.000 F240.000
G1 X-43.814 Y-15.202 Z-6.000 F240.000
G1 X-43.594 Y-15.421 Z-6.000 F240.000
G1 X-41.325 Y-17.284 Z-6.000 F240.000
G1 X-41.067 Y-17.456 Z-6.000 F240.000
G1 X-40.041 Y-18.005 Z-6.000 F240.000
G0 Z5.000
G0 Z5.000
(Finish operation: Profile028)
(Begin operation: Profile029)
(Path: Profile029)
(Profile029)
(Compensated Tool Path. Diameter: 3.17)
G0 Z5.000
G0 X-5.968 Y0.076
G0 Z3.000
G1 X-5.968 Y0.076 Z-2.000 F240.000
G2 X-4.744 Y-1.468 Z-2.000 I-0.360 J-1.543 K0.000 F240.000
G1 X-4.744 Y-5.746 Z-2.000 F240.000
G2 X-6.329 Y-7.331 Z-2.000 I-1.585 J-0.000 K0.000 F240.000
G1 X-13.784 Y-7.331 Z-2.000 F240.000
G1 X-0.799 Y-24.027 Z-2.000 F240.000
G2 X-2.050 Y-26.585 Z-2.000 I-1.251 J-0.973 K0.000 F240.000
G1 X-61.950 Y-26.585 Z-2.000 F240.000
G2 X-63.201 Y-24.027 Z-2.000 I-0.000 J1.585 K0.000 F240.000
G1 X-50.216 Y-7.331 Z-2.000 F240.000
G1 X-57.671 Y-7.332 Z-2.000 F240.000
G2 X-59.256 Y-5.747 Z-2.000 I-0.000 J1.585 K0.000 F240.000
G1 X-59.256 Y-1.468 Z-2.000 F240.000
G2 X-57.671 Y0.117 Z-2.000 I1.585 J-0.000 K0.000 F240.000
G1 X-44.422 Y0.117 Z-2.000 F240.000
G1 X-35.724 Y11.300 Z-2.000 F240.000
G1 X-35.724 Y22.064 Z-2.000 F240.000
G2 X-34.139 Y23.649 Z-2.000 I1.585 J0.000 K0.000 F240.000
G1 X-29.861 Y23.649 Z-2.000 F240.000
G2 X-28.276 Y22.064 Z-2.000 I0.000 J-1.585 K0.000 F240.000
G1 X-28.276 Y11.300 Z-2.000 F240.000
G1 X-19.578 Y0.117 Z-2.000 F240.000
G1 X-6.329 Y0.117 Z-2.000 F240.000
G2 X-5.968 Y0.076 Z-2.000 I0.000 J-1.585 K0.000 F240.000
G1 X-5.968 Y0.076 Z-4.000 F240.000
G2 X-4.744 Y-1.468 Z-4.000 I-0.360 J-1.543 K0.000 F240.000
G1 X-4.744 Y-5.746 Z-4.000 F240.000
G2 X-6.329 Y-7.331 Z-4.000 I-1.585 J-0.000 K0.000 F240.000
G1 X-13.784 Y-7.331 Z-4.000 F240.000
G1 X-0.799 Y-24.027 Z-4.000 F240.000
G2 X-2.050 Y-26.585 Z-4.000 I-1.251 J-0.973 K0.000 F240.000
G1 X-61.950 Y-26.585 Z-4.000 F240.000
G2 X-63.201 Y-24.027 Z-4.000 I-0.000 J1.585 K0.000 F240.000
G1 X-50.216 Y-7.331 Z-4.000 F240.000
G1 X-57.671 Y-7.332 Z-4.000 F240.000
G2 X-59.256 Y-5.747 Z-4.000 I-0.000 J1.585 K0.000 F240.000
G1 X-59.256 Y-1.468 Z-4.000 F240.000
G2 X-57.671 Y0.117 Z-4.000 I1.585 J-0.000 K0.000 F240.000
G1 X-44.422 Y0.117 Z-4.000 F240.000
G1 X-35.724 Y11.300 Z-4.000 F240.000
G1 X-35.724 Y22.064 Z-4.000 F240.000
G2 X-34.139 Y23.649 Z-4.000 I1.585 J0.000 K0.000 F240.000
G1 X-29.861 Y23.649 Z-4.000 F240.000
G2 X-28.276 Y22.064 Z-4.000 I0.000 J-1.585 K0.000 F240.000
G1 X-28.276 Y11.300 Z-4.000 F240.000
G1 X-19.578 Y0.117 Z-4.000 F240.000
G1 X-6.329 Y0.117 Z-4.000 F240.000
G2 X-5.968 Y0.076 Z-4.000 I0.000 J-1.585 K0.000 F240.000
G1 X-5.968 Y0.076 Z-6.000 F240.000
G2 X-4.744 Y-1.468 Z-6.000 I-0.360 J-1.543 K0.000 F240.000
G1 X-4.744 Y-5.746 Z-6.000 F240.000
G2 X-6.329 Y-7.331 Z-6.000 I-1.585 J-0.000 K0.000 F240.000
G1 X-13.784 Y-7.331 Z-6.000 F240.000
G1 X-0.799 Y-24.027 Z-6.000 F240.000
G2 X-2.050 Y-26.585 Z-6.000 I-1.251 J-0.973 K0.000 F240.000
G1 X-61.950 Y-26.585 Z-6.000 F240.000
G2 X-63.201 Y-24.027 Z-6.000 I-0.000 J1.585 K0.000 F240.000
G1 X-50.216 Y-7.331 Z-6.000 F240.000
G1 X-57.671 Y-7.332 Z-6.000 F240.000
G2 X-59.256 Y-5.747 Z-6.000 I-0.000 J1.585 K0.000 F240.000
G1 X-59.256 Y-1.468 Z-6.000 F240.000
G2 X-57.671 Y0.117 Z-6.000 I1.585 J-0.000 K0.000 F240.000
G1 X-44.422 Y0.117 Z-6.000 F240.000
G1 X-35.724 Y11.300 Z-6.000 F240.000
G1 X-35.724 Y22.064 Z-6.000 F240.000
G2 X-34.139 Y23.649 Z-6.000 I1.585 J0.000 K0.000 F240.000
G1 X-29.861 Y23.649 Z-6.000 F240.000
G2 X-28.276 Y22.064 Z-6.000 I0.000 J-1.585 K0.000 F240.000
G1 X-28.276 Y11.300 Z-6.000 F240.000
G1 X-19.578 Y0.117 Z-6.000 F240.000
G1 X-6.329 Y0.117 Z-6.000 F240.000
G2 X-5.968 Y0.076 Z-6.000 I0.000 J-1.585 K0.000 F240.000
G0 Z5.000
G0 Z5.000
(Finish operation: Profile029)
(Begin postamble)
M5
G17 G90
M2
