(Exported by FreeCAD)
(Post Processor: script_module)
(Output Time:2025-02-25 22:36:50.562880)
(Begin preamble)
G17 G90
G21
(Begin operation: Fixture)
(Path: Fixture)
G54
(Finish operation: Fixture)
(Begin operation: 2mm_Endmill001)
(Path: 2mm_Endmill001)
(2mm_Endmill001)
(Begin toolchange)
( M6 T2 )
M3 S15000
(Finish operation: 2mm_Endmill001)
(Begin operation: Pocket_Shape)
(Path: Pocket_Shape)
(Pocket_Shape)
G0 Z17.000
G0 X0.000 Y0.000
G0 X-4.740 Y-0.139
G0 X-4.740 Y-0.139 Z15.000
G1 X-4.740 Y-0.139 Z10.000 F600.000
G2 X0.276 Y4.740 Z10.000 I4.736 J0.149 K0.000 F600.000
G2 X-0.276 Y-4.740 Z10.000 I-0.276 J-4.740 K0.000 F600.000
G2 X0.139 Y4.740 Z10.000 I0.273 J4.737 K0.000 F600.000
G1 X-4.740 Y-0.139 Z10.000 F600.000
G3 X-4.119 Y-2.346 Z10.000 I4.522 J0.081 K0.000 F600.000
G1 X2.351 Y4.124 Z10.000 F600.000
G2 X3.838 Y2.783 Z10.000 I-2.249 J-3.989 K0.000 F600.000
G1 X-2.786 Y-3.841 Z10.000 F600.000
G3 X-0.796 Y-4.680 Z10.000 I2.754 J3.758 K0.000 F600.000
G1 X4.674 Y0.790 Z10.000 F600.000
G2 X3.258 Y-3.454 Z10.000 I-4.638 J-0.811 K0.000 F600.000
G1 X3.258 Y-3.454 Z8.000 F600.000
G3 X4.674 Y0.790 Z8.000 I-3.222 J3.433 K0.000 F600.000
G1 X-0.796 Y-4.680 Z8.000 F600.000
G2 X-2.786 Y-3.841 Z8.000 I0.764 J4.596 K0.000 F600.000
G1 X3.838 Y2.783 Z8.000 F600.000
G3 X2.351 Y4.124 Z8.000 I-3.736 J-2.648 K0.000 F600.000
G1 X-4.119 Y-2.346 Z8.000 F600.000
G2 X-4.740 Y-0.139 Z8.000 I3.900 J2.289 K0.000 F600.000
G1 X0.139 Y4.740 Z8.000 F600.000
G3 X-0.276 Y-4.740 Z8.000 I-0.142 J-4.743 K0.000 F600.000
G3 X0.276 Y4.740 Z8.000 I0.276 J4.740 K0.000 F600.000
G3 X-4.740 Y-0.139 Z8.000 I-0.281 J-4.730 K0.000 F600.000
G1 X-4.740 Y-0.139 Z6.000 F600.000
G2 X0.276 Y4.740 Z6.000 I4.736 J0.149 K0.000 F600.000
G2 X-0.276 Y-4.740 Z6.000 I-0.276 J-4.740 K0.000 F600.000
G2 X0.139 Y4.740 Z6.000 I0.273 J4.737 K0.000 F600.000
G1 X-4.740 Y-0.139 Z6.000 F600.000
G3 X-4.119 Y-2.346 Z6.000 I4.522 J0.081 K0.000 F600.000
G1 X2.351 Y4.124 Z6.000 F600.000
G2 X3.838 Y2.783 Z6.000 I-2.249 J-3.989 K0.000 F600.000
G1 X-2.786 Y-3.841 Z6.000 F600.000
G3 X-0.796 Y-4.680 Z6.000 I2.754 J3.758 K0.000 F600.000
G1 X4.674 Y0.790 Z6.000 F600.000
G2 X3.258 Y-3.454 Z6.000 I-4.638 J-0.811 K0.000 F600.000
G1 X3.258 Y-3.454 Z4.000 F600.000
G3 X4.674 Y0.790 Z4.000 I-3.222 J3.433 K0.000 F600.000
G1 X-0.796 Y-4.680 Z4.000 F600.000
G2 X-2.786 Y-3.841 Z4.000 I0.764 J4.596 K0.000 F600.000
G1 X3.838 Y2.783 Z4.000 F600.000
G3 X2.351 Y4.124 Z4.000 I-3.736 J-2.648 K0.000 F600.000
G1 X-4.119 Y-2.346 Z4.000 F600.000
G2 X-4.740 Y-0.139 Z4.000 I3.900 J2.289 K0.000 F600.000
G1 X0.139 Y4.740 Z4.000 F600.000
G3 X-0.276 Y-4.740 Z4.000 I-0.142 J-4.743 K0.000 F600.000
G3 X0.276 Y4.740 Z4.000 I0.276 J4.740 K0.000 F600.000
G3 X-4.740 Y-0.139 Z4.000 I-0.281 J-4.730 K0.000 F600.000
G1 X-4.740 Y-0.139 Z2.000 F600.000
G2 X0.276 Y4.740 Z2.000 I4.736 J0.149 K0.000 F600.000
G2 X-0.276 Y-4.740 Z2.000 I-0.276 J-4.740 K0.000 F600.000
G2 X0.139 Y4.740 Z2.000 I0.273 J4.737 K0.000 F600.000
G1 X-4.740 Y-0.139 Z2.000 F600.000
G3 X-4.119 Y-2.346 Z2.000 I4.522 J0.081 K0.000 F600.000
G1 X2.351 Y4.124 Z2.000 F600.000
G2 X3.838 Y2.783 Z2.000 I-2.249 J-3.989 K0.000 F600.000
G1 X-2.786 Y-3.841 Z2.000 F600.000
G3 X-0.796 Y-4.680 Z2.000 I2.754 J3.758 K0.000 F600.000
G1 X4.674 Y0.790 Z2.000 F600.000
G2 X3.258 Y-3.454 Z2.000 I-4.638 J-0.811 K0.000 F600.000
G1 X3.258 Y-3.454 Z0.000 F600.000
G3 X4.674 Y0.790 Z0.000 I-3.222 J3.433 K0.000 F600.000
G1 X-0.796 Y-4.680 Z0.000 F600.000
G2 X-2.786 Y-3.841 Z0.000 I0.764 J4.596 K0.000 F600.000
G1 X3.838 Y2.783 Z0.000 F600.000
G3 X2.351 Y4.124 Z0.000 I-3.736 J-2.648 K0.000 F600.000
G1 X-4.119 Y-2.346 Z0.000 F600.000
G2 X-4.740 Y-0.139 Z0.000 I3.900 J2.289 K0.000 F600.000
G1 X0.139 Y4.740 Z0.000 F600.000
G3 X-0.276 Y-4.740 Z0.000 I-0.142 J-4.743 K0.000 F600.000
G3 X0.276 Y4.740 Z0.000 I0.276 J4.740 K0.000 F600.000
G3 X-4.740 Y-0.139 Z0.000 I-0.281 J-4.730 K0.000 F600.000
G0 Z17.000
G0 Z17.000
(Finish operation: Pocket_Shape)
(Begin postamble)
M5
G17 G90
M2
