(Exported by FreeCAD)
(Post Processor: script_module)
(Output Time:2025-02-25 22:41:06.273304)
(Begin preamble)
G17 G90
G21
(Begin operation: Fixture)
(Path: Fixture)
G54
(Finish operation: Fixture)
(Begin operation: 2mm_Endmill001)
(Path: 2mm_Endmill001)
(2mm_Endmill001)
(Begin toolchange)
( M6 T2 )
M3 S15000
(Finish operation: 2mm_Endmill001)
(Begin operation: Pocket_Shape)
(Path: Pocket_Shape)
(Pocket_Shape)
G0 Z17.000
G0 X0.000 Y0.000
G0 X0.630 Y1.351
G0 X0.630 Y1.351 Z15.000
G1 X0.630 Y1.351 Z10.000 F600.000
G3 X-1.351 Y-0.630 Z10.000 I-0.636 J-1.345 K0.000 F600.000
G1 X0.630 Y1.351 Z10.000 F600.000
G2 X0.962 Y-1.146 Z10.000 I-0.623 J-1.353 K0.000 F600.000
G1 X0.962 Y-1.146 Z10.000 F600.000
G2 X-0.000 Y-1.496 Z10.000 I-0.962 J1.146 K0.000 F600.000
G2 X-0.000 Y1.496 Z10.000 I0.000 J1.496 K0.000 F600.000
G2 X0.962 Y-1.146 Z10.000 I0.000 J-1.496 K0.000 F600.000
G1 X0.962 Y-1.146 Z8.000 F600.000
G2 X-0.000 Y-1.496 Z8.000 I-0.962 J1.146 K0.000 F600.000
G2 X-0.000 Y1.496 Z8.000 I0.000 J1.496 K0.000 F600.000
G2 X0.962 Y-1.146 Z8.000 I0.000 J-1.496 K0.000 F600.000
G1 X0.962 Y-1.146 Z8.000 F600.000
G3 X0.630 Y1.351 Z8.000 I-0.955 J1.144 K0.000 F600.000
G1 X-1.351 Y-0.630 Z8.000 F600.000
G2 X0.630 Y1.351 Z8.000 I1.345 J0.636 K0.000 F600.000
G1 X0.630 Y1.351 Z6.000 F600.000
G3 X-1.351 Y-0.630 Z6.000 I-0.636 J-1.345 K0.000 F600.000
G1 X0.630 Y1.351 Z6.000 F600.000
G2 X0.962 Y-1.146 Z6.000 I-0.623 J-1.353 K0.000 F600.000
G1 X0.962 Y-1.146 Z6.000 F600.000
G2 X-0.000 Y-1.496 Z6.000 I-0.962 J1.146 K0.000 F600.000
G2 X-0.000 Y1.496 Z6.000 I0.000 J1.496 K0.000 F600.000
G2 X0.962 Y-1.146 Z6.000 I0.000 J-1.496 K0.000 F600.000
G1 X0.962 Y-1.146 Z4.000 F600.000
G2 X-0.000 Y-1.496 Z4.000 I-0.962 J1.146 K0.000 F600.000
G2 X-0.000 Y1.496 Z4.000 I0.000 J1.496 K0.000 F600.000
G2 X0.962 Y-1.146 Z4.000 I0.000 J-1.496 K0.000 F600.000
G1 X0.962 Y-1.146 Z4.000 F600.000
G3 X0.630 Y1.351 Z4.000 I-0.955 J1.144 K0.000 F600.000
G1 X-1.351 Y-0.630 Z4.000 F600.000
G2 X0.630 Y1.351 Z4.000 I1.345 J0.636 K0.000 F600.000
G1 X0.630 Y1.351 Z2.000 F600.000
G3 X-1.351 Y-0.630 Z2.000 I-0.636 J-1.345 K0.000 F600.000
G1 X0.630 Y1.351 Z2.000 F600.000
G2 X0.962 Y-1.146 Z2.000 I-0.623 J-1.353 K0.000 F600.000
G1 X0.962 Y-1.146 Z2.000 F600.000
G2 X-0.000 Y-1.496 Z2.000 I-0.962 J1.146 K0.000 F600.000
G2 X-0.000 Y1.496 Z2.000 I0.000 J1.496 K0.000 F600.000
G2 X0.962 Y-1.146 Z2.000 I0.000 J-1.496 K0.000 F600.000
G1 X0.962 Y-1.146 Z0.000 F600.000
G2 X-0.000 Y-1.496 Z0.000 I-0.962 J1.146 K0.000 F600.000
G2 X-0.000 Y1.496 Z0.000 I0.000 J1.496 K0.000 F600.000
G2 X0.962 Y-1.146 Z0.000 I0.000 J-1.496 K0.000 F600.000
G1 X0.962 Y-1.146 Z0.000 F600.000
G3 X0.630 Y1.351 Z0.000 I-0.955 J1.144 K0.000 F600.000
G1 X-1.351 Y-0.630 Z0.000 F600.000
G2 X0.630 Y1.351 Z0.000 I1.345 J0.636 K0.000 F600.000
G0 Z17.000
G0 Z17.000
(Finish operation: Pocket_Shape)
(Begin postamble)
M5
G17 G90
M2
