(Exported by FreeCAD)
(Post Processor: script_module)
(Output Time:2025-02-25 22:28:43.836380)
(Begin preamble)
G17 G90
G21
(Begin operation: Fixture)
(Path: Fixture)
G54
(Finish operation: Fixture)
(Begin operation: 2mm_Endmill001)
(Path: 2mm_Endmill001)
(2mm_Endmill001)
(Begin toolchange)
( M6 T2 )
M3 S13000
(Finish operation: 2mm_Endmill001)
(Begin operation: Pocket_Shape)
(Path: Pocket_Shape)
(Pocket_Shape)
G0 Z15.000
G0 X1.346 Y46.607
G0 Z13.000
G1 X1.346 Y46.607 Z8.000 F600.000
G2 X9.000 Y44.969 Z8.000 I3.659 J-1.605 K0.000 F600.000
G1 X9.000 Y5.031 Z8.000 F600.000
G1 X8.966 Y4.499 Z8.000 F600.000
G2 X1.000 Y5.031 Z8.000 I-3.967 J0.502 K0.000 F600.000
G1 X1.000 Y44.969 Z8.000 F600.000
G2 X3.396 Y48.656 Z8.000 I3.991 J0.029 K0.000 F600.000
G1 X1.346 Y46.607 Z8.000 F600.000
G3 X1.034 Y45.501 Z8.000 I2.741 J-1.372 K0.000 F600.000
G3 X1.000 Y43.432 Z8.000 I16.427 J-1.301 K0.000 F600.000
G1 X6.332 Y48.764 Z8.000 F600.000
G2 X8.014 Y47.617 Z8.000 I-1.237 J-3.620 K0.000 F600.000
G1 X1.000 Y40.604 Z8.000 F600.000
G1 X1.000 Y37.775 Z8.000 F600.000
G1 X8.928 Y45.703 Z8.000 F600.000
G2 X9.000 Y44.969 Z8.000 I-2.871 J-0.652 K0.000 F600.000
G1 X9.000 Y42.947 Z8.000 F600.000
G1 X1.000 Y34.947 Z8.000 F600.000
G1 X1.000 Y32.118 Z8.000 F600.000
G1 X9.000 Y40.118 Z8.000 F600.000
G1 X9.000 Y37.290 Z8.000 F600.000
G1 X1.000 Y29.290 Z8.000 F600.000
G1 X1.000 Y26.461 Z8.000 F600.000
G1 X9.000 Y34.461 Z8.000 F600.000
G1 X9.000 Y31.633 Z8.000 F600.000
G1 X1.000 Y23.633 Z8.000 F600.000
G1 X1.000 Y20.805 Z8.000 F600.000
G1 X9.000 Y28.805 Z8.000 F600.000
G1 X9.000 Y25.976 Z8.000 F600.000
G1 X1.000 Y17.976 Z8.000 F600.000
G1 X1.000 Y15.148 Z8.000 F600.000
G1 X9.000 Y23.148 Z8.000 F600.000
G1 X9.000 Y20.319 Z8.000 F600.000
G1 X1.000 Y12.319 Z8.000 F600.000
G1 X1.000 Y9.491 Z8.000 F600.000
G1 X9.000 Y17.491 Z8.000 F600.000
G1 X9.000 Y14.662 Z8.000 F600.000
G1 X1.000 Y6.662 Z8.000 F600.000
G1 X1.000 Y5.031 Z8.000 F600.000
G3 X1.138 Y3.972 Z8.000 I4.002 J-0.016 K0.000 F600.000
G1 X9.000 Y11.834 Z8.000 F600.000
G1 X9.000 Y9.006 Z8.000 F600.000
G1 X2.174 Y2.180 Z8.000 F600.000
G3 X3.968 Y1.145 Z8.000 I2.729 J2.659 K0.000 F600.000
G1 X9.000 Y6.177 Z8.000 F600.000
G1 X9.000 Y5.031 Z8.000 F600.000
G2 X7.914 Y2.263 Z8.000 I-4.013 J-0.023 K0.000 F600.000
G1 X7.914 Y2.263 Z6.000 F600.000
G3 X9.000 Y5.031 Z6.000 I-2.927 J2.745 K0.000 F600.000
G1 X9.000 Y6.177 Z6.000 F600.000
G1 X3.968 Y1.145 Z6.000 F600.000
G2 X2.174 Y2.180 Z6.000 I0.935 J3.693 K0.000 F600.000
G1 X9.000 Y9.006 Z6.000 F600.000
G1 X9.000 Y11.834 Z6.000 F600.000
G1 X1.138 Y3.972 Z6.000 F600.000
G2 X1.000 Y5.031 Z6.000 I3.863 J1.043 K0.000 F600.000
G1 X1.000 Y6.662 Z6.000 F600.000
G1 X9.000 Y14.662 Z6.000 F600.000
G1 X9.000 Y17.491 Z6.000 F600.000
G1 X1.000 Y9.491 Z6.000 F600.000
G1 X1.000 Y12.319 Z6.000 F600.000
G1 X9.000 Y20.319 Z6.000 F600.000
G1 X9.000 Y23.148 Z6.000 F600.000
G1 X1.000 Y15.148 Z6.000 F600.000
G1 X1.000 Y17.976 Z6.000 F600.000
G1 X9.000 Y25.976 Z6.000 F600.000
G1 X9.000 Y28.805 Z6.000 F600.000
G1 X1.000 Y20.805 Z6.000 F600.000
G1 X1.000 Y23.633 Z6.000 F600.000
G1 X9.000 Y31.633 Z6.000 F600.000
G1 X9.000 Y34.461 Z6.000 F600.000
G1 X1.000 Y26.461 Z6.000 F600.000
G1 X1.000 Y29.290 Z6.000 F600.000
G1 X9.000 Y37.290 Z6.000 F600.000
G1 X9.000 Y40.118 Z6.000 F600.000
G1 X1.000 Y32.118 Z6.000 F600.000
G1 X1.000 Y34.947 Z6.000 F600.000
G1 X9.000 Y42.947 Z6.000 F600.000
G1 X9.000 Y44.969 Z6.000 F600.000
G3 X8.928 Y45.703 Z6.000 I-2.943 J0.082 K0.000 F600.000
G1 X1.000 Y37.775 Z6.000 F600.000
G1 X1.000 Y40.604 Z6.000 F600.000
G1 X8.014 Y47.617 Z6.000 F600.000
G3 X6.332 Y48.764 Z6.000 I-2.919 J-2.473 K0.000 F600.000
G1 X1.000 Y43.432 Z6.000 F600.000
G2 X1.034 Y45.501 Z6.000 I16.460 J0.768 K0.000 F600.000
G2 X1.346 Y46.607 Z6.000 I3.054 J-0.267 K0.000 F600.000
G1 X3.396 Y48.656 Z6.000 F600.000
G3 X1.000 Y44.969 Z6.000 I1.595 J-3.658 K0.000 F600.000
G1 X1.000 Y5.031 Z6.000 F600.000
G3 X8.966 Y4.499 Z6.000 I3.999 J-0.030 K0.000 F600.000
G1 X9.000 Y5.031 Z6.000 F600.000
G1 X9.000 Y44.969 Z6.000 F600.000
G3 X1.346 Y46.607 Z6.000 I-3.995 J0.033 K0.000 F600.000
G1 X1.346 Y46.607 Z4.000 F600.000
G2 X9.000 Y44.969 Z4.000 I3.659 J-1.605 K0.000 F600.000
G1 X9.000 Y5.031 Z4.000 F600.000
G1 X8.966 Y4.499 Z4.000 F600.000
G2 X1.000 Y5.031 Z4.000 I-3.967 J0.502 K0.000 F600.000
G1 X1.000 Y44.969 Z4.000 F600.000
G2 X3.396 Y48.656 Z4.000 I3.991 J0.029 K0.000 F600.000
G1 X1.346 Y46.607 Z4.000 F600.000
G3 X1.034 Y45.501 Z4.000 I2.741 J-1.372 K0.000 F600.000
G3 X1.000 Y43.432 Z4.000 I16.427 J-1.301 K0.000 F600.000
G1 X6.332 Y48.764 Z4.000 F600.000
G2 X8.014 Y47.617 Z4.000 I-1.237 J-3.620 K0.000 F600.000
G1 X1.000 Y40.604 Z4.000 F600.000
G1 X1.000 Y37.775 Z4.000 F600.000
G1 X8.928 Y45.703 Z4.000 F600.000
G2 X9.000 Y44.969 Z4.000 I-2.871 J-0.652 K0.000 F600.000
G1 X9.000 Y42.947 Z4.000 F600.000
G1 X1.000 Y34.947 Z4.000 F600.000
G1 X1.000 Y32.118 Z4.000 F600.000
G1 X9.000 Y40.118 Z4.000 F600.000
G1 X9.000 Y37.290 Z4.000 F600.000
G1 X1.000 Y29.290 Z4.000 F600.000
G1 X1.000 Y26.461 Z4.000 F600.000
G1 X9.000 Y34.461 Z4.000 F600.000
G1 X9.000 Y31.633 Z4.000 F600.000
G1 X1.000 Y23.633 Z4.000 F600.000
G1 X1.000 Y20.805 Z4.000 F600.000
G1 X9.000 Y28.805 Z4.000 F600.000
G1 X9.000 Y25.976 Z4.000 F600.000
G1 X1.000 Y17.976 Z4.000 F600.000
G1 X1.000 Y15.148 Z4.000 F600.000
G1 X9.000 Y23.148 Z4.000 F600.000
G1 X9.000 Y20.319 Z4.000 F600.000
G1 X1.000 Y12.319 Z4.000 F600.000
G1 X1.000 Y9.491 Z4.000 F600.000
G1 X9.000 Y17.491 Z4.000 F600.000
G1 X9.000 Y14.662 Z4.000 F600.000
G1 X1.000 Y6.662 Z4.000 F600.000
G1 X1.000 Y5.031 Z4.000 F600.000
G3 X1.138 Y3.972 Z4.000 I4.002 J-0.016 K0.000 F600.000
G1 X9.000 Y11.834 Z4.000 F600.000
G1 X9.000 Y9.006 Z4.000 F600.000
G1 X2.174 Y2.180 Z4.000 F600.000
G3 X3.968 Y1.145 Z4.000 I2.729 J2.659 K0.000 F600.000
G1 X9.000 Y6.177 Z4.000 F600.000
G1 X9.000 Y5.031 Z4.000 F600.000
G2 X7.914 Y2.263 Z4.000 I-4.013 J-0.023 K0.000 F600.000
G0 Z15.000
G0 Z15.000
(Finish operation: Pocket_Shape)
(Begin operation: Pocket_Shape001)
(Path: Pocket_Shape001)
(Pocket_Shape001)
G0 Z15.000
G0 X0.000 Y0.000
G0 X4.880 Y3.511
G0 X4.880 Y3.511 Z13.000
G1 X4.880 Y3.511 Z2.000 F600.000
G3 X6.313 Y4.289 Z2.000 I0.112 J1.502 K0.000 F600.000
G3 X6.500 Y5.131 Z2.000 I-1.382 J0.749 K0.000 F600.000
G1 X4.880 Y3.511 Z2.000 F600.000
G2 X3.500 Y5.054 Z2.000 I0.119 J1.495 K0.000 F600.000
G1 X3.500 Y9.946 Z2.000 F600.000
G2 X6.476 Y10.257 Z2.000 I1.499 J0.049 K0.000 F600.000
G1 X6.500 Y9.921 Z2.000 F600.000
G1 X6.500 Y5.057 Z2.000 F600.000
G2 X4.880 Y3.511 Z2.000 I-1.510 J-0.039 K0.000 F600.000
G2 X3.502 Y4.961 Z2.000 I0.118 J1.492 K0.000 F600.000
G1 X6.500 Y7.959 Z2.000 F600.000
G1 X6.500 Y9.921 Z2.000 F600.000
G1 X6.476 Y10.257 Z2.000 F600.000
G3 X6.353 Y10.641 Z2.000 I-1.424 J-0.244 K0.000 F600.000
G1 X3.500 Y7.788 Z2.000 F600.000
G1 X3.500 Y9.946 Z2.000 F600.000
G2 X3.944 Y11.060 Z2.000 I1.507 J0.045 K0.000 F600.000
G1 X3.944 Y11.060 Z0.000 F600.000
G3 X3.500 Y9.946 Z0.000 I1.063 J-1.068 K0.000 F600.000
G1 X3.500 Y7.788 Z0.000 F600.000
G1 X6.353 Y10.641 Z0.000 F600.000
G2 X6.476 Y10.257 Z0.000 I-1.301 J-0.627 K0.000 F600.000
G1 X6.500 Y9.921 Z0.000 F600.000
G1 X6.500 Y7.959 Z0.000 F600.000
G1 X3.502 Y4.961 Z0.000 F600.000
G3 X4.880 Y3.511 Z0.000 I1.496 J0.041 K0.000 F600.000
G3 X6.500 Y5.057 Z0.000 I0.110 J1.506 K0.000 F600.000
G1 X6.500 Y9.921 Z0.000 F600.000
G1 X6.476 Y10.257 Z0.000 F600.000
G3 X3.500 Y9.946 Z0.000 I-1.477 J-0.262 K0.000 F600.000
G1 X3.500 Y5.054 Z0.000 F600.000
G3 X4.880 Y3.511 Z0.000 I1.499 J-0.048 K0.000 F600.000
G1 X6.500 Y5.131 Z0.000 F600.000
G2 X6.313 Y4.289 Z0.000 I-1.570 J-0.093 K0.000 F600.000
G2 X4.880 Y3.511 Z0.000 I-1.321 J0.724 K0.000 F600.000
G0 Z15.000
G0 Z15.000
G0 X4.880 Y3.511
G0 X4.996 Y43.505
G0 X4.996 Y43.505 Z13.000
G1 X4.996 Y43.505 Z2.000 F600.000
G2 X4.959 Y46.495 Z2.000 I0.004 J1.495 K0.000 F600.000
G2 X6.495 Y45.041 Z2.000 I0.041 J-1.495 K0.000 F600.000
G2 X5.041 Y43.505 Z2.000 I-1.495 J-0.041 K0.000 F600.000
G2 X4.996 Y43.505 Z2.000 I-0.041 J1.495 K0.000 F600.000
G1 X4.362 Y43.648 Z2.000 F600.000
G3 X6.351 Y45.638 Z2.000 I0.639 J1.351 K0.000 F600.000
G1 X4.362 Y43.648 Z2.000 F600.000
G2 X3.953 Y46.068 Z2.000 I0.637 J1.352 K0.000 F600.000
G1 X3.953 Y46.068 Z0.000 F600.000
G3 X4.362 Y43.648 Z0.000 I1.045 J-1.068 K0.000 F600.000
G1 X6.351 Y45.638 Z0.000 F600.000
G2 X4.362 Y43.648 Z0.000 I-1.351 J-0.639 K0.000 F600.000
G1 X4.362 Y43.648 Z0.000 F600.000
G2 X4.959 Y46.495 Z0.000 I0.638 J1.352 K0.000 F600.000
G2 X6.495 Y45.041 Z0.000 I0.041 J-1.495 K0.000 F600.000
G2 X5.041 Y43.505 Z0.000 I-1.495 J-0.041 K0.000 F600.000
G2 X4.362 Y43.648 Z0.000 I-0.041 J1.495 K0.000 F600.000
G0 Z15.000
G0 Z15.000
(Finish operation: Pocket_Shape001)
(Begin operation: Profile)
(Path: Profile)
(Profile)
(Compensated Tool Path. Diameter: 2.0)
G0 Z15.000
G0 X9.242 Y49.241
G0 Z13.000
G1 X9.242 Y49.241 Z8.000 F600.000
G2 X10.998 Y45.063 Z8.000 I-4.243 J-4.241 K0.000 F600.000
G1 X11.000 Y5.000 Z8.000 F600.000
G2 X6.186 Y-0.880 Z8.000 I-6.002 J0.004 K0.000 F600.000
G2 X-0.998 Y4.937 Z8.000 I-1.186 J5.880 K0.000 F600.000
G1 X-1.000 Y45.000 Z8.000 F600.000
G2 X9.242 Y49.241 Z8.000 I5.999 J-0.001 K0.000 F600.000
G1 X9.242 Y49.241 Z6.000 F600.000
G2 X10.998 Y45.063 Z6.000 I-4.243 J-4.241 K0.000 F600.000
G1 X11.000 Y5.000 Z6.000 F600.000
G2 X6.186 Y-0.880 Z6.000 I-6.002 J0.004 K0.000 F600.000
G2 X-0.998 Y4.937 Z6.000 I-1.186 J5.880 K0.000 F600.000
G1 X-1.000 Y45.000 Z6.000 F600.000
G2 X9.242 Y49.241 Z6.000 I5.999 J-0.001 K0.000 F600.000
G1 X9.242 Y49.241 Z4.000 F600.000
G2 X10.998 Y45.063 Z4.000 I-4.243 J-4.241 K0.000 F600.000
G1 X11.000 Y5.000 Z4.000 F600.000
G2 X6.186 Y-0.880 Z4.000 I-6.002 J0.004 K0.000 F600.000
G2 X-0.998 Y4.937 Z4.000 I-1.186 J5.880 K0.000 F600.000
G1 X-1.000 Y45.000 Z4.000 F600.000
G2 X9.242 Y49.241 Z4.000 I5.999 J-0.001 K0.000 F600.000
G1 X9.242 Y49.241 Z2.000 F600.000
G2 X10.998 Y45.063 Z2.000 I-4.243 J-4.241 K0.000 F600.000
G1 X11.000 Y5.000 Z2.000 F600.000
G2 X6.186 Y-0.880 Z2.000 I-6.002 J0.004 K0.000 F600.000
G2 X-0.998 Y4.937 Z2.000 I-1.186 J5.880 K0.000 F600.000
G1 X-1.000 Y45.000 Z2.000 F600.000
G2 X9.242 Y49.241 Z2.000 I5.999 J-0.001 K0.000 F600.000
G1 X9.242 Y49.241 Z0.000 F600.000
G2 X10.998 Y45.063 Z0.000 I-4.243 J-4.241 K0.000 F600.000
G1 X11.000 Y5.000 Z0.000 F600.000
G2 X6.186 Y-0.880 Z0.000 I-6.002 J0.004 K0.000 F600.000
G2 X-0.998 Y4.937 Z0.000 I-1.186 J5.880 K0.000 F600.000
G1 X-1.000 Y45.000 Z0.000 F600.000
G2 X9.242 Y49.241 Z0.000 I5.999 J-0.001 K0.000 F600.000
G0 Z15.000
G0 Z15.000
(Finish operation: Profile)
(Begin postamble)
M5
G17 G90
M2
