(Exported by FreeCAD)
(Post Processor: script_module)
(Output Time:2025-02-25 14:12:39.465267)
(Begin preamble)
G17 G90
G21
(Begin operation: Fixture)
(Path: Fixture)
G54
(Finish operation: Fixture)
(Begin operation: 2mm_Endmill001)
(Path: 2mm_Endmill001)
(2mm_Endmill001)
(Begin toolchange)
( M6 T2 )
M3 S12000
(Finish operation: 2mm_Endmill001)
(Begin operation: Pocket_Shape)
(Path: Pocket_Shape)
(Pocket_Shape)
G0 Z15.000
G0 X0.000 Y0.000
G0 X-3.621 Y1.905
G0 X-3.621 Y1.905 Z13.000
G1 X-3.621 Y1.905 Z8.000 F1800.000
G2 X-1.907 Y3.620 Z8.000 I3.518 J-1.803 K0.000 F600.000
G1 X-3.621 Y1.905 Z8.000 F600.000
G3 X-3.909 Y-1.211 Z8.000 I3.539 J-1.898 K0.000 F600.000
G1 X1.212 Y3.910 Z8.000 F600.000
G2 X2.960 Y2.829 Z8.000 I-1.127 J-3.779 K0.000 F600.000
G1 X-2.830 Y-2.960 Z8.000 F600.000
G3 X-1.010 Y-3.969 Z8.000 I2.789 J2.886 K0.000 F600.000
G1 X3.971 Y1.012 Z8.000 F600.000
G2 X3.047 Y-2.740 Z8.000 I-3.971 J-1.012 K0.000 F600.000
G1 X3.046 Y-2.740 Z8.000 F1800.000
G2 X-0.066 Y-4.098 Z8.000 I-3.049 J2.742 K0.000 F600.000
G2 X-0.240 Y4.095 Z8.000 I0.068 J4.100 K0.000 F600.000
G2 X0.239 Y4.095 Z8.000 I0.240 J-0.398 K0.000 F600.000
G2 X3.046 Y-2.740 Z8.000 I-0.241 J-4.093 K0.000 F600.000
G1 X3.046 Y-2.740 Z6.000 F1800.000
G2 X-0.066 Y-4.098 Z6.000 I-3.049 J2.742 K0.000 F600.000
G2 X-0.240 Y4.095 Z6.000 I0.068 J4.100 K0.000 F600.000
G2 X0.239 Y4.095 Z6.000 I0.240 J-0.398 K0.000 F600.000
G2 X3.046 Y-2.740 Z6.000 I-0.241 J-4.093 K0.000 F600.000
G1 X3.047 Y-2.740 Z6.000 F1800.000
G3 X3.971 Y1.012 Z6.000 I-3.047 J2.740 K0.000 F600.000
G1 X-1.010 Y-3.969 Z6.000 F600.000
G2 X-2.830 Y-2.960 Z6.000 I0.970 J3.894 K0.000 F600.000
G1 X2.960 Y2.829 Z6.000 F600.000
G3 X1.212 Y3.910 Z6.000 I-2.875 J-2.698 K0.000 F600.000
G1 X-3.909 Y-1.211 Z6.000 F600.000
G2 X-3.621 Y1.905 Z6.000 I3.826 J1.218 K0.000 F600.000
G1 X-1.907 Y3.620 Z6.000 F600.000
G3 X-3.621 Y1.905 Z6.000 I1.803 J-3.518 K0.000 F600.000
G1 X-3.621 Y1.905 Z4.000 F1800.000
G2 X-1.907 Y3.620 Z4.000 I3.518 J-1.803 K0.000 F600.000
G1 X-3.621 Y1.905 Z4.000 F600.000
G3 X-3.909 Y-1.211 Z4.000 I3.539 J-1.898 K0.000 F600.000
G1 X1.212 Y3.910 Z4.000 F600.000
G2 X2.960 Y2.829 Z4.000 I-1.127 J-3.779 K0.000 F600.000
G1 X-2.830 Y-2.960 Z4.000 F600.000
G3 X-1.010 Y-3.969 Z4.000 I2.789 J2.886 K0.000 F600.000
G1 X3.971 Y1.012 Z4.000 F600.000
G2 X3.047 Y-2.740 Z4.000 I-3.971 J-1.012 K0.000 F600.000
G1 X3.046 Y-2.740 Z4.000 F1800.000
G2 X-0.066 Y-4.098 Z4.000 I-3.049 J2.742 K0.000 F600.000
G2 X-0.240 Y4.095 Z4.000 I0.068 J4.100 K0.000 F600.000
G2 X0.239 Y4.095 Z4.000 I0.240 J-0.398 K0.000 F600.000
G2 X3.046 Y-2.740 Z4.000 I-0.241 J-4.093 K0.000 F600.000
G1 X3.046 Y-2.740 Z2.000 F1800.000
G2 X-0.066 Y-4.098 Z2.000 I-3.049 J2.742 K0.000 F600.000
G2 X-0.240 Y4.095 Z2.000 I0.068 J4.100 K0.000 F600.000
G2 X0.239 Y4.095 Z2.000 I0.240 J-0.398 K0.000 F600.000
G2 X3.046 Y-2.740 Z2.000 I-0.241 J-4.093 K0.000 F600.000
G1 X3.047 Y-2.740 Z2.000 F1800.000
G3 X3.971 Y1.012 Z2.000 I-3.047 J2.740 K0.000 F600.000
G1 X-1.010 Y-3.969 Z2.000 F600.000
G2 X-2.830 Y-2.960 Z2.000 I0.970 J3.894 K0.000 F600.000
G1 X2.960 Y2.829 Z2.000 F600.000
G3 X1.212 Y3.910 Z2.000 I-2.875 J-2.698 K0.000 F600.000
G1 X-3.909 Y-1.211 Z2.000 F600.000
G2 X-3.621 Y1.905 Z2.000 I3.826 J1.218 K0.000 F600.000
G1 X-1.907 Y3.620 Z2.000 F600.000
G3 X-3.621 Y1.905 Z2.000 I1.803 J-3.518 K0.000 F600.000
G1 X-3.621 Y1.905 Z0.000 F1800.000
G2 X-1.907 Y3.620 Z0.000 I3.518 J-1.803 K0.000 F600.000
G1 X-3.621 Y1.905 Z0.000 F600.000
G3 X-3.909 Y-1.211 Z0.000 I3.539 J-1.898 K0.000 F600.000
G1 X1.212 Y3.910 Z0.000 F600.000
G2 X2.960 Y2.829 Z0.000 I-1.127 J-3.779 K0.000 F600.000
G1 X-2.830 Y-2.960 Z0.000 F600.000
G3 X-1.010 Y-3.969 Z0.000 I2.789 J2.886 K0.000 F600.000
G1 X3.971 Y1.012 Z0.000 F600.000
G2 X3.047 Y-2.740 Z0.000 I-3.971 J-1.012 K0.000 F600.000
G1 X3.046 Y-2.740 Z0.000 F1800.000
G2 X-0.066 Y-4.098 Z0.000 I-3.049 J2.742 K0.000 F600.000
G2 X-0.240 Y4.095 Z0.000 I0.068 J4.100 K0.000 F600.000
G2 X0.239 Y4.095 Z0.000 I0.240 J-0.398 K0.000 F600.000
G2 X3.046 Y-2.740 Z0.000 I-0.241 J-4.093 K0.000 F600.000
G0 Z15.000
G0 X-0.091 Y6.045 Z15.000
G0 X-0.091 Y6.045 Z13.000
G1 X-0.091 Y6.045 Z8.000 F1800.000
G2 X0.061 Y7.944 Z8.000 I0.097 J0.947 K0.000 F600.000
G2 X0.087 Y6.044 Z8.000 I-0.067 J-0.951 K0.000 F600.000
G2 X-0.091 Y6.045 Z8.000 I-0.088 J0.079 K0.000 F600.000
G2 X-0.727 Y7.605 Z8.000 I0.106 J0.953 K0.000 F600.000
G2 X0.785 Y6.474 Z8.000 I0.727 J-0.604 K0.000 F600.000
G1 X0.785 Y6.474 Z8.000 F1800.000
G2 X0.087 Y6.044 Z8.000 I-0.838 J0.579 K0.000 F600.000
G2 X-0.091 Y6.045 Z8.000 I-0.088 J0.079 K0.000 F600.000
G1 X-0.091 Y6.045 Z6.000 F1800.000
G3 X0.087 Y6.044 Z6.000 I0.089 J0.077 K0.000 F600.000
G3 X0.785 Y6.474 Z6.000 I-0.139 J1.009 K0.000 F600.000
G1 X0.785 Y6.474 Z6.000 F1800.000
G3 X-0.727 Y7.605 Z6.000 I-0.785 J0.526 K0.000 F600.000
G3 X-0.091 Y6.045 Z6.000 I0.742 J-0.607 K0.000 F600.000
G3 X0.087 Y6.044 Z6.000 I0.089 J0.077 K0.000 F600.000
G3 X0.061 Y7.944 Z6.000 I-0.093 J0.949 K0.000 F600.000
G3 X-0.091 Y6.045 Z6.000 I-0.055 J-0.951 K0.000 F600.000
G1 X-0.091 Y6.045 Z4.000 F1800.000
G3 X0.087 Y6.044 Z4.000 I0.089 J0.077 K0.000 F600.000
G3 X0.785 Y6.474 Z4.000 I-0.139 J1.009 K0.000 F600.000
G1 X0.785 Y6.474 Z4.000 F1800.000
G3 X-0.727 Y7.605 Z4.000 I-0.785 J0.526 K0.000 F600.000
G3 X-0.091 Y6.045 Z4.000 I0.742 J-0.607 K0.000 F600.000
G3 X0.087 Y6.044 Z4.000 I0.089 J0.077 K0.000 F600.000
G3 X0.061 Y7.944 Z4.000 I-0.093 J0.949 K0.000 F600.000
G3 X-0.091 Y6.045 Z4.000 I-0.055 J-0.951 K0.000 F600.000
G1 X-0.091 Y6.045 Z2.000 F1800.000
G2 X0.061 Y7.944 Z2.000 I0.097 J0.947 K0.000 F600.000
G2 X0.087 Y6.044 Z2.000 I-0.067 J-0.951 K0.000 F600.000
G2 X-0.091 Y6.045 Z2.000 I-0.088 J0.079 K0.000 F600.000
G2 X-0.727 Y7.605 Z2.000 I0.106 J0.953 K0.000 F600.000
G2 X0.785 Y6.474 Z2.000 I0.727 J-0.604 K0.000 F600.000
G1 X0.785 Y6.474 Z2.000 F1800.000
G2 X0.087 Y6.044 Z2.000 I-0.838 J0.579 K0.000 F600.000
G2 X-0.091 Y6.045 Z2.000 I-0.088 J0.079 K0.000 F600.000
G1 X-0.091 Y6.045 Z0.000 F1800.000
G3 X0.087 Y6.044 Z0.000 I0.089 J0.077 K0.000 F600.000
G3 X0.785 Y6.474 Z0.000 I-0.139 J1.009 K0.000 F600.000
G1 X0.785 Y6.474 Z0.000 F1800.000
G3 X-0.727 Y7.605 Z0.000 I-0.785 J0.526 K0.000 F600.000
G3 X-0.091 Y6.045 Z0.000 I0.742 J-0.607 K0.000 F600.000
G3 X0.087 Y6.044 Z0.000 I0.089 J0.077 K0.000 F600.000
G3 X0.061 Y7.944 Z0.000 I-0.093 J0.949 K0.000 F600.000
G3 X-0.091 Y6.045 Z0.000 I-0.055 J-0.951 K0.000 F600.000
G0 Z15.000
G0 Z15.000
(Finish operation: Pocket_Shape)
(Begin operation: Profile)
(Path: Profile)
(Profile)
(Compensated Tool Path. Diameter: 2.0)
G0 Z15.000
G0 X11.313 Y11.313
G0 Z13.000
G1 X11.313 Y11.313 Z8.000 F1800.000
G2 X2.312 Y-15.831 Z8.000 I-11.313 J-11.313 K0.000 F600.000
G2 X-2.312 Y15.831 Z8.000 I-2.312 J15.831 K0.000 F600.000
G2 X11.313 Y11.313 Z8.000 I2.312 J-15.831 K0.000 F600.000
G1 X11.313 Y11.313 Z6.000 F1800.000
G2 X2.312 Y-15.831 Z6.000 I-11.313 J-11.313 K0.000 F600.000
G2 X-2.312 Y15.831 Z6.000 I-2.312 J15.831 K0.000 F600.000
G2 X11.313 Y11.313 Z6.000 I2.312 J-15.831 K0.000 F600.000
G1 X11.313 Y11.313 Z4.000 F1800.000
G2 X2.312 Y-15.831 Z4.000 I-11.313 J-11.313 K0.000 F600.000
G2 X-2.312 Y15.831 Z4.000 I-2.312 J15.831 K0.000 F600.000
G2 X11.313 Y11.313 Z4.000 I2.312 J-15.831 K0.000 F600.000
G1 X11.313 Y11.313 Z2.000 F1800.000
G2 X2.312 Y-15.831 Z2.000 I-11.313 J-11.313 K0.000 F600.000
G2 X-2.312 Y15.831 Z2.000 I-2.312 J15.831 K0.000 F600.000
G2 X11.313 Y11.313 Z2.000 I2.312 J-15.831 K0.000 F600.000
G1 X11.313 Y11.313 Z0.000 F1800.000
G2 X2.312 Y-15.831 Z0.000 I-11.313 J-11.313 K0.000 F600.000
G2 X-2.312 Y15.831 Z0.000 I-2.312 J15.831 K0.000 F600.000
G2 X11.313 Y11.313 Z0.000 I2.312 J-15.831 K0.000 F600.000
G0 Z15.000
G0 Z15.000
(Finish operation: Profile)
(Begin postamble)
M5
G17 G90
M2
