(Exported by FreeCAD)
(Post Processor: script_module)
(Output Time:2025-02-25 16:46:16.063554)
(Begin preamble)
G17 G90
G21
(Begin operation: Fixture)
(Path: Fixture)
G54
(Finish operation: Fixture)
(Begin operation: 2mm_Endmill001)
(Path: 2mm_Endmill001)
(2mm_Endmill001)
(Begin toolchange)
( M6 T2 )
M3 S13000
(Finish operation: 2mm_Endmill001)
(Begin operation: Pocket_Shape)
(Path: Pocket_Shape)
(Pocket_Shape)
G0 Z15.000
G0 X0.000 Y0.000
G0 X9.000 Y1.000
G0 X9.000 Y1.000 Z13.000
G1 X9.000 Y1.000 Z8.000 F3000.000
G1 X9.000 Y3.828 Z8.000 F600.000
G1 X6.172 Y1.000 Z8.000 F600.000
G1 X3.343 Y1.000 Z8.000 F600.000
G1 X9.000 Y6.657 Z8.000 F600.000
G1 X9.000 Y9.485 Z8.000 F600.000
G1 X1.000 Y1.485 Z8.000 F600.000
G1 X1.000 Y4.314 Z8.000 F600.000
G1 X9.000 Y12.314 Z8.000 F600.000
G1 X9.000 Y15.142 Z8.000 F600.000
G1 X1.000 Y7.142 Z8.000 F600.000
G1 X1.000 Y9.971 Z8.000 F600.000
G1 X9.000 Y17.971 Z8.000 F600.000
G1 X9.000 Y20.799 Z8.000 F600.000
G1 X1.000 Y12.799 Z8.000 F600.000
G1 X1.000 Y15.627 Z8.000 F600.000
G1 X9.000 Y23.627 Z8.000 F600.000
G1 X9.000 Y26.456 Z8.000 F600.000
G1 X1.000 Y18.456 Z8.000 F600.000
G1 X1.000 Y21.284 Z8.000 F600.000
G1 X9.000 Y29.284 Z8.000 F600.000
G1 X9.000 Y32.113 Z8.000 F600.000
G1 X1.000 Y24.113 Z8.000 F600.000
G1 X1.000 Y26.941 Z8.000 F600.000
G1 X9.000 Y34.941 Z8.000 F600.000
G1 X9.000 Y37.770 Z8.000 F600.000
G1 X1.000 Y29.770 Z8.000 F600.000
G1 X1.000 Y32.598 Z8.000 F600.000
G1 X9.000 Y40.598 Z8.000 F600.000
G1 X9.000 Y43.426 Z8.000 F600.000
G1 X1.000 Y35.426 Z8.000 F600.000
G1 X1.000 Y38.255 Z8.000 F600.000
G1 X9.000 Y46.255 Z8.000 F600.000
G1 X9.000 Y49.000 Z8.000 F600.000
G1 X8.917 Y49.000 Z8.000 F600.000
G1 X1.000 Y41.083 Z8.000 F600.000
G1 X1.000 Y43.912 Z8.000 F600.000
G1 X6.088 Y49.000 Z8.000 F600.000
G1 X3.260 Y49.000 Z8.000 F600.000
G1 X1.000 Y46.740 Z8.000 F600.000
G1 X1.000 Y49.000 Z8.000 F600.000
G1 X3.260 Y49.000 Z8.000 F600.000
G1 X1.000 Y49.000 Z8.000 F600.000
G1 X1.000 Y1.000 Z8.000 F600.000
G1 X9.000 Y1.000 Z8.000 F600.000
G1 X9.000 Y49.000 Z8.000 F600.000
G1 X3.260 Y49.000 Z8.000 F600.000
G1 X3.260 Y49.000 Z6.000 F3000.000
G1 X9.000 Y49.000 Z6.000 F600.000
G1 X9.000 Y1.000 Z6.000 F600.000
G1 X1.000 Y1.000 Z6.000 F600.000
G1 X1.000 Y49.000 Z6.000 F600.000
G1 X3.260 Y49.000 Z6.000 F600.000
G1 X1.000 Y49.000 Z6.000 F600.000
G1 X1.000 Y46.740 Z6.000 F600.000
G1 X3.260 Y49.000 Z6.000 F600.000
G1 X6.088 Y49.000 Z6.000 F600.000
G1 X1.000 Y43.912 Z6.000 F600.000
G1 X1.000 Y41.083 Z6.000 F600.000
G1 X8.917 Y49.000 Z6.000 F600.000
G1 X9.000 Y49.000 Z6.000 F600.000
G1 X9.000 Y46.255 Z6.000 F600.000
G1 X1.000 Y38.255 Z6.000 F600.000
G1 X1.000 Y35.426 Z6.000 F600.000
G1 X9.000 Y43.426 Z6.000 F600.000
G1 X9.000 Y40.598 Z6.000 F600.000
G1 X1.000 Y32.598 Z6.000 F600.000
G1 X1.000 Y29.770 Z6.000 F600.000
G1 X9.000 Y37.770 Z6.000 F600.000
G1 X9.000 Y34.941 Z6.000 F600.000
G1 X1.000 Y26.941 Z6.000 F600.000
G1 X1.000 Y24.113 Z6.000 F600.000
G1 X9.000 Y32.113 Z6.000 F600.000
G1 X9.000 Y29.284 Z6.000 F600.000
G1 X1.000 Y21.284 Z6.000 F600.000
G1 X1.000 Y18.456 Z6.000 F600.000
G1 X9.000 Y26.456 Z6.000 F600.000
G1 X9.000 Y23.627 Z6.000 F600.000
G1 X1.000 Y15.627 Z6.000 F600.000
G1 X1.000 Y12.799 Z6.000 F600.000
G1 X9.000 Y20.799 Z6.000 F600.000
G1 X9.000 Y17.971 Z6.000 F600.000
G1 X1.000 Y9.971 Z6.000 F600.000
G1 X1.000 Y7.142 Z6.000 F600.000
G1 X9.000 Y15.142 Z6.000 F600.000
G1 X9.000 Y12.314 Z6.000 F600.000
G1 X1.000 Y4.314 Z6.000 F600.000
G1 X1.000 Y1.485 Z6.000 F600.000
G1 X9.000 Y9.485 Z6.000 F600.000
G1 X9.000 Y6.657 Z6.000 F600.000
G1 X3.343 Y1.000 Z6.000 F600.000
G1 X6.172 Y1.000 Z6.000 F600.000
G1 X9.000 Y3.828 Z6.000 F600.000
G1 X9.000 Y1.000 Z6.000 F600.000
G1 X9.000 Y1.000 Z4.000 F3000.000
G1 X9.000 Y3.828 Z4.000 F600.000
G1 X6.172 Y1.000 Z4.000 F600.000
G1 X3.343 Y1.000 Z4.000 F600.000
G1 X9.000 Y6.657 Z4.000 F600.000
G1 X9.000 Y9.485 Z4.000 F600.000
G1 X1.000 Y1.485 Z4.000 F600.000
G1 X1.000 Y4.314 Z4.000 F600.000
G1 X9.000 Y12.314 Z4.000 F600.000
G1 X9.000 Y15.142 Z4.000 F600.000
G1 X1.000 Y7.142 Z4.000 F600.000
G1 X1.000 Y9.971 Z4.000 F600.000
G1 X9.000 Y17.971 Z4.000 F600.000
G1 X9.000 Y20.799 Z4.000 F600.000
G1 X1.000 Y12.799 Z4.000 F600.000
G1 X1.000 Y15.627 Z4.000 F600.000
G1 X9.000 Y23.627 Z4.000 F600.000
G1 X9.000 Y26.456 Z4.000 F600.000
G1 X1.000 Y18.456 Z4.000 F600.000
G1 X1.000 Y21.284 Z4.000 F600.000
G1 X9.000 Y29.284 Z4.000 F600.000
G1 X9.000 Y32.113 Z4.000 F600.000
G1 X1.000 Y24.113 Z4.000 F600.000
G1 X1.000 Y26.941 Z4.000 F600.000
G1 X9.000 Y34.941 Z4.000 F600.000
G1 X9.000 Y37.770 Z4.000 F600.000
G1 X1.000 Y29.770 Z4.000 F600.000
G1 X1.000 Y32.598 Z4.000 F600.000
G1 X9.000 Y40.598 Z4.000 F600.000
G1 X9.000 Y43.426 Z4.000 F600.000
G1 X1.000 Y35.426 Z4.000 F600.000
G1 X1.000 Y38.255 Z4.000 F600.000
G1 X9.000 Y46.255 Z4.000 F600.000
G1 X9.000 Y49.000 Z4.000 F600.000
G1 X8.917 Y49.000 Z4.000 F600.000
G1 X1.000 Y41.083 Z4.000 F600.000
G1 X1.000 Y43.912 Z4.000 F600.000
G1 X6.088 Y49.000 Z4.000 F600.000
G1 X3.260 Y49.000 Z4.000 F600.000
G1 X1.000 Y46.740 Z4.000 F600.000
G1 X1.000 Y49.000 Z4.000 F600.000
G1 X3.260 Y49.000 Z4.000 F600.000
G1 X1.000 Y49.000 Z4.000 F600.000
G1 X1.000 Y1.000 Z4.000 F600.000
G1 X9.000 Y1.000 Z4.000 F600.000
G1 X9.000 Y49.000 Z4.000 F600.000
G1 X3.260 Y49.000 Z4.000 F600.000
G0 Z15.000
G0 Z15.000
(Finish operation: Pocket_Shape)
(Begin operation: Pocket_Shape001)
(Path: Pocket_Shape001)
(Pocket_Shape001)
G0 Z15.000
G0 X0.000 Y0.000
G0 X4.880 Y3.511
G0 X4.880 Y3.511 Z13.000
G1 X4.880 Y3.511 Z2.000 F3000.000
G3 X6.313 Y4.289 Z2.000 I0.112 J1.502 K0.000 F600.000
G3 X6.500 Y5.131 Z2.000 I-1.383 J0.749 K0.000 F600.000
G1 X4.880 Y3.511 Z2.000 F600.000
G2 X3.500 Y5.054 Z2.000 I0.119 J1.495 K0.000 F600.000
G1 X3.500 Y9.946 Z2.000 F600.000
G2 X6.476 Y10.258 Z2.000 I1.499 J0.049 K0.000 F600.000
G1 X6.500 Y9.921 Z2.000 F600.000
G1 X6.500 Y5.057 Z2.000 F600.000
G2 X4.880 Y3.511 Z2.000 I-1.510 J-0.040 K0.000 F600.000
G2 X3.502 Y4.962 Z2.000 I0.118 J1.491 K0.000 F600.000
G1 X6.500 Y7.959 Z2.000 F600.000
G1 X6.500 Y9.921 Z2.000 F600.000
G1 X6.476 Y10.258 Z2.000 F600.000
G3 X6.353 Y10.641 Z2.000 I-1.423 J-0.244 K0.000 F600.000
G1 X3.500 Y7.788 Z2.000 F600.000
G1 X3.500 Y9.946 Z2.000 F600.000
G2 X3.943 Y11.059 Z2.000 I1.507 J0.046 K0.000 F600.000
G1 X3.943 Y11.059 Z0.000 F3000.000
G3 X3.500 Y9.946 Z0.000 I1.063 J-1.068 K0.000 F600.000
G1 X3.500 Y7.788 Z0.000 F600.000
G1 X6.353 Y10.641 Z0.000 F600.000
G2 X6.476 Y10.258 Z0.000 I-1.301 J-0.627 K0.000 F600.000
G1 X6.500 Y9.921 Z0.000 F600.000
G1 X6.500 Y7.959 Z0.000 F600.000
G1 X3.502 Y4.962 Z0.000 F600.000
G3 X4.880 Y3.511 Z0.000 I1.495 J0.041 K0.000 F600.000
G3 X6.500 Y5.057 Z0.000 I0.110 J1.506 K0.000 F600.000
G1 X6.500 Y9.921 Z0.000 F600.000
G1 X6.476 Y10.258 Z0.000 F600.000
G3 X3.500 Y9.946 Z0.000 I-1.477 J-0.263 K0.000 F600.000
G1 X3.500 Y5.054 Z0.000 F600.000
G3 X4.880 Y3.511 Z0.000 I1.499 J-0.048 K0.000 F600.000
G1 X6.500 Y5.131 Z0.000 F600.000
G2 X6.313 Y4.289 Z0.000 I-1.570 J-0.093 K0.000 F600.000
G2 X4.880 Y3.511 Z0.000 I-1.321 J0.724 K0.000 F600.000
G0 Z15.000
G0 Z15.000
G0 X4.880 Y3.511
G0 X4.996 Y43.505
G0 X4.996 Y43.505 Z13.000
G1 X4.996 Y43.505 Z2.000 F3000.000
G3 X5.041 Y43.505 Z2.000 I0.004 J1.495 K0.000 F600.000
G3 X6.495 Y45.041 Z2.000 I-0.041 J1.495 K0.000 F600.000
G3 X4.959 Y46.495 Z2.000 I-1.495 J-0.041 K0.000 F600.000
G3 X4.996 Y43.505 Z2.000 I0.041 J-1.495 K0.000 F600.000
G1 X4.362 Y43.648 Z2.000 F3000.000
G3 X6.351 Y45.638 Z2.000 I0.639 J1.351 K0.000 F600.000
G1 X4.362 Y43.648 Z2.000 F600.000
G2 X3.953 Y46.068 Z2.000 I0.637 J1.352 K0.000 F600.000
G1 X3.953 Y46.068 Z0.000 F3000.000
G3 X4.362 Y43.648 Z0.000 I1.045 J-1.068 K0.000 F600.000
G1 X6.351 Y45.638 Z0.000 F600.000
G2 X4.362 Y43.648 Z0.000 I-1.351 J-0.639 K0.000 F600.000
G1 X4.362 Y43.648 Z0.000 F3000.000
G3 X5.041 Y43.505 Z0.000 I0.638 J1.352 K0.000 F600.000
G3 X6.495 Y45.041 Z0.000 I-0.041 J1.495 K0.000 F600.000
G3 X4.959 Y46.495 Z0.000 I-1.495 J-0.041 K0.000 F600.000
G3 X4.362 Y43.648 Z0.000 I0.041 J-1.495 K0.000 F600.000
G0 Z15.000
G0 Z15.000
(Finish operation: Pocket_Shape001)
(Begin operation: Profile)
(Path: Profile)
(Profile)
(Compensated Tool Path. Diameter: 2.0)
G0 Z15.000
G0 X0.000 Y0.000
G0 X-1.000
G0 X-1.000 Z13.000
G1 X-1.000 Y0.000 Z8.000 F3000.000
G1 X-1.000 Y50.000 Z8.000 F600.000
G2 X0.000 Y51.000 Z8.000 I1.000 J-0.000 K0.000 F600.000
G1 X10.000 Y51.000 Z8.000 F600.000
G2 X11.000 Y50.000 Z8.000 I-0.000 J-1.000 K0.000 F600.000
G1 X11.000 Y0.000 Z8.000 F600.000
G2 X10.000 Y-1.000 Z8.000 I-1.000 J0.000 K0.000 F600.000
G1 X0.000 Y-1.000 Z8.000 F600.000
G2 X-1.000 Y0.000 Z8.000 I0.000 J1.000 K0.000 F600.000
G1 X-1.000 Y0.000 Z6.000 F3000.000
G1 X-1.000 Y50.000 Z6.000 F600.000
G2 X0.000 Y51.000 Z6.000 I1.000 J-0.000 K0.000 F600.000
G1 X10.000 Y51.000 Z6.000 F600.000
G2 X11.000 Y50.000 Z6.000 I-0.000 J-1.000 K0.000 F600.000
G1 X11.000 Y0.000 Z6.000 F600.000
G2 X10.000 Y-1.000 Z6.000 I-1.000 J0.000 K0.000 F600.000
G1 X0.000 Y-1.000 Z6.000 F600.000
G2 X-1.000 Y0.000 Z6.000 I0.000 J1.000 K0.000 F600.000
G1 X-1.000 Y0.000 Z4.000 F3000.000
G1 X-1.000 Y50.000 Z4.000 F600.000
G2 X0.000 Y51.000 Z4.000 I1.000 J-0.000 K0.000 F600.000
G1 X10.000 Y51.000 Z4.000 F600.000
G2 X11.000 Y50.000 Z4.000 I-0.000 J-1.000 K0.000 F600.000
G1 X11.000 Y0.000 Z4.000 F600.000
G2 X10.000 Y-1.000 Z4.000 I-1.000 J0.000 K0.000 F600.000
G1 X0.000 Y-1.000 Z4.000 F600.000
G2 X-1.000 Y0.000 Z4.000 I0.000 J1.000 K0.000 F600.000
G1 X-1.000 Y0.000 Z2.000 F3000.000
G1 X-1.000 Y50.000 Z2.000 F600.000
G2 X0.000 Y51.000 Z2.000 I1.000 J-0.000 K0.000 F600.000
G1 X10.000 Y51.000 Z2.000 F600.000
G2 X11.000 Y50.000 Z2.000 I-0.000 J-1.000 K0.000 F600.000
G1 X11.000 Y0.000 Z2.000 F600.000
G2 X10.000 Y-1.000 Z2.000 I-1.000 J0.000 K0.000 F600.000
G1 X0.000 Y-1.000 Z2.000 F600.000
G2 X-1.000 Y0.000 Z2.000 I0.000 J1.000 K0.000 F600.000
G1 X-1.000 Y0.000 Z0.000 F3000.000
G1 X-1.000 Y50.000 Z0.000 F600.000
G2 X0.000 Y51.000 Z0.000 I1.000 J-0.000 K0.000 F600.000
G1 X10.000 Y51.000 Z0.000 F600.000
G2 X11.000 Y50.000 Z0.000 I-0.000 J-1.000 K0.000 F600.000
G1 X11.000 Y0.000 Z0.000 F600.000
G2 X10.000 Y-1.000 Z0.000 I-1.000 J0.000 K0.000 F600.000
G1 X0.000 Y-1.000 Z0.000 F600.000
G2 X-1.000 Y0.000 Z0.000 I0.000 J1.000 K0.000 F600.000
G0 Z15.000
G0 Z15.000
(Finish operation: Profile)
(Begin postamble)
M5
G17 G90
M2
