(Exported by FreeCAD)
(Post Processor: script_module)
(Output Time:2025-02-25 15:23:00.020916)
(Begin preamble)
G17 G90
G21
(Begin operation: Fixture)
(Path: Fixture)
G54
(Finish operation: Fixture)
(Begin operation: 2mm_Endmill001)
(Path: 2mm_Endmill001)
(2mm_Endmill001)
(Begin toolchange)
( M6 T2 )
M3 S13000
(Finish operation: 2mm_Endmill001)
(Begin operation: Profile)
(Path: Profile)
(Profile)
(Compensated Tool Path. Diameter: 2.0)
G0 Z15.000
G0 X0.000 Y0.000
G0 Y1.000
G0 Y1.000 Z13.000
G1 X0.000 Y1.000 Z8.000 F1500.000
G1 X1.500 Y1.000 Z8.000 F600.000
G1 X1.500 Y10.000 Z8.000 F600.000
G2 X2.500 Y11.000 Z8.000 I1.000 J-0.000 K0.000 F600.000
G1 X5.000 Y11.000 Z8.000 F600.000
G2 X6.000 Y10.000 Z8.000 I-0.000 J-1.000 K0.000 F600.000
G1 X6.000 Y-10.000 Z8.000 F600.000
G2 X5.000 Y-11.000 Z8.000 I-1.000 J0.000 K0.000 F600.000
G1 X-5.000 Y-11.000 Z8.000 F600.000
G2 X-6.000 Y-10.000 Z8.000 I0.000 J1.000 K0.000 F600.000
G1 X-6.000 Y10.000 Z8.000 F600.000
G2 X-5.000 Y11.000 Z8.000 I1.000 J-0.000 K0.000 F600.000
G1 X-2.500 Y11.000 Z8.000 F600.000
G2 X-1.500 Y10.000 Z8.000 I-0.000 J-1.000 K0.000 F600.000
G1 X-1.500 Y1.000 Z8.000 F600.000
G1 X0.000 Y1.000 Z8.000 F600.000
G1 X0.000 Y1.000 Z6.000 F1500.000
G1 X1.500 Y1.000 Z6.000 F600.000
G1 X1.500 Y10.000 Z6.000 F600.000
G2 X2.500 Y11.000 Z6.000 I1.000 J-0.000 K0.000 F600.000
G1 X5.000 Y11.000 Z6.000 F600.000
G2 X6.000 Y10.000 Z6.000 I-0.000 J-1.000 K0.000 F600.000
G1 X6.000 Y-10.000 Z6.000 F600.000
G2 X5.000 Y-11.000 Z6.000 I-1.000 J0.000 K0.000 F600.000
G1 X-5.000 Y-11.000 Z6.000 F600.000
G2 X-6.000 Y-10.000 Z6.000 I0.000 J1.000 K0.000 F600.000
G1 X-6.000 Y10.000 Z6.000 F600.000
G2 X-5.000 Y11.000 Z6.000 I1.000 J-0.000 K0.000 F600.000
G1 X-2.500 Y11.000 Z6.000 F600.000
G2 X-1.500 Y10.000 Z6.000 I-0.000 J-1.000 K0.000 F600.000
G1 X-1.500 Y1.000 Z6.000 F600.000
G1 X0.000 Y1.000 Z6.000 F600.000
G1 X0.000 Y1.000 Z4.000 F1500.000
G1 X1.500 Y1.000 Z4.000 F600.000
G1 X1.500 Y10.000 Z4.000 F600.000
G2 X2.500 Y11.000 Z4.000 I1.000 J-0.000 K0.000 F600.000
G1 X5.000 Y11.000 Z4.000 F600.000
G2 X6.000 Y10.000 Z4.000 I-0.000 J-1.000 K0.000 F600.000
G1 X6.000 Y-10.000 Z4.000 F600.000
G2 X5.000 Y-11.000 Z4.000 I-1.000 J0.000 K0.000 F600.000
G1 X-5.000 Y-11.000 Z4.000 F600.000
G2 X-6.000 Y-10.000 Z4.000 I0.000 J1.000 K0.000 F600.000
G1 X-6.000 Y10.000 Z4.000 F600.000
G2 X-5.000 Y11.000 Z4.000 I1.000 J-0.000 K0.000 F600.000
G1 X-2.500 Y11.000 Z4.000 F600.000
G2 X-1.500 Y10.000 Z4.000 I-0.000 J-1.000 K0.000 F600.000
G1 X-1.500 Y1.000 Z4.000 F600.000
G1 X0.000 Y1.000 Z4.000 F600.000
G1 X0.000 Y1.000 Z2.000 F1500.000
G1 X1.500 Y1.000 Z2.000 F600.000
G1 X1.500 Y10.000 Z2.000 F600.000
G2 X2.500 Y11.000 Z2.000 I1.000 J-0.000 K0.000 F600.000
G1 X5.000 Y11.000 Z2.000 F600.000
G2 X6.000 Y10.000 Z2.000 I-0.000 J-1.000 K0.000 F600.000
G1 X6.000 Y-10.000 Z2.000 F600.000
G2 X5.000 Y-11.000 Z2.000 I-1.000 J0.000 K0.000 F600.000
G1 X-5.000 Y-11.000 Z2.000 F600.000
G2 X-6.000 Y-10.000 Z2.000 I0.000 J1.000 K0.000 F600.000
G1 X-6.000 Y10.000 Z2.000 F600.000
G2 X-5.000 Y11.000 Z2.000 I1.000 J-0.000 K0.000 F600.000
G1 X-2.500 Y11.000 Z2.000 F600.000
G2 X-1.500 Y10.000 Z2.000 I-0.000 J-1.000 K0.000 F600.000
G1 X-1.500 Y1.000 Z2.000 F600.000
G1 X0.000 Y1.000 Z2.000 F600.000
G1 X0.000 Y1.000 Z0.000 F1500.000
G1 X1.500 Y1.000 Z0.000 F600.000
G1 X1.500 Y10.000 Z0.000 F600.000
G2 X2.500 Y11.000 Z0.000 I1.000 J-0.000 K0.000 F600.000
G1 X5.000 Y11.000 Z0.000 F600.000
G2 X6.000 Y10.000 Z0.000 I-0.000 J-1.000 K0.000 F600.000
G1 X6.000 Y-10.000 Z0.000 F600.000
G2 X5.000 Y-11.000 Z0.000 I-1.000 J0.000 K0.000 F600.000
G1 X-5.000 Y-11.000 Z0.000 F600.000
G2 X-6.000 Y-10.000 Z0.000 I0.000 J1.000 K0.000 F600.000
G1 X-6.000 Y10.000 Z0.000 F600.000
G2 X-5.000 Y11.000 Z0.000 I1.000 J-0.000 K0.000 F600.000
G1 X-2.500 Y11.000 Z0.000 F600.000
G2 X-1.500 Y10.000 Z0.000 I-0.000 J-1.000 K0.000 F600.000
G1 X-1.500 Y1.000 Z0.000 F600.000
G1 X0.000 Y1.000 Z0.000 F600.000
G0 Z15.000
G0 Z15.000
(Finish operation: Profile)
(Begin postamble)
M5
G17 G90
M2
