(Exported by FreeCAD)
(Post Processor: script_module)
(Output Time:2026-01-07 16:37:40.268438)
(Begin preamble)
G17 G90
G21
(Begin operation: Fixture)
(Path: Fixture)
G54
(Finish operation: Fixture)
(Begin operation: 3mm_Endmill001)
(Path: 3mm_Endmill001)
(3mm_Endmill001)
(Begin toolchange)
( M6 T2 )
M3 S15000
(Finish operation: 3mm_Endmill001)
(Begin operation: Profile)
(Path: Profile)
(Profile)
(Compensated Tool Path. Diameter: 3.0)
G0 Z5.000
G0 X0.000 Y0.000
G0 X-21.500
G0 X-21.500 Z3.000
G1 X-21.500 Y0.000 Z-3.000 F420.000
G1 X-21.500 Y29.500 Z-3.000 F420.000
G1 X21.500 Y29.500 Z-3.000 F420.000
G1 X21.500 Y-29.500 Z-3.000 F420.000
G1 X-21.500 Y-29.500 Z-3.000 F420.000
G1 X-21.500 Y0.000 Z-3.000 F420.000
G1 X-21.500 Y0.000 Z-6.000 F420.000
G1 X-21.500 Y29.500 Z-6.000 F420.000
G1 X21.500 Y29.500 Z-6.000 F420.000
G1 X21.500 Y-29.500 Z-6.000 F420.000
G1 X-21.500 Y-29.500 Z-6.000 F420.000
G1 X-21.500 Y0.000 Z-6.000 F420.000
G1 X-21.500 Y0.000 Z-9.000 F420.000
G1 X-21.500 Y29.500 Z-9.000 F420.000
G1 X21.500 Y29.500 Z-9.000 F420.000
G1 X21.500 Y-29.500 Z-9.000 F420.000
G1 X-21.500 Y-29.500 Z-9.000 F420.000
G1 X-21.500 Y0.000 Z-9.000 F420.000
G1 X-21.500 Y0.000 Z-10.000 F420.000
G1 X-21.500 Y29.500 Z-10.000 F420.000
G1 X21.500 Y29.500 Z-10.000 F420.000
G1 X21.500 Y-29.500 Z-10.000 F420.000
G1 X-21.500 Y-29.500 Z-10.000 F420.000
G1 X-21.500 Y0.000 Z-10.000 F420.000
G0 Z5.000
G0 Z5.000
(Finish operation: Profile)
(Begin postamble)
M5
G17 G90
M2
