(Exported by FreeCAD)
(Post Processor: script_module)
(Output Time:2026-01-07 16:36:49.214535)
(Begin preamble)
G17 G90
G21
(Begin operation: Fixture)
(Path: Fixture)
G54
(Finish operation: Fixture)
(Begin operation: 3mm_Endmill003)
(Path: 3mm_Endmill003)
(3mm_Endmill003)
(Begin toolchange)
( M6 T2 )
M3 S15000
(Finish operation: 3mm_Endmill003)
(Begin operation: Profile001)
(Path: Profile001)
(Profile001)
(Compensated Tool Path. Diameter: 3.0)
G0 Z5.000
G0 X0.000 Y0.000
G0 Y21.500
G0 Y21.500 Z3.000
G1 X0.000 Y21.500 Z-3.000 F420.000
G1 X29.500 Y21.500 Z-3.000 F420.000
G1 X29.500 Y-21.500 Z-3.000 F420.000
G1 X-29.500 Y-21.500 Z-3.000 F420.000
G1 X-29.500 Y21.500 Z-3.000 F420.000
G1 X0.000 Y21.500 Z-3.000 F420.000
G1 X0.000 Y21.500 Z-6.000 F420.000
G1 X29.500 Y21.500 Z-6.000 F420.000
G1 X29.500 Y-21.500 Z-6.000 F420.000
G1 X-29.500 Y-21.500 Z-6.000 F420.000
G1 X-29.500 Y21.500 Z-6.000 F420.000
G1 X0.000 Y21.500 Z-6.000 F420.000
G1 X0.000 Y21.500 Z-9.000 F420.000
G1 X29.500 Y21.500 Z-9.000 F420.000
G1 X29.500 Y-21.500 Z-9.000 F420.000
G1 X-29.500 Y-21.500 Z-9.000 F420.000
G1 X-29.500 Y21.500 Z-9.000 F420.000
G1 X0.000 Y21.500 Z-9.000 F420.000
G1 X0.000 Y21.500 Z-10.000 F420.000
G1 X29.500 Y21.500 Z-10.000 F420.000
G1 X29.500 Y-21.500 Z-10.000 F420.000
G1 X-29.500 Y-21.500 Z-10.000 F420.000
G1 X-29.500 Y21.500 Z-10.000 F420.000
G1 X0.000 Y21.500 Z-10.000 F420.000
G0 Z5.000
G0 Z5.000
(Finish operation: Profile001)
(Begin postamble)
M5
G17 G90
M2
