(Exported by FreeCAD)
(Post Processor: script_module)
(Output Time:2026-01-28 15:29:23.203405)
(Begin preamble)
G17 G90
G21
(Begin operation: Fixture)
(Path: Fixture)
G54
(Finish operation: Fixture)
(Begin operation: 2_5mmEndMill004)
(Path: 2_5mmEndMill004)
(2_5mmEndMill004)
(Begin toolchange)
( M6 T2 )
M3 S15000
(Finish operation: 2_5mmEndMill004)
(Begin operation: Profile001)
(Path: Profile001)
(Profile001)
(Compensated Tool Path. Diameter: 2.5)
G0 Z5.000
G0 X0.000 Y0.000
G0 Y21.750
G0 Y21.750 Z3.000
G1 X0.000 Y21.750 Z-2.500 F420.000
G1 X29.750 Y21.750 Z-2.500 F420.000
G1 X29.750 Y-21.750 Z-2.500 F420.000
G1 X-29.750 Y-21.750 Z-2.500 F420.000
G1 X-29.750 Y21.750 Z-2.500 F420.000
G1 X0.000 Y21.750 Z-2.500 F420.000
G1 X0.000 Y21.750 Z-5.000 F420.000
G1 X29.750 Y21.750 Z-5.000 F420.000
G1 X29.750 Y-21.750 Z-5.000 F420.000
G1 X-29.750 Y-21.750 Z-5.000 F420.000
G1 X-29.750 Y21.750 Z-5.000 F420.000
G1 X0.000 Y21.750 Z-5.000 F420.000
G1 X0.000 Y21.750 Z-7.500 F420.000
G1 X29.750 Y21.750 Z-7.500 F420.000
G1 X29.750 Y-21.750 Z-7.500 F420.000
G1 X-29.750 Y-21.750 Z-7.500 F420.000
G1 X-29.750 Y21.750 Z-7.500 F420.000
G1 X0.000 Y21.750 Z-7.500 F420.000
G1 X0.000 Y21.750 Z-10.000 F420.000
G1 X29.750 Y21.750 Z-10.000 F420.000
G1 X29.750 Y-21.750 Z-10.000 F420.000
G1 X-29.750 Y-21.750 Z-10.000 F420.000
G1 X-29.750 Y21.750 Z-10.000 F420.000
G1 X0.000 Y21.750 Z-10.000 F420.000
G1 X0.000 Y21.750 Z-12.000 F420.000
G1 X29.750 Y21.750 Z-12.000 F420.000
G1 X29.750 Y-21.750 Z-12.000 F420.000
G1 X-29.750 Y-21.750 Z-12.000 F420.000
G1 X-29.750 Y21.750 Z-12.000 F420.000
G1 X0.000 Y21.750 Z-12.000 F420.000
G0 Z5.000
G0 Z5.000
(Finish operation: Profile001)
(Begin postamble)
M5
G17 G90
M2
