(Exported by FreeCAD)
(Post Processor: script_module)
(Output Time:2026-01-17 13:43:41.133702)
(Begin preamble)
G17 G90
G21
(Begin operation: Fixture)
(Path: Fixture)
G54
(Finish operation: Fixture)
(Begin operation: 2_5mmEndMill002)
(Path: 2_5mmEndMill002)
(2_5mmEndMill002)
(Begin toolchange)
( M6 T2 )
M3 S15000
(Finish operation: 2_5mmEndMill002)
(Begin operation: Profile)
(Path: Profile)
(Profile)
(Compensated Tool Path. Diameter: 2.5)
G0 Z5.000
G0 X21.750 Y29.750
G0 Z3.000
G1 X21.750 Y29.750 Z-2.000 F360.000
G1 X21.750 Y-29.750 Z-2.000 F360.000
G1 X-21.750 Y-29.750 Z-2.000 F360.000
G1 X-21.750 Y29.750 Z-2.000 F360.000
G1 X21.750 Y29.750 Z-2.000 F360.000
G1 X21.750 Y29.750 Z-4.000 F360.000
G1 X21.750 Y-29.750 Z-4.000 F360.000
G1 X-21.750 Y-29.750 Z-4.000 F360.000
G1 X-21.750 Y29.750 Z-4.000 F360.000
G1 X21.750 Y29.750 Z-4.000 F360.000
G1 X21.750 Y29.750 Z-6.000 F360.000
G1 X21.750 Y-29.750 Z-6.000 F360.000
G1 X-21.750 Y-29.750 Z-6.000 F360.000
G1 X-21.750 Y29.750 Z-6.000 F360.000
G1 X21.750 Y29.750 Z-6.000 F360.000
G1 X21.750 Y29.750 Z-8.000 F360.000
G1 X21.750 Y-29.750 Z-8.000 F360.000
G1 X-21.750 Y-29.750 Z-8.000 F360.000
G1 X-21.750 Y29.750 Z-8.000 F360.000
G1 X21.750 Y29.750 Z-8.000 F360.000
G1 X21.750 Y29.750 Z-10.000 F360.000
G1 X21.750 Y-29.750 Z-10.000 F360.000
G1 X-21.750 Y-29.750 Z-10.000 F360.000
G1 X-21.750 Y29.750 Z-10.000 F360.000
G1 X21.750 Y29.750 Z-10.000 F360.000
G0 Z5.000
G0 Z5.000
(Finish operation: Profile)
(Begin postamble)
M5
G17 G90
M2
