(Exported by FreeCAD)
(Post Processor: script_module)
(Output Time:2025-03-16 10:24:42.562450)
(Begin preamble)
G17 G90
G21
(Begin operation: Fixture)
(Path: Fixture)
G54
(Finish operation: Fixture)
(Begin operation: 3mm_Endmill001)
(Path: 3mm_Endmill001)
(3mm_Endmill001)
(Begin toolchange)
( M6 T2 )
M3 S10000
(Finish operation: 3mm_Endmill001)
(Begin operation: Pocket_Shape)
(Path: Pocket_Shape)
(Pocket_Shape)
G0 Z10.000
G0 X22.505 Y9.427
G0 Z8.000
G1 X22.505 Y9.427 Z2.000 F720.000
G3 X20.074 Y6.996 Z2.000 I-0.510 J-1.921 K0.000 F720.000
G1 X22.505 Y9.427 Z2.000 F720.000
G1 X22.729 Y9.358 Z2.000 F720.000
G2 X21.271 Y5.642 Z2.000 I-0.729 J-1.858 K0.000 F720.000
G2 X22.505 Y9.427 Z2.000 I0.727 J1.857 K0.000 F720.000
G2 X23.463 Y6.143 Z2.000 I-0.501 J-1.928 K0.000 F720.000
G1 X23.463 Y6.143 Z0.000 F720.000
G3 X22.505 Y9.427 Z0.000 I-1.459 J1.356 K0.000 F720.000
G3 X21.271 Y5.642 Z0.000 I-0.507 J-1.928 K0.000 F720.000
G3 X22.729 Y9.358 Z0.000 I0.729 J1.858 K0.000 F720.000
G1 X22.505 Y9.427 Z0.000 F720.000
G1 X20.074 Y6.996 Z0.000 F720.000
G2 X22.505 Y9.427 Z0.000 I1.921 J0.510 K0.000 F720.000
G0 Z10.000
G0 Z10.000
G0 X22.505 Y9.427
G0 X23.463 Y15.643
G0 X23.463 Y15.643 Z8.000
G1 X23.463 Y15.643 Z2.000 F720.000
G3 X24.000 Y17.056 Z2.000 I-1.499 J1.378 K0.000 F720.000
G1 X24.000 Y20.422 Z2.000 F720.000
G1 X20.074 Y16.496 Z2.000 F720.000
G2 X20.000 Y17.056 Z2.000 I1.822 J0.525 K0.000 F720.000
G1 X20.000 Y20.665 Z2.000 F720.000
G1 X24.000 Y24.665 Z2.000 F720.000
G1 X24.000 Y28.907 Z2.000 F720.000
G1 X20.000 Y24.907 Z2.000 F720.000
G1 X20.000 Y29.150 Z2.000 F720.000
G1 X24.000 Y33.150 Z2.000 F720.000
G1 X24.000 Y37.393 Z2.000 F720.000
G1 X20.000 Y33.393 Z2.000 F720.000
G1 X20.000 Y37.635 Z2.000 F720.000
G1 X24.000 Y41.635 Z2.000 F720.000
G3 X23.463 Y43.357 Z2.000 I-2.164 J0.270 K0.000 F720.000
G3 X22.112 Y43.990 Z2.000 I-1.452 J-1.341 K0.000 F720.000
G3 X20.000 Y41.944 Z2.000 I-0.113 J-1.997 K0.000 F720.000
G1 X20.000 Y17.056 Z2.000 F720.000
G3 X23.974 Y16.703 Z2.000 I1.998 J-0.053 K0.000 F720.000
G1 X24.000 Y17.056 Z2.000 F720.000
G1 X24.000 Y41.944 Z2.000 F720.000
G3 X22.112 Y43.990 Z2.000 I-1.998 J0.051 K0.000 F720.000
G1 X20.000 Y41.878 Z2.000 F720.000
G2 X22.112 Y43.990 Z2.000 I2.001 J0.111 K0.000 F720.000
G1 X22.112 Y43.990 Z0.000 F720.000
G3 X20.000 Y41.878 Z0.000 I-0.111 J-2.001 K0.000 F720.000
G1 X22.112 Y43.990 Z0.000 F720.000
G2 X24.000 Y41.944 Z0.000 I-0.110 J-1.995 K0.000 F720.000
G1 X24.000 Y17.056 Z0.000 F720.000
G1 X23.974 Y16.703 Z0.000 F720.000
G2 X20.000 Y17.056 Z0.000 I-1.976 J0.300 K0.000 F720.000
G1 X20.000 Y41.944 Z0.000 F720.000
G2 X22.112 Y43.990 Z0.000 I2.000 J0.049 K0.000 F720.000
G2 X23.463 Y43.357 Z0.000 I-0.101 J-1.973 K0.000 F720.000
G2 X24.000 Y41.635 Z0.000 I-1.627 J-1.452 K0.000 F720.000
G1 X20.000 Y37.635 Z0.000 F720.000
G1 X20.000 Y33.393 Z0.000 F720.000
G1 X24.000 Y37.393 Z0.000 F720.000
G1 X24.000 Y33.150 Z0.000 F720.000
G1 X20.000 Y29.150 Z0.000 F720.000
G1 X20.000 Y24.907 Z0.000 F720.000
G1 X24.000 Y28.907 Z0.000 F720.000
G1 X24.000 Y24.665 Z0.000 F720.000
G1 X20.000 Y20.665 Z0.000 F720.000
G1 X20.000 Y17.056 Z0.000 F720.000
G3 X20.074 Y16.496 Z0.000 I1.896 J-0.036 K0.000 F720.000
G1 X24.000 Y20.422 Z0.000 F720.000
G1 X24.000 Y17.056 Z0.000 F720.000
G2 X23.463 Y15.643 Z0.000 I-2.036 J-0.035 K0.000 F720.000
G0 Z10.000
G0 Z10.000
G0 X23.463 Y15.643
G0 X159.307 Y15.491
G0 X159.307 Y15.491 Z8.000
G1 X159.307 Y15.491 Z2.000 F720.000
G3 X160.000 Y17.054 Z2.000 I-1.326 J1.523 K0.000 F720.000
G1 X160.000 Y20.427 Z2.000 F720.000
G1 X156.071 Y16.498 Z2.000 F720.000
G2 X156.000 Y17.054 Z2.000 I1.895 J0.526 K0.000 F720.000
G1 X156.000 Y20.669 Z2.000 F720.000
G1 X160.000 Y24.669 Z2.000 F720.000
G1 X160.000 Y28.912 Z2.000 F720.000
G1 X156.000 Y24.912 Z2.000 F720.000
G1 X156.000 Y29.155 Z2.000 F720.000
G1 X160.000 Y33.155 Z2.000 F720.000
G1 X160.000 Y37.397 Z2.000 F720.000
G1 X156.000 Y33.397 Z2.000 F720.000
G1 X156.000 Y37.640 Z2.000 F720.000
G1 X160.000 Y41.640 Z2.000 F720.000
G3 X159.079 Y43.679 Z2.000 I-2.086 J0.286 K0.000 F720.000
G3 X158.106 Y43.989 Z2.000 I-1.047 J-1.609 K0.000 F720.000
G3 X156.000 Y41.946 Z2.000 I-0.111 J-1.992 K0.000 F720.000
G1 X156.000 Y17.054 Z2.000 F720.000
G3 X159.976 Y16.716 Z2.000 I1.998 J-0.051 K0.000 F720.000
G1 X160.000 Y17.054 Z2.000 F720.000
G1 X160.000 Y41.946 Z2.000 F720.000
G3 X158.106 Y43.989 Z2.000 I-1.993 J0.051 K0.000 F720.000
G3 X156.000 Y41.883 Z2.000 I-0.110 J-1.996 K0.000 F720.000
G1 X158.106 Y43.989 Z2.000 F720.000
G1 X158.106 Y43.989 Z0.000 F720.000
G1 X156.000 Y41.883 Z0.000 F720.000
G2 X158.106 Y43.989 Z0.000 I1.996 J0.110 K0.000 F720.000
G2 X160.000 Y41.946 Z0.000 I-0.099 J-1.991 K0.000 F720.000
G1 X160.000 Y17.054 Z0.000 F720.000
G1 X159.976 Y16.716 Z0.000 F720.000
G2 X156.000 Y17.054 Z0.000 I-1.978 J0.286 K0.000 F720.000
G1 X156.000 Y41.946 Z0.000 F720.000
G2 X158.106 Y43.989 Z0.000 I1.994 J0.050 K0.000 F720.000
G2 X159.079 Y43.679 Z0.000 I-0.074 J-1.918 K0.000 F720.000
G2 X160.000 Y41.640 Z0.000 I-1.165 J-1.753 K0.000 F720.000
G1 X156.000 Y37.640 Z0.000 F720.000
G1 X156.000 Y33.397 Z0.000 F720.000
G1 X160.000 Y37.397 Z0.000 F720.000
G1 X160.000 Y33.155 Z0.000 F720.000
G1 X156.000 Y29.155 Z0.000 F720.000
G1 X156.000 Y24.912 Z0.000 F720.000
G1 X160.000 Y28.912 Z0.000 F720.000
G1 X160.000 Y24.669 Z0.000 F720.000
G1 X156.000 Y20.669 Z0.000 F720.000
G1 X156.000 Y17.054 Z0.000 F720.000
G3 X156.071 Y16.498 Z0.000 I1.967 J-0.029 K0.000 F720.000
G1 X160.000 Y20.427 Z0.000 F720.000
G1 X160.000 Y17.054 Z0.000 F720.000
G2 X159.307 Y15.491 Z0.000 I-2.019 J-0.039 K0.000 F720.000
G0 Z10.000
G0 Z10.000
G0 X159.307 Y15.491
G0 X158.505 Y9.427
G0 X158.505 Y9.427 Z8.000
G1 X158.505 Y9.427 Z2.000 F720.000
G3 X156.074 Y6.996 Z2.000 I-0.510 J-1.921 K0.000 F720.000
G1 X158.505 Y9.427 Z2.000 F720.000
G1 X158.729 Y9.358 Z2.000 F720.000
G2 X157.271 Y5.642 Z2.000 I-0.729 J-1.858 K0.000 F720.000
G2 X158.505 Y9.427 Z2.000 I0.727 J1.857 K0.000 F720.000
G2 X159.463 Y6.143 Z2.000 I-0.501 J-1.928 K0.000 F720.000
G1 X159.463 Y6.143 Z0.000 F720.000
G3 X158.505 Y9.427 Z0.000 I-1.459 J1.356 K0.000 F720.000
G3 X157.271 Y5.642 Z0.000 I-0.507 J-1.928 K0.000 F720.000
G3 X158.729 Y9.358 Z0.000 I0.729 J1.858 K0.000 F720.000
G1 X158.505 Y9.427 Z0.000 F720.000
G1 X156.074 Y6.996 Z0.000 F720.000
G2 X158.505 Y9.427 Z0.000 I1.921 J0.510 K0.000 F720.000
G0 Z10.000
G0 Z10.000
(Finish operation: Pocket_Shape)
(Begin operation: Pocket_Shape001)
(Path: Pocket_Shape001)
(Pocket_Shape001)
G0 Z10.000
G0 X26.585 Y48.500
G0 Z8.000
G1 X26.585 Y48.500 Z3.500 F720.000
G1 X22.071 Y43.985 Z3.500 F720.000
G2 X23.888 Y42.679 Z3.500 I-0.066 J-2.008 K0.000 F720.000
G2 X24.011 Y41.683 Z3.500 I-3.076 J-0.885 K0.000 F720.000
G1 X30.500 Y48.172 Z3.500 F720.000
G1 X30.500 Y43.929 Z3.500 F720.000
G1 X24.000 Y37.430 Z3.500 F720.000
G1 X24.000 Y33.187 Z3.500 F720.000
G1 X30.500 Y39.687 Z3.500 F720.000
G1 X30.500 Y35.444 Z3.500 F720.000
G1 X24.000 Y28.944 Z3.500 F720.000
G1 X24.000 Y24.702 Z3.500 F720.000
G1 X30.500 Y31.202 Z3.500 F720.000
G1 X30.500 Y26.959 Z3.500 F720.000
G1 X24.000 Y20.459 Z3.500 F720.000
G1 X24.000 Y17.247 Z3.500 F720.000
G2 X23.602 Y15.818 Z3.500 I-1.991 J-0.215 K0.000 F720.000
G1 X30.500 Y22.716 Z3.500 F720.000
G1 X30.500 Y18.474 Z3.500 F720.000
G1 X21.427 Y9.400 Z3.500 F720.000
G3 X20.099 Y8.073 Z3.500 I0.573 J-1.900 K0.000 F720.000
G1 X13.527 Y1.500 Z3.500 F720.000
G1 X13.535 Y1.500 Z3.500 F720.000
G1 X17.769 Y1.500 Z3.500 F720.000
G1 X21.793 Y5.524 Z3.500 F720.000
G0 Z10.000
G0 X21.793 Y5.523 Z10.000
G0 X21.793 Y5.523 Z8.000
G1 X21.793 Y5.523 Z3.500 F720.000
G3 X21.961 Y5.512 Z3.500 I0.202 J1.952 K0.000 F720.000
G3 X23.986 Y7.486 Z3.500 I0.040 J1.985 K0.000 F720.000
G3 X22.012 Y9.486 Z3.500 I-1.987 J0.013 K0.000 F720.000
G3 X20.013 Y7.511 Z3.500 I-0.012 J-1.987 K0.000 F720.000
G3 X20.382 Y6.356 Z3.500 I1.929 J-0.020 K0.000 F720.000
G3 X21.793 Y5.523 Z3.500 I1.613 J1.119 K0.000 F720.000
G0 Z10.000
G0 X13.535 Y1.500 Z10.000
G0 X13.535 Y1.500 Z8.000
G1 X13.535 Y1.500 Z3.500 F720.000
G1 X30.465 Y1.500 Z3.500 F720.000
G1 X30.498 Y1.502 Z3.500 F720.000
G1 X30.500 Y1.535 Z3.500 F720.000
G1 X30.500 Y48.465 Z3.500 F720.000
G1 X30.498 Y48.498 Z3.500 F720.000
G1 X30.465 Y48.500 Z3.500 F720.000
G1 X13.857 Y48.500 Z3.500 F720.000
G0 Z10.000
G0 X20.439 Y43.232 Z10.000
G0 X20.439 Y43.232 Z8.000
G1 X20.439 Y43.232 Z3.500 F720.000
G3 X19.998 Y41.998 Z3.500 I1.568 J-1.255 K0.000 F720.000
G1 X20.000 Y17.237 Z3.500 F720.000
G3 X22.035 Y15.016 Z3.500 I2.007 J-0.203 K0.000 F720.000
G3 X24.000 Y17.247 Z3.500 I-0.042 J2.018 K0.000 F720.000
G1 X24.000 Y41.516 Z3.500 F720.000
G3 X24.011 Y41.706 Z3.500 I-2.500 J0.242 K0.000 F720.000
G3 X23.888 Y42.679 Z3.500 I-3.191 J0.089 K0.000 F720.000
G3 X20.439 Y43.232 Z3.500 I-1.882 J-0.701 K0.000 F720.000
G0 Z10.000
G0 X30.500 Y18.474 Z10.000
G0 X30.500 Y18.474 Z8.000
G1 X30.500 Y18.474 Z3.500 F720.000
G1 X21.427 Y9.400 Z3.500 F720.000
G2 X23.975 Y7.706 Z3.500 I0.574 J-1.902 K0.000 F720.000
G1 X30.500 Y14.231 Z3.500 F720.000
G1 X30.500 Y9.988 Z3.500 F720.000
G1 X22.012 Y1.500 Z3.500 F720.000
G1 X26.254 Y1.500 Z3.500 F720.000
G1 X30.500 Y5.746 Z3.500 F720.000
G1 X30.500 Y1.535 Z3.500 F720.000
G1 X30.498 Y1.502 Z3.500 F720.000
G0 Z10.000
G0 X23.207 Y15.423 Z10.000
G0 X23.207 Y15.423 Z8.000
G1 X23.207 Y15.423 Z3.500 F720.000
G1 X13.500 Y5.716 Z3.500 F720.000
G1 X13.500 Y9.959 Z3.500 F720.000
G1 X20.057 Y16.516 Z3.500 F720.000
G2 X20.000 Y17.237 Z3.500 I1.927 J0.515 K0.000 F720.000
G1 X20.000 Y20.701 Z3.500 F720.000
G1 X13.500 Y14.202 Z3.500 F720.000
G1 X13.500 Y18.444 Z3.500 F720.000
G1 X19.999 Y24.944 Z3.500 F720.000
G1 X19.999 Y29.186 Z3.500 F720.000
G1 X13.500 Y22.687 Z3.500 F720.000
G1 X13.500 Y26.929 Z3.500 F720.000
G1 X19.999 Y33.428 Z3.500 F720.000
G1 X19.999 Y37.671 Z3.500 F720.000
G1 X13.500 Y31.172 Z3.500 F720.000
G1 X13.500 Y35.415 Z3.500 F720.000
G1 X19.998 Y41.913 Z3.500 F720.000
G2 X22.071 Y43.985 Z3.500 I2.009 J0.063 K0.000 F720.000
G1 X26.585 Y48.500 Z3.500 F720.000
G1 X22.343 Y48.500 Z3.500 F720.000
G1 X13.500 Y39.657 Z3.500 F720.000
G1 X13.500 Y43.900 Z3.500 F720.000
G1 X18.100 Y48.500 Z3.500 F720.000
G1 X13.857 Y48.500 Z3.500 F720.000
G1 X13.500 Y48.143 Z3.500 F720.000
G2 X13.502 Y48.498 Z3.500 I3.841 J0.161 K0.000 F720.000
G2 X13.857 Y48.500 Z3.500 I0.194 J-3.839 K0.000 F720.000
G3 X13.502 Y48.498 Z3.500 I-0.161 J-3.841 K0.000 F720.000
G1 X13.500 Y48.465 Z3.500 F720.000
G1 X13.500 Y1.535 Z3.500 F720.000
G1 X13.502 Y1.502 Z3.500 F720.000
G1 X13.535 Y1.500 Z3.500 F720.000
G0 Z10.000
G0 Z10.000
G0 X13.535 Y1.500
G0 X149.535
G0 X149.535 Z8.000
G1 X149.535 Y1.500 Z3.500 F720.000
G1 X166.465 Y1.500 Z3.500 F720.000
G1 X166.498 Y1.502 Z3.500 F720.000
G1 X166.500 Y1.535 Z3.500 F720.000
G1 X166.500 Y48.465 Z3.500 F720.000
G1 X166.498 Y48.498 Z3.500 F720.000
G1 X166.465 Y48.500 Z3.500 F720.000
G1 X149.857 Y48.500 Z3.500 F720.000
G0 Z10.000
G0 X156.439 Y43.232 Z10.000
G0 X156.439 Y43.232 Z8.000
G1 X156.439 Y43.232 Z3.500 F720.000
G3 X155.999 Y41.958 Z3.500 I1.568 J-1.255 K0.000 F720.000
G1 X156.000 Y17.235 Z3.500 F720.000
G3 X158.039 Y15.016 Z3.500 I2.007 J-0.202 K0.000 F720.000
G3 X160.000 Y17.245 Z3.500 I-0.045 J2.017 K0.000 F720.000
G1 X160.000 Y41.508 Z3.500 F720.000
G3 X160.011 Y41.888 Z3.500 I-2.780 J0.267 K0.000 F720.000
G3 X159.885 Y42.689 Z3.500 I-3.035 J-0.068 K0.000 F720.000
G3 X156.439 Y43.232 Z3.500 I-1.878 J-0.711 K0.000 F720.000
G0 Z10.000
G0 X162.585 Y48.500 Z10.000
G0 X162.585 Y48.500 Z8.000
G1 X162.585 Y48.500 Z3.500 F720.000
G1 X158.070 Y43.985 Z3.500 F720.000
G2 X158.777 Y43.832 Z3.500 I-0.059 J-1.978 K0.000 F720.000
G2 X159.922 Y42.567 Z3.500 I-0.750 J-1.830 K0.000 F720.000
G2 X160.011 Y41.683 Z3.500 I-3.379 J-0.788 K0.000 F720.000
G1 X166.500 Y48.172 Z3.500 F720.000
G1 X166.500 Y43.929 Z3.500 F720.000
G1 X160.000 Y37.429 Z3.500 F720.000
G1 X160.000 Y33.187 Z3.500 F720.000
G1 X166.500 Y39.687 Z3.500 F720.000
G1 X166.500 Y35.444 Z3.500 F720.000
G1 X160.000 Y28.944 Z3.500 F720.000
G1 X160.000 Y24.702 Z3.500 F720.000
G1 X166.500 Y31.202 Z3.500 F720.000
G1 X166.500 Y26.959 Z3.500 F720.000
G1 X160.000 Y20.459 Z3.500 F720.000
G1 X160.000 Y17.245 Z3.500 F720.000
G2 X159.605 Y15.821 Z3.500 I-1.990 J-0.214 K0.000 F720.000
G1 X166.500 Y22.716 Z3.500 F720.000
G1 X166.500 Y18.474 Z3.500 F720.000
G1 X157.426 Y9.399 Z3.500 F720.000
G3 X156.101 Y8.074 Z3.500 I0.575 J-1.900 K0.000 F720.000
G1 X149.527 Y1.500 Z3.500 F720.000
G1 X149.535 Y1.500 Z3.500 F720.000
G1 X153.769 Y1.500 Z3.500 F720.000
G1 X157.793 Y5.524 Z3.500 F720.000
G0 Z10.000
G0 X157.793 Y5.523 Z10.000
G0 X157.793 Y5.523 Z8.000
G1 X157.793 Y5.523 Z3.500 F720.000
G3 X157.960 Y5.513 Z3.500 I0.202 J1.952 K0.000 F720.000
G3 X159.986 Y7.485 Z3.500 I0.041 J1.985 K0.000 F720.000
G3 X158.013 Y9.485 Z3.500 I-1.986 J0.014 K0.000 F720.000
G3 X156.014 Y7.512 Z3.500 I-0.013 J-1.986 K0.000 F720.000
G3 X156.381 Y6.358 Z3.500 I1.929 J-0.021 K0.000 F720.000
G3 X157.793 Y5.523 Z3.500 I1.614 J1.116 K0.000 F720.000
G0 Z10.000
G0 X149.535 Y1.500 Z10.000
G0 X149.535 Y1.500 Z8.000
G1 X149.535 Y1.500 Z3.500 F720.000
G1 X149.502 Y1.502 Z3.500 F720.000
G1 X149.500 Y1.535 Z3.500 F720.000
G1 X149.500 Y48.465 Z3.500 F720.000
G1 X149.502 Y48.498 Z3.500 F720.000
G2 X149.857 Y48.500 Z3.500 I0.194 J-3.838 K0.000 F720.000
G3 X149.502 Y48.498 Z3.500 I-0.161 J-3.840 K0.000 F720.000
G3 X149.500 Y48.143 Z3.500 I3.838 J-0.194 K0.000 F720.000
G1 X149.857 Y48.500 Z3.500 F720.000
G1 X154.100 Y48.500 Z3.500 F720.000
G1 X149.500 Y43.900 Z3.500 F720.000
G1 X149.500 Y39.658 Z3.500 F720.000
G1 X158.343 Y48.500 Z3.500 F720.000
G1 X162.585 Y48.500 Z3.500 F720.000
G1 X158.070 Y43.985 Z3.500 F720.000
G3 X155.999 Y41.914 Z3.500 I-0.062 J-2.009 K0.000 F720.000
G1 X149.500 Y35.415 Z3.500 F720.000
G1 X149.500 Y31.172 Z3.500 F720.000
G1 X155.999 Y37.672 Z3.500 F720.000
G1 X156.000 Y33.429 Z3.500 F720.000
G1 X149.500 Y26.930 Z3.500 F720.000
G1 X149.500 Y22.687 Z3.500 F720.000
G1 X156.000 Y29.186 Z3.500 F720.000
G1 X156.000 Y24.944 Z3.500 F720.000
G1 X149.500 Y18.444 Z3.500 F720.000
G1 X149.500 Y14.202 Z3.500 F720.000
G1 X156.000 Y20.701 Z3.500 F720.000
G1 X156.000 Y17.235 Z3.500 F720.000
G3 X156.057 Y16.516 Z3.500 I1.984 J-0.204 K0.000 F720.000
G1 X149.500 Y9.959 Z3.500 F720.000
G1 X149.500 Y5.716 Z3.500 F720.000
G1 X159.203 Y15.419 Z3.500 F720.000
G0 Z10.000
G0 X166.500 Y18.474 Z10.000
G0 X166.500 Y18.474 Z8.000
G1 X166.500 Y18.474 Z3.500 F720.000
G1 X157.426 Y9.399 Z3.500 F720.000
G2 X159.976 Y7.707 Z3.500 I0.575 J-1.901 K0.000 F720.000
G1 X166.500 Y14.231 Z3.500 F720.000
G1 X166.500 Y9.988 Z3.500 F720.000
G1 X158.012 Y1.500 Z3.500 F720.000
G1 X162.254 Y1.500 Z3.500 F720.000
G1 X166.500 Y5.746 Z3.500 F720.000
G1 X166.500 Y1.535 Z3.500 F720.000
G1 X166.498 Y1.502 Z3.500 F720.000
G0 Z10.000
G0 Z10.000
(Finish operation: Pocket_Shape001)
(Begin operation: Profile)
(Path: Profile)
(Profile)
(Compensated Tool Path. Diameter: 3.0)
G0 Z10.000
G0 X181.061 Y51.061
G0 Z8.000
G1 X181.061 Y51.061 Z2.000 F720.000
G2 X181.500 Y50.000 Z2.000 I-1.061 J-1.061 K0.000 F720.000
G1 X181.500 Y0.000 Z2.000 F720.000
G2 X180.000 Y-1.500 Z2.000 I-1.500 J0.000 K0.000 F720.000
G1 X0.000 Y-1.500 Z2.000 F720.000
G2 X-1.500 Y0.000 Z2.000 I0.000 J1.500 K0.000 F720.000
G1 X-1.500 Y50.000 Z2.000 F720.000
G2 X0.000 Y51.500 Z2.000 I1.500 J-0.000 K0.000 F720.000
G1 X40.000 Y51.500 Z2.000 F720.000
G2 X41.423 Y50.474 Z2.000 I0.000 J-1.500 K0.000 F720.000
G1 X51.081 Y21.500 Z2.000 F720.000
G1 X128.919 Y21.500 Z2.000 F720.000
G1 X138.577 Y50.474 Z2.000 F720.000
G2 X140.000 Y51.500 Z2.000 I1.423 J-0.474 K0.000 F720.000
G1 X180.000 Y51.500 Z2.000 F720.000
G2 X181.061 Y51.061 Z2.000 I-0.000 J-1.500 K0.000 F720.000
G1 X181.061 Y51.061 Z0.000 F720.000
G2 X181.500 Y50.000 Z0.000 I-1.061 J-1.061 K0.000 F720.000
G1 X181.500 Y0.000 Z0.000 F720.000
G2 X180.000 Y-1.500 Z0.000 I-1.500 J0.000 K0.000 F720.000
G1 X0.000 Y-1.500 Z0.000 F720.000
G2 X-1.500 Y0.000 Z0.000 I0.000 J1.500 K0.000 F720.000
G1 X-1.500 Y50.000 Z0.000 F720.000
G2 X0.000 Y51.500 Z0.000 I1.500 J-0.000 K0.000 F720.000
G1 X40.000 Y51.500 Z0.000 F720.000
G2 X41.423 Y50.474 Z0.000 I0.000 J-1.500 K0.000 F720.000
G1 X51.081 Y21.500 Z0.000 F720.000
G1 X128.919 Y21.500 Z0.000 F720.000
G1 X138.577 Y50.474 Z0.000 F720.000
G2 X140.000 Y51.500 Z0.000 I1.423 J-0.474 K0.000 F720.000
G1 X180.000 Y51.500 Z0.000 F720.000
G2 X181.061 Y51.061 Z0.000 I-0.000 J-1.500 K0.000 F720.000
G0 Z10.000
G0 Z10.000
(Finish operation: Profile)
(Begin postamble)
M5
G17 G90
M2
