(Exported by FreeCAD)
(Post Processor: script_module)
(Output Time:2025-02-27 14:55:58.562432)
(Begin preamble)
G17 G90
G21
(Begin operation: Fixture)
(Path: Fixture)
G54
(Finish operation: Fixture)
(Begin operation: 2mm_Endmill001)
(Path: 2mm_Endmill001)
(2mm_Endmill001)
(Begin toolchange)
( M6 T2 )
M3 S15000
(Finish operation: 2mm_Endmill001)
(Begin operation: Pocket_Shape)
(Path: Pocket_Shape)
(Pocket_Shape)
G0 Z15.000
G0 X1.023 Y3.857
G0 Z13.000
G1 X1.023 Y3.857 Z8.000 F480.000
G3 X-3.862 Y-1.028 Z8.000 I-1.032 J-3.852 K0.000 F480.000
G1 X1.023 Y3.857 Z8.000 F480.000
G1 X1.235 Y3.802 Z8.000 F480.000
G2 X-1.235 Y-3.802 Z8.000 I-1.235 J-3.802 K0.000 F480.000
G2 X1.023 Y3.857 Z8.000 I1.231 J3.800 K0.000 F480.000
G2 X2.820 Y2.826 Z8.000 I-0.911 J-3.668 K0.000 F480.000
G1 X-2.826 Y-2.820 Z8.000 F480.000
G3 X-1.032 Y-3.855 Z8.000 I2.729 J2.659 K0.000 F480.000
G1 X3.859 Y1.036 Z8.000 F480.000
G2 X2.914 Y-2.737 Z8.000 I-3.847 J-1.042 K0.000 F480.000
G1 X2.914 Y-2.737 Z6.000 F480.000
G3 X3.859 Y1.036 Z6.000 I-2.902 J2.731 K0.000 F480.000
G1 X-1.032 Y-3.855 Z6.000 F480.000
G2 X-2.826 Y-2.820 Z6.000 I0.935 J3.693 K0.000 F480.000
G1 X2.820 Y2.826 Z6.000 F480.000
G3 X1.023 Y3.857 Z6.000 I-2.708 J-2.637 K0.000 F480.000
G3 X-1.235 Y-3.802 Z6.000 I-1.028 J-3.860 K0.000 F480.000
G3 X1.235 Y3.802 Z6.000 I1.235 J3.802 K0.000 F480.000
G1 X1.023 Y3.857 Z6.000 F480.000
G1 X-3.862 Y-1.028 Z6.000 F480.000
G2 X1.023 Y3.857 Z6.000 I3.852 J1.032 K0.000 F480.000
G1 X1.023 Y3.857 Z4.000 F480.000
G3 X-3.862 Y-1.028 Z4.000 I-1.032 J-3.852 K0.000 F480.000
G1 X1.023 Y3.857 Z4.000 F480.000
G1 X1.235 Y3.802 Z4.000 F480.000
G2 X-1.235 Y-3.802 Z4.000 I-1.235 J-3.802 K0.000 F480.000
G2 X1.023 Y3.857 Z4.000 I1.231 J3.800 K0.000 F480.000
G2 X2.820 Y2.826 Z4.000 I-0.911 J-3.668 K0.000 F480.000
G1 X-2.826 Y-2.820 Z4.000 F480.000
G3 X-1.032 Y-3.855 Z4.000 I2.729 J2.659 K0.000 F480.000
G1 X3.859 Y1.036 Z4.000 F480.000
G2 X2.914 Y-2.737 Z4.000 I-3.847 J-1.042 K0.000 F480.000
G1 X2.914 Y-2.737 Z2.000 F480.000
G3 X3.859 Y1.036 Z2.000 I-2.902 J2.731 K0.000 F480.000
G1 X-1.032 Y-3.855 Z2.000 F480.000
G2 X-2.826 Y-2.820 Z2.000 I0.935 J3.693 K0.000 F480.000
G1 X2.820 Y2.826 Z2.000 F480.000
G3 X1.023 Y3.857 Z2.000 I-2.708 J-2.637 K0.000 F480.000
G3 X-1.235 Y-3.802 Z2.000 I-1.028 J-3.860 K0.000 F480.000
G3 X1.235 Y3.802 Z2.000 I1.235 J3.802 K0.000 F480.000
G1 X1.023 Y3.857 Z2.000 F480.000
G1 X-3.862 Y-1.028 Z2.000 F480.000
G2 X1.023 Y3.857 Z2.000 I3.852 J1.032 K0.000 F480.000
G1 X1.023 Y3.857 Z0.000 F480.000
G3 X-3.862 Y-1.028 Z0.000 I-1.032 J-3.852 K0.000 F480.000
G1 X1.023 Y3.857 Z0.000 F480.000
G1 X1.235 Y3.802 Z0.000 F480.000
G2 X-1.235 Y-3.802 Z0.000 I-1.235 J-3.802 K0.000 F480.000
G2 X1.023 Y3.857 Z0.000 I1.231 J3.800 K0.000 F480.000
G2 X2.820 Y2.826 Z0.000 I-0.911 J-3.668 K0.000 F480.000
G1 X-2.826 Y-2.820 Z0.000 F480.000
G3 X-1.032 Y-3.855 Z0.000 I2.729 J2.659 K0.000 F480.000
G1 X3.859 Y1.036 Z0.000 F480.000
G2 X2.914 Y-2.737 Z0.000 I-3.847 J-1.042 K0.000 F480.000
G0 Z15.000
G0 Z15.000
(Finish operation: Pocket_Shape)
(Begin operation: Pocket_Shape001)
(Path: Pocket_Shape001)
(Pocket_Shape001)
G0 Z15.000
G0 X-16.263 Y-8.943
G0 Z13.000
G1 X-16.263 Y-8.943 Z8.000 F480.000
G2 X-17.280 Y-11.495 Z8.000 I-1.057 J-1.057 K0.000 F480.000
G2 X-17.361 Y-8.505 Z8.000 I-0.041 J1.495 K0.000 F480.000
G2 X-16.263 Y-8.943 Z8.000 I0.041 J-1.495 K0.000 F480.000
G0 Z15.000
G0 X-18.367 Y-8.932 Z15.000
G0 X-18.367 Y-8.932 Z13.000
G1 X-18.367 Y-8.932 Z8.000 F480.000
G3 X-17.958 Y-11.352 Z8.000 I1.045 J-1.068 K0.000 F480.000
G1 X-15.969 Y-9.362 Z8.000 F480.000
G2 X-17.958 Y-11.352 Z8.000 I-1.351 J-0.639 K0.000 F480.000
G1 X-17.958 Y-11.352 Z6.000 F480.000
G3 X-15.969 Y-9.362 Z6.000 I0.639 J1.351 K0.000 F480.000
G1 X-17.958 Y-11.352 Z6.000 F480.000
G2 X-18.367 Y-8.932 Z6.000 I0.637 J1.352 K0.000 F480.000
G1 X-18.367 Y-8.932 Z6.000 F480.000
G2 X-17.361 Y-8.505 Z6.000 I1.047 J-1.068 K0.000 F480.000
G2 X-15.826 Y-9.959 Z6.000 I0.041 J-1.495 K0.000 F480.000
G2 X-17.280 Y-11.495 Z6.000 I-1.495 J-0.041 K0.000 F480.000
G2 X-18.367 Y-8.932 Z6.000 I-0.041 J1.495 K0.000 F480.000
G1 X-18.367 Y-8.932 Z5.000 F480.000
G2 X-17.361 Y-8.505 Z5.000 I1.047 J-1.068 K0.000 F480.000
G2 X-15.826 Y-9.959 Z5.000 I0.041 J-1.495 K0.000 F480.000
G2 X-17.280 Y-11.495 Z5.000 I-1.495 J-0.041 K0.000 F480.000
G2 X-18.367 Y-8.932 Z5.000 I-0.041 J1.495 K0.000 F480.000
G1 X-18.367 Y-8.932 Z5.000 F480.000
G3 X-17.958 Y-11.352 Z5.000 I1.045 J-1.068 K0.000 F480.000
G1 X-15.969 Y-9.362 Z5.000 F480.000
G2 X-17.958 Y-11.352 Z5.000 I-1.351 J-0.639 K0.000 F480.000
G0 Z15.000
G0 Z15.000
G0 X-17.958 Y-11.352
G0 X-1.347 Y-19.351
G0 X-1.347 Y-19.351 Z13.000
G1 X-1.347 Y-19.351 Z8.000 F480.000
G2 X-0.041 Y-18.505 Z8.000 I1.347 J-0.649 K0.000 F480.000
G2 X1.495 Y-19.959 Z8.000 I0.041 J-1.495 K0.000 F480.000
G2 X0.041 Y-21.495 Z8.000 I-1.495 J-0.041 K0.000 F480.000
G2 X-1.347 Y-19.351 Z8.000 I-0.041 J1.495 K0.000 F480.000
G0 Z15.000
G0 X-1.047 Y-18.932 Z15.000
G0 X-1.047 Y-18.932 Z13.000
G1 X-1.047 Y-18.932 Z8.000 F480.000
G3 X-0.638 Y-21.352 Z8.000 I1.045 J-1.068 K0.000 F480.000
G1 X1.351 Y-19.362 Z8.000 F480.000
G2 X-0.638 Y-21.352 Z8.000 I-1.351 J-0.639 K0.000 F480.000
G1 X-0.638 Y-21.352 Z6.000 F480.000
G3 X1.351 Y-19.362 Z6.000 I0.639 J1.351 K0.000 F480.000
G1 X-0.638 Y-21.352 Z6.000 F480.000
G2 X-1.047 Y-18.932 Z6.000 I0.637 J1.352 K0.000 F480.000
G1 X-1.047 Y-18.932 Z6.000 F480.000
G2 X-0.041 Y-18.505 Z6.000 I1.047 J-1.068 K0.000 F480.000
G2 X1.495 Y-19.959 Z6.000 I0.041 J-1.495 K0.000 F480.000
G2 X0.041 Y-21.495 Z6.000 I-1.495 J-0.041 K0.000 F480.000
G2 X-1.047 Y-18.932 Z6.000 I-0.041 J1.495 K0.000 F480.000
G1 X-1.047 Y-18.932 Z5.000 F480.000
G2 X-0.041 Y-18.505 Z5.000 I1.047 J-1.068 K0.000 F480.000
G2 X1.495 Y-19.959 Z5.000 I0.041 J-1.495 K0.000 F480.000
G2 X0.041 Y-21.495 Z5.000 I-1.495 J-0.041 K0.000 F480.000
G2 X-1.047 Y-18.932 Z5.000 I-0.041 J1.495 K0.000 F480.000
G1 X-1.047 Y-18.932 Z5.000 F480.000
G3 X-0.638 Y-21.352 Z5.000 I1.045 J-1.068 K0.000 F480.000
G1 X1.351 Y-19.362 Z5.000 F480.000
G2 X-0.638 Y-21.352 Z5.000 I-1.351 J-0.639 K0.000 F480.000
G0 Z15.000
G0 Z15.000
G0 X-0.638 Y-21.352
G0 X16.057 Y-10.799
G0 X16.057 Y-10.799 Z13.000
G1 X16.057 Y-10.799 Z8.000 F480.000
G2 X17.280 Y-8.505 Z8.000 I1.264 J0.799 K0.000 F480.000
G2 X18.815 Y-9.959 Z8.000 I0.041 J-1.495 K0.000 F480.000
G2 X17.361 Y-11.495 Z8.000 I-1.495 J-0.041 K0.000 F480.000
G2 X16.057 Y-10.799 Z8.000 I-0.041 J1.495 K0.000 F480.000
G0 Z15.000
G0 X16.683 Y-11.352 Z15.000
G0 X16.683 Y-11.352 Z13.000
G1 X16.683 Y-11.352 Z8.000 F480.000
G3 X18.672 Y-9.362 Z8.000 I0.639 J1.351 K0.000 F480.000
G1 X16.683 Y-11.352 Z8.000 F480.000
G2 X16.274 Y-8.932 Z8.000 I0.637 J1.352 K0.000 F480.000
G1 X16.274 Y-8.932 Z6.000 F480.000
G3 X16.683 Y-11.352 Z6.000 I1.045 J-1.068 K0.000 F480.000
G1 X18.672 Y-9.362 Z6.000 F480.000
G2 X16.683 Y-11.352 Z6.000 I-1.351 J-0.639 K0.000 F480.000
G0 Z15.000
G0 X16.682 Y-11.352 Z15.000
G0 X16.682 Y-11.352 Z13.000
G1 X16.682 Y-11.352 Z6.000 F480.000
G2 X17.280 Y-8.505 Z6.000 I0.638 J1.352 K0.000 F480.000
G2 X18.815 Y-9.959 Z6.000 I0.041 J-1.495 K0.000 F480.000
G2 X17.361 Y-11.495 Z6.000 I-1.495 J-0.041 K0.000 F480.000
G2 X16.682 Y-11.352 Z6.000 I-0.041 J1.495 K0.000 F480.000
G1 X16.682 Y-11.352 Z5.000 F480.000
G2 X17.280 Y-8.505 Z5.000 I0.638 J1.352 K0.000 F480.000
G2 X18.815 Y-9.959 Z5.000 I0.041 J-1.495 K0.000 F480.000
G2 X17.361 Y-11.495 Z5.000 I-1.495 J-0.041 K0.000 F480.000
G2 X16.682 Y-11.352 Z5.000 I-0.041 J1.495 K0.000 F480.000
G0 Z15.000
G0 X16.683 Y-11.352 Z15.000
G0 X16.683 Y-11.352 Z13.000
G1 X16.683 Y-11.352 Z5.000 F480.000
G3 X18.672 Y-9.362 Z5.000 I0.639 J1.351 K0.000 F480.000
G1 X16.683 Y-11.352 Z5.000 F480.000
G2 X16.274 Y-8.932 Z5.000 I0.637 J1.352 K0.000 F480.000
G0 Z15.000
G0 Z15.000
G0 X16.274 Y-8.932
G0 X17.238 Y8.507
G0 X17.238 Y8.507 Z13.000
G1 X17.238 Y8.507 Z8.000 F480.000
G2 X17.280 Y11.495 Z8.000 I0.083 J1.493 K0.000 F480.000
G2 X18.815 Y10.041 Z8.000 I0.041 J-1.495 K0.000 F480.000
G2 X17.361 Y8.505 Z8.000 I-1.495 J-0.041 K0.000 F480.000
G2 X17.238 Y8.507 Z8.000 I-0.041 J1.495 K0.000 F480.000
G0 Z15.000
G0 X16.683 Y8.648 Z15.000
G0 X16.683 Y8.648 Z13.000
G1 X16.683 Y8.648 Z8.000 F480.000
G3 X18.672 Y10.638 Z8.000 I0.639 J1.351 K0.000 F480.000
G1 X16.683 Y8.648 Z8.000 F480.000
G2 X16.274 Y11.068 Z8.000 I0.637 J1.352 K0.000 F480.000
G1 X16.274 Y11.068 Z6.000 F480.000
G3 X16.683 Y8.648 Z6.000 I1.045 J-1.068 K0.000 F480.000
G1 X18.672 Y10.638 Z6.000 F480.000
G2 X16.683 Y8.648 Z6.000 I-1.351 J-0.639 K0.000 F480.000
G0 Z15.000
G0 X16.682 Y8.648 Z15.000
G0 X16.682 Y8.648 Z13.000
G1 X16.682 Y8.648 Z6.000 F480.000
G2 X17.280 Y11.495 Z6.000 I0.638 J1.352 K0.000 F480.000
G2 X18.815 Y10.041 Z6.000 I0.041 J-1.495 K0.000 F480.000
G2 X17.361 Y8.505 Z6.000 I-1.495 J-0.041 K0.000 F480.000
G2 X16.682 Y8.648 Z6.000 I-0.041 J1.495 K0.000 F480.000
G1 X16.682 Y8.648 Z5.000 F480.000
G2 X17.280 Y11.495 Z5.000 I0.638 J1.352 K0.000 F480.000
G2 X18.815 Y10.041 Z5.000 I0.041 J-1.495 K0.000 F480.000
G2 X17.361 Y8.505 Z5.000 I-1.495 J-0.041 K0.000 F480.000
G2 X16.682 Y8.648 Z5.000 I-0.041 J1.495 K0.000 F480.000
G0 Z15.000
G0 X16.683 Y8.648 Z15.000
G0 X16.683 Y8.648 Z13.000
G1 X16.683 Y8.648 Z5.000 F480.000
G3 X18.672 Y10.638 Z5.000 I0.639 J1.351 K0.000 F480.000
G1 X16.683 Y8.648 Z5.000 F480.000
G2 X16.274 Y11.068 Z5.000 I0.637 J1.352 K0.000 F480.000
G0 Z15.000
G0 Z15.000
G0 X16.274 Y11.068
G0 X1.311 Y19.281
G0 X1.311 Y19.281 Z13.000
G1 X1.311 Y19.281 Z8.000 F480.000
G2 X0.041 Y18.505 Z8.000 I-1.311 J0.719 K0.000 F480.000
G2 X-0.041 Y21.495 Z8.000 I-0.041 J1.495 K0.000 F480.000
G2 X1.311 Y19.281 Z8.000 I0.041 J-1.495 K0.000 F480.000
G0 Z15.000
G0 X-0.638 Y18.648 Z15.000
G0 X-0.638 Y18.648 Z13.000
G1 X-0.638 Y18.648 Z8.000 F480.000
G3 X1.351 Y20.638 Z8.000 I0.639 J1.351 K0.000 F480.000
G1 X-0.638 Y18.648 Z8.000 F480.000
G2 X-1.047 Y21.068 Z8.000 I0.637 J1.352 K0.000 F480.000
G1 X-1.047 Y21.068 Z6.000 F480.000
G3 X-0.638 Y18.648 Z6.000 I1.045 J-1.068 K0.000 F480.000
G1 X1.351 Y20.638 Z6.000 F480.000
G2 X-0.638 Y18.648 Z6.000 I-1.351 J-0.639 K0.000 F480.000
G0 Z15.000
G0 X-0.638 Y18.648 Z15.000
G0 X-0.638 Y18.648 Z13.000
G1 X-0.638 Y18.648 Z6.000 F480.000
G2 X-0.041 Y21.495 Z6.000 I0.638 J1.352 K0.000 F480.000
G2 X1.495 Y20.041 Z6.000 I0.041 J-1.495 K0.000 F480.000
G2 X0.041 Y18.505 Z6.000 I-1.495 J-0.041 K0.000 F480.000
G2 X-0.638 Y18.648 Z6.000 I-0.041 J1.495 K0.000 F480.000
G1 X-0.638 Y18.648 Z5.000 F480.000
G2 X-0.041 Y21.495 Z5.000 I0.638 J1.352 K0.000 F480.000
G2 X1.495 Y20.041 Z5.000 I0.041 J-1.495 K0.000 F480.000
G2 X0.041 Y18.505 Z5.000 I-1.495 J-0.041 K0.000 F480.000
G2 X-0.638 Y18.648 Z5.000 I-0.041 J1.495 K0.000 F480.000
G0 Z15.000
G0 X-0.638 Y18.648 Z15.000
G0 X-0.638 Y18.648 Z13.000
G1 X-0.638 Y18.648 Z5.000 F480.000
G3 X1.351 Y20.638 Z5.000 I0.639 J1.351 K0.000 F480.000
G1 X-0.638 Y18.648 Z5.000 F480.000
G2 X-1.047 Y21.068 Z5.000 I0.637 J1.352 K0.000 F480.000
G0 Z15.000
G0 Z15.000
G0 X-1.047 Y21.068
G0 X-16.084 Y10.841
G0 X-16.084 Y10.841 Z13.000
G1 X-16.084 Y10.841 Z8.000 F480.000
G2 X-17.280 Y8.505 Z8.000 I-1.236 J-0.841 K0.000 F480.000
G2 X-17.361 Y11.495 Z8.000 I-0.041 J1.495 K0.000 F480.000
G2 X-16.084 Y10.841 Z8.000 I0.041 J-1.495 K0.000 F480.000
G0 Z15.000
G0 X-18.367 Y11.068 Z15.000
G0 X-18.367 Y11.068 Z13.000
G1 X-18.367 Y11.068 Z8.000 F480.000
G3 X-17.958 Y8.648 Z8.000 I1.045 J-1.068 K0.000 F480.000
G1 X-15.969 Y10.638 Z8.000 F480.000
G2 X-17.958 Y8.648 Z8.000 I-1.351 J-0.639 K0.000 F480.000
G1 X-17.958 Y8.648 Z6.000 F480.000
G3 X-15.969 Y10.638 Z6.000 I0.639 J1.351 K0.000 F480.000
G1 X-17.958 Y8.648 Z6.000 F480.000
G2 X-18.367 Y11.068 Z6.000 I0.637 J1.352 K0.000 F480.000
G1 X-18.367 Y11.068 Z6.000 F480.000
G2 X-17.361 Y11.495 Z6.000 I1.047 J-1.068 K0.000 F480.000
G2 X-15.826 Y10.041 Z6.000 I0.041 J-1.495 K0.000 F480.000
G2 X-17.280 Y8.505 Z6.000 I-1.495 J-0.041 K0.000 F480.000
G2 X-18.367 Y11.068 Z6.000 I-0.041 J1.495 K0.000 F480.000
G1 X-18.367 Y11.068 Z5.000 F480.000
G2 X-17.361 Y11.495 Z5.000 I1.047 J-1.068 K0.000 F480.000
G2 X-15.826 Y10.041 Z5.000 I0.041 J-1.495 K0.000 F480.000
G2 X-17.280 Y8.505 Z5.000 I-1.495 J-0.041 K0.000 F480.000
G2 X-18.367 Y11.068 Z5.000 I-0.041 J1.495 K0.000 F480.000
G1 X-18.367 Y11.068 Z5.000 F480.000
G3 X-17.958 Y8.648 Z5.000 I1.045 J-1.068 K0.000 F480.000
G1 X-15.969 Y10.638 Z5.000 F480.000
G2 X-17.958 Y8.648 Z5.000 I-1.351 J-0.639 K0.000 F480.000
G0 Z15.000
G0 Z15.000
(Finish operation: Pocket_Shape001)
(Begin operation: Pocket_Shape002)
(Path: Pocket_Shape002)
(Pocket_Shape002)
G0 Z15.000
G0 X72.825 Y2.825
G0 Z13.000
G1 X72.825 Y2.825 Z8.000 F480.000
G3 X69.638 Y3.979 Z8.000 I-2.825 J-2.825 K0.000 F480.000
G3 X66.021 Y-0.362 Z8.000 I0.362 J-3.979 K0.000 F480.000
G3 X70.362 Y-3.979 Z8.000 I3.979 J0.362 K0.000 F480.000
G3 X72.825 Y2.825 Z8.000 I-0.362 J3.979 K0.000 F480.000
G0 Z15.000
G0 X71.411 Y1.411 Z15.000
G0 X71.411 Y1.411 Z13.000
G1 X71.411 Y1.411 Z8.000 F480.000
G3 X69.819 Y1.987 Z8.000 I-1.411 J-1.411 K0.000 F480.000
G3 X68.013 Y-0.181 Z8.000 I0.181 J-1.987 K0.000 F480.000
G3 X70.181 Y-1.987 Z8.000 I1.987 J0.181 K0.000 F480.000
G3 X71.411 Y1.411 Z8.000 I-0.181 J1.987 K0.000 F480.000
G0 Z15.000
G0 X71.057 Y1.057 Z15.000
G0 X71.057 Y1.057 Z13.000
G1 X71.057 Y1.057 Z8.000 F480.000
G3 X69.865 Y1.489 Z8.000 I-1.057 J-1.057 K0.000 F480.000
G3 X68.511 Y-0.135 Z8.000 I0.135 J-1.489 K0.000 F480.000
G3 X70.135 Y-1.489 Z8.000 I1.489 J0.135 K0.000 F480.000
G3 X71.057 Y1.057 Z8.000 I-0.135 J1.489 K0.000 F480.000
G0 Z15.000
G0 X70.703 Y0.703 Z15.000
G0 X70.703 Y0.703 Z13.000
G1 X70.703 Y0.703 Z8.000 F480.000
G3 X69.910 Y0.991 Z8.000 I-0.703 J-0.703 K0.000 F480.000
G3 X69.009 Y-0.090 Z8.000 I0.090 J-0.991 K0.000 F480.000
G3 X70.090 Y-0.991 Z8.000 I0.991 J0.090 K0.000 F480.000
G3 X70.703 Y0.703 Z8.000 I-0.090 J0.991 K0.000 F480.000
G0 Z15.000
G0 X70.350 Y0.350 Z15.000
G0 X70.350 Y0.350 Z13.000
G1 X70.350 Y0.350 Z8.000 F480.000
G3 X69.955 Y0.492 Z8.000 I-0.350 J-0.350 K0.000 F480.000
G3 X69.508 Y-0.045 Z8.000 I0.045 J-0.492 K0.000 F480.000
G3 X70.045 Y-0.492 Z8.000 I0.492 J0.045 K0.000 F480.000
G3 X70.350 Y0.350 Z8.000 I-0.045 J0.492 K0.000 F480.000
G1 X70.350 Y0.350 Z6.000 F480.000
G3 X69.955 Y0.492 Z6.000 I-0.350 J-0.350 K0.000 F480.000
G3 X69.508 Y-0.045 Z6.000 I0.045 J-0.492 K0.000 F480.000
G3 X70.045 Y-0.492 Z6.000 I0.492 J0.045 K0.000 F480.000
G3 X70.350 Y0.350 Z6.000 I-0.045 J0.492 K0.000 F480.000
G0 Z15.000
G0 X70.703 Y0.703 Z15.000
G0 X70.703 Y0.703 Z13.000
G1 X70.703 Y0.703 Z6.000 F480.000
G3 X69.910 Y0.991 Z6.000 I-0.703 J-0.703 K0.000 F480.000
G3 X69.009 Y-0.090 Z6.000 I0.090 J-0.991 K0.000 F480.000
G3 X70.090 Y-0.991 Z6.000 I0.991 J0.090 K0.000 F480.000
G3 X70.703 Y0.703 Z6.000 I-0.090 J0.991 K0.000 F480.000
G0 Z15.000
G0 X71.057 Y1.057 Z15.000
G0 X71.057 Y1.057 Z13.000
G1 X71.057 Y1.057 Z6.000 F480.000
G3 X69.865 Y1.489 Z6.000 I-1.057 J-1.057 K0.000 F480.000
G3 X68.511 Y-0.135 Z6.000 I0.135 J-1.489 K0.000 F480.000
G3 X70.135 Y-1.489 Z6.000 I1.489 J0.135 K0.000 F480.000
G3 X71.057 Y1.057 Z6.000 I-0.135 J1.489 K0.000 F480.000
G0 Z15.000
G0 X71.411 Y1.411 Z15.000
G0 X71.411 Y1.411 Z13.000
G1 X71.411 Y1.411 Z6.000 F480.000
G3 X69.819 Y1.987 Z6.000 I-1.411 J-1.411 K0.000 F480.000
G3 X68.013 Y-0.181 Z6.000 I0.181 J-1.987 K0.000 F480.000
G3 X70.181 Y-1.987 Z6.000 I1.987 J0.181 K0.000 F480.000
G3 X71.411 Y1.411 Z6.000 I-0.181 J1.987 K0.000 F480.000
G0 Z15.000
G0 X72.825 Y2.825 Z15.000
G0 X72.825 Y2.825 Z13.000
G1 X72.825 Y2.825 Z6.000 F480.000
G3 X69.638 Y3.979 Z6.000 I-2.825 J-2.825 K0.000 F480.000
G3 X66.021 Y-0.362 Z6.000 I0.362 J-3.979 K0.000 F480.000
G3 X70.362 Y-3.979 Z6.000 I3.979 J0.362 K0.000 F480.000
G3 X72.825 Y2.825 Z6.000 I-0.362 J3.979 K0.000 F480.000
G1 X72.825 Y2.825 Z4.000 F480.000
G3 X69.638 Y3.979 Z4.000 I-2.825 J-2.825 K0.000 F480.000
G3 X66.021 Y-0.362 Z4.000 I0.362 J-3.979 K0.000 F480.000
G3 X70.362 Y-3.979 Z4.000 I3.979 J0.362 K0.000 F480.000
G3 X72.825 Y2.825 Z4.000 I-0.362 J3.979 K0.000 F480.000
G0 Z15.000
G0 X71.411 Y1.411 Z15.000
G0 X71.411 Y1.411 Z13.000
G1 X71.411 Y1.411 Z4.000 F480.000
G3 X69.819 Y1.987 Z4.000 I-1.411 J-1.411 K0.000 F480.000
G3 X68.013 Y-0.181 Z4.000 I0.181 J-1.987 K0.000 F480.000
G3 X70.181 Y-1.987 Z4.000 I1.987 J0.181 K0.000 F480.000
G3 X71.411 Y1.411 Z4.000 I-0.181 J1.987 K0.000 F480.000
G0 Z15.000
G0 X71.057 Y1.057 Z15.000
G0 X71.057 Y1.057 Z13.000
G1 X71.057 Y1.057 Z4.000 F480.000
G3 X69.865 Y1.489 Z4.000 I-1.057 J-1.057 K0.000 F480.000
G3 X68.511 Y-0.135 Z4.000 I0.135 J-1.489 K0.000 F480.000
G3 X70.135 Y-1.489 Z4.000 I1.489 J0.135 K0.000 F480.000
G3 X71.057 Y1.057 Z4.000 I-0.135 J1.489 K0.000 F480.000
G0 Z15.000
G0 X70.703 Y0.703 Z15.000
G0 X70.703 Y0.703 Z13.000
G1 X70.703 Y0.703 Z4.000 F480.000
G3 X69.910 Y0.991 Z4.000 I-0.703 J-0.703 K0.000 F480.000
G3 X69.009 Y-0.090 Z4.000 I0.090 J-0.991 K0.000 F480.000
G3 X70.090 Y-0.991 Z4.000 I0.991 J0.090 K0.000 F480.000
G3 X70.703 Y0.703 Z4.000 I-0.090 J0.991 K0.000 F480.000
G0 Z15.000
G0 X70.350 Y0.350 Z15.000
G0 X70.350 Y0.350 Z13.000
G1 X70.350 Y0.350 Z4.000 F480.000
G3 X69.955 Y0.492 Z4.000 I-0.350 J-0.350 K0.000 F480.000
G3 X69.508 Y-0.045 Z4.000 I0.045 J-0.492 K0.000 F480.000
G3 X70.045 Y-0.492 Z4.000 I0.492 J0.045 K0.000 F480.000
G3 X70.350 Y0.350 Z4.000 I-0.045 J0.492 K0.000 F480.000
G1 X70.350 Y0.350 Z2.000 F480.000
G3 X69.955 Y0.492 Z2.000 I-0.350 J-0.350 K0.000 F480.000
G3 X69.508 Y-0.045 Z2.000 I0.045 J-0.492 K0.000 F480.000
G3 X70.045 Y-0.492 Z2.000 I0.492 J0.045 K0.000 F480.000
G3 X70.350 Y0.350 Z2.000 I-0.045 J0.492 K0.000 F480.000
G0 Z15.000
G0 X70.703 Y0.703 Z15.000
G0 X70.703 Y0.703 Z13.000
G1 X70.703 Y0.703 Z2.000 F480.000
G3 X69.910 Y0.991 Z2.000 I-0.703 J-0.703 K0.000 F480.000
G3 X69.009 Y-0.090 Z2.000 I0.090 J-0.991 K0.000 F480.000
G3 X70.090 Y-0.991 Z2.000 I0.991 J0.090 K0.000 F480.000
G3 X70.703 Y0.703 Z2.000 I-0.090 J0.991 K0.000 F480.000
G0 Z15.000
G0 X71.057 Y1.057 Z15.000
G0 X71.057 Y1.057 Z13.000
G1 X71.057 Y1.057 Z2.000 F480.000
G3 X69.865 Y1.489 Z2.000 I-1.057 J-1.057 K0.000 F480.000
G3 X68.511 Y-0.135 Z2.000 I0.135 J-1.489 K0.000 F480.000
G3 X70.135 Y-1.489 Z2.000 I1.489 J0.135 K0.000 F480.000
G3 X71.057 Y1.057 Z2.000 I-0.135 J1.489 K0.000 F480.000
G0 Z15.000
G0 X71.411 Y1.411 Z15.000
G0 X71.411 Y1.411 Z13.000
G1 X71.411 Y1.411 Z2.000 F480.000
G3 X69.819 Y1.987 Z2.000 I-1.411 J-1.411 K0.000 F480.000
G3 X68.013 Y-0.181 Z2.000 I0.181 J-1.987 K0.000 F480.000
G3 X70.181 Y-1.987 Z2.000 I1.987 J0.181 K0.000 F480.000
G3 X71.411 Y1.411 Z2.000 I-0.181 J1.987 K0.000 F480.000
G0 Z15.000
G0 X72.825 Y2.825 Z15.000
G0 X72.825 Y2.825 Z13.000
G1 X72.825 Y2.825 Z2.000 F480.000
G3 X69.638 Y3.979 Z2.000 I-2.825 J-2.825 K0.000 F480.000
G3 X66.021 Y-0.362 Z2.000 I0.362 J-3.979 K0.000 F480.000
G3 X70.362 Y-3.979 Z2.000 I3.979 J0.362 K0.000 F480.000
G3 X72.825 Y2.825 Z2.000 I-0.362 J3.979 K0.000 F480.000
G1 X72.825 Y2.825 Z0.000 F480.000
G3 X69.638 Y3.979 Z0.000 I-2.825 J-2.825 K0.000 F480.000
G3 X66.021 Y-0.362 Z0.000 I0.362 J-3.979 K0.000 F480.000
G3 X70.362 Y-3.979 Z0.000 I3.979 J0.362 K0.000 F480.000
G3 X72.825 Y2.825 Z0.000 I-0.362 J3.979 K0.000 F480.000
G0 Z15.000
G0 X71.411 Y1.411 Z15.000
G0 X71.411 Y1.411 Z13.000
G1 X71.411 Y1.411 Z0.000 F480.000
G3 X69.819 Y1.987 Z0.000 I-1.411 J-1.411 K0.000 F480.000
G3 X68.013 Y-0.181 Z0.000 I0.181 J-1.987 K0.000 F480.000
G3 X70.181 Y-1.987 Z0.000 I1.987 J0.181 K0.000 F480.000
G3 X71.411 Y1.411 Z0.000 I-0.181 J1.987 K0.000 F480.000
G0 Z15.000
G0 X71.057 Y1.057 Z15.000
G0 X71.057 Y1.057 Z13.000
G1 X71.057 Y1.057 Z0.000 F480.000
G3 X69.865 Y1.489 Z0.000 I-1.057 J-1.057 K0.000 F480.000
G3 X68.511 Y-0.135 Z0.000 I0.135 J-1.489 K0.000 F480.000
G3 X70.135 Y-1.489 Z0.000 I1.489 J0.135 K0.000 F480.000
G3 X71.057 Y1.057 Z0.000 I-0.135 J1.489 K0.000 F480.000
G0 Z15.000
G0 X70.703 Y0.703 Z15.000
G0 X70.703 Y0.703 Z13.000
G1 X70.703 Y0.703 Z0.000 F480.000
G3 X69.910 Y0.991 Z0.000 I-0.703 J-0.703 K0.000 F480.000
G3 X69.009 Y-0.090 Z0.000 I0.090 J-0.991 K0.000 F480.000
G3 X70.090 Y-0.991 Z0.000 I0.991 J0.090 K0.000 F480.000
G3 X70.703 Y0.703 Z0.000 I-0.090 J0.991 K0.000 F480.000
G0 Z15.000
G0 X70.350 Y0.350 Z15.000
G0 X70.350 Y0.350 Z13.000
G1 X70.350 Y0.350 Z0.000 F480.000
G3 X69.955 Y0.492 Z0.000 I-0.350 J-0.350 K0.000 F480.000
G3 X69.508 Y-0.045 Z0.000 I0.045 J-0.492 K0.000 F480.000
G3 X70.045 Y-0.492 Z0.000 I0.492 J0.045 K0.000 F480.000
G3 X70.350 Y0.350 Z0.000 I-0.045 J0.492 K0.000 F480.000
G0 Z15.000
G0 Z15.000
(Finish operation: Pocket_Shape002)
(Begin operation: Pocket_Shape003)
(Path: Pocket_Shape003)
(Pocket_Shape003)
G0 Z15.000
G0 X53.737 Y-8.943
G0 Z13.000
G1 X53.737 Y-8.943 Z8.000 F480.000
G3 X52.417 Y-8.528 Z8.000 I-1.057 J-1.057 K0.000 F480.000
G3 X51.207 Y-10.263 Z8.000 I0.263 J-1.472 K0.000 F480.000
G3 X52.943 Y-11.472 Z8.000 I1.472 J0.263 K0.000 F480.000
G3 X53.737 Y-8.943 Z8.000 I-0.263 J1.472 K0.000 F480.000
G0 Z15.000
G0 X53.383 Y-9.296 Z15.000
G0 X53.383 Y-9.296 Z13.000
G1 X53.383 Y-9.296 Z8.000 F480.000
G3 X52.505 Y-9.021 Z8.000 I-0.704 J-0.704 K0.000 F480.000
G3 X51.700 Y-10.175 Z8.000 I0.175 J-0.979 K0.000 F480.000
G3 X52.855 Y-10.979 Z8.000 I0.979 J0.175 K0.000 F480.000
G3 X53.383 Y-9.296 Z8.000 I-0.175 J0.979 K0.000 F480.000
G0 Z15.000
G0 X53.029 Y-9.650 Z15.000
G0 X53.029 Y-9.650 Z13.000
G1 X53.029 Y-9.650 Z8.000 F480.000
G3 X52.592 Y-9.513 Z8.000 I-0.350 J-0.350 K0.000 F480.000
G3 X52.193 Y-10.087 Z8.000 I0.087 J-0.487 K0.000 F480.000
G3 X52.767 Y-10.487 Z8.000 I0.487 J0.087 K0.000 F480.000
G3 X53.029 Y-9.650 Z8.000 I-0.087 J0.487 K0.000 F480.000
G1 X53.029 Y-9.650 Z6.000 F480.000
G3 X52.592 Y-9.513 Z6.000 I-0.350 J-0.350 K0.000 F480.000
G3 X52.193 Y-10.087 Z6.000 I0.087 J-0.487 K0.000 F480.000
G3 X52.767 Y-10.487 Z6.000 I0.487 J0.087 K0.000 F480.000
G3 X53.029 Y-9.650 Z6.000 I-0.087 J0.487 K0.000 F480.000
G0 Z15.000
G0 X53.383 Y-9.296 Z15.000
G0 X53.383 Y-9.296 Z13.000
G1 X53.383 Y-9.296 Z6.000 F480.000
G3 X52.505 Y-9.021 Z6.000 I-0.704 J-0.704 K0.000 F480.000
G3 X51.700 Y-10.175 Z6.000 I0.175 J-0.979 K0.000 F480.000
G3 X52.855 Y-10.979 Z6.000 I0.979 J0.175 K0.000 F480.000
G3 X53.383 Y-9.296 Z6.000 I-0.175 J0.979 K0.000 F480.000
G0 Z15.000
G0 X53.737 Y-8.943 Z15.000
G0 X53.737 Y-8.943 Z13.000
G1 X53.737 Y-8.943 Z6.000 F480.000
G3 X52.417 Y-8.528 Z6.000 I-1.057 J-1.057 K0.000 F480.000
G3 X51.207 Y-10.263 Z6.000 I0.263 J-1.472 K0.000 F480.000
G3 X52.943 Y-11.472 Z6.000 I1.472 J0.263 K0.000 F480.000
G3 X53.737 Y-8.943 Z6.000 I-0.263 J1.472 K0.000 F480.000
G1 X53.737 Y-8.943 Z5.000 F480.000
G3 X52.417 Y-8.528 Z5.000 I-1.057 J-1.057 K0.000 F480.000
G3 X51.207 Y-10.263 Z5.000 I0.263 J-1.472 K0.000 F480.000
G3 X52.943 Y-11.472 Z5.000 I1.472 J0.263 K0.000 F480.000
G3 X53.737 Y-8.943 Z5.000 I-0.263 J1.472 K0.000 F480.000
G0 Z15.000
G0 X53.383 Y-9.296 Z15.000
G0 X53.383 Y-9.296 Z13.000
G1 X53.383 Y-9.296 Z5.000 F480.000
G3 X52.505 Y-9.021 Z5.000 I-0.704 J-0.704 K0.000 F480.000
G3 X51.700 Y-10.175 Z5.000 I0.175 J-0.979 K0.000 F480.000
G3 X52.855 Y-10.979 Z5.000 I0.979 J0.175 K0.000 F480.000
G3 X53.383 Y-9.296 Z5.000 I-0.175 J0.979 K0.000 F480.000
G0 Z15.000
G0 X53.029 Y-9.650 Z15.000
G0 X53.029 Y-9.650 Z13.000
G1 X53.029 Y-9.650 Z5.000 F480.000
G3 X52.592 Y-9.513 Z5.000 I-0.350 J-0.350 K0.000 F480.000
G3 X52.193 Y-10.087 Z5.000 I0.087 J-0.487 K0.000 F480.000
G3 X52.767 Y-10.487 Z5.000 I0.487 J0.087 K0.000 F480.000
G3 X53.029 Y-9.650 Z5.000 I-0.087 J0.487 K0.000 F480.000
G0 Z15.000
G0 Z15.000
G0 X53.029 Y-9.650
G0 X52.706 Y8.505
G0 X52.706 Y8.505 Z13.000
G1 X52.706 Y8.505 Z8.000 F480.000
G3 X52.942 Y8.528 Z8.000 I-0.027 J1.495 K0.000 F480.000
G3 X52.417 Y11.472 Z8.000 I-0.263 J1.472 K0.000 F480.000
G3 X52.706 Y8.505 Z8.000 I0.263 J-1.472 K0.000 F480.000
G0 Z15.000
G0 X52.697 Y9.005 Z15.000
G0 X52.697 Y9.005 Z13.000
G1 X52.697 Y9.005 Z8.000 F480.000
G3 X52.854 Y9.021 Z8.000 I-0.018 J0.995 K0.000 F480.000
G3 X52.505 Y10.979 Z8.000 I-0.175 J0.979 K0.000 F480.000
G3 X52.697 Y9.005 Z8.000 I0.175 J-0.979 K0.000 F480.000
G0 Z15.000
G0 X52.688 Y9.505 Z15.000
G0 X52.688 Y9.505 Z13.000
G1 X52.688 Y9.505 Z8.000 F480.000
G3 X52.766 Y9.513 Z8.000 I-0.009 J0.495 K0.000 F480.000
G3 X52.593 Y10.487 Z8.000 I-0.087 J0.487 K0.000 F480.000
G3 X52.688 Y9.505 Z8.000 I0.087 J-0.487 K0.000 F480.000
G1 X52.688 Y9.505 Z6.000 F480.000
G3 X52.766 Y9.513 Z6.000 I-0.009 J0.495 K0.000 F480.000
G3 X52.593 Y10.487 Z6.000 I-0.087 J0.487 K0.000 F480.000
G3 X52.688 Y9.505 Z6.000 I0.087 J-0.487 K0.000 F480.000
G0 Z15.000
G0 X52.697 Y9.005 Z15.000
G0 X52.697 Y9.005 Z13.000
G1 X52.697 Y9.005 Z6.000 F480.000
G3 X52.854 Y9.021 Z6.000 I-0.018 J0.995 K0.000 F480.000
G3 X52.505 Y10.979 Z6.000 I-0.175 J0.979 K0.000 F480.000
G3 X52.697 Y9.005 Z6.000 I0.175 J-0.979 K0.000 F480.000
G0 Z15.000
G0 X52.706 Y8.505 Z15.000
G0 X52.706 Y8.505 Z13.000
G1 X52.706 Y8.505 Z6.000 F480.000
G3 X52.942 Y8.528 Z6.000 I-0.027 J1.495 K0.000 F480.000
G3 X52.417 Y11.472 Z6.000 I-0.263 J1.472 K0.000 F480.000
G3 X52.706 Y8.505 Z6.000 I0.263 J-1.472 K0.000 F480.000
G1 X52.706 Y8.505 Z5.000 F480.000
G3 X52.942 Y8.528 Z5.000 I-0.027 J1.495 K0.000 F480.000
G3 X52.417 Y11.472 Z5.000 I-0.263 J1.472 K0.000 F480.000
G3 X52.706 Y8.505 Z5.000 I0.263 J-1.472 K0.000 F480.000
G0 Z15.000
G0 X52.697 Y9.005 Z15.000
G0 X52.697 Y9.005 Z13.000
G1 X52.697 Y9.005 Z5.000 F480.000
G3 X52.854 Y9.021 Z5.000 I-0.018 J0.995 K0.000 F480.000
G3 X52.505 Y10.979 Z5.000 I-0.175 J0.979 K0.000 F480.000
G3 X52.697 Y9.005 Z5.000 I0.175 J-0.979 K0.000 F480.000
G0 Z15.000
G0 X52.688 Y9.505 Z15.000
G0 X52.688 Y9.505 Z13.000
G1 X52.688 Y9.505 Z5.000 F480.000
G3 X52.766 Y9.513 Z5.000 I-0.009 J0.495 K0.000 F480.000
G3 X52.593 Y10.487 Z5.000 I-0.087 J0.487 K0.000 F480.000
G3 X52.688 Y9.505 Z5.000 I0.087 J-0.487 K0.000 F480.000
G0 Z15.000
G0 Z15.000
G0 X52.688 Y9.505
G0 X68.721 Y19.225
G0 X68.721 Y19.225 Z13.000
G1 X68.721 Y19.225 Z8.000 F480.000
G3 X70.263 Y18.528 Z8.000 I1.279 J0.775 K0.000 F480.000
G3 X69.737 Y21.472 Z8.000 I-0.263 J1.472 K0.000 F480.000
G3 X68.721 Y19.225 Z8.000 I0.263 J-1.472 K0.000 F480.000
G0 Z15.000
G0 X69.149 Y19.484 Z15.000
G0 X69.149 Y19.484 Z13.000
G1 X69.149 Y19.484 Z8.000 F480.000
G3 X70.175 Y19.021 Z8.000 I0.851 J0.516 K0.000 F480.000
G3 X69.825 Y20.979 Z8.000 I-0.175 J0.979 K0.000 F480.000
G3 X69.149 Y19.484 Z8.000 I0.175 J-0.979 K0.000 F480.000
G0 Z15.000
G0 X69.577 Y19.744 Z15.000
G0 X69.577 Y19.744 Z13.000
G1 X69.577 Y19.744 Z8.000 F480.000
G3 X70.087 Y19.513 Z8.000 I0.423 J0.256 K0.000 F480.000
G3 X69.913 Y20.487 Z8.000 I-0.087 J0.487 K0.000 F480.000
G3 X69.577 Y19.744 Z8.000 I0.087 J-0.487 K0.000 F480.000
G1 X69.577 Y19.744 Z6.000 F480.000
G3 X70.087 Y19.513 Z6.000 I0.423 J0.256 K0.000 F480.000
G3 X69.913 Y20.487 Z6.000 I-0.087 J0.487 K0.000 F480.000
G3 X69.577 Y19.744 Z6.000 I0.087 J-0.487 K0.000 F480.000
G0 Z15.000
G0 X69.149 Y19.484 Z15.000
G0 X69.149 Y19.484 Z13.000
G1 X69.149 Y19.484 Z6.000 F480.000
G3 X70.175 Y19.021 Z6.000 I0.851 J0.516 K0.000 F480.000
G3 X69.825 Y20.979 Z6.000 I-0.175 J0.979 K0.000 F480.000
G3 X69.149 Y19.484 Z6.000 I0.175 J-0.979 K0.000 F480.000
G0 Z15.000
G0 X68.721 Y19.225 Z15.000
G0 X68.721 Y19.225 Z13.000
G1 X68.721 Y19.225 Z6.000 F480.000
G3 X70.263 Y18.528 Z6.000 I1.279 J0.775 K0.000 F480.000
G3 X69.737 Y21.472 Z6.000 I-0.263 J1.472 K0.000 F480.000
G3 X68.721 Y19.225 Z6.000 I0.263 J-1.472 K0.000 F480.000
G1 X68.721 Y19.225 Z5.000 F480.000
G3 X70.263 Y18.528 Z5.000 I1.279 J0.775 K0.000 F480.000
G3 X69.737 Y21.472 Z5.000 I-0.263 J1.472 K0.000 F480.000
G3 X68.721 Y19.225 Z5.000 I0.263 J-1.472 K0.000 F480.000
G0 Z15.000
G0 X69.149 Y19.484 Z15.000
G0 X69.149 Y19.484 Z13.000
G1 X69.149 Y19.484 Z5.000 F480.000
G3 X70.175 Y19.021 Z5.000 I0.851 J0.516 K0.000 F480.000
G3 X69.825 Y20.979 Z5.000 I-0.175 J0.979 K0.000 F480.000
G3 X69.149 Y19.484 Z5.000 I0.175 J-0.979 K0.000 F480.000
G0 Z15.000
G0 X69.577 Y19.744 Z15.000
G0 X69.577 Y19.744 Z13.000
G1 X69.577 Y19.744 Z5.000 F480.000
G3 X70.087 Y19.513 Z5.000 I0.423 J0.256 K0.000 F480.000
G3 X69.913 Y20.487 Z5.000 I-0.087 J0.487 K0.000 F480.000
G3 X69.577 Y19.744 Z5.000 I0.087 J-0.487 K0.000 F480.000
G0 Z15.000
G0 Z15.000
G0 X69.577 Y19.744
G0 X86.010 Y10.720
G0 X86.010 Y10.720 Z13.000
G1 X86.010 Y10.720 Z8.000 F480.000
G3 X87.583 Y8.528 Z8.000 I1.311 J-0.720 K0.000 F480.000
G3 X87.058 Y11.472 Z8.000 I-0.263 J1.472 K0.000 F480.000
G3 X86.010 Y10.720 Z8.000 I0.263 J-1.472 K0.000 F480.000
G0 Z15.000
G0 X86.448 Y10.479 Z15.000
G0 X86.448 Y10.479 Z13.000
G1 X86.448 Y10.479 Z8.000 F480.000
G3 X87.495 Y9.021 Z8.000 I0.872 J-0.479 K0.000 F480.000
G3 X87.146 Y10.979 Z8.000 I-0.175 J0.979 K0.000 F480.000
G3 X86.448 Y10.479 Z8.000 I0.175 J-0.979 K0.000 F480.000
G0 Z15.000
G0 X86.887 Y10.238 Z15.000
G0 X86.887 Y10.238 Z13.000
G1 X86.887 Y10.238 Z8.000 F480.000
G3 X87.407 Y9.513 Z8.000 I0.434 J-0.238 K0.000 F480.000
G3 X87.234 Y10.487 Z8.000 I-0.087 J0.487 K0.000 F480.000
G3 X86.887 Y10.238 Z8.000 I0.087 J-0.487 K0.000 F480.000
G1 X86.887 Y10.238 Z6.000 F480.000
G3 X87.407 Y9.513 Z6.000 I0.434 J-0.238 K0.000 F480.000
G3 X87.234 Y10.487 Z6.000 I-0.087 J0.487 K0.000 F480.000
G3 X86.887 Y10.238 Z6.000 I0.087 J-0.487 K0.000 F480.000
G0 Z15.000
G0 X86.448 Y10.479 Z15.000
G0 X86.448 Y10.479 Z13.000
G1 X86.448 Y10.479 Z6.000 F480.000
G3 X87.495 Y9.021 Z6.000 I0.872 J-0.479 K0.000 F480.000
G3 X87.146 Y10.979 Z6.000 I-0.175 J0.979 K0.000 F480.000
G3 X86.448 Y10.479 Z6.000 I0.175 J-0.979 K0.000 F480.000
G0 Z15.000
G0 X86.010 Y10.720 Z15.000
G0 X86.010 Y10.720 Z13.000
G1 X86.010 Y10.720 Z6.000 F480.000
G3 X87.583 Y8.528 Z6.000 I1.311 J-0.720 K0.000 F480.000
G3 X87.058 Y11.472 Z6.000 I-0.263 J1.472 K0.000 F480.000
G3 X86.010 Y10.720 Z6.000 I0.263 J-1.472 K0.000 F480.000
G1 X86.010 Y10.720 Z5.000 F480.000
G3 X87.583 Y8.528 Z5.000 I1.311 J-0.720 K0.000 F480.000
G3 X87.058 Y11.472 Z5.000 I-0.263 J1.472 K0.000 F480.000
G3 X86.010 Y10.720 Z5.000 I0.263 J-1.472 K0.000 F480.000
G0 Z15.000
G0 X86.448 Y10.479 Z15.000
G0 X86.448 Y10.479 Z13.000
G1 X86.448 Y10.479 Z5.000 F480.000
G3 X87.495 Y9.021 Z5.000 I0.872 J-0.479 K0.000 F480.000
G3 X87.146 Y10.979 Z5.000 I-0.175 J0.979 K0.000 F480.000
G3 X86.448 Y10.479 Z5.000 I0.175 J-0.979 K0.000 F480.000
G0 Z15.000
G0 X86.887 Y10.238 Z15.000
G0 X86.887 Y10.238 Z13.000
G1 X86.887 Y10.238 Z5.000 F480.000
G3 X87.407 Y9.513 Z5.000 I0.434 J-0.238 K0.000 F480.000
G3 X87.234 Y10.487 Z5.000 I-0.087 J0.487 K0.000 F480.000
G3 X86.887 Y10.238 Z5.000 I0.087 J-0.487 K0.000 F480.000
G0 Z15.000
G0 Z15.000
G0 X86.887 Y10.238
G0 X87.288 Y-8.505
G0 X87.288 Y-8.505 Z13.000
G1 X87.288 Y-8.505 Z8.000 F480.000
G3 X87.058 Y-8.528 Z8.000 I0.032 J-1.495 K0.000 F480.000
G3 X85.849 Y-10.263 Z8.000 I0.263 J-1.472 K0.000 F480.000
G3 X87.584 Y-11.472 Z8.000 I1.472 J0.263 K0.000 F480.000
G3 X87.288 Y-8.505 Z8.000 I-0.263 J1.472 K0.000 F480.000
G0 Z15.000
G0 X87.299 Y-9.005 Z15.000
G0 X87.299 Y-9.005 Z13.000
G1 X87.299 Y-9.005 Z8.000 F480.000
G3 X87.146 Y-9.021 Z8.000 I0.021 J-0.995 K0.000 F480.000
G3 X86.341 Y-10.175 Z8.000 I0.175 J-0.979 K0.000 F480.000
G3 X87.496 Y-10.979 Z8.000 I0.979 J0.175 K0.000 F480.000
G3 X87.299 Y-9.005 Z8.000 I-0.175 J0.979 K0.000 F480.000
G0 Z15.000
G0 X87.310 Y-9.505 Z15.000
G0 X87.310 Y-9.505 Z13.000
G1 X87.310 Y-9.505 Z8.000 F480.000
G3 X87.234 Y-9.513 Z8.000 I0.011 J-0.495 K0.000 F480.000
G3 X86.834 Y-10.087 Z8.000 I0.087 J-0.487 K0.000 F480.000
G3 X87.408 Y-10.487 Z8.000 I0.487 J0.087 K0.000 F480.000
G3 X87.310 Y-9.505 Z8.000 I-0.087 J0.487 K0.000 F480.000
G1 X87.310 Y-9.505 Z6.000 F480.000
G3 X87.234 Y-9.513 Z6.000 I0.011 J-0.495 K0.000 F480.000
G3 X86.834 Y-10.087 Z6.000 I0.087 J-0.487 K0.000 F480.000
G3 X87.408 Y-10.487 Z6.000 I0.487 J0.087 K0.000 F480.000
G3 X87.310 Y-9.505 Z6.000 I-0.087 J0.487 K0.000 F480.000
G0 Z15.000
G0 X87.299 Y-9.005 Z15.000
G0 X87.299 Y-9.005 Z13.000
G1 X87.299 Y-9.005 Z6.000 F480.000
G3 X87.146 Y-9.021 Z6.000 I0.021 J-0.995 K0.000 F480.000
G3 X86.341 Y-10.175 Z6.000 I0.175 J-0.979 K0.000 F480.000
G3 X87.496 Y-10.979 Z6.000 I0.979 J0.175 K0.000 F480.000
G3 X87.299 Y-9.005 Z6.000 I-0.175 J0.979 K0.000 F480.000
G0 Z15.000
G0 X87.288 Y-8.505 Z15.000
G0 X87.288 Y-8.505 Z13.000
G1 X87.288 Y-8.505 Z6.000 F480.000
G3 X87.058 Y-8.528 Z6.000 I0.032 J-1.495 K0.000 F480.000
G3 X85.849 Y-10.263 Z6.000 I0.263 J-1.472 K0.000 F480.000
G3 X87.584 Y-11.472 Z6.000 I1.472 J0.263 K0.000 F480.000
G3 X87.288 Y-8.505 Z6.000 I-0.263 J1.472 K0.000 F480.000
G1 X87.288 Y-8.505 Z5.000 F480.000
G3 X87.058 Y-8.528 Z5.000 I0.032 J-1.495 K0.000 F480.000
G3 X85.849 Y-10.263 Z5.000 I0.263 J-1.472 K0.000 F480.000
G3 X87.584 Y-11.472 Z5.000 I1.472 J0.263 K0.000 F480.000
G3 X87.288 Y-8.505 Z5.000 I-0.263 J1.472 K0.000 F480.000
G0 Z15.000
G0 X87.299 Y-9.005 Z15.000
G0 X87.299 Y-9.005 Z13.000
G1 X87.299 Y-9.005 Z5.000 F480.000
G3 X87.146 Y-9.021 Z5.000 I0.021 J-0.995 K0.000 F480.000
G3 X86.341 Y-10.175 Z5.000 I0.175 J-0.979 K0.000 F480.000
G3 X87.496 Y-10.979 Z5.000 I0.979 J0.175 K0.000 F480.000
G3 X87.299 Y-9.005 Z5.000 I-0.175 J0.979 K0.000 F480.000
G0 Z15.000
G0 X87.310 Y-9.505 Z15.000
G0 X87.310 Y-9.505 Z13.000
G1 X87.310 Y-9.505 Z5.000 F480.000
G3 X87.234 Y-9.513 Z5.000 I0.011 J-0.495 K0.000 F480.000
G3 X86.834 Y-10.087 Z5.000 I0.087 J-0.487 K0.000 F480.000
G3 X87.408 Y-10.487 Z5.000 I0.487 J0.087 K0.000 F480.000
G3 X87.310 Y-9.505 Z5.000 I-0.087 J0.487 K0.000 F480.000
G0 Z15.000
G0 Z15.000
G0 X87.310 Y-9.505
G0 X71.279 Y-19.225
G0 X71.279 Y-19.225 Z13.000
G1 X71.279 Y-19.225 Z8.000 F480.000
G3 X69.737 Y-18.528 Z8.000 I-1.279 J-0.775 K0.000 F480.000
G3 X70.263 Y-21.472 Z8.000 I0.263 J-1.472 K0.000 F480.000
G3 X71.279 Y-19.225 Z8.000 I-0.263 J1.472 K0.000 F480.000
G0 Z15.000
G0 X70.851 Y-19.484 Z15.000
G0 X70.851 Y-19.484 Z13.000
G1 X70.851 Y-19.484 Z8.000 F480.000
G3 X69.825 Y-19.021 Z8.000 I-0.851 J-0.516 K0.000 F480.000
G3 X70.175 Y-20.979 Z8.000 I0.175 J-0.979 K0.000 F480.000
G3 X70.851 Y-19.484 Z8.000 I-0.175 J0.979 K0.000 F480.000
G0 Z15.000
G0 X70.423 Y-19.744 Z15.000
G0 X70.423 Y-19.744 Z13.000
G1 X70.423 Y-19.744 Z8.000 F480.000
G3 X69.913 Y-19.513 Z8.000 I-0.423 J-0.256 K0.000 F480.000
G3 X70.087 Y-20.487 Z8.000 I0.087 J-0.487 K0.000 F480.000
G3 X70.423 Y-19.744 Z8.000 I-0.087 J0.487 K0.000 F480.000
G1 X70.423 Y-19.744 Z6.000 F480.000
G3 X69.913 Y-19.513 Z6.000 I-0.423 J-0.256 K0.000 F480.000
G3 X70.087 Y-20.487 Z6.000 I0.087 J-0.487 K0.000 F480.000
G3 X70.423 Y-19.744 Z6.000 I-0.087 J0.487 K0.000 F480.000
G0 Z15.000
G0 X70.851 Y-19.484 Z15.000
G0 X70.851 Y-19.484 Z13.000
G1 X70.851 Y-19.484 Z6.000 F480.000
G3 X69.825 Y-19.021 Z6.000 I-0.851 J-0.516 K0.000 F480.000
G3 X70.175 Y-20.979 Z6.000 I0.175 J-0.979 K0.000 F480.000
G3 X70.851 Y-19.484 Z6.000 I-0.175 J0.979 K0.000 F480.000
G0 Z15.000
G0 X71.279 Y-19.225 Z15.000
G0 X71.279 Y-19.225 Z13.000
G1 X71.279 Y-19.225 Z6.000 F480.000
G3 X69.737 Y-18.528 Z6.000 I-1.279 J-0.775 K0.000 F480.000
G3 X70.263 Y-21.472 Z6.000 I0.263 J-1.472 K0.000 F480.000
G3 X71.279 Y-19.225 Z6.000 I-0.263 J1.472 K0.000 F480.000
G1 X71.279 Y-19.225 Z5.000 F480.000
G3 X69.737 Y-18.528 Z5.000 I-1.279 J-0.775 K0.000 F480.000
G3 X70.263 Y-21.472 Z5.000 I0.263 J-1.472 K0.000 F480.000
G3 X71.279 Y-19.225 Z5.000 I-0.263 J1.472 K0.000 F480.000
G0 Z15.000
G0 X70.851 Y-19.484 Z15.000
G0 X70.851 Y-19.484 Z13.000
G1 X70.851 Y-19.484 Z5.000 F480.000
G3 X69.825 Y-19.021 Z5.000 I-0.851 J-0.516 K0.000 F480.000
G3 X70.175 Y-20.979 Z5.000 I0.175 J-0.979 K0.000 F480.000
G3 X70.851 Y-19.484 Z5.000 I-0.175 J0.979 K0.000 F480.000
G0 Z15.000
G0 X70.423 Y-19.744 Z15.000
G0 X70.423 Y-19.744 Z13.000
G1 X70.423 Y-19.744 Z5.000 F480.000
G3 X69.913 Y-19.513 Z5.000 I-0.423 J-0.256 K0.000 F480.000
G3 X70.087 Y-20.487 Z5.000 I0.087 J-0.487 K0.000 F480.000
G3 X70.423 Y-19.744 Z5.000 I-0.087 J0.487 K0.000 F480.000
G0 Z15.000
G0 Z15.000
(Finish operation: Pocket_Shape003)
(Begin operation: Pocket_Shape004)
(Path: Pocket_Shape004)
(Pocket_Shape004)
G0 Z15.000
G0 X142.825 Y2.825
G0 Z13.000
G1 X142.825 Y2.825 Z8.000 F480.000
G3 X139.638 Y3.979 Z8.000 I-2.825 J-2.825 K0.000 F480.000
G3 X136.021 Y-0.362 Z8.000 I0.362 J-3.979 K0.000 F480.000
G3 X140.362 Y-3.979 Z8.000 I3.979 J0.362 K0.000 F480.000
G3 X142.825 Y2.825 Z8.000 I-0.362 J3.979 K0.000 F480.000
G0 Z15.000
G0 X141.411 Y1.411 Z15.000
G0 X141.411 Y1.411 Z13.000
G1 X141.411 Y1.411 Z8.000 F480.000
G3 X139.819 Y1.987 Z8.000 I-1.411 J-1.411 K0.000 F480.000
G3 X138.013 Y-0.181 Z8.000 I0.181 J-1.987 K0.000 F480.000
G3 X140.181 Y-1.987 Z8.000 I1.987 J0.181 K0.000 F480.000
G3 X141.411 Y1.411 Z8.000 I-0.181 J1.987 K0.000 F480.000
G0 Z15.000
G0 X141.057 Y1.057 Z15.000
G0 X141.057 Y1.057 Z13.000
G1 X141.057 Y1.057 Z8.000 F480.000
G3 X139.865 Y1.489 Z8.000 I-1.057 J-1.057 K0.000 F480.000
G3 X138.511 Y-0.135 Z8.000 I0.135 J-1.489 K0.000 F480.000
G3 X140.135 Y-1.489 Z8.000 I1.489 J0.135 K0.000 F480.000
G3 X141.057 Y1.057 Z8.000 I-0.135 J1.489 K0.000 F480.000
G0 Z15.000
G0 X140.703 Y0.703 Z15.000
G0 X140.703 Y0.703 Z13.000
G1 X140.703 Y0.703 Z8.000 F480.000
G3 X139.910 Y0.991 Z8.000 I-0.703 J-0.703 K0.000 F480.000
G3 X139.009 Y-0.090 Z8.000 I0.090 J-0.991 K0.000 F480.000
G3 X140.090 Y-0.991 Z8.000 I0.991 J0.090 K0.000 F480.000
G3 X140.703 Y0.703 Z8.000 I-0.090 J0.991 K0.000 F480.000
G0 Z15.000
G0 X140.350 Y0.350 Z15.000
G0 X140.350 Y0.350 Z13.000
G1 X140.350 Y0.350 Z8.000 F480.000
G3 X139.955 Y0.492 Z8.000 I-0.350 J-0.350 K0.000 F480.000
G3 X139.508 Y-0.045 Z8.000 I0.045 J-0.492 K0.000 F480.000
G3 X140.045 Y-0.492 Z8.000 I0.492 J0.045 K0.000 F480.000
G3 X140.350 Y0.350 Z8.000 I-0.045 J0.492 K0.000 F480.000
G1 X140.350 Y0.350 Z6.000 F480.000
G3 X139.955 Y0.492 Z6.000 I-0.350 J-0.350 K0.000 F480.000
G3 X139.508 Y-0.045 Z6.000 I0.045 J-0.492 K0.000 F480.000
G3 X140.045 Y-0.492 Z6.000 I0.492 J0.045 K0.000 F480.000
G3 X140.350 Y0.350 Z6.000 I-0.045 J0.492 K0.000 F480.000
G0 Z15.000
G0 X140.703 Y0.703 Z15.000
G0 X140.703 Y0.703 Z13.000
G1 X140.703 Y0.703 Z6.000 F480.000
G3 X139.910 Y0.991 Z6.000 I-0.703 J-0.703 K0.000 F480.000
G3 X139.009 Y-0.090 Z6.000 I0.090 J-0.991 K0.000 F480.000
G3 X140.090 Y-0.991 Z6.000 I0.991 J0.090 K0.000 F480.000
G3 X140.703 Y0.703 Z6.000 I-0.090 J0.991 K0.000 F480.000
G0 Z15.000
G0 X141.057 Y1.057 Z15.000
G0 X141.057 Y1.057 Z13.000
G1 X141.057 Y1.057 Z6.000 F480.000
G3 X139.865 Y1.489 Z6.000 I-1.057 J-1.057 K0.000 F480.000
G3 X138.511 Y-0.135 Z6.000 I0.135 J-1.489 K0.000 F480.000
G3 X140.135 Y-1.489 Z6.000 I1.489 J0.135 K0.000 F480.000
G3 X141.057 Y1.057 Z6.000 I-0.135 J1.489 K0.000 F480.000
G0 Z15.000
G0 X141.411 Y1.411 Z15.000
G0 X141.411 Y1.411 Z13.000
G1 X141.411 Y1.411 Z6.000 F480.000
G3 X139.819 Y1.987 Z6.000 I-1.411 J-1.411 K0.000 F480.000
G3 X138.013 Y-0.181 Z6.000 I0.181 J-1.987 K0.000 F480.000
G3 X140.181 Y-1.987 Z6.000 I1.987 J0.181 K0.000 F480.000
G3 X141.411 Y1.411 Z6.000 I-0.181 J1.987 K0.000 F480.000
G0 Z15.000
G0 X142.825 Y2.825 Z15.000
G0 X142.825 Y2.825 Z13.000
G1 X142.825 Y2.825 Z6.000 F480.000
G3 X139.638 Y3.979 Z6.000 I-2.825 J-2.825 K0.000 F480.000
G3 X136.021 Y-0.362 Z6.000 I0.362 J-3.979 K0.000 F480.000
G3 X140.362 Y-3.979 Z6.000 I3.979 J0.362 K0.000 F480.000
G3 X142.825 Y2.825 Z6.000 I-0.362 J3.979 K0.000 F480.000
G1 X142.825 Y2.825 Z4.000 F480.000
G3 X139.638 Y3.979 Z4.000 I-2.825 J-2.825 K0.000 F480.000
G3 X136.021 Y-0.362 Z4.000 I0.362 J-3.979 K0.000 F480.000
G3 X140.362 Y-3.979 Z4.000 I3.979 J0.362 K0.000 F480.000
G3 X142.825 Y2.825 Z4.000 I-0.362 J3.979 K0.000 F480.000
G0 Z15.000
G0 X141.411 Y1.411 Z15.000
G0 X141.411 Y1.411 Z13.000
G1 X141.411 Y1.411 Z4.000 F480.000
G3 X139.819 Y1.987 Z4.000 I-1.411 J-1.411 K0.000 F480.000
G3 X138.013 Y-0.181 Z4.000 I0.181 J-1.987 K0.000 F480.000
G3 X140.181 Y-1.987 Z4.000 I1.987 J0.181 K0.000 F480.000
G3 X141.411 Y1.411 Z4.000 I-0.181 J1.987 K0.000 F480.000
G0 Z15.000
G0 X141.057 Y1.057 Z15.000
G0 X141.057 Y1.057 Z13.000
G1 X141.057 Y1.057 Z4.000 F480.000
G3 X139.865 Y1.489 Z4.000 I-1.057 J-1.057 K0.000 F480.000
G3 X138.511 Y-0.135 Z4.000 I0.135 J-1.489 K0.000 F480.000
G3 X140.135 Y-1.489 Z4.000 I1.489 J0.135 K0.000 F480.000
G3 X141.057 Y1.057 Z4.000 I-0.135 J1.489 K0.000 F480.000
G0 Z15.000
G0 X140.703 Y0.703 Z15.000
G0 X140.703 Y0.703 Z13.000
G1 X140.703 Y0.703 Z4.000 F480.000
G3 X139.910 Y0.991 Z4.000 I-0.703 J-0.703 K0.000 F480.000
G3 X139.009 Y-0.090 Z4.000 I0.090 J-0.991 K0.000 F480.000
G3 X140.090 Y-0.991 Z4.000 I0.991 J0.090 K0.000 F480.000
G3 X140.703 Y0.703 Z4.000 I-0.090 J0.991 K0.000 F480.000
G0 Z15.000
G0 X140.350 Y0.350 Z15.000
G0 X140.350 Y0.350 Z13.000
G1 X140.350 Y0.350 Z4.000 F480.000
G3 X139.955 Y0.492 Z4.000 I-0.350 J-0.350 K0.000 F480.000
G3 X139.508 Y-0.045 Z4.000 I0.045 J-0.492 K0.000 F480.000
G3 X140.045 Y-0.492 Z4.000 I0.492 J0.045 K0.000 F480.000
G3 X140.350 Y0.350 Z4.000 I-0.045 J0.492 K0.000 F480.000
G1 X140.350 Y0.350 Z2.000 F480.000
G3 X139.955 Y0.492 Z2.000 I-0.350 J-0.350 K0.000 F480.000
G3 X139.508 Y-0.045 Z2.000 I0.045 J-0.492 K0.000 F480.000
G3 X140.045 Y-0.492 Z2.000 I0.492 J0.045 K0.000 F480.000
G3 X140.350 Y0.350 Z2.000 I-0.045 J0.492 K0.000 F480.000
G0 Z15.000
G0 X140.703 Y0.703 Z15.000
G0 X140.703 Y0.703 Z13.000
G1 X140.703 Y0.703 Z2.000 F480.000
G3 X139.910 Y0.991 Z2.000 I-0.703 J-0.703 K0.000 F480.000
G3 X139.009 Y-0.090 Z2.000 I0.090 J-0.991 K0.000 F480.000
G3 X140.090 Y-0.991 Z2.000 I0.991 J0.090 K0.000 F480.000
G3 X140.703 Y0.703 Z2.000 I-0.090 J0.991 K0.000 F480.000
G0 Z15.000
G0 X141.057 Y1.057 Z15.000
G0 X141.057 Y1.057 Z13.000
G1 X141.057 Y1.057 Z2.000 F480.000
G3 X139.865 Y1.489 Z2.000 I-1.057 J-1.057 K0.000 F480.000
G3 X138.511 Y-0.135 Z2.000 I0.135 J-1.489 K0.000 F480.000
G3 X140.135 Y-1.489 Z2.000 I1.489 J0.135 K0.000 F480.000
G3 X141.057 Y1.057 Z2.000 I-0.135 J1.489 K0.000 F480.000
G0 Z15.000
G0 X141.411 Y1.411 Z15.000
G0 X141.411 Y1.411 Z13.000
G1 X141.411 Y1.411 Z2.000 F480.000
G3 X139.819 Y1.987 Z2.000 I-1.411 J-1.411 K0.000 F480.000
G3 X138.013 Y-0.181 Z2.000 I0.181 J-1.987 K0.000 F480.000
G3 X140.181 Y-1.987 Z2.000 I1.987 J0.181 K0.000 F480.000
G3 X141.411 Y1.411 Z2.000 I-0.181 J1.987 K0.000 F480.000
G0 Z15.000
G0 X142.825 Y2.825 Z15.000
G0 X142.825 Y2.825 Z13.000
G1 X142.825 Y2.825 Z2.000 F480.000
G3 X139.638 Y3.979 Z2.000 I-2.825 J-2.825 K0.000 F480.000
G3 X136.021 Y-0.362 Z2.000 I0.362 J-3.979 K0.000 F480.000
G3 X140.362 Y-3.979 Z2.000 I3.979 J0.362 K0.000 F480.000
G3 X142.825 Y2.825 Z2.000 I-0.362 J3.979 K0.000 F480.000
G1 X142.825 Y2.825 Z0.000 F480.000
G3 X139.638 Y3.979 Z0.000 I-2.825 J-2.825 K0.000 F480.000
G3 X136.021 Y-0.362 Z0.000 I0.362 J-3.979 K0.000 F480.000
G3 X140.362 Y-3.979 Z0.000 I3.979 J0.362 K0.000 F480.000
G3 X142.825 Y2.825 Z0.000 I-0.362 J3.979 K0.000 F480.000
G0 Z15.000
G0 X141.411 Y1.411 Z15.000
G0 X141.411 Y1.411 Z13.000
G1 X141.411 Y1.411 Z0.000 F480.000
G3 X139.819 Y1.987 Z0.000 I-1.411 J-1.411 K0.000 F480.000
G3 X138.013 Y-0.181 Z0.000 I0.181 J-1.987 K0.000 F480.000
G3 X140.181 Y-1.987 Z0.000 I1.987 J0.181 K0.000 F480.000
G3 X141.411 Y1.411 Z0.000 I-0.181 J1.987 K0.000 F480.000
G0 Z15.000
G0 X141.057 Y1.057 Z15.000
G0 X141.057 Y1.057 Z13.000
G1 X141.057 Y1.057 Z0.000 F480.000
G3 X139.865 Y1.489 Z0.000 I-1.057 J-1.057 K0.000 F480.000
G3 X138.511 Y-0.135 Z0.000 I0.135 J-1.489 K0.000 F480.000
G3 X140.135 Y-1.489 Z0.000 I1.489 J0.135 K0.000 F480.000
G3 X141.057 Y1.057 Z0.000 I-0.135 J1.489 K0.000 F480.000
G0 Z15.000
G0 X140.703 Y0.703 Z15.000
G0 X140.703 Y0.703 Z13.000
G1 X140.703 Y0.703 Z0.000 F480.000
G3 X139.910 Y0.991 Z0.000 I-0.703 J-0.703 K0.000 F480.000
G3 X139.009 Y-0.090 Z0.000 I0.090 J-0.991 K0.000 F480.000
G3 X140.090 Y-0.991 Z0.000 I0.991 J0.090 K0.000 F480.000
G3 X140.703 Y0.703 Z0.000 I-0.090 J0.991 K0.000 F480.000
G0 Z15.000
G0 X140.350 Y0.350 Z15.000
G0 X140.350 Y0.350 Z13.000
G1 X140.350 Y0.350 Z0.000 F480.000
G3 X139.955 Y0.492 Z0.000 I-0.350 J-0.350 K0.000 F480.000
G3 X139.508 Y-0.045 Z0.000 I0.045 J-0.492 K0.000 F480.000
G3 X140.045 Y-0.492 Z0.000 I0.492 J0.045 K0.000 F480.000
G3 X140.350 Y0.350 Z0.000 I-0.045 J0.492 K0.000 F480.000
G0 Z15.000
G0 Z15.000
(Finish operation: Pocket_Shape004)
(Begin operation: Pocket_Shape005)
(Path: Pocket_Shape005)
(Pocket_Shape005)
G0 Z15.000
G0 X121.633 Y-8.932
G0 Z13.000
G1 X121.633 Y-8.932 Z8.000 F480.000
G3 X122.042 Y-11.352 Z8.000 I1.046 J-1.068 K0.000 F480.000
G3 X123.392 Y-8.685 Z8.000 I0.638 J1.352 K0.000 F480.000
G3 X121.365 Y-9.288 Z8.000 I-0.712 J-1.315 K0.000 F480.000
G3 X121.967 Y-11.315 Z8.000 I1.315 J-0.712 K0.000 F480.000
G1 X122.042 Y-11.352 Z8.000 F480.000
G1 X124.031 Y-9.362 Z8.000 F480.000
G2 X122.042 Y-11.352 Z8.000 I-1.351 J-0.639 K0.000 F480.000
G1 X122.042 Y-11.352 Z6.000 F480.000
G3 X124.031 Y-9.362 Z6.000 I0.639 J1.351 K0.000 F480.000
G1 X122.042 Y-11.352 Z6.000 F480.000
G1 X121.967 Y-11.315 Z6.000 F480.000
G2 X121.365 Y-9.288 Z6.000 I0.712 J1.315 K0.000 F480.000
G2 X123.392 Y-8.685 Z6.000 I1.315 J-0.712 K0.000 F480.000
G2 X122.042 Y-11.352 Z6.000 I-0.712 J-1.315 K0.000 F480.000
G2 X121.633 Y-8.932 Z6.000 I0.637 J1.352 K0.000 F480.000
G1 X121.633 Y-8.932 Z5.000 F480.000
G3 X122.042 Y-11.352 Z5.000 I1.046 J-1.068 K0.000 F480.000
G3 X123.392 Y-8.685 Z5.000 I0.638 J1.352 K0.000 F480.000
G3 X121.365 Y-9.288 Z5.000 I-0.712 J-1.315 K0.000 F480.000
G3 X121.967 Y-11.315 Z5.000 I1.315 J-0.712 K0.000 F480.000
G1 X122.042 Y-11.352 Z5.000 F480.000
G1 X124.031 Y-9.362 Z5.000 F480.000
G2 X122.042 Y-11.352 Z5.000 I-1.351 J-0.639 K0.000 F480.000
G0 Z15.000
G0 Z15.000
G0 X122.042 Y-11.352
G0 Y8.648
G0 Y8.648 Z13.000
G1 X122.042 Y8.648 Z8.000 F480.000
G3 X124.031 Y10.638 Z8.000 I0.639 J1.351 K0.000 F480.000
G1 X122.042 Y8.648 Z8.000 F480.000
G1 X121.967 Y8.685 Z8.000 F480.000
G2 X121.365 Y10.712 Z8.000 I0.712 J1.315 K0.000 F480.000
G2 X123.392 Y11.315 Z8.000 I1.315 J-0.712 K0.000 F480.000
G2 X122.042 Y8.648 Z8.000 I-0.712 J-1.315 K0.000 F480.000
G2 X121.633 Y11.068 Z8.000 I0.637 J1.352 K0.000 F480.000
G1 X121.633 Y11.068 Z6.000 F480.000
G3 X122.042 Y8.648 Z6.000 I1.046 J-1.068 K0.000 F480.000
G3 X123.392 Y11.315 Z6.000 I0.638 J1.352 K0.000 F480.000
G3 X121.365 Y10.712 Z6.000 I-0.712 J-1.315 K0.000 F480.000
G3 X121.967 Y8.685 Z6.000 I1.315 J-0.712 K0.000 F480.000
G1 X122.042 Y8.648 Z6.000 F480.000
G1 X124.031 Y10.638 Z6.000 F480.000
G2 X122.042 Y8.648 Z6.000 I-1.351 J-0.639 K0.000 F480.000
G1 X122.042 Y8.648 Z5.000 F480.000
G3 X124.031 Y10.638 Z5.000 I0.639 J1.351 K0.000 F480.000
G1 X122.042 Y8.648 Z5.000 F480.000
G1 X121.967 Y8.685 Z5.000 F480.000
G2 X121.365 Y10.712 Z5.000 I0.712 J1.315 K0.000 F480.000
G2 X123.392 Y11.315 Z5.000 I1.315 J-0.712 K0.000 F480.000
G2 X122.042 Y8.648 Z5.000 I-0.712 J-1.315 K0.000 F480.000
G2 X121.633 Y11.068 Z5.000 I0.637 J1.352 K0.000 F480.000
G0 Z15.000
G0 Z15.000
G0 X121.633 Y11.068
G0 X139.362 Y18.648
G0 X139.362 Y18.648 Z13.000
G1 X139.362 Y18.648 Z8.000 F480.000
G3 X141.351 Y20.638 Z8.000 I0.639 J1.351 K0.000 F480.000
G1 X139.362 Y18.648 Z8.000 F480.000
G1 X139.288 Y18.685 Z8.000 F480.000
G2 X138.685 Y20.712 Z8.000 I0.712 J1.315 K0.000 F480.000
G2 X140.712 Y21.315 Z8.000 I1.315 J-0.712 K0.000 F480.000
G2 X139.362 Y18.648 Z8.000 I-0.712 J-1.315 K0.000 F480.000
G2 X138.953 Y21.068 Z8.000 I0.637 J1.352 K0.000 F480.000
G1 X138.953 Y21.068 Z6.000 F480.000
G3 X139.362 Y18.648 Z6.000 I1.046 J-1.068 K0.000 F480.000
G3 X140.712 Y21.315 Z6.000 I0.638 J1.352 K0.000 F480.000
G3 X138.685 Y20.712 Z6.000 I-0.712 J-1.315 K0.000 F480.000
G3 X139.288 Y18.685 Z6.000 I1.315 J-0.712 K0.000 F480.000
G1 X139.362 Y18.648 Z6.000 F480.000
G1 X141.351 Y20.638 Z6.000 F480.000
G2 X139.362 Y18.648 Z6.000 I-1.351 J-0.639 K0.000 F480.000
G1 X139.362 Y18.648 Z5.000 F480.000
G3 X141.351 Y20.638 Z5.000 I0.639 J1.351 K0.000 F480.000
G1 X139.362 Y18.648 Z5.000 F480.000
G1 X139.288 Y18.685 Z5.000 F480.000
G2 X138.685 Y20.712 Z5.000 I0.712 J1.315 K0.000 F480.000
G2 X140.712 Y21.315 Z5.000 I1.315 J-0.712 K0.000 F480.000
G2 X139.362 Y18.648 Z5.000 I-0.712 J-1.315 K0.000 F480.000
G2 X138.953 Y21.068 Z5.000 I0.637 J1.352 K0.000 F480.000
G0 Z15.000
G0 Z15.000
G0 X138.953 Y21.068
G0 X156.040 Y10.772
G0 X156.040 Y10.772 Z13.000
G1 X156.040 Y10.772 Z8.000 F480.000
G2 X157.280 Y11.495 Z8.000 I1.281 J-0.772 K0.000 F480.000
G2 X158.815 Y10.041 Z8.000 I0.041 J-1.495 K0.000 F480.000
G2 X157.361 Y8.505 Z8.000 I-1.495 J-0.041 K0.000 F480.000
G2 X156.040 Y10.772 Z8.000 I-0.041 J1.495 K0.000 F480.000
G0 Z15.000
G0 X156.274 Y11.068 Z15.000
G0 X156.274 Y11.068 Z13.000
G1 X156.274 Y11.068 Z8.000 F480.000
G3 X156.683 Y8.648 Z8.000 I1.045 J-1.068 K0.000 F480.000
G1 X158.672 Y10.638 Z8.000 F480.000
G2 X156.683 Y8.648 Z8.000 I-1.351 J-0.639 K0.000 F480.000
G1 X156.683 Y8.648 Z6.000 F480.000
G3 X158.672 Y10.638 Z6.000 I0.639 J1.351 K0.000 F480.000
G1 X156.683 Y8.648 Z6.000 F480.000
G2 X156.274 Y11.068 Z6.000 I0.637 J1.352 K0.000 F480.000
G1 X156.274 Y11.068 Z6.000 F480.000
G2 X157.280 Y11.495 Z6.000 I1.047 J-1.068 K0.000 F480.000
G2 X158.815 Y10.041 Z6.000 I0.041 J-1.495 K0.000 F480.000
G2 X157.361 Y8.505 Z6.000 I-1.495 J-0.041 K0.000 F480.000
G2 X156.274 Y11.068 Z6.000 I-0.041 J1.495 K0.000 F480.000
G1 X156.274 Y11.068 Z5.000 F480.000
G2 X157.280 Y11.495 Z5.000 I1.047 J-1.068 K0.000 F480.000
G2 X158.815 Y10.041 Z5.000 I0.041 J-1.495 K0.000 F480.000
G2 X157.361 Y8.505 Z5.000 I-1.495 J-0.041 K0.000 F480.000
G2 X156.274 Y11.068 Z5.000 I-0.041 J1.495 K0.000 F480.000
G1 X156.274 Y11.068 Z5.000 F480.000
G3 X156.683 Y8.648 Z5.000 I1.045 J-1.068 K0.000 F480.000
G1 X158.672 Y10.638 Z5.000 F480.000
G2 X156.683 Y8.648 Z5.000 I-1.351 J-0.639 K0.000 F480.000
G0 Z15.000
G0 Z15.000
G0 X156.683 Y8.648
G0 X157.269 Y-8.506
G0 X157.269 Y-8.506 Z13.000
G1 X157.269 Y-8.506 Z8.000 F480.000
G2 X157.280 Y-8.505 Z8.000 I0.051 J-1.494 K0.000 F480.000
G2 X158.815 Y-9.959 Z8.000 I0.041 J-1.495 K0.000 F480.000
G2 X157.361 Y-11.495 Z8.000 I-1.495 J-0.041 K0.000 F480.000
G2 X157.269 Y-8.506 Z8.000 I-0.041 J1.495 K0.000 F480.000
G0 Z15.000
G0 X156.274 Y-8.932 Z15.000
G0 X156.274 Y-8.932 Z13.000
G1 X156.274 Y-8.932 Z8.000 F480.000
G3 X156.683 Y-11.352 Z8.000 I1.045 J-1.068 K0.000 F480.000
G1 X158.672 Y-9.362 Z8.000 F480.000
G2 X156.683 Y-11.352 Z8.000 I-1.351 J-0.639 K0.000 F480.000
G1 X156.683 Y-11.352 Z6.000 F480.000
G3 X158.672 Y-9.362 Z6.000 I0.639 J1.351 K0.000 F480.000
G1 X156.683 Y-11.352 Z6.000 F480.000
G2 X156.274 Y-8.932 Z6.000 I0.637 J1.352 K0.000 F480.000
G1 X156.274 Y-8.932 Z6.000 F480.000
G2 X157.280 Y-8.505 Z6.000 I1.047 J-1.068 K0.000 F480.000
G2 X158.815 Y-9.959 Z6.000 I0.041 J-1.495 K0.000 F480.000
G2 X157.361 Y-11.495 Z6.000 I-1.495 J-0.041 K0.000 F480.000
G2 X156.274 Y-8.932 Z6.000 I-0.041 J1.495 K0.000 F480.000
G1 X156.274 Y-8.932 Z5.000 F480.000
G2 X157.280 Y-8.505 Z5.000 I1.047 J-1.068 K0.000 F480.000
G2 X158.815 Y-9.959 Z5.000 I0.041 J-1.495 K0.000 F480.000
G2 X157.361 Y-11.495 Z5.000 I-1.495 J-0.041 K0.000 F480.000
G2 X156.274 Y-8.932 Z5.000 I-0.041 J1.495 K0.000 F480.000
G1 X156.274 Y-8.932 Z5.000 F480.000
G3 X156.683 Y-11.352 Z5.000 I1.045 J-1.068 K0.000 F480.000
G1 X158.672 Y-9.362 Z5.000 F480.000
G2 X156.683 Y-11.352 Z5.000 I-1.351 J-0.639 K0.000 F480.000
G0 Z15.000
G0 Z15.000
G0 X156.683 Y-11.352
G0 X138.953 Y-18.932
G0 X138.953 Y-18.932 Z13.000
G1 X138.953 Y-18.932 Z8.000 F480.000
G3 X139.362 Y-21.352 Z8.000 I1.046 J-1.068 K0.000 F480.000
G3 X140.712 Y-18.685 Z8.000 I0.638 J1.352 K0.000 F480.000
G3 X138.685 Y-19.288 Z8.000 I-0.712 J-1.315 K0.000 F480.000
G3 X139.288 Y-21.315 Z8.000 I1.315 J-0.712 K0.000 F480.000
G1 X139.362 Y-21.352 Z8.000 F480.000
G1 X141.351 Y-19.362 Z8.000 F480.000
G2 X139.362 Y-21.352 Z8.000 I-1.351 J-0.639 K0.000 F480.000
G1 X139.362 Y-21.352 Z6.000 F480.000
G3 X141.351 Y-19.362 Z6.000 I0.639 J1.351 K0.000 F480.000
G1 X139.362 Y-21.352 Z6.000 F480.000
G1 X139.288 Y-21.315 Z6.000 F480.000
G2 X138.685 Y-19.288 Z6.000 I0.712 J1.315 K0.000 F480.000
G2 X140.712 Y-18.685 Z6.000 I1.315 J-0.712 K0.000 F480.000
G2 X139.362 Y-21.352 Z6.000 I-0.712 J-1.315 K0.000 F480.000
G2 X138.953 Y-18.932 Z6.000 I0.637 J1.352 K0.000 F480.000
G1 X138.953 Y-18.932 Z5.000 F480.000
G3 X139.362 Y-21.352 Z5.000 I1.046 J-1.068 K0.000 F480.000
G3 X140.712 Y-18.685 Z5.000 I0.638 J1.352 K0.000 F480.000
G3 X138.685 Y-19.288 Z5.000 I-0.712 J-1.315 K0.000 F480.000
G3 X139.288 Y-21.315 Z5.000 I1.315 J-0.712 K0.000 F480.000
G1 X139.362 Y-21.352 Z5.000 F480.000
G1 X141.351 Y-19.362 Z5.000 F480.000
G2 X139.362 Y-21.352 Z5.000 I-1.351 J-0.639 K0.000 F480.000
G0 Z15.000
G0 Z15.000
(Finish operation: Pocket_Shape005)
(Begin operation: Profile)
(Path: Profile)
(Profile)
(Compensated Tool Path. Diameter: 2.0)
G0 Z15.000
G0 X159.433 Y20.303
G0 Z13.000
G1 X159.433 Y20.303 Z8.000 F480.000
G1 X170.866 Y0.500 Z8.000 F480.000
G2 X170.866 Y-0.500 Z8.000 I-0.866 J-0.500 K0.000 F480.000
G1 X155.866 Y-26.481 Z8.000 F480.000
G2 X155.000 Y-26.981 Z8.000 I-0.866 J0.500 K0.000 F480.000
G1 X125.000 Y-26.981 Z8.000 F480.000
G2 X124.134 Y-26.481 Z8.000 I0.000 J1.000 K0.000 F480.000
G1 X109.134 Y-0.500 Z8.000 F480.000
G2 X109.134 Y0.500 Z8.000 I0.866 J0.500 K0.000 F480.000
G1 X124.134 Y26.481 Z8.000 F480.000
G2 X125.000 Y26.981 Z8.000 I0.866 J-0.500 K0.000 F480.000
G1 X155.000 Y26.981 Z8.000 F480.000
G2 X155.866 Y26.481 Z8.000 I-0.000 J-1.000 K0.000 F480.000
G1 X159.433 Y20.303 Z8.000 F480.000
G1 X159.433 Y20.303 Z6.000 F480.000
G1 X170.866 Y0.500 Z6.000 F480.000
G2 X170.866 Y-0.500 Z6.000 I-0.866 J-0.500 K0.000 F480.000
G1 X155.866 Y-26.481 Z6.000 F480.000
G2 X155.000 Y-26.981 Z6.000 I-0.866 J0.500 K0.000 F480.000
G1 X125.000 Y-26.981 Z6.000 F480.000
G2 X124.134 Y-26.481 Z6.000 I0.000 J1.000 K0.000 F480.000
G1 X109.134 Y-0.500 Z6.000 F480.000
G2 X109.134 Y0.500 Z6.000 I0.866 J0.500 K0.000 F480.000
G1 X124.134 Y26.481 Z6.000 F480.000
G2 X125.000 Y26.981 Z6.000 I0.866 J-0.500 K0.000 F480.000
G1 X155.000 Y26.981 Z6.000 F480.000
G2 X155.866 Y26.481 Z6.000 I-0.000 J-1.000 K0.000 F480.000
G1 X159.433 Y20.303 Z6.000 F480.000
G1 X159.433 Y20.303 Z4.000 F480.000
G1 X170.866 Y0.500 Z4.000 F480.000
G2 X170.866 Y-0.500 Z4.000 I-0.866 J-0.500 K0.000 F480.000
G1 X155.866 Y-26.481 Z4.000 F480.000
G2 X155.000 Y-26.981 Z4.000 I-0.866 J0.500 K0.000 F480.000
G1 X125.000 Y-26.981 Z4.000 F480.000
G2 X124.134 Y-26.481 Z4.000 I0.000 J1.000 K0.000 F480.000
G1 X109.134 Y-0.500 Z4.000 F480.000
G2 X109.134 Y0.500 Z4.000 I0.866 J0.500 K0.000 F480.000
G1 X124.134 Y26.481 Z4.000 F480.000
G2 X125.000 Y26.981 Z4.000 I0.866 J-0.500 K0.000 F480.000
G1 X155.000 Y26.981 Z4.000 F480.000
G2 X155.866 Y26.481 Z4.000 I-0.000 J-1.000 K0.000 F480.000
G1 X159.433 Y20.303 Z4.000 F480.000
G1 X159.433 Y20.303 Z2.000 F480.000
G1 X170.866 Y0.500 Z2.000 F480.000
G2 X170.866 Y-0.500 Z2.000 I-0.866 J-0.500 K0.000 F480.000
G1 X155.866 Y-26.481 Z2.000 F480.000
G2 X155.000 Y-26.981 Z2.000 I-0.866 J0.500 K0.000 F480.000
G1 X125.000 Y-26.981 Z2.000 F480.000
G2 X124.134 Y-26.481 Z2.000 I0.000 J1.000 K0.000 F480.000
G1 X109.134 Y-0.500 Z2.000 F480.000
G2 X109.134 Y0.500 Z2.000 I0.866 J0.500 K0.000 F480.000
G1 X124.134 Y26.481 Z2.000 F480.000
G2 X125.000 Y26.981 Z2.000 I0.866 J-0.500 K0.000 F480.000
G1 X155.000 Y26.981 Z2.000 F480.000
G2 X155.866 Y26.481 Z2.000 I-0.000 J-1.000 K0.000 F480.000
G1 X159.433 Y20.303 Z2.000 F480.000
G1 X159.433 Y20.303 Z0.000 F480.000
G1 X170.866 Y0.500 Z0.000 F480.000
G2 X170.866 Y-0.500 Z0.000 I-0.866 J-0.500 K0.000 F480.000
G1 X155.866 Y-26.481 Z0.000 F480.000
G2 X155.000 Y-26.981 Z0.000 I-0.866 J0.500 K0.000 F480.000
G1 X125.000 Y-26.981 Z0.000 F480.000
G2 X124.134 Y-26.481 Z0.000 I0.000 J1.000 K0.000 F480.000
G1 X109.134 Y-0.500 Z0.000 F480.000
G2 X109.134 Y0.500 Z0.000 I0.866 J0.500 K0.000 F480.000
G1 X124.134 Y26.481 Z0.000 F480.000
G2 X125.000 Y26.981 Z0.000 I0.866 J-0.500 K0.000 F480.000
G1 X155.000 Y26.981 Z0.000 F480.000
G2 X155.866 Y26.481 Z0.000 I-0.000 J-1.000 K0.000 F480.000
G1 X159.433 Y20.303 Z0.000 F480.000
G0 Z15.000
G0 Z15.000
(Finish operation: Profile)
(Begin operation: Profile001)
(Path: Profile001)
(Profile001)
(Compensated Tool Path. Diameter: 2.0)
G0 Z15.000
G0 X89.433 Y20.303
G0 Z13.000
G1 X89.433 Y20.303 Z8.000 F480.000
G1 X100.866 Y0.500 Z8.000 F480.000
G2 X100.866 Y-0.500 Z8.000 I-0.866 J-0.500 K0.000 F480.000
G1 X85.866 Y-26.481 Z8.000 F480.000
G2 X85.000 Y-26.981 Z8.000 I-0.866 J0.500 K0.000 F480.000
G1 X55.000 Y-26.981 Z8.000 F480.000
G2 X54.134 Y-26.481 Z8.000 I0.000 J1.000 K0.000 F480.000
G1 X39.134 Y-0.500 Z8.000 F480.000
G2 X39.134 Y0.500 Z8.000 I0.866 J0.500 K0.000 F480.000
G1 X54.134 Y26.481 Z8.000 F480.000
G2 X55.000 Y26.981 Z8.000 I0.866 J-0.500 K0.000 F480.000
G1 X85.000 Y26.981 Z8.000 F480.000
G2 X85.866 Y26.481 Z8.000 I-0.000 J-1.000 K0.000 F480.000
G1 X89.433 Y20.303 Z8.000 F480.000
G1 X89.433 Y20.303 Z6.000 F480.000
G1 X100.866 Y0.500 Z6.000 F480.000
G2 X100.866 Y-0.500 Z6.000 I-0.866 J-0.500 K0.000 F480.000
G1 X85.866 Y-26.481 Z6.000 F480.000
G2 X85.000 Y-26.981 Z6.000 I-0.866 J0.500 K0.000 F480.000
G1 X55.000 Y-26.981 Z6.000 F480.000
G2 X54.134 Y-26.481 Z6.000 I0.000 J1.000 K0.000 F480.000
G1 X39.134 Y-0.500 Z6.000 F480.000
G2 X39.134 Y0.500 Z6.000 I0.866 J0.500 K0.000 F480.000
G1 X54.134 Y26.481 Z6.000 F480.000
G2 X55.000 Y26.981 Z6.000 I0.866 J-0.500 K0.000 F480.000
G1 X85.000 Y26.981 Z6.000 F480.000
G2 X85.866 Y26.481 Z6.000 I-0.000 J-1.000 K0.000 F480.000
G1 X89.433 Y20.303 Z6.000 F480.000
G1 X89.433 Y20.303 Z4.000 F480.000
G1 X100.866 Y0.500 Z4.000 F480.000
G2 X100.866 Y-0.500 Z4.000 I-0.866 J-0.500 K0.000 F480.000
G1 X85.866 Y-26.481 Z4.000 F480.000
G2 X85.000 Y-26.981 Z4.000 I-0.866 J0.500 K0.000 F480.000
G1 X55.000 Y-26.981 Z4.000 F480.000
G2 X54.134 Y-26.481 Z4.000 I0.000 J1.000 K0.000 F480.000
G1 X39.134 Y-0.500 Z4.000 F480.000
G2 X39.134 Y0.500 Z4.000 I0.866 J0.500 K0.000 F480.000
G1 X54.134 Y26.481 Z4.000 F480.000
G2 X55.000 Y26.981 Z4.000 I0.866 J-0.500 K0.000 F480.000
G1 X85.000 Y26.981 Z4.000 F480.000
G2 X85.866 Y26.481 Z4.000 I-0.000 J-1.000 K0.000 F480.000
G1 X89.433 Y20.303 Z4.000 F480.000
G1 X89.433 Y20.303 Z2.000 F480.000
G1 X100.866 Y0.500 Z2.000 F480.000
G2 X100.866 Y-0.500 Z2.000 I-0.866 J-0.500 K0.000 F480.000
G1 X85.866 Y-26.481 Z2.000 F480.000
G2 X85.000 Y-26.981 Z2.000 I-0.866 J0.500 K0.000 F480.000
G1 X55.000 Y-26.981 Z2.000 F480.000
G2 X54.134 Y-26.481 Z2.000 I0.000 J1.000 K0.000 F480.000
G1 X39.134 Y-0.500 Z2.000 F480.000
G2 X39.134 Y0.500 Z2.000 I0.866 J0.500 K0.000 F480.000
G1 X54.134 Y26.481 Z2.000 F480.000
G2 X55.000 Y26.981 Z2.000 I0.866 J-0.500 K0.000 F480.000
G1 X85.000 Y26.981 Z2.000 F480.000
G2 X85.866 Y26.481 Z2.000 I-0.000 J-1.000 K0.000 F480.000
G1 X89.433 Y20.303 Z2.000 F480.000
G1 X89.433 Y20.303 Z0.000 F480.000
G1 X100.866 Y0.500 Z0.000 F480.000
G2 X100.866 Y-0.500 Z0.000 I-0.866 J-0.500 K0.000 F480.000
G1 X85.866 Y-26.481 Z0.000 F480.000
G2 X85.000 Y-26.981 Z0.000 I-0.866 J0.500 K0.000 F480.000
G1 X55.000 Y-26.981 Z0.000 F480.000
G2 X54.134 Y-26.481 Z0.000 I0.000 J1.000 K0.000 F480.000
G1 X39.134 Y-0.500 Z0.000 F480.000
G2 X39.134 Y0.500 Z0.000 I0.866 J0.500 K0.000 F480.000
G1 X54.134 Y26.481 Z0.000 F480.000
G2 X55.000 Y26.981 Z0.000 I0.866 J-0.500 K0.000 F480.000
G1 X85.000 Y26.981 Z0.000 F480.000
G2 X85.866 Y26.481 Z0.000 I-0.000 J-1.000 K0.000 F480.000
G1 X89.433 Y20.303 Z0.000 F480.000
G0 Z15.000
G0 Z15.000
(Finish operation: Profile001)
(Begin operation: Profile002)
(Path: Profile002)
(Profile002)
(Compensated Tool Path. Diameter: 2.0)
G0 Z15.000
G0 X19.433 Y20.303
G0 Z13.000
G1 X19.433 Y20.303 Z8.000 F480.000
G1 X30.866 Y0.500 Z8.000 F480.000
G2 X30.866 Y-0.500 Z8.000 I-0.866 J-0.500 K0.000 F480.000
G1 X15.866 Y-26.481 Z8.000 F480.000
G2 X15.000 Y-26.981 Z8.000 I-0.866 J0.500 K0.000 F480.000
G1 X-15.000 Y-26.981 Z8.000 F480.000
G2 X-15.866 Y-26.481 Z8.000 I0.000 J1.000 K0.000 F480.000
G1 X-30.866 Y-0.500 Z8.000 F480.000
G2 X-30.866 Y0.500 Z8.000 I0.866 J0.500 K0.000 F480.000
G1 X-15.866 Y26.481 Z8.000 F480.000
G2 X-15.000 Y26.981 Z8.000 I0.866 J-0.500 K0.000 F480.000
G1 X15.000 Y26.981 Z8.000 F480.000
G2 X15.866 Y26.481 Z8.000 I-0.000 J-1.000 K0.000 F480.000
G1 X19.433 Y20.303 Z8.000 F480.000
G1 X19.433 Y20.303 Z6.000 F480.000
G1 X30.866 Y0.500 Z6.000 F480.000
G2 X30.866 Y-0.500 Z6.000 I-0.866 J-0.500 K0.000 F480.000
G1 X15.866 Y-26.481 Z6.000 F480.000
G2 X15.000 Y-26.981 Z6.000 I-0.866 J0.500 K0.000 F480.000
G1 X-15.000 Y-26.981 Z6.000 F480.000
G2 X-15.866 Y-26.481 Z6.000 I0.000 J1.000 K0.000 F480.000
G1 X-30.866 Y-0.500 Z6.000 F480.000
G2 X-30.866 Y0.500 Z6.000 I0.866 J0.500 K0.000 F480.000
G1 X-15.866 Y26.481 Z6.000 F480.000
G2 X-15.000 Y26.981 Z6.000 I0.866 J-0.500 K0.000 F480.000
G1 X15.000 Y26.981 Z6.000 F480.000
G2 X15.866 Y26.481 Z6.000 I-0.000 J-1.000 K0.000 F480.000
G1 X19.433 Y20.303 Z6.000 F480.000
G1 X19.433 Y20.303 Z4.000 F480.000
G1 X30.866 Y0.500 Z4.000 F480.000
G2 X30.866 Y-0.500 Z4.000 I-0.866 J-0.500 K0.000 F480.000
G1 X15.866 Y-26.481 Z4.000 F480.000
G2 X15.000 Y-26.981 Z4.000 I-0.866 J0.500 K0.000 F480.000
G1 X-15.000 Y-26.981 Z4.000 F480.000
G2 X-15.866 Y-26.481 Z4.000 I0.000 J1.000 K0.000 F480.000
G1 X-30.866 Y-0.500 Z4.000 F480.000
G2 X-30.866 Y0.500 Z4.000 I0.866 J0.500 K0.000 F480.000
G1 X-15.866 Y26.481 Z4.000 F480.000
G2 X-15.000 Y26.981 Z4.000 I0.866 J-0.500 K0.000 F480.000
G1 X15.000 Y26.981 Z4.000 F480.000
G2 X15.866 Y26.481 Z4.000 I-0.000 J-1.000 K0.000 F480.000
G1 X19.433 Y20.303 Z4.000 F480.000
G1 X19.433 Y20.303 Z2.000 F480.000
G1 X30.866 Y0.500 Z2.000 F480.000
G2 X30.866 Y-0.500 Z2.000 I-0.866 J-0.500 K0.000 F480.000
G1 X15.866 Y-26.481 Z2.000 F480.000
G2 X15.000 Y-26.981 Z2.000 I-0.866 J0.500 K0.000 F480.000
G1 X-15.000 Y-26.981 Z2.000 F480.000
G2 X-15.866 Y-26.481 Z2.000 I0.000 J1.000 K0.000 F480.000
G1 X-30.866 Y-0.500 Z2.000 F480.000
G2 X-30.866 Y0.500 Z2.000 I0.866 J0.500 K0.000 F480.000
G1 X-15.866 Y26.481 Z2.000 F480.000
G2 X-15.000 Y26.981 Z2.000 I0.866 J-0.500 K0.000 F480.000
G1 X15.000 Y26.981 Z2.000 F480.000
G2 X15.866 Y26.481 Z2.000 I-0.000 J-1.000 K0.000 F480.000
G1 X19.433 Y20.303 Z2.000 F480.000
G1 X19.433 Y20.303 Z0.000 F480.000
G1 X30.866 Y0.500 Z0.000 F480.000
G2 X30.866 Y-0.500 Z0.000 I-0.866 J-0.500 K0.000 F480.000
G1 X15.866 Y-26.481 Z0.000 F480.000
G2 X15.000 Y-26.981 Z0.000 I-0.866 J0.500 K0.000 F480.000
G1 X-15.000 Y-26.981 Z0.000 F480.000
G2 X-15.866 Y-26.481 Z0.000 I0.000 J1.000 K0.000 F480.000
G1 X-30.866 Y-0.500 Z0.000 F480.000
G2 X-30.866 Y0.500 Z0.000 I0.866 J0.500 K0.000 F480.000
G1 X-15.866 Y26.481 Z0.000 F480.000
G2 X-15.000 Y26.981 Z0.000 I0.866 J-0.500 K0.000 F480.000
G1 X15.000 Y26.981 Z0.000 F480.000
G2 X15.866 Y26.481 Z0.000 I-0.000 J-1.000 K0.000 F480.000
G1 X19.433 Y20.303 Z0.000 F480.000
G0 Z15.000
G0 Z15.000
(Finish operation: Profile002)
(Begin postamble)
M5
G17 G90
M2
