(Exported by FreeCAD)
(Post Processor: script_module)
(Output Time:2025-07-19 10:11:06.339840)
(begin preamble)
%
G17 G21 G40 G49 G80 G90
M08
G21
(begin operation: Fixture)
(machine: not set, mm/min)
G54
(finish operation: Fixture)
(begin operation: 2mm_Endmill003)
(machine: not set, mm/min)
(2mm_Endmill003)
M05
M09M6 T2
M3 S10000
(finish operation: 2mm_Endmill003)
(begin operation: Pocket_Shape001)
(machine: not set, mm/min)
(Pocket_Shape001)
G0 Z5.000
G0 X0.000 Y0.000
G0 X-0.070 Y4.270
G0 X-0.070 Y4.270 Z3.000
G1 X-0.070 Y4.270 Z-2.000 F600.000
G2 X1.716 Y4.290 Z-2.000 I3.058 J-186.514 F600.000
G1 X3.903 Y4.188 Z-2.000 F600.000
G2 X4.851 Y3.089 Z-2.000 I-0.047 J-0.999 F600.000
G1 X4.795 Y2.532 Z-2.000 F600.000
G3 X5.055 Y2.486 Z-2.000 I0.492 J2.024 F600.000
G3 X5.217 Y3.987 Z-2.000 I-35.505 J4.607 F600.000
G1 X4.896 Y4.163 Z-2.000 F600.000
G1 X4.245 Y4.334 Z-2.000 F600.000
G1 X1.220 Y4.376 Z-2.000 F600.000
G2 X0.001 Y5.299 Z-2.000 I-0.208 J0.992 F600.000
G1 X-0.027 Y5.855 Z-2.000 F600.000
G1 X-0.186 Y5.862 Z-2.000 F600.000
G2 X-0.389 Y4.693 Z-2.000 I-1.877 J-0.277 F600.000
G2 X-1.155 Y4.275 Z-2.000 I-0.814 J0.581 F600.000
G2 X-4.090 Y4.205 Z-2.000 I-2.491 J42.846 F600.000
G2 X-5.122 Y4.161 Z-2.000 I-0.623 J2.479 F600.000
G3 X-5.170 Y2.712 Z-2.000 I17.407 J-1.311 F600.000
G3 X-5.106 Y2.698 Z-2.000 I0.071 J0.163 F600.000
G2 X-4.894 Y3.734 Z-2.000 I1.946 J0.141 F600.000
G2 X-4.105 Y4.160 Z-2.000 I0.819 J-0.574 F600.000
G2 X-0.070 Y4.270 Z-2.000 I7.094 J-186.404 F600.000
G0 Z5.000
G0 Z5.000
(finish operation: Pocket_Shape001)
(begin operation: Pocket_Shape002)
(machine: not set, mm/min)
(Pocket_Shape002)
G0 Z5.000
G0 X0.000 Y0.000
G0 X-0.009 Y-0.121
G0 X-0.009 Y-0.121 Z3.000
G1 X-0.009 Y-0.121 Z-2.000 F600.000
G2 X-0.807 Y1.364 Z-2.000 I0.075 J0.997 F600.000
G1 X-0.624 Y1.692 Z-2.000 F600.000
G1 X-0.877 Y1.772 Z-2.000 F600.000
G2 X-1.750 Y0.169 Z-2.000 I-4.094 J1.192 F600.000
G2 X-2.449 Y-0.094 Z-2.000 I-0.677 J0.736 F600.000
G3 X-5.249 Y-0.174 Z-2.000 I-0.817 J-20.521 F600.000
G1 X-5.240 Y-0.226 Z-2.000 F600.000
G1 X-3.685 Y-0.151 Z-2.000 F600.000
G2 X-2.782 Y-1.668 Z-2.000 I0.048 J-0.999 F600.000
G1 X-3.167 Y-2.305 Z-2.000 F600.000
G3 X-2.961 Y-2.711 Z-2.000 I18.983 J9.365 F600.000
G2 X-1.918 Y-3.174 Z-2.000 I-1.161 J-4.027 F600.000
G2 X-1.923 Y-4.750 Z-2.000 I-0.598 J-0.786 F600.000
G1 X-1.702 Y-4.676 Z-2.000 F600.000
G1 X-0.360 Y-4.107 Z-2.000 F600.000
G2 X0.526 Y-4.023 Z-2.000 I0.528 J-0.851 F600.000
G2 X3.173 Y-5.114 Z-2.000 I-10.376 J-28.913 F600.000
G1 X3.226 Y-5.026 Z-2.000 F600.000
G3 X1.699 Y-4.366 Z-2.000 I-7.219 J-14.593 F600.000
G2 X1.345 Y-2.760 Z-2.000 I0.379 J0.926 F600.000
G1 X1.817 Y-2.251 Z-2.000 F600.000
G1 X2.449 Y-0.999 Z-2.000 F600.000
G2 X3.405 Y-0.312 Z-2.000 I0.934 J-0.291 F600.000
G2 X5.210 Y-0.395 Z-2.000 I-0.338 J-26.795 F600.000
G1 X5.214 Y-0.320 Z-2.000 F600.000
G1 X4.664 Y-0.268 Z-2.000 F600.000
G3 X0.055 Y-0.124 Z-2.000 I-4.848 J-81.360 F600.000
G2 X-0.009 Y-0.121 Z-2.000 I0.011 J1.000 F600.000
G1 X-0.012 Y-0.178 Z-2.000 F600.000
G3 X-1.145 Y-0.151 Z-2.000 I-1.103 J-22.486 F600.000
G3 X-1.967 Y-0.542 Z-2.000 I-0.029 J-1.000 F600.000
G1 X-2.594 Y-1.359 Z-2.000 F600.000
G3 X-2.134 Y-2.910 Z-2.000 I0.794 J-0.609 F600.000
G1 X-0.443 Y-3.508 Z-2.000 F600.000
G3 X0.546 Y-3.321 Z-2.000 I0.333 J0.943 F600.000
G3 X1.383 Y-2.471 Z-2.000 I-3.657 J4.441 F600.000
G3 X1.819 Y-1.642 Z-2.000 I-2.401 J1.792 F600.000
G3 X1.220 Y-0.272 Z-2.000 I-0.908 J0.419 F600.000
G3 X-0.012 Y-0.178 Z-2.000 I-2.335 J-22.391 F600.000
G0 Z5.000
G0 X-1.040 Y-3.827 Z5.000
G0 X-1.040 Y-3.827 Z3.000
G1 X-1.040 Y-3.827 Z-2.000 F600.000
G1 X-1.036 Y-3.850 Z-2.000 F600.000
G1 X-1.008 Y-3.839 Z-2.000 F600.000
G1 X-1.040 Y-3.827 Z-2.000 F600.000
G0 Z5.000
G0 Z5.000
(finish operation: Pocket_Shape002)
(begin operation: Pocket_Shape003)
(machine: not set, mm/min)
(Pocket_Shape003)
G0 Z5.000
G0 X0.000 Y0.000
G0 X2.740 Y-8.569
G0 X2.740 Y-8.569 Z3.000
G1 X2.740 Y-8.569 Z-2.000 F600.000
G1 X1.411 Y-9.898 Z-2.000 F600.000
G2 X-1.416 Y-9.897 Z-2.000 I-1.411 J9.891 F600.000
G1 X-0.501 Y-8.982 Z-2.000 F600.000
G2 X-2.873 Y-8.526 Z-2.000 I0.475 J8.862 F600.000
G1 X-3.653 Y-9.305 Z-2.000 F600.000
G2 X-5.514 Y-8.338 Z-2.000 I3.522 J9.053 F600.000
G1 X-4.791 Y-7.615 Z-2.000 F600.000
G2 X-6.364 Y-6.359 Z-2.000 I4.705 J7.503 F600.000
G1 X-7.071 Y-7.067 Z-2.000 F600.000
G2 X-8.342 Y-5.509 Z-2.000 I6.944 J6.958 F600.000
G1 X-7.618 Y-4.785 Z-2.000 F600.000
G2 X-8.527 Y-2.866 Z-2.000 I7.444 J4.701 F600.000
G1 X-9.308 Y-3.646 Z-2.000 F600.000
G2 X-9.897 Y-1.408 Z-2.000 I9.145 J3.606 F600.000
G1 X-8.984 Y-0.494 Z-2.000 F600.000
G2 X-8.565 Y2.753 Z-2.000 I8.949 J0.496 F600.000
G1 X-9.895 Y1.423 Z-2.000 F600.000
G3 X-0.349 Y-9.992 Z-2.000 I9.895 J-1.424 F600.000
G1 X-0.349 Y-9.992 Z-2.000 F600.000
G3 X0.611 Y9.979 Z-2.000 I0.349 J9.992 F600.000
G3 X-9.895 Y1.423 Z-2.000 I-0.611 J-9.978 F600.000
G1 X-8.906 Y1.281 Z-2.000 F600.000
G3 X0.091 Y-8.997 Z-2.000 I8.906 J-1.281 F600.000
G3 X-0.081 Y8.997 Z-2.000 I-0.091 J8.997 F600.000
G3 X-8.906 Y1.281 Z-2.000 I0.081 J-8.997 F600.000
G0 Z5.000
G0 X-1.423 Y9.895 Z5.000
G0 X-1.423 Y9.895 Z3.000
G1 X-1.423 Y9.895 Z-2.000 F600.000
G1 X-2.754 Y8.565 Z-2.000 F600.000
G3 X-8.565 Y2.753 Z-2.000 I2.746 J-8.558 F600.000
G1 X-9.895 Y1.423 Z-2.000 F600.000
G2 X-1.423 Y9.895 Z-2.000 I9.892 J-1.420 F600.000
G2 X1.407 Y9.897 Z-2.000 I1.423 J-9.779 F600.000
G1 X0.493 Y8.982 Z-2.000 F600.000
G2 X2.867 Y8.528 Z-2.000 I-0.467 J-8.867 F600.000
G1 X3.647 Y9.308 Z-2.000 F600.000
G2 X5.509 Y8.342 Z-2.000 I-3.609 J-9.236 F600.000
G1 X4.786 Y7.618 Z-2.000 F600.000
G2 X6.359 Y6.364 Z-2.000 I-4.704 J-7.514 F600.000
G1 X7.066 Y7.071 Z-2.000 F600.000
G2 X8.338 Y5.514 Z-2.000 I-6.852 J-6.894 F600.000
G1 X7.615 Y4.791 Z-2.000 F600.000
G2 X8.525 Y2.873 Z-2.000 I-7.441 J-4.707 F600.000
G1 X9.305 Y3.653 Z-2.000 F600.000
G2 X9.897 Y1.416 Z-2.000 I-9.167 J-3.621 F600.000
G1 X8.983 Y0.503 Z-2.000 F600.000
G2 X8.569 Y-2.740 Z-2.000 I-8.939 J-0.506 F600.000
G1 X9.896 Y-1.413 Z-2.000 F600.000
G2 X6.968 Y-7.170 Z-2.000 I-9.889 J1.407 F600.000
G0 Z5.000
G0 Z5.000
(finish operation: Pocket_Shape003)
(begin postamble)
M05 M09
G17 G90 G80 G40
M30
