(Exported by FreeCAD)
(Post Processor: script_module)
(Output Time:2025-06-20 19:18:50.948569)
(Begin preamble)
G17 G90
G21
(Begin operation: Fixture)
(Path: Fixture)
G54
(Finish operation: Fixture)
(Begin operation: 2mm_Endmill001)
(Path: 2mm_Endmill001)
(2mm_Endmill001)
(Begin toolchange)
( M6 T2 )
M3 S10000
(Finish operation: 2mm_Endmill001)
(Begin operation: Pocket_Shape)
(Path: Pocket_Shape)
(Pocket_Shape)
G0 Z5.000
G0 X0.000 Y0.000
G0 X-3.820 Y-3.938
G0 X-3.820 Y-3.938 Z3.000
G1 X-3.820 Y-3.938 Z-2.000 F600.000
G1 X-4.041 Y-3.831 Z-2.000 F600.000
G3 X-4.627 Y-4.731 Z-2.000 I10.851 J-7.710 K0.000 F600.000
G2 X-4.415 Y-4.860 Z-2.000 I-5.949 J-9.997 K0.000 F600.000
G2 X-3.820 Y-3.938 Z-2.000 I5.272 J-2.752 K0.000 F600.000
G0 Z5.000
G0 Z5.000
G0 X-3.820 Y-3.938
G0 X-3.274 Y-1.890
G0 X-3.274 Y-1.890 Z3.000
G1 X-3.274 Y-1.890 Z-2.000 F600.000
G1 X-1.048 Y-1.836 Z-2.000 F600.000
G2 X-0.178 Y-2.686 Z-2.000 I0.021 J-0.850 K0.000 F600.000
G1 X-0.178 Y-4.174 Z-2.000 F600.000
G2 X-0.836 Y-5.032 Z-2.000 I-0.953 J0.050 K0.000 F600.000
G1 X-0.816 Y-5.144 Z-2.000 F600.000
G3 X0.257 Y-5.132 Z-2.000 I0.490 J4.163 K0.000 F600.000
G1 X0.207 Y-2.703 Z-2.000 F600.000
G2 X1.071 Y-1.836 Z-2.000 I0.850 J0.017 K0.000 F600.000
G3 X3.328 Y-1.873 Z-2.000 I13.286 J744.704 K0.000 F600.000
G2 X3.331 Y-1.707 Z-2.000 I1.861 J0.048 K0.000 F600.000
G1 X1.050 Y-1.728 Z-2.000 F600.000
G2 X0.192 Y-0.878 Z-2.000 I-0.008 J0.850 K0.000 F600.000
G1 X0.192 Y0.113 Z-2.000 F600.000
G2 X1.016 Y0.963 Z-2.000 I0.850 J-0.000 K0.000 F600.000
G2 X2.080 Y0.940 Z-2.000 I0.408 J-5.661 K0.000 F600.000
G2 X2.086 Y1.084 Z-2.000 I1.383 J0.011 K0.000 F600.000
G3 X-2.084 Y1.040 Z-2.000 I2.844 J-464.874 K0.000 F600.000
G2 X-2.068 Y0.909 Z-2.000 I-0.967 J-0.183 K0.000 F600.000
G1 X-1.063 Y0.934 Z-2.000 F600.000
G2 X-0.193 Y0.105 Z-2.000 I0.021 J-0.850 K0.000 F600.000
G2 X-0.178 Y-0.903 Z-2.000 I-26.649 J-0.896 K0.000 F600.000
G2 X-1.013 Y-1.757 Z-2.000 I-0.850 J-0.005 K0.000 F600.000
G2 X-3.285 Y-1.792 Z-2.000 I-3.561 J159.255 K0.000 F600.000
G1 X-3.274 Y-1.890 Z-2.000 F600.000
G0 Z5.000
G0 X-5.107 Y0.533 Z5.000
G0 X-5.107 Y0.533 Z3.000
G1 X-5.107 Y0.533 Z-2.000 F600.000
G1 X-4.094 Y1.300 Z-2.000 F600.000
G2 X-3.407 Y1.986 Z-2.000 I2.619 J-1.933 K0.000 F600.000
G1 X-3.215 Y2.062 Z-2.000 F600.000
G2 X-3.017 Y2.445 Z-2.000 I0.658 J-0.097 K0.000 F600.000
G2 X-0.739 Y4.840 Z-2.000 I1455.017 J-1381.750 K0.000 F600.000
G2 X0.505 Y4.825 Z-2.000 I0.616 J-0.586 K0.000 F600.000
G1 X0.783 Y4.520 Z-2.000 F600.000
G1 X2.766 Y2.537 Z-2.000 F600.000
G2 X3.001 Y2.079 Z-2.000 I-0.357 J-0.472 K0.000 F600.000
G2 X3.508 Y1.879 Z-2.000 I-0.020 J-0.793 K0.000 F600.000
G3 X5.070 Y0.651 Z-2.000 I7.485 J7.913 K0.000 F600.000
G2 X5.478 Y1.160 Z-2.000 I2.827 J-1.841 K0.000 F600.000
G2 X1.592 Y4.528 Z-2.000 I16.346 J22.782 K0.000 F600.000
G1 X0.472 Y5.590 Z-2.000 F600.000
G2 X0.302 Y5.827 Z-2.000 I0.299 J0.394 K0.000 F600.000
G3 X-0.488 Y6.049 Z-2.000 I-1.154 J-2.600 K0.000 F600.000
G1 X-1.847 Y4.230 Z-2.000 F600.000
G2 X-5.525 Y0.701 Z-2.000 I-33.239 J30.963 K0.000 F600.000
G3 X-5.250 Y0.425 Z-2.000 I0.948 J0.667 K0.000 F600.000
G1 X-5.107 Y0.533 Z-2.000 F600.000
G0 Z5.000
G0 X-0.125 Y-1.798 Z5.000
G0 X-0.125 Y-1.798 Z3.000
G1 X-0.125 Y-1.798 Z-2.000 F600.000
G2 X0.018 Y-1.962 Z-2.000 I-0.262 J-0.373 K0.000 F600.000
G2 X0.161 Y-1.791 Z-2.000 I0.420 J-0.204 K0.000 F600.000
G1 X0.013 Y-1.627 Z-2.000 F600.000
G2 X-0.125 Y-1.798 Z-2.000 I-0.416 J0.195 K0.000 F600.000
G0 Z5.000
G0 X3.518 Y-3.975 Z5.000
G0 X3.518 Y-3.975 Z3.000
G1 X3.518 Y-3.975 Z-2.000 F600.000
G2 X4.224 Y-4.953 Z-2.000 I-3.861 J-3.530 K0.000 F600.000
G3 X4.492 Y-4.777 Z-2.000 I-0.688 J1.337 K0.000 F600.000
G3 X3.690 Y-3.832 Z-2.000 I-6.029 J-4.302 K0.000 F600.000
G3 X3.518 Y-3.975 Z-2.000 I0.514 J-0.790 K0.000 F600.000
G0 Z5.000
G0 X-0.115 Y5.520 Z5.000
G0 X-0.115 Y5.520 Z3.000
G1 X-0.115 Y5.520 Z-2.000 F600.000
G3 X-0.303 Y5.583 Z-2.000 I-0.310 J-0.613 K0.000 F600.000
G1 X-0.367 Y5.496 Z-2.000 F600.000
G2 X-0.115 Y5.520 Z-2.000 I0.175 J-0.500 K0.000 F600.000
G0 Z5.000
G0 Z5.000
G0 X-0.115 Y5.520
G0 X-0.184 Y8.847
G0 X-0.184 Y8.847 Z3.000
G1 X-0.184 Y8.847 Z-2.000 F600.000
G3 X-1.767 Y-8.671 Z-2.000 I0.184 J-8.847 K0.000 F600.000
G3 X8.671 Y-1.767 Z-2.000 I1.767 J8.671 K0.000 F600.000
G3 X1.767 Y8.671 Z-2.000 I-8.671 J1.767 K0.000 F600.000
G3 X-0.184 Y8.847 Z-2.000 I-1.767 J-8.671 K0.000 F600.000
G1 X-0.193 Y9.272 Z-2.000 F600.000
G3 X-1.871 Y-9.083 Z-2.000 I0.193 J-9.272 K0.000 F600.000
G3 X1.871 Y9.083 Z-2.000 I1.871 J9.083 K0.000 F600.000
G3 X-0.193 Y9.272 Z-2.000 I-1.871 J-9.083 K0.000 F600.000
G1 X-0.202 Y9.722 Z-2.000 F600.000
G3 X-2.049 Y9.506 Z-2.000 I0.202 J-9.722 K0.000 F600.000
G3 X-9.506 Y-2.049 Z-2.000 I2.049 J-9.506 K0.000 F600.000
G3 X2.049 Y-9.506 Z-2.000 I9.506 J2.049 K0.000 F600.000
G3 X-0.202 Y9.722 Z-2.000 I-2.049 J9.506 K0.000 F600.000
G1 X-0.211 Y10.147 Z-2.000 F600.000
G3 X-2.138 Y9.921 Z-2.000 I0.211 J-10.147 K0.000 F600.000
G3 X2.138 Y-9.921 Z-2.000 I2.138 J-9.921 K0.000 F600.000
G3 X-0.211 Y10.147 Z-2.000 I-2.138 J9.921 K0.000 F600.000
G0 Z5.000
G0 Z5.000
(Finish operation: Pocket_Shape)
(Begin postamble)
M5
G17 G90
M2
