(Exported by FreeCAD)
(Post Processor: script_module)
(Output Time:2025-08-28 18:06:02.889368)
(Begin preamble)
G17 G90
G21
(Begin operation: Fixture)
(Path: Fixture)
G54
(Finish operation: Fixture)
(Begin operation: 3mm_Endmill001)
(Path: 3mm_Endmill001)
(3mm_Endmill001)
(Begin toolchange)
( M6 T2 )
M3 S10000
(Finish operation: 3mm_Endmill001)
(Begin operation: Profile)
(Path: Profile)
(Profile)
(Compensated Tool Path. Diameter: 3.0)
G0 Z5.000
G0 X114.709 Y57.740
G0 Z3.000
G1 X114.709 Y57.740 Z-3.000 F600.000
G2 X123.485 Y53.468 Z-3.000 I-114.706 J-246.724 K0.000 F600.000
G2 X126.496 Y48.664 Z-3.000 I-2.494 J-4.909 K0.000 F600.000
G1 X126.500 Y38.091 Z-3.000 F600.000
G2 X121.832 Y32.657 Z-3.000 I-5.503 J0.005 K0.000 F600.000
G2 X118.318 Y33.293 Z-3.000 I-0.832 J5.434 K0.000 F600.000
G3 X-118.237 Y33.336 Z-3.000 I-118.314 J-202.307 K0.000 F600.000
G2 X-126.496 Y37.986 Z-3.000 I-2.760 J4.757 K0.000 F600.000
G1 X-126.500 Y48.561 Z-3.000 F600.000
G2 X-123.586 Y53.412 Z-3.000 I5.507 J-0.007 K0.000 F600.000
G2 X114.709 Y57.740 Z-3.000 I123.590 J-242.396 K0.000 F600.000
G0 Z5.000
G0 X106.485 Y38.400 Z5.000
G0 X106.485 Y38.400 Z3.000
G1 X106.485 Y38.400 Z-3.000 F600.000
G2 X123.485 Y30.467 Z-3.000 I-106.485 J-250.400 K0.000 F600.000
G2 X126.496 Y25.664 Z-3.000 I-2.494 J-4.909 K0.000 F600.000
G1 X126.500 Y15.091 Z-3.000 F600.000
G2 X121.832 Y9.657 Z-3.000 I-5.503 J0.005 K0.000 F600.000
G2 X118.318 Y10.293 Z-3.000 I-0.832 J5.434 K0.000 F600.000
G3 X-118.237 Y10.336 Z-3.000 I-118.314 J-202.307 K0.000 F600.000
G2 X-126.496 Y14.986 Z-3.000 I-2.760 J4.757 K0.000 F600.000
G1 X-126.500 Y25.561 Z-3.000 F600.000
G2 X-123.586 Y30.412 Z-3.000 I5.507 J-0.007 K0.000 F600.000
G2 X-9.817 Y59.924 Z-3.000 I123.576 J-242.339 K0.000 F600.000
G2 X-8.250 Y58.425 Z-3.000 I0.067 J-1.499 K0.000 F600.000
G1 X-8.250 Y54.500 Z-3.000 F600.000
G1 X8.250 Y54.500 Z-3.000 F600.000
G1 X8.250 Y58.425 Z-3.000 F600.000
G2 X9.817 Y59.924 Z-3.000 I1.500 J-0.000 K0.000 F600.000
G2 X106.485 Y38.400 Z-3.000 I-9.817 J-271.924 K0.000 F600.000
G0 Z5.000
G0 X98.753 Y18.549 Z5.000
G0 X98.753 Y18.549 Z3.000
G1 X98.753 Y18.549 Z-3.000 F600.000
G2 X123.485 Y7.468 Z-3.000 I-98.749 J-253.533 K0.000 F600.000
G2 X126.496 Y2.664 Z-3.000 I-2.494 J-4.909 K0.000 F600.000
G1 X126.500 Y-7.909 Z-3.000 F600.000
G2 X121.832 Y-13.343 Z-3.000 I-5.503 J0.005 K0.000 F600.000
G2 X118.318 Y-12.707 Z-3.000 I-0.832 J5.434 K0.000 F600.000
G3 X-118.237 Y-12.664 Z-3.000 I-118.314 J-202.307 K0.000 F600.000
G2 X-126.496 Y-8.014 Z-3.000 I-2.760 J4.757 K0.000 F600.000
G1 X-126.500 Y2.561 Z-3.000 F600.000
G2 X-123.586 Y7.412 Z-3.000 I5.507 J-0.007 K0.000 F600.000
G2 X98.753 Y18.549 Z-3.000 I123.590 J-242.396 K0.000 F600.000
G0 Z5.000
G0 X91.506 Y-1.747 Z5.000
G0 X91.506 Y-1.747 Z3.000
G1 X91.506 Y-1.747 Z-3.000 F600.000
G2 X123.485 Y-15.533 Z-3.000 I-91.506 J-256.253 K0.000 F600.000
G2 X126.496 Y-20.336 Z-3.000 I-2.494 J-4.909 K0.000 F600.000
G1 X126.500 Y-30.909 Z-3.000 F600.000
G2 X121.832 Y-36.343 Z-3.000 I-5.503 J0.005 K0.000 F600.000
G2 X118.318 Y-35.707 Z-3.000 I-0.832 J5.434 K0.000 F600.000
G3 X-118.237 Y-35.664 Z-3.000 I-118.314 J-202.307 K0.000 F600.000
G2 X-126.496 Y-31.014 Z-3.000 I-2.760 J4.757 K0.000 F600.000
G1 X-126.500 Y-20.439 Z-3.000 F600.000
G2 X-123.586 Y-15.588 Z-3.000 I5.507 J-0.007 K0.000 F600.000
G2 X-9.817 Y13.924 Z-3.000 I123.576 J-242.339 K0.000 F600.000
G2 X-8.250 Y12.425 Z-3.000 I0.067 J-1.499 K0.000 F600.000
G1 X-8.250 Y8.500 Z-3.000 F600.000
G1 X8.250 Y8.500 Z-3.000 F600.000
G1 X8.250 Y12.425 Z-3.000 F600.000
G2 X9.817 Y13.924 Z-3.000 I1.500 J-0.000 K0.000 F600.000
G2 X91.506 Y-1.747 Z-3.000 I-9.817 J-271.924 K0.000 F600.000
G0 Z5.000
G0 X84.729 Y-22.427 Z5.000
G0 X84.729 Y-22.427 Z3.000
G1 X84.729 Y-22.427 Z-3.000 F600.000
G2 X123.485 Y-38.532 Z-3.000 I-84.725 J-258.557 K0.000 F600.000
G2 X126.496 Y-43.336 Z-3.000 I-2.494 J-4.909 K0.000 F600.000
G1 X126.500 Y-53.909 Z-3.000 F600.000
G2 X121.832 Y-59.343 Z-3.000 I-5.503 J0.005 K0.000 F600.000
G2 X118.318 Y-58.707 Z-3.000 I-0.832 J5.434 K0.000 F600.000
G3 X-118.237 Y-58.664 Z-3.000 I-118.314 J-202.307 K0.000 F600.000
G2 X-126.496 Y-54.014 Z-3.000 I-2.760 J4.757 K0.000 F600.000
G1 X-126.500 Y-43.439 Z-3.000 F600.000
G2 X-123.586 Y-38.588 Z-3.000 I5.507 J-0.007 K0.000 F600.000
G2 X84.729 Y-22.427 Z-3.000 I123.590 J-242.396 K0.000 F600.000
G0 Z5.000
G0 X78.406 Y-43.440 Z5.000
G0 X78.406 Y-43.440 Z3.000
G1 X78.406 Y-43.440 Z-3.000 F600.000
G2 X123.485 Y-61.533 Z-3.000 I-78.406 J-260.560 K0.000 F600.000
G2 X126.496 Y-66.336 Z-3.000 I-2.494 J-4.909 K0.000 F600.000
G1 X126.500 Y-76.909 Z-3.000 F600.000
G2 X121.832 Y-82.343 Z-3.000 I-5.503 J0.005 K0.000 F600.000
G2 X118.318 Y-81.707 Z-3.000 I-0.832 J5.434 K0.000 F600.000
G3 X-118.237 Y-81.664 Z-3.000 I-118.314 J-202.307 K0.000 F600.000
G2 X-126.496 Y-77.014 Z-3.000 I-2.760 J4.757 K0.000 F600.000
G1 X-126.500 Y-66.439 Z-3.000 F600.000
G2 X-123.586 Y-61.588 Z-3.000 I5.507 J-0.007 K0.000 F600.000
G2 X-9.817 Y-32.076 Z-3.000 I123.576 J-242.339 K0.000 F600.000
G2 X-8.250 Y-33.575 Z-3.000 I0.067 J-1.499 K0.000 F600.000
G1 X-8.250 Y-37.500 Z-3.000 F600.000
G1 X8.250 Y-37.500 Z-3.000 F600.000
G1 X8.250 Y-33.575 Z-3.000 F600.000
G2 X9.817 Y-32.076 Z-3.000 I1.500 J-0.000 K0.000 F600.000
G2 X78.406 Y-43.440 Z-3.000 I-9.817 J-271.924 K0.000 F600.000
G1 X78.406 Y-43.440 Z-6.000 F600.000
G2 X123.485 Y-61.533 Z-6.000 I-78.406 J-260.560 K0.000 F600.000
G2 X126.496 Y-66.336 Z-6.000 I-2.494 J-4.909 K0.000 F600.000
G1 X126.500 Y-76.909 Z-6.000 F600.000
G2 X121.832 Y-82.343 Z-6.000 I-5.503 J0.005 K0.000 F600.000
G2 X118.318 Y-81.707 Z-6.000 I-0.832 J5.434 K0.000 F600.000
G3 X-118.237 Y-81.664 Z-6.000 I-118.314 J-202.307 K0.000 F600.000
G2 X-126.496 Y-77.014 Z-6.000 I-2.760 J4.757 K0.000 F600.000
G1 X-126.500 Y-66.439 Z-6.000 F600.000
G2 X-123.586 Y-61.588 Z-6.000 I5.507 J-0.007 K0.000 F600.000
G2 X-9.817 Y-32.076 Z-6.000 I123.576 J-242.339 K0.000 F600.000
G2 X-8.250 Y-33.575 Z-6.000 I0.067 J-1.499 K0.000 F600.000
G1 X-8.250 Y-37.500 Z-6.000 F600.000
G1 X8.250 Y-37.500 Z-6.000 F600.000
G1 X8.250 Y-33.575 Z-6.000 F600.000
G2 X9.817 Y-32.076 Z-6.000 I1.500 J-0.000 K0.000 F600.000
G2 X78.406 Y-43.440 Z-6.000 I-9.817 J-271.924 K0.000 F600.000
G0 Z5.000
G0 X79.455 Y-40.529 Z5.000
G0 X79.455 Y-40.529 Z3.000
G1 X79.455 Y-40.529 Z-6.000 F600.000
G3 X-118.237 Y-58.664 Z-6.000 I-79.451 J-220.485 K0.000 F600.000
G2 X-126.496 Y-54.014 Z-6.000 I-2.760 J4.757 K0.000 F600.000
G1 X-126.500 Y-43.439 Z-6.000 F600.000
G2 X-123.586 Y-38.588 Z-6.000 I5.507 J-0.007 K0.000 F600.000
G2 X123.485 Y-38.532 Z-6.000 I123.590 J-242.396 K0.000 F600.000
G2 X126.496 Y-43.336 Z-6.000 I-2.494 J-4.909 K0.000 F600.000
G1 X126.500 Y-53.909 Z-6.000 F600.000
G2 X121.832 Y-59.343 Z-6.000 I-5.503 J0.005 K0.000 F600.000
G2 X118.318 Y-58.707 Z-6.000 I-0.832 J5.434 K0.000 F600.000
G3 X79.455 Y-40.529 Z-6.000 I-118.314 J-202.307 K0.000 F600.000
G0 Z5.000
G0 X87.478 Y-20.587 Z5.000
G0 X87.478 Y-20.587 Z3.000
G1 X87.478 Y-20.587 Z-6.000 F600.000
G3 X-118.237 Y-35.664 Z-6.000 I-87.474 J-217.427 K0.000 F600.000
G2 X-126.496 Y-31.014 Z-6.000 I-2.760 J4.757 K0.000 F600.000
G1 X-126.500 Y-20.439 Z-6.000 F600.000
G2 X-123.586 Y-15.588 Z-6.000 I5.507 J-0.007 K0.000 F600.000
G2 X-9.817 Y13.924 Z-6.000 I123.576 J-242.339 K0.000 F600.000
G2 X-8.250 Y12.425 Z-6.000 I0.067 J-1.499 K0.000 F600.000
G1 X-8.250 Y8.500 Z-6.000 F600.000
G1 X8.250 Y8.500 Z-6.000 F600.000
G1 X8.250 Y12.425 Z-6.000 F600.000
G2 X9.817 Y13.924 Z-6.000 I1.500 J-0.000 K0.000 F600.000
G2 X123.485 Y-15.533 Z-6.000 I-9.817 J-271.924 K0.000 F600.000
G2 X126.496 Y-20.336 Z-6.000 I-2.494 J-4.909 K0.000 F600.000
G1 X126.500 Y-30.909 Z-6.000 F600.000
G2 X121.832 Y-36.343 Z-6.000 I-5.503 J0.005 K0.000 F600.000
G2 X118.318 Y-35.707 Z-6.000 I-0.832 J5.434 K0.000 F600.000
G3 X87.478 Y-20.587 Z-6.000 I-118.314 J-202.307 K0.000 F600.000
G0 Z5.000
G0 X96.162 Y-1.285 Z5.000
G0 X96.162 Y-1.285 Z3.000
G1 X96.162 Y-1.285 Z-6.000 F600.000
G3 X-118.237 Y-12.664 Z-6.000 I-96.158 J-213.729 K0.000 F600.000
G2 X-126.496 Y-8.014 Z-6.000 I-2.760 J4.757 K0.000 F600.000
G1 X-126.500 Y2.561 Z-6.000 F600.000
G2 X-123.586 Y7.412 Z-6.000 I5.507 J-0.007 K0.000 F600.000
G2 X123.485 Y7.468 Z-6.000 I123.590 J-242.396 K0.000 F600.000
G2 X126.496 Y2.664 Z-6.000 I-2.494 J-4.909 K0.000 F600.000
G1 X126.500 Y-7.909 Z-6.000 F600.000
G2 X121.832 Y-13.343 Z-6.000 I-5.503 J0.005 K0.000 F600.000
G2 X118.318 Y-12.707 Z-6.000 I-0.832 J5.434 K0.000 F600.000
G3 X96.162 Y-1.285 Z-6.000 I-118.314 J-202.307 K0.000 F600.000
G0 Z5.000
G0 X105.510 Y17.258 Z5.000
G0 X105.510 Y17.258 Z3.000
G1 X105.510 Y17.258 Z-6.000 F600.000
G3 X-118.237 Y10.336 Z-6.000 I-105.507 J-209.272 K0.000 F600.000
G2 X-126.496 Y14.986 Z-6.000 I-2.760 J4.757 K0.000 F600.000
G1 X-126.500 Y25.561 Z-6.000 F600.000
G2 X-123.586 Y30.412 Z-6.000 I5.507 J-0.007 K0.000 F600.000
G2 X-9.817 Y59.924 Z-6.000 I123.576 J-242.339 K0.000 F600.000
G2 X-8.250 Y58.425 Z-6.000 I0.067 J-1.499 K0.000 F600.000
G1 X-8.250 Y54.500 Z-6.000 F600.000
G1 X8.250 Y54.500 Z-6.000 F600.000
G1 X8.250 Y58.425 Z-6.000 F600.000
G2 X9.817 Y59.924 Z-6.000 I1.500 J-0.000 K0.000 F600.000
G2 X123.485 Y30.467 Z-6.000 I-9.817 J-271.924 K0.000 F600.000
G2 X126.496 Y25.664 Z-6.000 I-2.494 J-4.909 K0.000 F600.000
G1 X126.500 Y15.091 Z-6.000 F600.000
G2 X121.832 Y9.657 Z-6.000 I-5.503 J0.005 K0.000 F600.000
G2 X118.318 Y10.293 Z-6.000 I-0.832 J5.434 K0.000 F600.000
G3 X105.510 Y17.258 Z-6.000 I-118.314 J-202.307 K0.000 F600.000
G0 Z5.000
G0 X115.509 Y34.910 Z5.000
G0 X115.509 Y34.910 Z3.000
G1 X115.509 Y34.910 Z-6.000 F600.000
G3 X-118.237 Y33.336 Z-6.000 I-115.505 J-203.924 K0.000 F600.000
G2 X-126.496 Y37.986 Z-6.000 I-2.760 J4.757 K0.000 F600.000
G1 X-126.500 Y48.561 Z-6.000 F600.000
G2 X-123.586 Y53.412 Z-6.000 I5.507 J-0.007 K0.000 F600.000
G2 X123.485 Y53.468 Z-6.000 I123.590 J-242.396 K0.000 F600.000
G2 X126.496 Y48.664 Z-6.000 I-2.494 J-4.909 K0.000 F600.000
G1 X126.500 Y38.091 Z-6.000 F600.000
G2 X121.832 Y32.657 Z-6.000 I-5.503 J0.005 K0.000 F600.000
G2 X118.318 Y33.293 Z-6.000 I-0.832 J5.434 K0.000 F600.000
G3 X115.509 Y34.910 Z-6.000 I-118.314 J-202.307 K0.000 F600.000
G1 X115.509 Y34.910 Z-9.000 F600.000
G3 X-118.237 Y33.336 Z-9.000 I-115.505 J-203.924 K0.000 F600.000
G2 X-126.496 Y37.986 Z-9.000 I-2.760 J4.757 K0.000 F600.000
G1 X-126.500 Y48.561 Z-9.000 F600.000
G2 X-123.586 Y53.412 Z-9.000 I5.507 J-0.007 K0.000 F600.000
G2 X123.485 Y53.468 Z-9.000 I123.590 J-242.396 K0.000 F600.000
G2 X126.496 Y48.664 Z-9.000 I-2.494 J-4.909 K0.000 F600.000
G1 X126.500 Y38.091 Z-9.000 F600.000
G2 X121.832 Y32.657 Z-9.000 I-5.503 J0.005 K0.000 F600.000
G2 X118.318 Y33.293 Z-9.000 I-0.832 J5.434 K0.000 F600.000
G3 X115.509 Y34.910 Z-9.000 I-118.314 J-202.307 K0.000 F600.000
G0 Z5.000
G0 X115.301 Y34.465 Z5.000
G0 X115.301 Y34.465 Z3.000
G1 X115.301 Y34.465 Z-9.000 F600.000
G2 X123.485 Y30.467 Z-9.000 I-115.301 J-246.465 K0.000 F600.000
G2 X126.496 Y25.664 Z-9.000 I-2.494 J-4.909 K0.000 F600.000
G1 X126.500 Y15.091 Z-9.000 F600.000
G2 X121.832 Y9.657 Z-9.000 I-5.503 J0.005 K0.000 F600.000
G2 X118.318 Y10.293 Z-9.000 I-0.832 J5.434 K0.000 F600.000
G3 X-118.237 Y10.336 Z-9.000 I-118.314 J-202.307 K0.000 F600.000
G2 X-126.496 Y14.986 Z-9.000 I-2.760 J4.757 K0.000 F600.000
G1 X-126.500 Y25.561 Z-9.000 F600.000
G2 X-123.586 Y30.412 Z-9.000 I5.507 J-0.007 K0.000 F600.000
G2 X-9.817 Y59.924 Z-9.000 I123.576 J-242.339 K0.000 F600.000
G2 X-8.250 Y58.425 Z-9.000 I0.067 J-1.499 K0.000 F600.000
G1 X-8.250 Y54.500 Z-9.000 F600.000
G1 X8.250 Y54.500 Z-9.000 F600.000
G1 X8.250 Y58.425 Z-9.000 F600.000
G2 X9.817 Y59.924 Z-9.000 I1.500 J-0.000 K0.000 F600.000
G2 X115.301 Y34.465 Z-9.000 I-9.817 J-271.924 K0.000 F600.000
G0 Z5.000
G0 X107.041 Y15.163 Z5.000
G0 X107.041 Y15.163 Z3.000
G1 X107.041 Y15.163 Z-9.000 F600.000
G2 X123.485 Y7.468 Z-9.000 I-107.037 J-250.146 K0.000 F600.000
G2 X126.496 Y2.664 Z-9.000 I-2.494 J-4.909 K0.000 F600.000
G1 X126.500 Y-7.909 Z-9.000 F600.000
G2 X121.832 Y-13.343 Z-9.000 I-5.503 J0.005 K0.000 F600.000
G2 X118.318 Y-12.707 Z-9.000 I-0.832 J5.434 K0.000 F600.000
G3 X-118.237 Y-12.664 Z-9.000 I-118.314 J-202.307 K0.000 F600.000
G2 X-126.496 Y-8.014 Z-9.000 I-2.760 J4.757 K0.000 F600.000
G1 X-126.500 Y2.561 Z-9.000 F600.000
G2 X-123.586 Y7.412 Z-9.000 I5.507 J-0.007 K0.000 F600.000
G2 X107.041 Y15.163 Z-9.000 I123.590 J-242.396 K0.000 F600.000
G0 Z5.000
G0 X99.275 Y-4.655 Z5.000
G0 X99.275 Y-4.655 Z3.000
G1 X99.275 Y-4.655 Z-9.000 F600.000
G2 X123.485 Y-15.533 Z-9.000 I-99.275 J-253.345 K0.000 F600.000
G2 X126.496 Y-20.336 Z-9.000 I-2.494 J-4.909 K0.000 F600.000
G1 X126.500 Y-30.909 Z-9.000 F600.000
G2 X121.832 Y-36.343 Z-9.000 I-5.503 J0.005 K0.000 F600.000
G2 X118.318 Y-35.707 Z-9.000 I-0.832 J5.434 K0.000 F600.000
G3 X-118.237 Y-35.664 Z-9.000 I-118.314 J-202.307 K0.000 F600.000
G2 X-126.496 Y-31.014 Z-9.000 I-2.760 J4.757 K0.000 F600.000
G1 X-126.500 Y-20.439 Z-9.000 F600.000
G2 X-123.586 Y-15.588 Z-9.000 I5.507 J-0.007 K0.000 F600.000
G2 X-9.817 Y13.924 Z-9.000 I123.576 J-242.339 K0.000 F600.000
G2 X-8.250 Y12.425 Z-9.000 I0.067 J-1.499 K0.000 F600.000
G1 X-8.250 Y8.500 Z-9.000 F600.000
G1 X8.250 Y8.500 Z-9.000 F600.000
G1 X8.250 Y12.425 Z-9.000 F600.000
G2 X9.817 Y13.924 Z-9.000 I1.500 J-0.000 K0.000 F600.000
G2 X99.275 Y-4.655 Z-9.000 I-9.817 J-271.924 K0.000 F600.000
G0 Z5.000
G0 X91.995 Y-24.921 Z5.000
G0 X91.995 Y-24.921 Z3.000
G1 X91.995 Y-24.921 Z-9.000 F600.000
G2 X123.485 Y-38.532 Z-9.000 I-91.991 J-256.062 K0.000 F600.000
G2 X126.496 Y-43.336 Z-9.000 I-2.494 J-4.909 K0.000 F600.000
G1 X126.500 Y-53.909 Z-9.000 F600.000
G2 X121.832 Y-59.343 Z-9.000 I-5.503 J0.005 K0.000 F600.000
G2 X118.318 Y-58.707 Z-9.000 I-0.832 J5.434 K0.000 F600.000
G3 X-118.237 Y-58.664 Z-9.000 I-118.314 J-202.307 K0.000 F600.000
G2 X-126.496 Y-54.014 Z-9.000 I-2.760 J4.757 K0.000 F600.000
G1 X-126.500 Y-43.439 Z-9.000 F600.000
G2 X-123.586 Y-38.588 Z-9.000 I5.507 J-0.007 K0.000 F600.000
G2 X91.995 Y-24.921 Z-9.000 I123.590 J-242.396 K0.000 F600.000
G0 Z5.000
G0 X85.186 Y-45.577 Z5.000
G0 X85.186 Y-45.577 Z3.000
G1 X85.186 Y-45.577 Z-9.000 F600.000
G2 X123.485 Y-61.533 Z-9.000 I-85.186 J-258.423 K0.000 F600.000
G2 X126.496 Y-66.336 Z-9.000 I-2.494 J-4.909 K0.000 F600.000
G1 X126.500 Y-76.909 Z-9.000 F600.000
G2 X121.832 Y-82.343 Z-9.000 I-5.503 J0.005 K0.000 F600.000
G2 X118.318 Y-81.707 Z-9.000 I-0.832 J5.434 K0.000 F600.000
G3 X-118.237 Y-81.664 Z-9.000 I-118.314 J-202.307 K0.000 F600.000
G2 X-126.496 Y-77.014 Z-9.000 I-2.760 J4.757 K0.000 F600.000
G1 X-126.500 Y-66.439 Z-9.000 F600.000
G2 X-123.586 Y-61.588 Z-9.000 I5.507 J-0.007 K0.000 F600.000
G2 X-9.817 Y-32.076 Z-9.000 I123.576 J-242.339 K0.000 F600.000
G2 X-8.250 Y-33.575 Z-9.000 I0.067 J-1.499 K0.000 F600.000
G1 X-8.250 Y-37.500 Z-9.000 F600.000
G1 X8.250 Y-37.500 Z-9.000 F600.000
G1 X8.250 Y-33.575 Z-9.000 F600.000
G2 X9.817 Y-32.076 Z-9.000 I1.500 J-0.000 K0.000 F600.000
G2 X85.186 Y-45.577 Z-9.000 I-9.817 J-271.924 K0.000 F600.000
G1 X85.186 Y-45.577 Z-12.000 F600.000
G2 X123.485 Y-61.533 Z-12.000 I-85.186 J-258.423 K0.000 F600.000
G2 X126.496 Y-66.336 Z-12.000 I-2.494 J-4.909 K0.000 F600.000
G1 X126.500 Y-76.909 Z-12.000 F600.000
G2 X121.832 Y-82.343 Z-12.000 I-5.503 J0.005 K0.000 F600.000
G2 X118.318 Y-81.707 Z-12.000 I-0.832 J5.434 K0.000 F600.000
G3 X-118.237 Y-81.664 Z-12.000 I-118.314 J-202.307 K0.000 F600.000
G2 X-126.496 Y-77.014 Z-12.000 I-2.760 J4.757 K0.000 F600.000
G1 X-126.500 Y-66.439 Z-12.000 F600.000
G2 X-123.586 Y-61.588 Z-12.000 I5.507 J-0.007 K0.000 F600.000
G2 X-9.817 Y-32.076 Z-12.000 I123.576 J-242.339 K0.000 F600.000
G2 X-8.250 Y-33.575 Z-12.000 I0.067 J-1.499 K0.000 F600.000
G1 X-8.250 Y-37.500 Z-12.000 F600.000
G1 X8.250 Y-37.500 Z-12.000 F600.000
G1 X8.250 Y-33.575 Z-12.000 F600.000
G2 X9.817 Y-32.076 Z-12.000 I1.500 J-0.000 K0.000 F600.000
G2 X85.186 Y-45.577 Z-12.000 I-9.817 J-271.924 K0.000 F600.000
G0 Z5.000
G0 X86.178 Y-43.068 Z5.000
G0 X86.178 Y-43.068 Z3.000
G1 X86.178 Y-43.068 Z-12.000 F600.000
G3 X-118.237 Y-58.664 Z-12.000 I-86.174 J-217.946 K0.000 F600.000
G2 X-126.496 Y-54.014 Z-12.000 I-2.760 J4.757 K0.000 F600.000
G1 X-126.500 Y-43.439 Z-12.000 F600.000
G2 X-123.586 Y-38.588 Z-12.000 I5.507 J-0.007 K0.000 F600.000
G2 X123.485 Y-38.532 Z-12.000 I123.590 J-242.396 K0.000 F600.000
G2 X126.496 Y-43.336 Z-12.000 I-2.494 J-4.909 K0.000 F600.000
G1 X126.500 Y-53.909 Z-12.000 F600.000
G2 X121.832 Y-59.343 Z-12.000 I-5.503 J0.005 K0.000 F600.000
G2 X118.318 Y-58.707 Z-12.000 I-0.832 J5.434 K0.000 F600.000
G3 X86.178 Y-43.068 Z-12.000 I-118.314 J-202.307 K0.000 F600.000
G0 Z5.000
G0 X94.757 Y-23.659 Z5.000
G0 X94.757 Y-23.659 Z3.000
G1 X94.757 Y-23.659 Z-12.000 F600.000
G3 X-118.237 Y-35.664 Z-12.000 I-94.754 J-214.355 K0.000 F600.000
G2 X-126.496 Y-31.014 Z-12.000 I-2.760 J4.757 K0.000 F600.000
G1 X-126.500 Y-20.439 Z-12.000 F600.000
G2 X-123.586 Y-15.588 Z-12.000 I5.507 J-0.007 K0.000 F600.000
G2 X-9.817 Y13.924 Z-12.000 I123.576 J-242.339 K0.000 F600.000
G2 X-8.250 Y12.425 Z-12.000 I0.067 J-1.499 K0.000 F600.000
G1 X-8.250 Y8.500 Z-12.000 F600.000
G1 X8.250 Y8.500 Z-12.000 F600.000
G1 X8.250 Y12.425 Z-12.000 F600.000
G2 X9.817 Y13.924 Z-12.000 I1.500 J-0.000 K0.000 F600.000
G2 X123.485 Y-15.533 Z-12.000 I-9.817 J-271.924 K0.000 F600.000
G2 X126.496 Y-20.336 Z-12.000 I-2.494 J-4.909 K0.000 F600.000
G1 X126.500 Y-30.909 Z-12.000 F600.000
G2 X121.832 Y-36.343 Z-12.000 I-5.503 J0.005 K0.000 F600.000
G2 X118.318 Y-35.707 Z-12.000 I-0.832 J5.434 K0.000 F600.000
G3 X94.757 Y-23.659 Z-12.000 I-118.314 J-202.307 K0.000 F600.000
G0 Z5.000
G0 X104.002 Y-4.989 Z5.000
G0 X104.002 Y-4.989 Z3.000
G1 X104.002 Y-4.989 Z-12.000 F600.000
G3 X-118.237 Y-12.664 Z-12.000 I-103.999 J-210.025 K0.000 F600.000
G2 X-126.496 Y-8.014 Z-12.000 I-2.760 J4.757 K0.000 F600.000
G1 X-126.500 Y2.561 Z-12.000 F600.000
G2 X-123.586 Y7.412 Z-12.000 I5.507 J-0.007 K0.000 F600.000
G2 X123.485 Y7.468 Z-12.000 I123.590 J-242.396 K0.000 F600.000
G2 X126.496 Y2.664 Z-12.000 I-2.494 J-4.909 K0.000 F600.000
G1 X126.500 Y-7.909 Z-12.000 F600.000
G2 X121.832 Y-13.343 Z-12.000 I-5.503 J0.005 K0.000 F600.000
G2 X118.318 Y-12.707 Z-12.000 I-0.832 J5.434 K0.000 F600.000
G3 X104.002 Y-4.989 Z-12.000 I-118.314 J-202.307 K0.000 F600.000
G0 Z5.000
G0 X113.901 Y12.812 Z5.000
G0 X113.901 Y12.812 Z3.000
G1 X113.901 Y12.812 Z-12.000 F600.000
G3 X-118.237 Y10.336 Z-12.000 I-113.897 J-204.826 K0.000 F600.000
G2 X-126.496 Y14.986 Z-12.000 I-2.760 J4.757 K0.000 F600.000
G1 X-126.500 Y25.561 Z-12.000 F600.000
G2 X-123.586 Y30.412 Z-12.000 I5.507 J-0.007 K0.000 F600.000
G2 X-9.817 Y59.924 Z-12.000 I123.576 J-242.339 K0.000 F600.000
G2 X-8.250 Y58.425 Z-12.000 I0.067 J-1.499 K0.000 F600.000
G1 X-8.250 Y54.500 Z-12.000 F600.000
G1 X8.250 Y54.500 Z-12.000 F600.000
G1 X8.250 Y58.425 Z-12.000 F600.000
G2 X9.817 Y59.924 Z-12.000 I1.500 J-0.000 K0.000 F600.000
G2 X123.485 Y30.467 Z-12.000 I-9.817 J-271.924 K0.000 F600.000
G2 X126.496 Y25.664 Z-12.000 I-2.494 J-4.909 K0.000 F600.000
G1 X126.500 Y15.091 Z-12.000 F600.000
G2 X121.832 Y9.657 Z-12.000 I-5.503 J0.005 K0.000 F600.000
G2 X118.318 Y10.293 Z-12.000 I-0.832 J5.434 K0.000 F600.000
G3 X113.901 Y12.812 Z-12.000 I-118.314 J-202.307 K0.000 F600.000
G0 Z5.000
G0 X119.514 Y32.799 Z5.000
G0 X119.514 Y32.799 Z3.000
G1 X119.514 Y32.799 Z-12.000 F600.000
G2 X118.318 Y33.293 Z-12.000 I1.486 J5.293 K0.000 F600.000
G3 X-118.237 Y33.336 Z-12.000 I-118.314 J-202.307 K0.000 F600.000
G2 X-126.496 Y37.986 Z-12.000 I-2.760 J4.757 K0.000 F600.000
G1 X-126.500 Y48.561 Z-12.000 F600.000
G2 X-123.586 Y53.412 Z-12.000 I5.507 J-0.007 K0.000 F600.000
G2 X123.485 Y53.468 Z-12.000 I123.590 J-242.396 K0.000 F600.000
G2 X126.496 Y48.664 Z-12.000 I-2.494 J-4.909 K0.000 F600.000
G1 X126.500 Y38.091 Z-12.000 F600.000
G2 X121.832 Y32.657 Z-12.000 I-5.503 J0.005 K0.000 F600.000
G2 X119.514 Y32.799 Z-12.000 I-0.832 J5.434 K0.000 F600.000
G1 X119.514 Y32.799 Z-15.000 F600.000
G2 X118.318 Y33.293 Z-15.000 I1.486 J5.293 K0.000 F600.000
G3 X-118.237 Y33.336 Z-15.000 I-118.314 J-202.307 K0.000 F600.000
G2 X-126.496 Y37.986 Z-15.000 I-2.760 J4.757 K0.000 F600.000
G1 X-126.500 Y48.561 Z-15.000 F600.000
G2 X-123.586 Y53.412 Z-15.000 I5.507 J-0.007 K0.000 F600.000
G2 X123.485 Y53.468 Z-15.000 I123.590 J-242.396 K0.000 F600.000
G2 X126.496 Y48.664 Z-15.000 I-2.494 J-4.909 K0.000 F600.000
G1 X126.500 Y38.091 Z-15.000 F600.000
G2 X121.832 Y32.657 Z-15.000 I-5.503 J0.005 K0.000 F600.000
G2 X119.514 Y32.799 Z-15.000 I-0.832 J5.434 K0.000 F600.000
G0 Z5.000
G0 X119.376 Y32.517 Z5.000
G0 X119.376 Y32.517 Z3.000
G1 X119.376 Y32.517 Z-15.000 F600.000
G2 X123.485 Y30.467 Z-15.000 I-119.376 J-244.517 K0.000 F600.000
G2 X126.496 Y25.664 Z-15.000 I-2.494 J-4.909 K0.000 F600.000
G1 X126.500 Y15.091 Z-15.000 F600.000
G2 X121.832 Y9.657 Z-15.000 I-5.503 J0.005 K0.000 F600.000
G2 X118.318 Y10.293 Z-15.000 I-0.832 J5.434 K0.000 F600.000
G3 X-118.237 Y10.336 Z-15.000 I-118.314 J-202.307 K0.000 F600.000
G2 X-126.496 Y14.986 Z-15.000 I-2.760 J4.757 K0.000 F600.000
G1 X-126.500 Y25.561 Z-15.000 F600.000
G2 X-123.586 Y30.412 Z-15.000 I5.507 J-0.007 K0.000 F600.000
G2 X-9.817 Y59.924 Z-15.000 I123.576 J-242.339 K0.000 F600.000
G2 X-8.250 Y58.425 Z-15.000 I0.067 J-1.499 K0.000 F600.000
G1 X-8.250 Y54.500 Z-15.000 F600.000
G1 X8.250 Y54.500 Z-15.000 F600.000
G1 X8.250 Y58.425 Z-15.000 F600.000
G2 X9.817 Y59.924 Z-15.000 I1.500 J-0.000 K0.000 F600.000
G2 X119.376 Y32.517 Z-15.000 I-9.817 J-271.924 K0.000 F600.000
G0 Z5.000
G0 X110.883 Y13.484 Z5.000
G0 X110.883 Y13.484 Z3.000
G1 X110.883 Y13.484 Z-15.000 F600.000
G2 X123.485 Y7.468 Z-15.000 I-110.879 J-248.468 K0.000 F600.000
G2 X126.496 Y2.664 Z-15.000 I-2.494 J-4.909 K0.000 F600.000
G1 X126.500 Y-7.909 Z-15.000 F600.000
G2 X121.832 Y-13.343 Z-15.000 I-5.503 J0.005 K0.000 F600.000
G2 X118.318 Y-12.707 Z-15.000 I-0.832 J5.434 K0.000 F600.000
G3 X-118.237 Y-12.664 Z-15.000 I-118.314 J-202.307 K0.000 F600.000
G2 X-126.496 Y-8.014 Z-15.000 I-2.760 J4.757 K0.000 F600.000
G1 X-126.500 Y2.561 Z-15.000 F600.000
G2 X-123.586 Y7.412 Z-15.000 I5.507 J-0.007 K0.000 F600.000
G2 X110.883 Y13.484 Z-15.000 I123.590 J-242.396 K0.000 F600.000
G0 Z5.000
G0 X102.884 Y-6.099 Z5.000
G0 X102.884 Y-6.099 Z3.000
G1 X102.884 Y-6.099 Z-15.000 F600.000
G2 X123.485 Y-15.533 Z-15.000 I-102.884 J-251.901 K0.000 F600.000
G2 X126.496 Y-20.336 Z-15.000 I-2.494 J-4.909 K0.000 F600.000
G1 X126.500 Y-30.909 Z-15.000 F600.000
G2 X121.832 Y-36.343 Z-15.000 I-5.503 J0.005 K0.000 F600.000
G2 X118.318 Y-35.707 Z-15.000 I-0.832 J5.434 K0.000 F600.000
G3 X-118.237 Y-35.664 Z-15.000 I-118.314 J-202.307 K0.000 F600.000
G2 X-126.496 Y-31.014 Z-15.000 I-2.760 J4.757 K0.000 F600.000
G1 X-126.500 Y-20.439 Z-15.000 F600.000
G2 X-123.586 Y-15.588 Z-15.000 I5.507 J-0.007 K0.000 F600.000
G2 X-9.817 Y13.924 Z-15.000 I123.576 J-242.339 K0.000 F600.000
G2 X-8.250 Y12.425 Z-15.000 I0.067 J-1.499 K0.000 F600.000
G1 X-8.250 Y8.500 Z-15.000 F600.000
G1 X8.250 Y8.500 Z-15.000 F600.000
G1 X8.250 Y12.425 Z-15.000 F600.000
G2 X9.817 Y13.924 Z-15.000 I1.500 J-0.000 K0.000 F600.000
G2 X102.884 Y-6.099 Z-15.000 I-9.817 J-271.924 K0.000 F600.000
G0 Z5.000
G0 X95.376 Y-26.161 Z5.000
G0 X95.376 Y-26.161 Z3.000
G1 X95.376 Y-26.161 Z-15.000 F600.000
G2 X123.485 Y-38.532 Z-15.000 I-95.372 J-254.822 K0.000 F600.000
G2 X126.496 Y-43.336 Z-15.000 I-2.494 J-4.909 K0.000 F600.000
G1 X126.500 Y-53.909 Z-15.000 F600.000
G2 X121.832 Y-59.343 Z-15.000 I-5.503 J0.005 K0.000 F600.000
G2 X118.318 Y-58.707 Z-15.000 I-0.832 J5.434 K0.000 F600.000
G3 X-118.237 Y-58.664 Z-15.000 I-118.314 J-202.307 K0.000 F600.000
G2 X-126.496 Y-54.014 Z-15.000 I-2.760 J4.757 K0.000 F600.000
G1 X-126.500 Y-43.439 Z-15.000 F600.000
G2 X-123.586 Y-38.588 Z-15.000 I5.507 J-0.007 K0.000 F600.000
G2 X95.376 Y-26.161 Z-15.000 I123.590 J-242.396 K0.000 F600.000
G0 Z5.000
G0 X88.346 Y-46.640 Z5.000
G0 X88.346 Y-46.640 Z3.000
G1 X88.346 Y-46.640 Z-15.000 F600.000
G2 X123.485 Y-61.533 Z-15.000 I-88.346 J-257.360 K0.000 F600.000
G2 X126.496 Y-66.336 Z-15.000 I-2.494 J-4.909 K0.000 F600.000
G1 X126.500 Y-76.909 Z-15.000 F600.000
G2 X121.832 Y-82.343 Z-15.000 I-5.503 J0.005 K0.000 F600.000
G2 X118.318 Y-81.707 Z-15.000 I-0.832 J5.434 K0.000 F600.000
G3 X-118.237 Y-81.664 Z-15.000 I-118.314 J-202.307 K0.000 F600.000
G2 X-126.496 Y-77.014 Z-15.000 I-2.760 J4.757 K0.000 F600.000
G1 X-126.500 Y-66.439 Z-15.000 F600.000
G2 X-123.586 Y-61.588 Z-15.000 I5.507 J-0.007 K0.000 F600.000
G2 X-9.817 Y-32.076 Z-15.000 I123.576 J-242.339 K0.000 F600.000
G2 X-8.250 Y-33.575 Z-15.000 I0.067 J-1.499 K0.000 F600.000
G1 X-8.250 Y-37.500 Z-15.000 F600.000
G1 X8.250 Y-37.500 Z-15.000 F600.000
G1 X8.250 Y-33.575 Z-15.000 F600.000
G2 X9.817 Y-32.076 Z-15.000 I1.500 J-0.000 K0.000 F600.000
G2 X88.346 Y-46.640 Z-15.000 I-9.817 J-271.924 K0.000 F600.000
G1 X88.346 Y-46.640 Z-18.000 F600.000
G2 X123.485 Y-61.533 Z-18.000 I-88.346 J-257.360 K0.000 F600.000
G2 X126.496 Y-66.336 Z-18.000 I-2.494 J-4.909 K0.000 F600.000
G1 X126.500 Y-76.909 Z-18.000 F600.000
G2 X121.832 Y-82.343 Z-18.000 I-5.503 J0.005 K0.000 F600.000
G2 X118.318 Y-81.707 Z-18.000 I-0.832 J5.434 K0.000 F600.000
G3 X-118.237 Y-81.664 Z-18.000 I-118.314 J-202.307 K0.000 F600.000
G2 X-126.496 Y-77.014 Z-18.000 I-2.760 J4.757 K0.000 F600.000
G1 X-126.500 Y-66.439 Z-18.000 F600.000
G2 X-123.586 Y-61.588 Z-18.000 I5.507 J-0.007 K0.000 F600.000
G2 X-9.817 Y-32.076 Z-18.000 I123.576 J-242.339 K0.000 F600.000
G2 X-8.250 Y-33.575 Z-18.000 I0.067 J-1.499 K0.000 F600.000
G1 X-8.250 Y-37.500 Z-18.000 F600.000
G1 X8.250 Y-37.500 Z-18.000 F600.000
G1 X8.250 Y-33.575 Z-18.000 F600.000
G2 X9.817 Y-32.076 Z-18.000 I1.500 J-0.000 K0.000 F600.000
G2 X88.346 Y-46.640 Z-18.000 I-9.817 J-271.924 K0.000 F600.000
G0 Z5.000
G0 X89.298 Y-44.328 Z5.000
G0 X89.298 Y-44.328 Z3.000
G1 X89.298 Y-44.328 Z-18.000 F600.000
G3 X-118.237 Y-58.664 Z-18.000 I-89.295 J-216.686 K0.000 F600.000
G2 X-126.496 Y-54.014 Z-18.000 I-2.760 J4.757 K0.000 F600.000
G1 X-126.500 Y-43.439 Z-18.000 F600.000
G2 X-123.586 Y-38.588 Z-18.000 I5.507 J-0.007 K0.000 F600.000
G2 X123.485 Y-38.532 Z-18.000 I123.590 J-242.396 K0.000 F600.000
G2 X126.496 Y-43.336 Z-18.000 I-2.494 J-4.909 K0.000 F600.000
G1 X126.500 Y-53.909 Z-18.000 F600.000
G2 X121.832 Y-59.343 Z-18.000 I-5.503 J0.005 K0.000 F600.000
G2 X118.318 Y-58.707 Z-18.000 I-0.832 J5.434 K0.000 F600.000
G3 X89.298 Y-44.328 Z-18.000 I-118.314 J-202.307 K0.000 F600.000
G0 Z5.000
G0 X98.126 Y-25.180 Z5.000
G0 X98.126 Y-25.180 Z3.000
G1 X98.126 Y-25.180 Z-18.000 F600.000
G3 X-118.237 Y-35.664 Z-18.000 I-98.123 J-212.834 K0.000 F600.000
G2 X-126.496 Y-31.014 Z-18.000 I-2.760 J4.757 K0.000 F600.000
G1 X-126.500 Y-20.439 Z-18.000 F600.000
G2 X-123.586 Y-15.588 Z-18.000 I5.507 J-0.007 K0.000 F600.000
G2 X-9.817 Y13.924 Z-18.000 I123.576 J-242.339 K0.000 F600.000
G2 X-8.250 Y12.425 Z-18.000 I0.067 J-1.499 K0.000 F600.000
G1 X-8.250 Y8.500 Z-18.000 F600.000
G1 X8.250 Y8.500 Z-18.000 F600.000
G1 X8.250 Y12.425 Z-18.000 F600.000
G2 X9.817 Y13.924 Z-18.000 I1.500 J-0.000 K0.000 F600.000
G2 X123.485 Y-15.533 Z-18.000 I-9.817 J-271.924 K0.000 F600.000
G2 X126.496 Y-20.336 Z-18.000 I-2.494 J-4.909 K0.000 F600.000
G1 X126.500 Y-30.909 Z-18.000 F600.000
G2 X121.832 Y-36.343 Z-18.000 I-5.503 J0.005 K0.000 F600.000
G2 X118.318 Y-35.707 Z-18.000 I-0.832 J5.434 K0.000 F600.000
G3 X98.126 Y-25.180 Z-18.000 I-118.314 J-202.307 K0.000 F600.000
G0 Z5.000
G0 X107.617 Y-6.818 Z5.000
G0 X107.617 Y-6.818 Z3.000
G1 X107.617 Y-6.818 Z-18.000 F600.000
G3 X-118.237 Y-12.664 Z-18.000 I-107.614 J-208.196 K0.000 F600.000
G2 X-126.496 Y-8.014 Z-18.000 I-2.760 J4.757 K0.000 F600.000
G1 X-126.500 Y2.561 Z-18.000 F600.000
G2 X-123.586 Y7.412 Z-18.000 I5.507 J-0.007 K0.000 F600.000
G2 X123.485 Y7.468 Z-18.000 I123.590 J-242.396 K0.000 F600.000
G2 X126.496 Y2.664 Z-18.000 I-2.494 J-4.909 K0.000 F600.000
G1 X126.500 Y-7.909 Z-18.000 F600.000
G2 X121.832 Y-13.343 Z-18.000 I-5.503 J0.005 K0.000 F600.000
G2 X118.318 Y-12.707 Z-18.000 I-0.832 J5.434 K0.000 F600.000
G3 X107.617 Y-6.818 Z-18.000 I-118.314 J-202.307 K0.000 F600.000
G0 Z5.000
G0 X117.752 Y10.623 Z5.000
G0 X117.752 Y10.623 Z3.000
G1 X117.752 Y10.623 Z-18.000 F600.000
G3 X-118.237 Y10.336 Z-18.000 I-117.748 J-202.637 K0.000 F600.000
G2 X-126.496 Y14.986 Z-18.000 I-2.760 J4.757 K0.000 F600.000
G1 X-126.500 Y25.561 Z-18.000 F600.000
G2 X-123.586 Y30.412 Z-18.000 I5.507 J-0.007 K0.000 F600.000
G2 X-9.817 Y59.924 Z-18.000 I123.576 J-242.339 K0.000 F600.000
G2 X-8.250 Y58.425 Z-18.000 I0.067 J-1.499 K0.000 F600.000
G1 X-8.250 Y54.500 Z-18.000 F600.000
G1 X8.250 Y54.500 Z-18.000 F600.000
G1 X8.250 Y58.425 Z-18.000 F600.000
G2 X9.817 Y59.924 Z-18.000 I1.500 J-0.000 K0.000 F600.000
G2 X123.485 Y30.467 Z-18.000 I-9.817 J-271.924 K0.000 F600.000
G2 X126.496 Y25.664 Z-18.000 I-2.494 J-4.909 K0.000 F600.000
G1 X126.500 Y15.091 Z-18.000 F600.000
G2 X121.832 Y9.657 Z-18.000 I-5.503 J0.005 K0.000 F600.000
G2 X118.318 Y10.293 Z-18.000 I-0.832 J5.434 K0.000 F600.000
G3 X117.752 Y10.623 Z-18.000 I-118.314 J-202.307 K0.000 F600.000
G0 Z5.000
G0 X120.354 Y32.632 Z5.000
G0 X120.354 Y32.632 Z3.000
G1 X120.354 Y32.632 Z-18.000 F600.000
G2 X118.318 Y33.293 Z-18.000 I0.646 J5.459 K0.000 F600.000
G3 X-118.237 Y33.336 Z-18.000 I-118.314 J-202.307 K0.000 F600.000
G2 X-126.496 Y37.986 Z-18.000 I-2.760 J4.757 K0.000 F600.000
G1 X-126.500 Y48.561 Z-18.000 F600.000
G2 X-123.586 Y53.412 Z-18.000 I5.507 J-0.007 K0.000 F600.000
G2 X123.485 Y53.468 Z-18.000 I123.590 J-242.396 K0.000 F600.000
G2 X126.496 Y48.664 Z-18.000 I-2.494 J-4.909 K0.000 F600.000
G1 X126.500 Y38.091 Z-18.000 F600.000
G2 X121.832 Y32.657 Z-18.000 I-5.503 J0.005 K0.000 F600.000
G2 X120.354 Y32.632 Z-18.000 I-0.832 J5.434 K0.000 F600.000
G1 X120.354 Y32.632 Z-20.000 F600.000
G2 X118.318 Y33.293 Z-20.000 I0.646 J5.459 K0.000 F600.000
G3 X-118.237 Y33.336 Z-20.000 I-118.314 J-202.307 K0.000 F600.000
G2 X-126.496 Y37.986 Z-20.000 I-2.760 J4.757 K0.000 F600.000
G1 X-126.500 Y48.561 Z-20.000 F600.000
G2 X-123.586 Y53.412 Z-20.000 I5.507 J-0.007 K0.000 F600.000
G2 X123.485 Y53.468 Z-20.000 I123.590 J-242.396 K0.000 F600.000
G2 X126.496 Y48.664 Z-20.000 I-2.494 J-4.909 K0.000 F600.000
G1 X126.500 Y38.091 Z-20.000 F600.000
G2 X121.832 Y32.657 Z-20.000 I-5.503 J0.005 K0.000 F600.000
G2 X120.354 Y32.632 Z-20.000 I-0.832 J5.434 K0.000 F600.000
G0 Z5.000
G0 X120.119 Y32.153 Z5.000
G0 X120.119 Y32.153 Z3.000
G1 X120.119 Y32.153 Z-20.000 F600.000
G2 X123.485 Y30.467 Z-20.000 I-120.119 J-244.153 K0.000 F600.000
G2 X126.496 Y25.664 Z-20.000 I-2.494 J-4.909 K0.000 F600.000
G1 X126.500 Y15.091 Z-20.000 F600.000
G2 X121.832 Y9.657 Z-20.000 I-5.503 J0.005 K0.000 F600.000
G2 X118.318 Y10.293 Z-20.000 I-0.832 J5.434 K0.000 F600.000
G3 X-118.237 Y10.336 Z-20.000 I-118.314 J-202.307 K0.000 F600.000
G2 X-126.496 Y14.986 Z-20.000 I-2.760 J4.757 K0.000 F600.000
G1 X-126.500 Y25.561 Z-20.000 F600.000
G2 X-123.586 Y30.412 Z-20.000 I5.507 J-0.007 K0.000 F600.000
G2 X-9.817 Y59.924 Z-20.000 I123.576 J-242.339 K0.000 F600.000
G2 X-8.250 Y58.425 Z-20.000 I0.067 J-1.499 K0.000 F600.000
G1 X-8.250 Y54.500 Z-20.000 F600.000
G1 X8.250 Y54.500 Z-20.000 F600.000
G1 X8.250 Y58.425 Z-20.000 F600.000
G2 X9.817 Y59.924 Z-20.000 I1.500 J-0.000 K0.000 F600.000
G2 X120.119 Y32.153 Z-20.000 I-9.817 J-271.924 K0.000 F600.000
G0 Z5.000
G0 X111.583 Y13.170 Z5.000
G0 X111.583 Y13.170 Z3.000
G1 X111.583 Y13.170 Z-20.000 F600.000
G2 X123.485 Y7.468 Z-20.000 I-111.579 J-248.154 K0.000 F600.000
G2 X126.496 Y2.664 Z-20.000 I-2.494 J-4.909 K0.000 F600.000
G1 X126.500 Y-7.909 Z-20.000 F600.000
G2 X121.832 Y-13.343 Z-20.000 I-5.503 J0.005 K0.000 F600.000
G2 X118.318 Y-12.707 Z-20.000 I-0.832 J5.434 K0.000 F600.000
G3 X-118.237 Y-12.664 Z-20.000 I-118.314 J-202.307 K0.000 F600.000
G2 X-126.496 Y-8.014 Z-20.000 I-2.760 J4.757 K0.000 F600.000
G1 X-126.500 Y2.561 Z-20.000 F600.000
G2 X-123.586 Y7.412 Z-20.000 I5.507 J-0.007 K0.000 F600.000
G2 X111.583 Y13.170 Z-20.000 I123.590 J-242.396 K0.000 F600.000
G0 Z5.000
G0 X103.543 Y-6.370 Z5.000
G0 X103.543 Y-6.370 Z3.000
G1 X103.543 Y-6.370 Z-20.000 F600.000
G2 X123.485 Y-15.533 Z-20.000 I-103.543 J-251.630 K0.000 F600.000
G2 X126.496 Y-20.336 Z-20.000 I-2.494 J-4.909 K0.000 F600.000
G1 X126.500 Y-30.909 Z-20.000 F600.000
G2 X121.832 Y-36.343 Z-20.000 I-5.503 J0.005 K0.000 F600.000
G2 X118.318 Y-35.707 Z-20.000 I-0.832 J5.434 K0.000 F600.000
G3 X-118.237 Y-35.664 Z-20.000 I-118.314 J-202.307 K0.000 F600.000
G2 X-126.496 Y-31.014 Z-20.000 I-2.760 J4.757 K0.000 F600.000
G1 X-126.500 Y-20.439 Z-20.000 F600.000
G2 X-123.586 Y-15.588 Z-20.000 I5.507 J-0.007 K0.000 F600.000
G2 X-9.817 Y13.924 Z-20.000 I123.576 J-242.339 K0.000 F600.000
G2 X-8.250 Y12.425 Z-20.000 I0.067 J-1.499 K0.000 F600.000
G1 X-8.250 Y8.500 Z-20.000 F600.000
G1 X8.250 Y8.500 Z-20.000 F600.000
G1 X8.250 Y12.425 Z-20.000 F600.000
G2 X9.817 Y13.924 Z-20.000 I1.500 J-0.000 K0.000 F600.000
G2 X103.543 Y-6.370 Z-20.000 I-9.817 J-271.924 K0.000 F600.000
G0 Z5.000
G0 X95.993 Y-26.393 Z5.000
G0 X95.993 Y-26.393 Z3.000
G1 X95.993 Y-26.393 Z-20.000 F600.000
G2 X123.485 Y-38.532 Z-20.000 I-95.989 J-254.590 K0.000 F600.000
G2 X126.496 Y-43.336 Z-20.000 I-2.494 J-4.909 K0.000 F600.000
G1 X126.500 Y-53.909 Z-20.000 F600.000
G2 X121.832 Y-59.343 Z-20.000 I-5.503 J0.005 K0.000 F600.000
G2 X118.318 Y-58.707 Z-20.000 I-0.832 J5.434 K0.000 F600.000
G3 X-118.237 Y-58.664 Z-20.000 I-118.314 J-202.307 K0.000 F600.000
G2 X-126.496 Y-54.014 Z-20.000 I-2.760 J4.757 K0.000 F600.000
G1 X-126.500 Y-43.439 Z-20.000 F600.000
G2 X-123.586 Y-38.588 Z-20.000 I5.507 J-0.007 K0.000 F600.000
G2 X95.993 Y-26.393 Z-20.000 I123.590 J-242.396 K0.000 F600.000
G0 Z5.000
G0 X88.923 Y-46.839 Z5.000
G0 X88.923 Y-46.839 Z3.000
G1 X88.923 Y-46.839 Z-20.000 F600.000
G2 X123.485 Y-61.533 Z-20.000 I-88.923 J-257.161 K0.000 F600.000
G2 X126.496 Y-66.336 Z-20.000 I-2.494 J-4.909 K0.000 F600.000
G1 X126.500 Y-76.909 Z-20.000 F600.000
G2 X121.832 Y-82.343 Z-20.000 I-5.503 J0.005 K0.000 F600.000
G2 X118.318 Y-81.707 Z-20.000 I-0.832 J5.434 K0.000 F600.000
G3 X-118.237 Y-81.664 Z-20.000 I-118.314 J-202.307 K0.000 F600.000
G2 X-126.496 Y-77.014 Z-20.000 I-2.760 J4.757 K0.000 F600.000
G1 X-126.500 Y-66.439 Z-20.000 F600.000
G2 X-123.586 Y-61.588 Z-20.000 I5.507 J-0.007 K0.000 F600.000
G2 X-9.817 Y-32.076 Z-20.000 I123.576 J-242.339 K0.000 F600.000
G2 X-8.250 Y-33.575 Z-20.000 I0.067 J-1.499 K0.000 F600.000
G1 X-8.250 Y-37.500 Z-20.000 F600.000
G1 X8.250 Y-37.500 Z-20.000 F600.000
G1 X8.250 Y-33.575 Z-20.000 F600.000
G2 X9.817 Y-32.076 Z-20.000 I1.500 J-0.000 K0.000 F600.000
G2 X88.923 Y-46.839 Z-20.000 I-9.817 J-271.924 K0.000 F600.000
G0 Z5.000
G0 Z5.000
(Finish operation: Profile)
(Begin postamble)
M5
G17 G90
M2
