(Exported by FreeCAD)
(Post Processor: script_module)
(Output Time:2026-07-07 14:43:44.950982)
(Begin preamble)
G17 G90
G21
(Begin operation: Fixture)
(Path: Fixture)
G54
(Finish operation: Fixture)
(Begin operation: 2mm001)
(Path: 2mm001)
(2mm001)
(Begin toolchange)
( M6 T3 )
M3 S10000
(Finish operation: 2mm001)
(Begin operation: Profile)
(Path: Profile)
(Profile)
(Compensated Tool Path. Diameter: 2.0)
G0 Z5.000
G0 X20.506 Y20.506
G0 Z3.000
G1 X20.506 Y20.506 Z-1.000 F300.000
G2 X3.724 Y-28.760 Z-1.000 I-20.506 J-20.506 K0.000 F300.000
G2 X-3.724 Y28.760 Z-1.000 I-3.724 J28.760 K0.000 F300.000
G2 X20.506 Y20.506 Z-1.000 I3.724 J-28.760 K0.000 F300.000
G1 X20.506 Y20.506 Z-2.000 F300.000
G2 X3.724 Y-28.760 Z-2.000 I-20.506 J-20.506 K0.000 F300.000
G2 X-3.724 Y28.760 Z-2.000 I-3.724 J28.760 K0.000 F300.000
G2 X20.506 Y20.506 Z-2.000 I3.724 J-28.760 K0.000 F300.000
G1 X20.506 Y20.506 Z-3.000 F300.000
G2 X3.724 Y-28.760 Z-3.000 I-20.506 J-20.506 K0.000 F300.000
G2 X-3.724 Y28.760 Z-3.000 I-3.724 J28.760 K0.000 F300.000
G2 X20.506 Y20.506 Z-3.000 I3.724 J-28.760 K0.000 F300.000
G1 X20.506 Y20.506 Z-4.000 F300.000
G2 X3.724 Y-28.760 Z-4.000 I-20.506 J-20.506 K0.000 F300.000
G2 X-3.724 Y28.760 Z-4.000 I-3.724 J28.760 K0.000 F300.000
G2 X20.506 Y20.506 Z-4.000 I3.724 J-28.760 K0.000 F300.000
G1 X20.506 Y20.506 Z-5.000 F300.000
G2 X3.724 Y-28.760 Z-5.000 I-20.506 J-20.506 K0.000 F300.000
G2 X-3.724 Y28.760 Z-5.000 I-3.724 J28.760 K0.000 F300.000
G2 X20.506 Y20.506 Z-5.000 I3.724 J-28.760 K0.000 F300.000
G1 X20.506 Y20.506 Z-6.000 F300.000
G2 X3.724 Y-28.760 Z-6.000 I-20.506 J-20.506 K0.000 F300.000
G2 X-3.724 Y28.760 Z-6.000 I-3.724 J28.760 K0.000 F300.000
G2 X20.506 Y20.506 Z-6.000 I3.724 J-28.760 K0.000 F300.000
G1 X20.506 Y20.506 Z-7.000 F300.000
G2 X3.724 Y-28.760 Z-7.000 I-20.506 J-20.506 K0.000 F300.000
G2 X-3.724 Y28.760 Z-7.000 I-3.724 J28.760 K0.000 F300.000
G2 X20.506 Y20.506 Z-7.000 I3.724 J-28.760 K0.000 F300.000
G0 Z5.000
G0 Z5.000
(Finish operation: Profile)
(Begin operation: Profile001)
(Path: Profile001)
(Profile001)
(Compensated Tool Path. Diameter: 2.0)
G0 Z5.000
G0 X28.991 Y28.991
G0 Z3.000
G1 X28.991 Y28.991 Z-1.000 F300.000
G3 X-2.716 Y40.910 Z-1.000 I-28.991 J-28.991 K0.000 F300.000
G3 X2.716 Y-40.910 Z-1.000 I2.716 J-40.910 K0.000 F300.000
G3 X28.991 Y28.991 Z-1.000 I-2.716 J40.910 K0.000 F300.000
G1 X28.991 Y28.991 Z-2.000 F300.000
G3 X-2.716 Y40.910 Z-2.000 I-28.991 J-28.991 K0.000 F300.000
G3 X2.716 Y-40.910 Z-2.000 I2.716 J-40.910 K0.000 F300.000
G3 X28.991 Y28.991 Z-2.000 I-2.716 J40.910 K0.000 F300.000
G1 X28.991 Y28.991 Z-3.000 F300.000
G3 X-2.716 Y40.910 Z-3.000 I-28.991 J-28.991 K0.000 F300.000
G3 X2.716 Y-40.910 Z-3.000 I2.716 J-40.910 K0.000 F300.000
G3 X28.991 Y28.991 Z-3.000 I-2.716 J40.910 K0.000 F300.000
G1 X28.991 Y28.991 Z-4.000 F300.000
G3 X-2.716 Y40.910 Z-4.000 I-28.991 J-28.991 K0.000 F300.000
G3 X2.716 Y-40.910 Z-4.000 I2.716 J-40.910 K0.000 F300.000
G3 X28.991 Y28.991 Z-4.000 I-2.716 J40.910 K0.000 F300.000
G1 X28.991 Y28.991 Z-5.000 F300.000
G3 X-2.716 Y40.910 Z-5.000 I-28.991 J-28.991 K0.000 F300.000
G3 X2.716 Y-40.910 Z-5.000 I2.716 J-40.910 K0.000 F300.000
G3 X28.991 Y28.991 Z-5.000 I-2.716 J40.910 K0.000 F300.000
G1 X28.991 Y28.991 Z-6.000 F300.000
G3 X-2.716 Y40.910 Z-6.000 I-28.991 J-28.991 K0.000 F300.000
G3 X2.716 Y-40.910 Z-6.000 I2.716 J-40.910 K0.000 F300.000
G3 X28.991 Y28.991 Z-6.000 I-2.716 J40.910 K0.000 F300.000
G1 X28.991 Y28.991 Z-7.000 F300.000
G3 X-2.716 Y40.910 Z-7.000 I-28.991 J-28.991 K0.000 F300.000
G3 X2.716 Y-40.910 Z-7.000 I2.716 J-40.910 K0.000 F300.000
G3 X28.991 Y28.991 Z-7.000 I-2.716 J40.910 K0.000 F300.000
G0 Z5.000
G0 Z5.000
(Finish operation: Profile001)
(Begin postamble)
M5
G17 G90
M2
