(Exported by FreeCAD)
(Post Processor: script_module)
(Output Time:2026-07-05 14:45:21.483759)
(Begin preamble)
G17 G90
G21
(Begin operation: Fixture)
(Path: Fixture)
G54
(Finish operation: Fixture)
(Begin operation: 12001)
(Path: 12001)
(12001)
(Begin toolchange)
( M6 T2 )
M3 S10000
(Finish operation: 12001)
(Begin operation: Profile)
(Path: Profile)
(Profile)
(Compensated Tool Path. Diameter: 1.2)
G0 Z5.000
G0 X20.789 Y20.789
G0 Z3.000
G1 X20.789 Y20.789 Z-1.000 F240.000
G2 X3.775 Y-29.156 Z-1.000 I-20.789 J-20.789 K0.000 F240.000
G2 X-3.775 Y29.156 Z-1.000 I-3.775 J29.156 K0.000 F240.000
G2 X20.789 Y20.789 Z-1.000 I3.775 J-29.156 K0.000 F240.000
G1 X20.789 Y20.789 Z-2.000 F240.000
G2 X3.775 Y-29.156 Z-2.000 I-20.789 J-20.789 K0.000 F240.000
G2 X-3.775 Y29.156 Z-2.000 I-3.775 J29.156 K0.000 F240.000
G2 X20.789 Y20.789 Z-2.000 I3.775 J-29.156 K0.000 F240.000
G1 X20.789 Y20.789 Z-3.000 F240.000
G2 X3.775 Y-29.156 Z-3.000 I-20.789 J-20.789 K0.000 F240.000
G2 X-3.775 Y29.156 Z-3.000 I-3.775 J29.156 K0.000 F240.000
G2 X20.789 Y20.789 Z-3.000 I3.775 J-29.156 K0.000 F240.000
G1 X20.789 Y20.789 Z-4.000 F240.000
G2 X3.775 Y-29.156 Z-4.000 I-20.789 J-20.789 K0.000 F240.000
G2 X-3.775 Y29.156 Z-4.000 I-3.775 J29.156 K0.000 F240.000
G2 X20.789 Y20.789 Z-4.000 I3.775 J-29.156 K0.000 F240.000
G1 X20.789 Y20.789 Z-5.000 F240.000
G2 X3.775 Y-29.156 Z-5.000 I-20.789 J-20.789 K0.000 F240.000
G2 X-3.775 Y29.156 Z-5.000 I-3.775 J29.156 K0.000 F240.000
G2 X20.789 Y20.789 Z-5.000 I3.775 J-29.156 K0.000 F240.000
G1 X20.789 Y20.789 Z-6.000 F240.000
G2 X3.775 Y-29.156 Z-6.000 I-20.789 J-20.789 K0.000 F240.000
G2 X-3.775 Y29.156 Z-6.000 I-3.775 J29.156 K0.000 F240.000
G2 X20.789 Y20.789 Z-6.000 I3.775 J-29.156 K0.000 F240.000
G1 X20.789 Y20.789 Z-7.000 F240.000
G2 X3.775 Y-29.156 Z-7.000 I-20.789 J-20.789 K0.000 F240.000
G2 X-3.775 Y29.156 Z-7.000 I-3.775 J29.156 K0.000 F240.000
G2 X20.789 Y20.789 Z-7.000 I3.775 J-29.156 K0.000 F240.000
G0 Z5.000
G0 Z5.000
(Finish operation: Profile)
(Begin operation: Profile001)
(Path: Profile001)
(Profile001)
(Compensated Tool Path. Diameter: 1.2)
G0 Z5.000
G0 X28.708 Y28.708
G0 Z3.000
G1 X28.708 Y28.708 Z-1.000 F240.000
G3 X-2.681 Y40.511 Z-1.000 I-28.708 J-28.708 K0.000 F240.000
G3 X2.681 Y-40.511 Z-1.000 I2.681 J-40.511 K0.000 F240.000
G3 X28.708 Y28.708 Z-1.000 I-2.681 J40.511 K0.000 F240.000
G1 X28.708 Y28.708 Z-2.000 F240.000
G3 X-2.681 Y40.511 Z-2.000 I-28.708 J-28.708 K0.000 F240.000
G3 X2.681 Y-40.511 Z-2.000 I2.681 J-40.511 K0.000 F240.000
G3 X28.708 Y28.708 Z-2.000 I-2.681 J40.511 K0.000 F240.000
G1 X28.708 Y28.708 Z-3.000 F240.000
G3 X-2.681 Y40.511 Z-3.000 I-28.708 J-28.708 K0.000 F240.000
G3 X2.681 Y-40.511 Z-3.000 I2.681 J-40.511 K0.000 F240.000
G3 X28.708 Y28.708 Z-3.000 I-2.681 J40.511 K0.000 F240.000
G1 X28.708 Y28.708 Z-4.000 F240.000
G3 X-2.681 Y40.511 Z-4.000 I-28.708 J-28.708 K0.000 F240.000
G3 X2.681 Y-40.511 Z-4.000 I2.681 J-40.511 K0.000 F240.000
G3 X28.708 Y28.708 Z-4.000 I-2.681 J40.511 K0.000 F240.000
G1 X28.708 Y28.708 Z-5.000 F240.000
G3 X-2.681 Y40.511 Z-5.000 I-28.708 J-28.708 K0.000 F240.000
G3 X2.681 Y-40.511 Z-5.000 I2.681 J-40.511 K0.000 F240.000
G3 X28.708 Y28.708 Z-5.000 I-2.681 J40.511 K0.000 F240.000
G1 X28.708 Y28.708 Z-6.000 F240.000
G3 X-2.681 Y40.511 Z-6.000 I-28.708 J-28.708 K0.000 F240.000
G3 X2.681 Y-40.511 Z-6.000 I2.681 J-40.511 K0.000 F240.000
G3 X28.708 Y28.708 Z-6.000 I-2.681 J40.511 K0.000 F240.000
G1 X28.708 Y28.708 Z-7.000 F240.000
G3 X-2.681 Y40.511 Z-7.000 I-28.708 J-28.708 K0.000 F240.000
G3 X2.681 Y-40.511 Z-7.000 I2.681 J-40.511 K0.000 F240.000
G3 X28.708 Y28.708 Z-7.000 I-2.681 J40.511 K0.000 F240.000
G0 Z5.000
G0 Z5.000
(Finish operation: Profile001)
(Begin postamble)
M5
G17 G90
M2
