(Exported by FreeCAD)
(Post Processor: script_module)
(Output Time:2026-02-07 19:07:48.354806)
(Begin preamble)
G17 G90
G21
(Begin operation: Fixture)
(Path: Fixture)
G54
(Finish operation: Fixture)
(Begin operation: 2_5mmEndMill006)
(Path: 2_5mmEndMill006)
(2_5mmEndMill006)
(Begin toolchange)
( M6 T2 )
M3 S10000
(Finish operation: 2_5mmEndMill006)
(Begin operation: Pocket_Shape001)
(Path: Pocket_Shape001)
(Pocket_Shape001)
G0 Z5.000
G0 X-21.250 Y15.750
G0 Z3.000
G1 X-21.250 Y15.750 Z-2.500 F360.000
G1 X-21.250 Y19.250 Z-2.500 F300.000
G1 X-21.286 Y19.250 Z-2.500 F300.000
G1 X-24.786 Y15.750 Z-2.500 F300.000
G1 X-28.321 Y15.750 Z-2.500 F300.000
G1 X-24.821 Y19.250 Z-2.500 F300.000
G1 X-28.357 Y19.250 Z-2.500 F300.000
G1 X-31.857 Y15.750 Z-2.500 F300.000
G1 X-35.392 Y15.750 Z-2.500 F300.000
G1 X-31.892 Y19.250 Z-2.500 F300.000
G1 X-35.428 Y19.250 Z-2.500 F300.000
G1 X-38.928 Y15.750 Z-2.500 F300.000
G1 X-40.750 Y15.750 Z-2.500 F300.000
G1 X-40.750 Y17.463 Z-2.500 F300.000
G1 X-38.963 Y19.250 Z-2.500 F300.000
G1 X-40.750 Y19.250 Z-2.500 F300.000
G1 X-40.750 Y15.750 Z-2.500 F300.000
G1 X-21.250 Y15.750 Z-2.500 F300.000
G1 X-21.250 Y19.250 Z-2.500 F300.000
G1 X-40.750 Y19.250 Z-2.500 F300.000
G1 X-40.750 Y17.463 Z-2.500 F300.000
G1 X-40.750 Y17.463 Z-5.000 F360.000
G1 X-40.750 Y19.250 Z-5.000 F300.000
G1 X-21.250 Y19.250 Z-5.000 F300.000
G1 X-21.250 Y15.750 Z-5.000 F300.000
G1 X-40.750 Y15.750 Z-5.000 F300.000
G1 X-40.750 Y19.250 Z-5.000 F300.000
G1 X-38.963 Y19.250 Z-5.000 F300.000
G1 X-40.750 Y17.463 Z-5.000 F300.000
G1 X-40.750 Y15.750 Z-5.000 F300.000
G1 X-38.928 Y15.750 Z-5.000 F300.000
G1 X-35.428 Y19.250 Z-5.000 F300.000
G1 X-31.892 Y19.250 Z-5.000 F300.000
G1 X-35.392 Y15.750 Z-5.000 F300.000
G1 X-31.857 Y15.750 Z-5.000 F300.000
G1 X-28.357 Y19.250 Z-5.000 F300.000
G1 X-24.821 Y19.250 Z-5.000 F300.000
G1 X-28.321 Y15.750 Z-5.000 F300.000
G1 X-24.786 Y15.750 Z-5.000 F300.000
G1 X-21.286 Y19.250 Z-5.000 F300.000
G1 X-21.250 Y19.250 Z-5.000 F300.000
G1 X-21.250 Y15.750 Z-5.000 F300.000
G0 Z5.000
G0 Z5.000
(Finish operation: Pocket_Shape001)
(Begin operation: Pocket_Shape002)
(Path: Pocket_Shape002)
(Pocket_Shape002)
G0 Z5.000
G0 X-21.250 Y-19.250
G0 Z3.000
G1 X-21.250 Y-19.250 Z-2.500 F360.000
G1 X-21.250 Y-15.750 Z-2.500 F300.000
G1 X-21.286 Y-15.750 Z-2.500 F300.000
G1 X-24.786 Y-19.250 Z-2.500 F300.000
G1 X-28.321 Y-19.250 Z-2.500 F300.000
G1 X-24.821 Y-15.750 Z-2.500 F300.000
G1 X-28.357 Y-15.750 Z-2.500 F300.000
G1 X-31.857 Y-19.250 Z-2.500 F300.000
G1 X-35.392 Y-19.250 Z-2.500 F300.000
G1 X-31.892 Y-15.750 Z-2.500 F300.000
G1 X-35.428 Y-15.750 Z-2.500 F300.000
G1 X-38.928 Y-19.250 Z-2.500 F300.000
G1 X-40.750 Y-19.250 Z-2.500 F300.000
G1 X-40.750 Y-17.537 Z-2.500 F300.000
G1 X-38.963 Y-15.750 Z-2.500 F300.000
G1 X-40.750 Y-15.750 Z-2.500 F300.000
G1 X-40.750 Y-19.250 Z-2.500 F300.000
G1 X-21.250 Y-19.250 Z-2.500 F300.000
G1 X-21.250 Y-15.750 Z-2.500 F300.000
G1 X-40.750 Y-15.750 Z-2.500 F300.000
G1 X-40.750 Y-17.537 Z-2.500 F300.000
G1 X-40.750 Y-17.537 Z-5.000 F360.000
G1 X-40.750 Y-15.750 Z-5.000 F300.000
G1 X-21.250 Y-15.750 Z-5.000 F300.000
G1 X-21.250 Y-19.250 Z-5.000 F300.000
G1 X-40.750 Y-19.250 Z-5.000 F300.000
G1 X-40.750 Y-15.750 Z-5.000 F300.000
G1 X-38.963 Y-15.750 Z-5.000 F300.000
G1 X-40.750 Y-17.537 Z-5.000 F300.000
G1 X-40.750 Y-19.250 Z-5.000 F300.000
G1 X-38.928 Y-19.250 Z-5.000 F300.000
G1 X-35.428 Y-15.750 Z-5.000 F300.000
G1 X-31.892 Y-15.750 Z-5.000 F300.000
G1 X-35.392 Y-19.250 Z-5.000 F300.000
G1 X-31.857 Y-19.250 Z-5.000 F300.000
G1 X-28.357 Y-15.750 Z-5.000 F300.000
G1 X-24.821 Y-15.750 Z-5.000 F300.000
G1 X-28.321 Y-19.250 Z-5.000 F300.000
G1 X-24.786 Y-19.250 Z-5.000 F300.000
G1 X-21.286 Y-15.750 Z-5.000 F300.000
G1 X-21.250 Y-15.750 Z-5.000 F300.000
G1 X-21.250 Y-19.250 Z-5.000 F300.000
G0 Z5.000
G0 Z5.000
(Finish operation: Pocket_Shape002)
(Begin operation: Pocket_Shape003)
(Path: Pocket_Shape003)
(Pocket_Shape003)
G0 Z5.000
G0 X91.350 Y20.250
G0 Z3.000
G1 X91.350 Y20.250 Z-2.500 F360.000
G1 X91.250 Y20.250 Z-2.500 F300.000
G1 X91.250 Y14.750 Z-2.500 F300.000
G1 X91.350 Y14.750 Z-2.500 F300.000
G1 X91.350 Y20.250 Z-2.500 F300.000
G1 X91.350 Y20.250 Z-5.000 F360.000
G1 X91.250 Y20.250 Z-5.000 F300.000
G1 X91.250 Y14.750 Z-5.000 F300.000
G1 X91.350 Y14.750 Z-5.000 F300.000
G1 X91.350 Y20.250 Z-5.000 F300.000
G1 X91.350 Y20.250 Z-7.500 F360.000
G1 X91.250 Y20.250 Z-7.500 F300.000
G1 X91.250 Y14.750 Z-7.500 F300.000
G1 X91.350 Y14.750 Z-7.500 F300.000
G1 X91.350 Y20.250 Z-7.500 F300.000
G1 X91.350 Y20.250 Z-10.000 F360.000
G1 X91.250 Y20.250 Z-10.000 F300.000
G1 X91.250 Y14.750 Z-10.000 F300.000
G1 X91.350 Y14.750 Z-10.000 F300.000
G1 X91.350 Y20.250 Z-10.000 F300.000
G1 X91.350 Y20.250 Z-12.500 F360.000
G1 X91.250 Y20.250 Z-12.500 F300.000
G1 X91.250 Y14.750 Z-12.500 F300.000
G1 X91.350 Y14.750 Z-12.500 F300.000
G1 X91.350 Y20.250 Z-12.500 F300.000
G1 X91.350 Y20.250 Z-15.000 F360.000
G1 X91.250 Y20.250 Z-15.000 F300.000
G1 X91.250 Y14.750 Z-15.000 F300.000
G1 X91.350 Y14.750 Z-15.000 F300.000
G1 X91.350 Y20.250 Z-15.000 F300.000
G1 X91.350 Y20.250 Z-16.000 F360.000
G1 X91.250 Y20.250 Z-16.000 F300.000
G1 X91.250 Y14.750 Z-16.000 F300.000
G1 X91.350 Y14.750 Z-16.000 F300.000
G1 X91.350 Y20.250 Z-16.000 F300.000
G0 Z5.000
G0 Z5.000
(Finish operation: Pocket_Shape003)
(Begin operation: Pocket_Shape004)
(Path: Pocket_Shape004)
(Pocket_Shape004)
G0 Z5.000
G0 X91.350 Y-14.750
G0 Z3.000
G1 X91.350 Y-14.750 Z-2.500 F360.000
G1 X91.250 Y-14.750 Z-2.500 F300.000
G1 X91.250 Y-20.250 Z-2.500 F300.000
G1 X91.350 Y-20.250 Z-2.500 F300.000
G1 X91.350 Y-14.750 Z-2.500 F300.000
G1 X91.350 Y-14.750 Z-5.000 F360.000
G1 X91.250 Y-14.750 Z-5.000 F300.000
G1 X91.250 Y-20.250 Z-5.000 F300.000
G1 X91.350 Y-20.250 Z-5.000 F300.000
G1 X91.350 Y-14.750 Z-5.000 F300.000
G1 X91.350 Y-14.750 Z-7.500 F360.000
G1 X91.250 Y-14.750 Z-7.500 F300.000
G1 X91.250 Y-20.250 Z-7.500 F300.000
G1 X91.350 Y-20.250 Z-7.500 F300.000
G1 X91.350 Y-14.750 Z-7.500 F300.000
G1 X91.350 Y-14.750 Z-10.000 F360.000
G1 X91.250 Y-14.750 Z-10.000 F300.000
G1 X91.250 Y-20.250 Z-10.000 F300.000
G1 X91.350 Y-20.250 Z-10.000 F300.000
G1 X91.350 Y-14.750 Z-10.000 F300.000
G1 X91.350 Y-14.750 Z-12.500 F360.000
G1 X91.250 Y-14.750 Z-12.500 F300.000
G1 X91.250 Y-20.250 Z-12.500 F300.000
G1 X91.350 Y-20.250 Z-12.500 F300.000
G1 X91.350 Y-14.750 Z-12.500 F300.000
G1 X91.350 Y-14.750 Z-15.000 F360.000
G1 X91.250 Y-14.750 Z-15.000 F300.000
G1 X91.250 Y-20.250 Z-15.000 F300.000
G1 X91.350 Y-20.250 Z-15.000 F300.000
G1 X91.350 Y-14.750 Z-15.000 F300.000
G1 X91.350 Y-14.750 Z-16.000 F360.000
G1 X91.250 Y-14.750 Z-16.000 F300.000
G1 X91.250 Y-20.250 Z-16.000 F300.000
G1 X91.350 Y-20.250 Z-16.000 F300.000
G1 X91.350 Y-14.750 Z-16.000 F300.000
G0 Z5.000
G0 Z5.000
(Finish operation: Pocket_Shape004)
(Begin operation: Profile003)
(Path: Profile003)
(Profile003)
(Compensated Tool Path. Diameter: 2.5)
G0 Z5.000
G0 X100.003 Y-8.496
G0 Z3.000
G1 X100.003 Y-8.496 Z-2.500 F360.000
G2 X101.246 Y-11.402 Z-2.500 I-3.008 J-3.006 K0.000 F300.000
G1 X101.250 Y-23.500 Z-2.500 F300.000
G2 X97.098 Y-27.746 Z-2.500 I-4.252 J0.005 K0.000 F300.000
G1 X-80.000 Y-27.750 Z-2.500 F300.000
G2 X-81.250 Y-26.500 Z-2.500 I-0.000 J1.250 K0.000 F300.000
G1 X-81.250 Y-24.750 Z-2.500 F300.000
G1 X-88.750 Y-24.750 Z-2.500 F300.000
G1 X-88.750 Y-26.500 Z-2.500 F300.000
G2 X-90.000 Y-27.750 Z-2.500 I-1.250 J-0.000 K0.000 F300.000
G1 X-97.000 Y-27.750 Z-2.500 F300.000
G2 X-101.246 Y-23.598 Z-2.500 I0.005 J4.252 K0.000 F300.000
G1 X-101.250 Y-11.500 Z-2.500 F300.000
G2 X-97.098 Y-7.254 Z-2.500 I4.252 J-0.005 K0.000 F300.000
G1 X-90.000 Y-7.250 Z-2.500 F300.000
G2 X-88.750 Y-8.500 Z-2.500 I0.000 J-1.250 K0.000 F300.000
G1 X-88.750 Y-10.250 Z-2.500 F300.000
G1 X-81.250 Y-10.250 Z-2.500 F300.000
G1 X-81.250 Y-8.500 Z-2.500 F300.000
G2 X-80.000 Y-7.250 Z-2.500 I1.250 J0.000 K0.000 F300.000
G1 X97.000 Y-7.250 Z-2.500 F300.000
G2 X100.003 Y-8.496 Z-2.500 I-0.005 J-4.252 K0.000 F300.000
G1 X100.003 Y-8.496 Z-5.000 F360.000
G2 X101.246 Y-11.402 Z-5.000 I-3.008 J-3.006 K0.000 F300.000
G1 X101.250 Y-23.500 Z-5.000 F300.000
G2 X97.098 Y-27.746 Z-5.000 I-4.252 J0.005 K0.000 F300.000
G1 X-80.000 Y-27.750 Z-5.000 F300.000
G2 X-81.250 Y-26.500 Z-5.000 I-0.000 J1.250 K0.000 F300.000
G1 X-81.250 Y-24.750 Z-5.000 F300.000
G1 X-88.750 Y-24.750 Z-5.000 F300.000
G1 X-88.750 Y-26.500 Z-5.000 F300.000
G2 X-90.000 Y-27.750 Z-5.000 I-1.250 J-0.000 K0.000 F300.000
G1 X-97.000 Y-27.750 Z-5.000 F300.000
G2 X-101.246 Y-23.598 Z-5.000 I0.005 J4.252 K0.000 F300.000
G1 X-101.250 Y-11.500 Z-5.000 F300.000
G2 X-97.098 Y-7.254 Z-5.000 I4.252 J-0.005 K0.000 F300.000
G1 X-90.000 Y-7.250 Z-5.000 F300.000
G2 X-88.750 Y-8.500 Z-5.000 I0.000 J-1.250 K0.000 F300.000
G1 X-88.750 Y-10.250 Z-5.000 F300.000
G1 X-81.250 Y-10.250 Z-5.000 F300.000
G1 X-81.250 Y-8.500 Z-5.000 F300.000
G2 X-80.000 Y-7.250 Z-5.000 I1.250 J0.000 K0.000 F300.000
G1 X97.000 Y-7.250 Z-5.000 F300.000
G2 X100.003 Y-8.496 Z-5.000 I-0.005 J-4.252 K0.000 F300.000
G1 X100.003 Y-8.496 Z-7.500 F360.000
G2 X101.246 Y-11.402 Z-7.500 I-3.008 J-3.006 K0.000 F300.000
G1 X101.250 Y-23.500 Z-7.500 F300.000
G2 X97.098 Y-27.746 Z-7.500 I-4.252 J0.005 K0.000 F300.000
G1 X-80.000 Y-27.750 Z-7.500 F300.000
G2 X-81.250 Y-26.500 Z-7.500 I-0.000 J1.250 K0.000 F300.000
G1 X-81.250 Y-24.750 Z-7.500 F300.000
G1 X-88.750 Y-24.750 Z-7.500 F300.000
G1 X-88.750 Y-26.500 Z-7.500 F300.000
G2 X-90.000 Y-27.750 Z-7.500 I-1.250 J-0.000 K0.000 F300.000
G1 X-97.000 Y-27.750 Z-7.500 F300.000
G2 X-101.246 Y-23.598 Z-7.500 I0.005 J4.252 K0.000 F300.000
G1 X-101.250 Y-11.500 Z-7.500 F300.000
G2 X-97.098 Y-7.254 Z-7.500 I4.252 J-0.005 K0.000 F300.000
G1 X-90.000 Y-7.250 Z-7.500 F300.000
G2 X-88.750 Y-8.500 Z-7.500 I0.000 J-1.250 K0.000 F300.000
G1 X-88.750 Y-10.250 Z-7.500 F300.000
G1 X-81.250 Y-10.250 Z-7.500 F300.000
G1 X-81.250 Y-8.500 Z-7.500 F300.000
G2 X-80.000 Y-7.250 Z-7.500 I1.250 J0.000 K0.000 F300.000
G1 X97.000 Y-7.250 Z-7.500 F300.000
G2 X100.003 Y-8.496 Z-7.500 I-0.005 J-4.252 K0.000 F300.000
G1 X100.003 Y-8.496 Z-10.000 F360.000
G2 X101.246 Y-11.402 Z-10.000 I-3.008 J-3.006 K0.000 F300.000
G1 X101.250 Y-23.500 Z-10.000 F300.000
G2 X97.098 Y-27.746 Z-10.000 I-4.252 J0.005 K0.000 F300.000
G1 X-80.000 Y-27.750 Z-10.000 F300.000
G2 X-81.250 Y-26.500 Z-10.000 I-0.000 J1.250 K0.000 F300.000
G1 X-81.250 Y-24.750 Z-10.000 F300.000
G1 X-88.750 Y-24.750 Z-10.000 F300.000
G1 X-88.750 Y-26.500 Z-10.000 F300.000
G2 X-90.000 Y-27.750 Z-10.000 I-1.250 J-0.000 K0.000 F300.000
G1 X-97.000 Y-27.750 Z-10.000 F300.000
G2 X-101.246 Y-23.598 Z-10.000 I0.005 J4.252 K0.000 F300.000
G1 X-101.250 Y-11.500 Z-10.000 F300.000
G2 X-97.098 Y-7.254 Z-10.000 I4.252 J-0.005 K0.000 F300.000
G1 X-90.000 Y-7.250 Z-10.000 F300.000
G2 X-88.750 Y-8.500 Z-10.000 I0.000 J-1.250 K0.000 F300.000
G1 X-88.750 Y-10.250 Z-10.000 F300.000
G1 X-81.250 Y-10.250 Z-10.000 F300.000
G1 X-81.250 Y-8.500 Z-10.000 F300.000
G2 X-80.000 Y-7.250 Z-10.000 I1.250 J0.000 K0.000 F300.000
G1 X97.000 Y-7.250 Z-10.000 F300.000
G2 X100.003 Y-8.496 Z-10.000 I-0.005 J-4.252 K0.000 F300.000
G1 X100.003 Y-8.496 Z-12.500 F360.000
G2 X101.246 Y-11.402 Z-12.500 I-3.008 J-3.006 K0.000 F300.000
G1 X101.250 Y-23.500 Z-12.500 F300.000
G2 X97.098 Y-27.746 Z-12.500 I-4.252 J0.005 K0.000 F300.000
G1 X-80.000 Y-27.750 Z-12.500 F300.000
G2 X-81.250 Y-26.500 Z-12.500 I-0.000 J1.250 K0.000 F300.000
G1 X-81.250 Y-24.750 Z-12.500 F300.000
G1 X-88.750 Y-24.750 Z-12.500 F300.000
G1 X-88.750 Y-26.500 Z-12.500 F300.000
G2 X-90.000 Y-27.750 Z-12.500 I-1.250 J-0.000 K0.000 F300.000
G1 X-97.000 Y-27.750 Z-12.500 F300.000
G2 X-101.246 Y-23.598 Z-12.500 I0.005 J4.252 K0.000 F300.000
G1 X-101.250 Y-11.500 Z-12.500 F300.000
G2 X-97.098 Y-7.254 Z-12.500 I4.252 J-0.005 K0.000 F300.000
G1 X-90.000 Y-7.250 Z-12.500 F300.000
G2 X-88.750 Y-8.500 Z-12.500 I0.000 J-1.250 K0.000 F300.000
G1 X-88.750 Y-10.250 Z-12.500 F300.000
G1 X-81.250 Y-10.250 Z-12.500 F300.000
G1 X-81.250 Y-8.500 Z-12.500 F300.000
G2 X-80.000 Y-7.250 Z-12.500 I1.250 J0.000 K0.000 F300.000
G1 X97.000 Y-7.250 Z-12.500 F300.000
G2 X100.003 Y-8.496 Z-12.500 I-0.005 J-4.252 K0.000 F300.000
G1 X100.003 Y-8.496 Z-15.000 F360.000
G2 X101.246 Y-11.402 Z-15.000 I-3.008 J-3.006 K0.000 F300.000
G1 X101.250 Y-23.500 Z-15.000 F300.000
G2 X97.098 Y-27.746 Z-15.000 I-4.252 J0.005 K0.000 F300.000
G1 X-80.000 Y-27.750 Z-15.000 F300.000
G2 X-81.250 Y-26.500 Z-15.000 I-0.000 J1.250 K0.000 F300.000
G1 X-81.250 Y-24.750 Z-15.000 F300.000
G1 X-88.750 Y-24.750 Z-15.000 F300.000
G1 X-88.750 Y-26.500 Z-15.000 F300.000
G2 X-90.000 Y-27.750 Z-15.000 I-1.250 J-0.000 K0.000 F300.000
G1 X-97.000 Y-27.750 Z-15.000 F300.000
G2 X-101.246 Y-23.598 Z-15.000 I0.005 J4.252 K0.000 F300.000
G1 X-101.250 Y-11.500 Z-15.000 F300.000
G2 X-97.098 Y-7.254 Z-15.000 I4.252 J-0.005 K0.000 F300.000
G1 X-90.000 Y-7.250 Z-15.000 F300.000
G2 X-88.750 Y-8.500 Z-15.000 I0.000 J-1.250 K0.000 F300.000
G1 X-88.750 Y-10.250 Z-15.000 F300.000
G1 X-81.250 Y-10.250 Z-15.000 F300.000
G1 X-81.250 Y-8.500 Z-15.000 F300.000
G2 X-80.000 Y-7.250 Z-15.000 I1.250 J0.000 K0.000 F300.000
G1 X97.000 Y-7.250 Z-15.000 F300.000
G2 X100.003 Y-8.496 Z-15.000 I-0.005 J-4.252 K0.000 F300.000
G1 X100.003 Y-8.496 Z-17.500 F360.000
G2 X101.246 Y-11.402 Z-17.500 I-3.008 J-3.006 K0.000 F300.000
G1 X101.250 Y-23.500 Z-17.500 F300.000
G2 X97.098 Y-27.746 Z-17.500 I-4.252 J0.005 K0.000 F300.000
G1 X-80.000 Y-27.750 Z-17.500 F300.000
G2 X-81.250 Y-26.500 Z-17.500 I-0.000 J1.250 K0.000 F300.000
G1 X-81.250 Y-24.750 Z-17.500 F300.000
G1 X-88.750 Y-24.750 Z-17.500 F300.000
G1 X-88.750 Y-26.500 Z-17.500 F300.000
G2 X-90.000 Y-27.750 Z-17.500 I-1.250 J-0.000 K0.000 F300.000
G1 X-97.000 Y-27.750 Z-17.500 F300.000
G2 X-101.246 Y-23.598 Z-17.500 I0.005 J4.252 K0.000 F300.000
G1 X-101.250 Y-11.500 Z-17.500 F300.000
G2 X-97.098 Y-7.254 Z-17.500 I4.252 J-0.005 K0.000 F300.000
G1 X-90.000 Y-7.250 Z-17.500 F300.000
G2 X-88.750 Y-8.500 Z-17.500 I0.000 J-1.250 K0.000 F300.000
G1 X-88.750 Y-10.250 Z-17.500 F300.000
G1 X-81.250 Y-10.250 Z-17.500 F300.000
G1 X-81.250 Y-8.500 Z-17.500 F300.000
G2 X-80.000 Y-7.250 Z-17.500 I1.250 J0.000 K0.000 F300.000
G1 X97.000 Y-7.250 Z-17.500 F300.000
G2 X100.003 Y-8.496 Z-17.500 I-0.005 J-4.252 K0.000 F300.000
G1 X100.003 Y-8.496 Z-20.000 F360.000
G2 X101.246 Y-11.402 Z-20.000 I-3.008 J-3.006 K0.000 F300.000
G1 X101.250 Y-23.500 Z-20.000 F300.000
G2 X97.098 Y-27.746 Z-20.000 I-4.252 J0.005 K0.000 F300.000
G1 X-80.000 Y-27.750 Z-20.000 F300.000
G2 X-81.250 Y-26.500 Z-20.000 I-0.000 J1.250 K0.000 F300.000
G1 X-81.250 Y-24.750 Z-20.000 F300.000
G1 X-88.750 Y-24.750 Z-20.000 F300.000
G1 X-88.750 Y-26.500 Z-20.000 F300.000
G2 X-90.000 Y-27.750 Z-20.000 I-1.250 J-0.000 K0.000 F300.000
G1 X-97.000 Y-27.750 Z-20.000 F300.000
G2 X-101.246 Y-23.598 Z-20.000 I0.005 J4.252 K0.000 F300.000
G1 X-101.250 Y-11.500 Z-20.000 F300.000
G2 X-97.098 Y-7.254 Z-20.000 I4.252 J-0.005 K0.000 F300.000
G1 X-90.000 Y-7.250 Z-20.000 F300.000
G2 X-88.750 Y-8.500 Z-20.000 I0.000 J-1.250 K0.000 F300.000
G1 X-88.750 Y-10.250 Z-20.000 F300.000
G1 X-81.250 Y-10.250 Z-20.000 F300.000
G1 X-81.250 Y-8.500 Z-20.000 F300.000
G2 X-80.000 Y-7.250 Z-20.000 I1.250 J0.000 K0.000 F300.000
G1 X97.000 Y-7.250 Z-20.000 F300.000
G2 X100.003 Y-8.496 Z-20.000 I-0.005 J-4.252 K0.000 F300.000
G1 X100.003 Y-8.496 Z-22.000 F360.000
G2 X101.246 Y-11.402 Z-22.000 I-3.008 J-3.006 K0.000 F300.000
G1 X101.250 Y-23.500 Z-22.000 F300.000
G2 X97.098 Y-27.746 Z-22.000 I-4.252 J0.005 K0.000 F300.000
G1 X-80.000 Y-27.750 Z-22.000 F300.000
G2 X-81.250 Y-26.500 Z-22.000 I-0.000 J1.250 K0.000 F300.000
G1 X-81.250 Y-24.750 Z-22.000 F300.000
G1 X-88.750 Y-24.750 Z-22.000 F300.000
G1 X-88.750 Y-26.500 Z-22.000 F300.000
G2 X-90.000 Y-27.750 Z-22.000 I-1.250 J-0.000 K0.000 F300.000
G1 X-97.000 Y-27.750 Z-22.000 F300.000
G2 X-101.246 Y-23.598 Z-22.000 I0.005 J4.252 K0.000 F300.000
G1 X-101.250 Y-11.500 Z-22.000 F300.000
G2 X-97.098 Y-7.254 Z-22.000 I4.252 J-0.005 K0.000 F300.000
G1 X-90.000 Y-7.250 Z-22.000 F300.000
G2 X-88.750 Y-8.500 Z-22.000 I0.000 J-1.250 K0.000 F300.000
G1 X-88.750 Y-10.250 Z-22.000 F300.000
G1 X-81.250 Y-10.250 Z-22.000 F300.000
G1 X-81.250 Y-8.500 Z-22.000 F300.000
G2 X-80.000 Y-7.250 Z-22.000 I1.250 J0.000 K0.000 F300.000
G1 X97.000 Y-7.250 Z-22.000 F300.000
G2 X100.003 Y-8.496 Z-22.000 I-0.005 J-4.252 K0.000 F300.000
G0 Z5.000
G0 Z5.000
(Finish operation: Profile003)
(Begin operation: Profile004)
(Path: Profile004)
(Profile004)
(Compensated Tool Path. Diameter: 2.5)
G0 Z5.000
G0 X100.003 Y26.504
G0 Z3.000
G1 X100.003 Y26.504 Z-2.500 F360.000
G2 X101.246 Y23.598 Z-2.500 I-3.008 J-3.006 K0.000 F300.000
G1 X101.250 Y11.500 Z-2.500 F300.000
G2 X97.098 Y7.254 Z-2.500 I-4.252 J0.005 K0.000 F300.000
G1 X-80.000 Y7.250 Z-2.500 F300.000
G2 X-81.250 Y8.500 Z-2.500 I-0.000 J1.250 K0.000 F300.000
G1 X-81.250 Y10.250 Z-2.500 F300.000
G1 X-88.750 Y10.250 Z-2.500 F300.000
G1 X-88.750 Y8.500 Z-2.500 F300.000
G2 X-90.000 Y7.250 Z-2.500 I-1.250 J-0.000 K0.000 F300.000
G1 X-97.000 Y7.250 Z-2.500 F300.000
G2 X-101.246 Y11.402 Z-2.500 I0.005 J4.252 K0.000 F300.000
G1 X-101.250 Y23.500 Z-2.500 F300.000
G2 X-97.098 Y27.746 Z-2.500 I4.252 J-0.005 K0.000 F300.000
G1 X-90.000 Y27.750 Z-2.500 F300.000
G2 X-88.750 Y26.500 Z-2.500 I0.000 J-1.250 K0.000 F300.000
G1 X-88.750 Y24.750 Z-2.500 F300.000
G1 X-81.250 Y24.750 Z-2.500 F300.000
G1 X-81.250 Y26.500 Z-2.500 F300.000
G2 X-80.000 Y27.750 Z-2.500 I1.250 J0.000 K0.000 F300.000
G1 X97.000 Y27.750 Z-2.500 F300.000
G2 X100.003 Y26.504 Z-2.500 I-0.005 J-4.252 K0.000 F300.000
G1 X100.003 Y26.504 Z-5.000 F360.000
G2 X101.246 Y23.598 Z-5.000 I-3.008 J-3.006 K0.000 F300.000
G1 X101.250 Y11.500 Z-5.000 F300.000
G2 X97.098 Y7.254 Z-5.000 I-4.252 J0.005 K0.000 F300.000
G1 X-80.000 Y7.250 Z-5.000 F300.000
G2 X-81.250 Y8.500 Z-5.000 I-0.000 J1.250 K0.000 F300.000
G1 X-81.250 Y10.250 Z-5.000 F300.000
G1 X-88.750 Y10.250 Z-5.000 F300.000
G1 X-88.750 Y8.500 Z-5.000 F300.000
G2 X-90.000 Y7.250 Z-5.000 I-1.250 J-0.000 K0.000 F300.000
G1 X-97.000 Y7.250 Z-5.000 F300.000
G2 X-101.246 Y11.402 Z-5.000 I0.005 J4.252 K0.000 F300.000
G1 X-101.250 Y23.500 Z-5.000 F300.000
G2 X-97.098 Y27.746 Z-5.000 I4.252 J-0.005 K0.000 F300.000
G1 X-90.000 Y27.750 Z-5.000 F300.000
G2 X-88.750 Y26.500 Z-5.000 I0.000 J-1.250 K0.000 F300.000
G1 X-88.750 Y24.750 Z-5.000 F300.000
G1 X-81.250 Y24.750 Z-5.000 F300.000
G1 X-81.250 Y26.500 Z-5.000 F300.000
G2 X-80.000 Y27.750 Z-5.000 I1.250 J0.000 K0.000 F300.000
G1 X97.000 Y27.750 Z-5.000 F300.000
G2 X100.003 Y26.504 Z-5.000 I-0.005 J-4.252 K0.000 F300.000
G1 X100.003 Y26.504 Z-7.500 F360.000
G2 X101.246 Y23.598 Z-7.500 I-3.008 J-3.006 K0.000 F300.000
G1 X101.250 Y11.500 Z-7.500 F300.000
G2 X97.098 Y7.254 Z-7.500 I-4.252 J0.005 K0.000 F300.000
G1 X-80.000 Y7.250 Z-7.500 F300.000
G2 X-81.250 Y8.500 Z-7.500 I-0.000 J1.250 K0.000 F300.000
G1 X-81.250 Y10.250 Z-7.500 F300.000
G1 X-88.750 Y10.250 Z-7.500 F300.000
G1 X-88.750 Y8.500 Z-7.500 F300.000
G2 X-90.000 Y7.250 Z-7.500 I-1.250 J-0.000 K0.000 F300.000
G1 X-97.000 Y7.250 Z-7.500 F300.000
G2 X-101.246 Y11.402 Z-7.500 I0.005 J4.252 K0.000 F300.000
G1 X-101.250 Y23.500 Z-7.500 F300.000
G2 X-97.098 Y27.746 Z-7.500 I4.252 J-0.005 K0.000 F300.000
G1 X-90.000 Y27.750 Z-7.500 F300.000
G2 X-88.750 Y26.500 Z-7.500 I0.000 J-1.250 K0.000 F300.000
G1 X-88.750 Y24.750 Z-7.500 F300.000
G1 X-81.250 Y24.750 Z-7.500 F300.000
G1 X-81.250 Y26.500 Z-7.500 F300.000
G2 X-80.000 Y27.750 Z-7.500 I1.250 J0.000 K0.000 F300.000
G1 X97.000 Y27.750 Z-7.500 F300.000
G2 X100.003 Y26.504 Z-7.500 I-0.005 J-4.252 K0.000 F300.000
G1 X100.003 Y26.504 Z-10.000 F360.000
G2 X101.246 Y23.598 Z-10.000 I-3.008 J-3.006 K0.000 F300.000
G1 X101.250 Y11.500 Z-10.000 F300.000
G2 X97.098 Y7.254 Z-10.000 I-4.252 J0.005 K0.000 F300.000
G1 X-80.000 Y7.250 Z-10.000 F300.000
G2 X-81.250 Y8.500 Z-10.000 I-0.000 J1.250 K0.000 F300.000
G1 X-81.250 Y10.250 Z-10.000 F300.000
G1 X-88.750 Y10.250 Z-10.000 F300.000
G1 X-88.750 Y8.500 Z-10.000 F300.000
G2 X-90.000 Y7.250 Z-10.000 I-1.250 J-0.000 K0.000 F300.000
G1 X-97.000 Y7.250 Z-10.000 F300.000
G2 X-101.246 Y11.402 Z-10.000 I0.005 J4.252 K0.000 F300.000
G1 X-101.250 Y23.500 Z-10.000 F300.000
G2 X-97.098 Y27.746 Z-10.000 I4.252 J-0.005 K0.000 F300.000
G1 X-90.000 Y27.750 Z-10.000 F300.000
G2 X-88.750 Y26.500 Z-10.000 I0.000 J-1.250 K0.000 F300.000
G1 X-88.750 Y24.750 Z-10.000 F300.000
G1 X-81.250 Y24.750 Z-10.000 F300.000
G1 X-81.250 Y26.500 Z-10.000 F300.000
G2 X-80.000 Y27.750 Z-10.000 I1.250 J0.000 K0.000 F300.000
G1 X97.000 Y27.750 Z-10.000 F300.000
G2 X100.003 Y26.504 Z-10.000 I-0.005 J-4.252 K0.000 F300.000
G1 X100.003 Y26.504 Z-12.500 F360.000
G2 X101.246 Y23.598 Z-12.500 I-3.008 J-3.006 K0.000 F300.000
G1 X101.250 Y11.500 Z-12.500 F300.000
G2 X97.098 Y7.254 Z-12.500 I-4.252 J0.005 K0.000 F300.000
G1 X-80.000 Y7.250 Z-12.500 F300.000
G2 X-81.250 Y8.500 Z-12.500 I-0.000 J1.250 K0.000 F300.000
G1 X-81.250 Y10.250 Z-12.500 F300.000
G1 X-88.750 Y10.250 Z-12.500 F300.000
G1 X-88.750 Y8.500 Z-12.500 F300.000
G2 X-90.000 Y7.250 Z-12.500 I-1.250 J-0.000 K0.000 F300.000
G1 X-97.000 Y7.250 Z-12.500 F300.000
G2 X-101.246 Y11.402 Z-12.500 I0.005 J4.252 K0.000 F300.000
G1 X-101.250 Y23.500 Z-12.500 F300.000
G2 X-97.098 Y27.746 Z-12.500 I4.252 J-0.005 K0.000 F300.000
G1 X-90.000 Y27.750 Z-12.500 F300.000
G2 X-88.750 Y26.500 Z-12.500 I0.000 J-1.250 K0.000 F300.000
G1 X-88.750 Y24.750 Z-12.500 F300.000
G1 X-81.250 Y24.750 Z-12.500 F300.000
G1 X-81.250 Y26.500 Z-12.500 F300.000
G2 X-80.000 Y27.750 Z-12.500 I1.250 J0.000 K0.000 F300.000
G1 X97.000 Y27.750 Z-12.500 F300.000
G2 X100.003 Y26.504 Z-12.500 I-0.005 J-4.252 K0.000 F300.000
G1 X100.003 Y26.504 Z-15.000 F360.000
G2 X101.246 Y23.598 Z-15.000 I-3.008 J-3.006 K0.000 F300.000
G1 X101.250 Y11.500 Z-15.000 F300.000
G2 X97.098 Y7.254 Z-15.000 I-4.252 J0.005 K0.000 F300.000
G1 X-80.000 Y7.250 Z-15.000 F300.000
G2 X-81.250 Y8.500 Z-15.000 I-0.000 J1.250 K0.000 F300.000
G1 X-81.250 Y10.250 Z-15.000 F300.000
G1 X-88.750 Y10.250 Z-15.000 F300.000
G1 X-88.750 Y8.500 Z-15.000 F300.000
G2 X-90.000 Y7.250 Z-15.000 I-1.250 J-0.000 K0.000 F300.000
G1 X-97.000 Y7.250 Z-15.000 F300.000
G2 X-101.246 Y11.402 Z-15.000 I0.005 J4.252 K0.000 F300.000
G1 X-101.250 Y23.500 Z-15.000 F300.000
G2 X-97.098 Y27.746 Z-15.000 I4.252 J-0.005 K0.000 F300.000
G1 X-90.000 Y27.750 Z-15.000 F300.000
G2 X-88.750 Y26.500 Z-15.000 I0.000 J-1.250 K0.000 F300.000
G1 X-88.750 Y24.750 Z-15.000 F300.000
G1 X-81.250 Y24.750 Z-15.000 F300.000
G1 X-81.250 Y26.500 Z-15.000 F300.000
G2 X-80.000 Y27.750 Z-15.000 I1.250 J0.000 K0.000 F300.000
G1 X97.000 Y27.750 Z-15.000 F300.000
G2 X100.003 Y26.504 Z-15.000 I-0.005 J-4.252 K0.000 F300.000
G1 X100.003 Y26.504 Z-17.500 F360.000
G2 X101.246 Y23.598 Z-17.500 I-3.008 J-3.006 K0.000 F300.000
G1 X101.250 Y11.500 Z-17.500 F300.000
G2 X97.098 Y7.254 Z-17.500 I-4.252 J0.005 K0.000 F300.000
G1 X-80.000 Y7.250 Z-17.500 F300.000
G2 X-81.250 Y8.500 Z-17.500 I-0.000 J1.250 K0.000 F300.000
G1 X-81.250 Y10.250 Z-17.500 F300.000
G1 X-88.750 Y10.250 Z-17.500 F300.000
G1 X-88.750 Y8.500 Z-17.500 F300.000
G2 X-90.000 Y7.250 Z-17.500 I-1.250 J-0.000 K0.000 F300.000
G1 X-97.000 Y7.250 Z-17.500 F300.000
G2 X-101.246 Y11.402 Z-17.500 I0.005 J4.252 K0.000 F300.000
G1 X-101.250 Y23.500 Z-17.500 F300.000
G2 X-97.098 Y27.746 Z-17.500 I4.252 J-0.005 K0.000 F300.000
G1 X-90.000 Y27.750 Z-17.500 F300.000
G2 X-88.750 Y26.500 Z-17.500 I0.000 J-1.250 K0.000 F300.000
G1 X-88.750 Y24.750 Z-17.500 F300.000
G1 X-81.250 Y24.750 Z-17.500 F300.000
G1 X-81.250 Y26.500 Z-17.500 F300.000
G2 X-80.000 Y27.750 Z-17.500 I1.250 J0.000 K0.000 F300.000
G1 X97.000 Y27.750 Z-17.500 F300.000
G2 X100.003 Y26.504 Z-17.500 I-0.005 J-4.252 K0.000 F300.000
G1 X100.003 Y26.504 Z-20.000 F360.000
G2 X101.246 Y23.598 Z-20.000 I-3.008 J-3.006 K0.000 F300.000
G1 X101.250 Y11.500 Z-20.000 F300.000
G2 X97.098 Y7.254 Z-20.000 I-4.252 J0.005 K0.000 F300.000
G1 X-80.000 Y7.250 Z-20.000 F300.000
G2 X-81.250 Y8.500 Z-20.000 I-0.000 J1.250 K0.000 F300.000
G1 X-81.250 Y10.250 Z-20.000 F300.000
G1 X-88.750 Y10.250 Z-20.000 F300.000
G1 X-88.750 Y8.500 Z-20.000 F300.000
G2 X-90.000 Y7.250 Z-20.000 I-1.250 J-0.000 K0.000 F300.000
G1 X-97.000 Y7.250 Z-20.000 F300.000
G2 X-101.246 Y11.402 Z-20.000 I0.005 J4.252 K0.000 F300.000
G1 X-101.250 Y23.500 Z-20.000 F300.000
G2 X-97.098 Y27.746 Z-20.000 I4.252 J-0.005 K0.000 F300.000
G1 X-90.000 Y27.750 Z-20.000 F300.000
G2 X-88.750 Y26.500 Z-20.000 I0.000 J-1.250 K0.000 F300.000
G1 X-88.750 Y24.750 Z-20.000 F300.000
G1 X-81.250 Y24.750 Z-20.000 F300.000
G1 X-81.250 Y26.500 Z-20.000 F300.000
G2 X-80.000 Y27.750 Z-20.000 I1.250 J0.000 K0.000 F300.000
G1 X97.000 Y27.750 Z-20.000 F300.000
G2 X100.003 Y26.504 Z-20.000 I-0.005 J-4.252 K0.000 F300.000
G1 X100.003 Y26.504 Z-22.000 F360.000
G2 X101.246 Y23.598 Z-22.000 I-3.008 J-3.006 K0.000 F300.000
G1 X101.250 Y11.500 Z-22.000 F300.000
G2 X97.098 Y7.254 Z-22.000 I-4.252 J0.005 K0.000 F300.000
G1 X-80.000 Y7.250 Z-22.000 F300.000
G2 X-81.250 Y8.500 Z-22.000 I-0.000 J1.250 K0.000 F300.000
G1 X-81.250 Y10.250 Z-22.000 F300.000
G1 X-88.750 Y10.250 Z-22.000 F300.000
G1 X-88.750 Y8.500 Z-22.000 F300.000
G2 X-90.000 Y7.250 Z-22.000 I-1.250 J-0.000 K0.000 F300.000
G1 X-97.000 Y7.250 Z-22.000 F300.000
G2 X-101.246 Y11.402 Z-22.000 I0.005 J4.252 K0.000 F300.000
G1 X-101.250 Y23.500 Z-22.000 F300.000
G2 X-97.098 Y27.746 Z-22.000 I4.252 J-0.005 K0.000 F300.000
G1 X-90.000 Y27.750 Z-22.000 F300.000
G2 X-88.750 Y26.500 Z-22.000 I0.000 J-1.250 K0.000 F300.000
G1 X-88.750 Y24.750 Z-22.000 F300.000
G1 X-81.250 Y24.750 Z-22.000 F300.000
G1 X-81.250 Y26.500 Z-22.000 F300.000
G2 X-80.000 Y27.750 Z-22.000 I1.250 J0.000 K0.000 F300.000
G1 X97.000 Y27.750 Z-22.000 F300.000
G2 X100.003 Y26.504 Z-22.000 I-0.005 J-4.252 K0.000 F300.000
G0 Z5.000
G0 Z5.000
(Finish operation: Profile004)
(Begin operation: Profile005)
(Path: Profile005)
(Profile005)
(Compensated Tool Path. Diameter: 2.5)
G0 Z5.000
G0 X119.353 Y4.199
G0 Z3.000
G1 X119.353 Y4.199 Z-2.500 F360.000
G2 X120.250 Y3.000 Z-2.500 I-0.353 J-1.199 K0.000 F300.000
G1 X120.250 Y-3.000 Z-2.500 F300.000
G2 X119.000 Y-4.250 Z-2.500 I-1.250 J-0.000 K0.000 F300.000
G1 X115.250 Y-4.250 Z-2.500 F300.000
G1 X115.250 Y-6.000 Z-2.500 F300.000
G2 X114.000 Y-7.250 Z-2.500 I-1.250 J-0.000 K0.000 F300.000
G1 X-114.000 Y-7.250 Z-2.500 F300.000
G2 X-115.250 Y-6.000 Z-2.500 I-0.000 J1.250 K0.000 F300.000
G1 X-115.250 Y-4.250 Z-2.500 F300.000
G1 X-119.000 Y-4.250 Z-2.500 F300.000
G2 X-120.250 Y-3.000 Z-2.500 I-0.000 J1.250 K0.000 F300.000
G1 X-120.250 Y3.000 Z-2.500 F300.000
G2 X-119.000 Y4.250 Z-2.500 I1.250 J0.000 K0.000 F300.000
G1 X-115.250 Y4.250 Z-2.500 F300.000
G1 X-115.250 Y6.000 Z-2.500 F300.000
G2 X-114.000 Y7.250 Z-2.500 I1.250 J0.000 K0.000 F300.000
G1 X114.000 Y7.250 Z-2.500 F300.000
G2 X115.250 Y6.000 Z-2.500 I0.000 J-1.250 K0.000 F300.000
G1 X115.250 Y4.250 Z-2.500 F300.000
G1 X119.000 Y4.250 Z-2.500 F300.000
G2 X119.353 Y4.199 Z-2.500 I0.000 J-1.250 K0.000 F300.000
G1 X119.353 Y4.199 Z-5.000 F360.000
G2 X120.250 Y3.000 Z-5.000 I-0.353 J-1.199 K0.000 F300.000
G1 X120.250 Y-3.000 Z-5.000 F300.000
G2 X119.000 Y-4.250 Z-5.000 I-1.250 J-0.000 K0.000 F300.000
G1 X115.250 Y-4.250 Z-5.000 F300.000
G1 X115.250 Y-6.000 Z-5.000 F300.000
G2 X114.000 Y-7.250 Z-5.000 I-1.250 J-0.000 K0.000 F300.000
G1 X-114.000 Y-7.250 Z-5.000 F300.000
G2 X-115.250 Y-6.000 Z-5.000 I-0.000 J1.250 K0.000 F300.000
G1 X-115.250 Y-4.250 Z-5.000 F300.000
G1 X-119.000 Y-4.250 Z-5.000 F300.000
G2 X-120.250 Y-3.000 Z-5.000 I-0.000 J1.250 K0.000 F300.000
G1 X-120.250 Y3.000 Z-5.000 F300.000
G2 X-119.000 Y4.250 Z-5.000 I1.250 J0.000 K0.000 F300.000
G1 X-115.250 Y4.250 Z-5.000 F300.000
G1 X-115.250 Y6.000 Z-5.000 F300.000
G2 X-114.000 Y7.250 Z-5.000 I1.250 J0.000 K0.000 F300.000
G1 X114.000 Y7.250 Z-5.000 F300.000
G2 X115.250 Y6.000 Z-5.000 I0.000 J-1.250 K0.000 F300.000
G1 X115.250 Y4.250 Z-5.000 F300.000
G1 X119.000 Y4.250 Z-5.000 F300.000
G2 X119.353 Y4.199 Z-5.000 I0.000 J-1.250 K0.000 F300.000
G1 X119.353 Y4.199 Z-7.500 F360.000
G2 X120.250 Y3.000 Z-7.500 I-0.353 J-1.199 K0.000 F300.000
G1 X120.250 Y-3.000 Z-7.500 F300.000
G2 X119.000 Y-4.250 Z-7.500 I-1.250 J-0.000 K0.000 F300.000
G1 X115.250 Y-4.250 Z-7.500 F300.000
G1 X115.250 Y-6.000 Z-7.500 F300.000
G2 X114.000 Y-7.250 Z-7.500 I-1.250 J-0.000 K0.000 F300.000
G1 X-114.000 Y-7.250 Z-7.500 F300.000
G2 X-115.250 Y-6.000 Z-7.500 I-0.000 J1.250 K0.000 F300.000
G1 X-115.250 Y-4.250 Z-7.500 F300.000
G1 X-119.000 Y-4.250 Z-7.500 F300.000
G2 X-120.250 Y-3.000 Z-7.500 I-0.000 J1.250 K0.000 F300.000
G1 X-120.250 Y3.000 Z-7.500 F300.000
G2 X-119.000 Y4.250 Z-7.500 I1.250 J0.000 K0.000 F300.000
G1 X-115.250 Y4.250 Z-7.500 F300.000
G1 X-115.250 Y6.000 Z-7.500 F300.000
G2 X-114.000 Y7.250 Z-7.500 I1.250 J0.000 K0.000 F300.000
G1 X114.000 Y7.250 Z-7.500 F300.000
G2 X115.250 Y6.000 Z-7.500 I0.000 J-1.250 K0.000 F300.000
G1 X115.250 Y4.250 Z-7.500 F300.000
G1 X119.000 Y4.250 Z-7.500 F300.000
G2 X119.353 Y4.199 Z-7.500 I0.000 J-1.250 K0.000 F300.000
G1 X119.353 Y4.199 Z-10.000 F360.000
G2 X120.250 Y3.000 Z-10.000 I-0.353 J-1.199 K0.000 F300.000
G1 X120.250 Y-3.000 Z-10.000 F300.000
G2 X119.000 Y-4.250 Z-10.000 I-1.250 J-0.000 K0.000 F300.000
G1 X115.250 Y-4.250 Z-10.000 F300.000
G1 X115.250 Y-6.000 Z-10.000 F300.000
G2 X114.000 Y-7.250 Z-10.000 I-1.250 J-0.000 K0.000 F300.000
G1 X-114.000 Y-7.250 Z-10.000 F300.000
G2 X-115.250 Y-6.000 Z-10.000 I-0.000 J1.250 K0.000 F300.000
G1 X-115.250 Y-4.250 Z-10.000 F300.000
G1 X-119.000 Y-4.250 Z-10.000 F300.000
G2 X-120.250 Y-3.000 Z-10.000 I-0.000 J1.250 K0.000 F300.000
G1 X-120.250 Y3.000 Z-10.000 F300.000
G2 X-119.000 Y4.250 Z-10.000 I1.250 J0.000 K0.000 F300.000
G1 X-115.250 Y4.250 Z-10.000 F300.000
G1 X-115.250 Y6.000 Z-10.000 F300.000
G2 X-114.000 Y7.250 Z-10.000 I1.250 J0.000 K0.000 F300.000
G1 X114.000 Y7.250 Z-10.000 F300.000
G2 X115.250 Y6.000 Z-10.000 I0.000 J-1.250 K0.000 F300.000
G1 X115.250 Y4.250 Z-10.000 F300.000
G1 X119.000 Y4.250 Z-10.000 F300.000
G2 X119.353 Y4.199 Z-10.000 I0.000 J-1.250 K0.000 F300.000
G1 X119.353 Y4.199 Z-12.500 F360.000
G2 X120.250 Y3.000 Z-12.500 I-0.353 J-1.199 K0.000 F300.000
G1 X120.250 Y-3.000 Z-12.500 F300.000
G2 X119.000 Y-4.250 Z-12.500 I-1.250 J-0.000 K0.000 F300.000
G1 X115.250 Y-4.250 Z-12.500 F300.000
G1 X115.250 Y-6.000 Z-12.500 F300.000
G2 X114.000 Y-7.250 Z-12.500 I-1.250 J-0.000 K0.000 F300.000
G1 X-114.000 Y-7.250 Z-12.500 F300.000
G2 X-115.250 Y-6.000 Z-12.500 I-0.000 J1.250 K0.000 F300.000
G1 X-115.250 Y-4.250 Z-12.500 F300.000
G1 X-119.000 Y-4.250 Z-12.500 F300.000
G2 X-120.250 Y-3.000 Z-12.500 I-0.000 J1.250 K0.000 F300.000
G1 X-120.250 Y3.000 Z-12.500 F300.000
G2 X-119.000 Y4.250 Z-12.500 I1.250 J0.000 K0.000 F300.000
G1 X-115.250 Y4.250 Z-12.500 F300.000
G1 X-115.250 Y6.000 Z-12.500 F300.000
G2 X-114.000 Y7.250 Z-12.500 I1.250 J0.000 K0.000 F300.000
G1 X114.000 Y7.250 Z-12.500 F300.000
G2 X115.250 Y6.000 Z-12.500 I0.000 J-1.250 K0.000 F300.000
G1 X115.250 Y4.250 Z-12.500 F300.000
G1 X119.000 Y4.250 Z-12.500 F300.000
G2 X119.353 Y4.199 Z-12.500 I0.000 J-1.250 K0.000 F300.000
G1 X119.353 Y4.199 Z-15.000 F360.000
G2 X120.250 Y3.000 Z-15.000 I-0.353 J-1.199 K0.000 F300.000
G1 X120.250 Y-3.000 Z-15.000 F300.000
G2 X119.000 Y-4.250 Z-15.000 I-1.250 J-0.000 K0.000 F300.000
G1 X115.250 Y-4.250 Z-15.000 F300.000
G1 X115.250 Y-6.000 Z-15.000 F300.000
G2 X114.000 Y-7.250 Z-15.000 I-1.250 J-0.000 K0.000 F300.000
G1 X-114.000 Y-7.250 Z-15.000 F300.000
G2 X-115.250 Y-6.000 Z-15.000 I-0.000 J1.250 K0.000 F300.000
G1 X-115.250 Y-4.250 Z-15.000 F300.000
G1 X-119.000 Y-4.250 Z-15.000 F300.000
G2 X-120.250 Y-3.000 Z-15.000 I-0.000 J1.250 K0.000 F300.000
G1 X-120.250 Y3.000 Z-15.000 F300.000
G2 X-119.000 Y4.250 Z-15.000 I1.250 J0.000 K0.000 F300.000
G1 X-115.250 Y4.250 Z-15.000 F300.000
G1 X-115.250 Y6.000 Z-15.000 F300.000
G2 X-114.000 Y7.250 Z-15.000 I1.250 J0.000 K0.000 F300.000
G1 X114.000 Y7.250 Z-15.000 F300.000
G2 X115.250 Y6.000 Z-15.000 I0.000 J-1.250 K0.000 F300.000
G1 X115.250 Y4.250 Z-15.000 F300.000
G1 X119.000 Y4.250 Z-15.000 F300.000
G2 X119.353 Y4.199 Z-15.000 I0.000 J-1.250 K0.000 F300.000
G1 X119.353 Y4.199 Z-17.500 F360.000
G2 X120.250 Y3.000 Z-17.500 I-0.353 J-1.199 K0.000 F300.000
G1 X120.250 Y-3.000 Z-17.500 F300.000
G2 X119.000 Y-4.250 Z-17.500 I-1.250 J-0.000 K0.000 F300.000
G1 X115.250 Y-4.250 Z-17.500 F300.000
G1 X115.250 Y-6.000 Z-17.500 F300.000
G2 X114.000 Y-7.250 Z-17.500 I-1.250 J-0.000 K0.000 F300.000
G1 X-114.000 Y-7.250 Z-17.500 F300.000
G2 X-115.250 Y-6.000 Z-17.500 I-0.000 J1.250 K0.000 F300.000
G1 X-115.250 Y-4.250 Z-17.500 F300.000
G1 X-119.000 Y-4.250 Z-17.500 F300.000
G2 X-120.250 Y-3.000 Z-17.500 I-0.000 J1.250 K0.000 F300.000
G1 X-120.250 Y3.000 Z-17.500 F300.000
G2 X-119.000 Y4.250 Z-17.500 I1.250 J0.000 K0.000 F300.000
G1 X-115.250 Y4.250 Z-17.500 F300.000
G1 X-115.250 Y6.000 Z-17.500 F300.000
G2 X-114.000 Y7.250 Z-17.500 I1.250 J0.000 K0.000 F300.000
G1 X114.000 Y7.250 Z-17.500 F300.000
G2 X115.250 Y6.000 Z-17.500 I0.000 J-1.250 K0.000 F300.000
G1 X115.250 Y4.250 Z-17.500 F300.000
G1 X119.000 Y4.250 Z-17.500 F300.000
G2 X119.353 Y4.199 Z-17.500 I0.000 J-1.250 K0.000 F300.000
G1 X119.353 Y4.199 Z-20.000 F360.000
G2 X120.250 Y3.000 Z-20.000 I-0.353 J-1.199 K0.000 F300.000
G1 X120.250 Y-3.000 Z-20.000 F300.000
G2 X119.000 Y-4.250 Z-20.000 I-1.250 J-0.000 K0.000 F300.000
G1 X115.250 Y-4.250 Z-20.000 F300.000
G1 X115.250 Y-6.000 Z-20.000 F300.000
G2 X114.000 Y-7.250 Z-20.000 I-1.250 J-0.000 K0.000 F300.000
G1 X-114.000 Y-7.250 Z-20.000 F300.000
G2 X-115.250 Y-6.000 Z-20.000 I-0.000 J1.250 K0.000 F300.000
G1 X-115.250 Y-4.250 Z-20.000 F300.000
G1 X-119.000 Y-4.250 Z-20.000 F300.000
G2 X-120.250 Y-3.000 Z-20.000 I-0.000 J1.250 K0.000 F300.000
G1 X-120.250 Y3.000 Z-20.000 F300.000
G2 X-119.000 Y4.250 Z-20.000 I1.250 J0.000 K0.000 F300.000
G1 X-115.250 Y4.250 Z-20.000 F300.000
G1 X-115.250 Y6.000 Z-20.000 F300.000
G2 X-114.000 Y7.250 Z-20.000 I1.250 J0.000 K0.000 F300.000
G1 X114.000 Y7.250 Z-20.000 F300.000
G2 X115.250 Y6.000 Z-20.000 I0.000 J-1.250 K0.000 F300.000
G1 X115.250 Y4.250 Z-20.000 F300.000
G1 X119.000 Y4.250 Z-20.000 F300.000
G2 X119.353 Y4.199 Z-20.000 I0.000 J-1.250 K0.000 F300.000
G1 X119.353 Y4.199 Z-22.000 F360.000
G2 X120.250 Y3.000 Z-22.000 I-0.353 J-1.199 K0.000 F300.000
G1 X120.250 Y-3.000 Z-22.000 F300.000
G2 X119.000 Y-4.250 Z-22.000 I-1.250 J-0.000 K0.000 F300.000
G1 X115.250 Y-4.250 Z-22.000 F300.000
G1 X115.250 Y-6.000 Z-22.000 F300.000
G2 X114.000 Y-7.250 Z-22.000 I-1.250 J-0.000 K0.000 F300.000
G1 X-114.000 Y-7.250 Z-22.000 F300.000
G2 X-115.250 Y-6.000 Z-22.000 I-0.000 J1.250 K0.000 F300.000
G1 X-115.250 Y-4.250 Z-22.000 F300.000
G1 X-119.000 Y-4.250 Z-22.000 F300.000
G2 X-120.250 Y-3.000 Z-22.000 I-0.000 J1.250 K0.000 F300.000
G1 X-120.250 Y3.000 Z-22.000 F300.000
G2 X-119.000 Y4.250 Z-22.000 I1.250 J0.000 K0.000 F300.000
G1 X-115.250 Y4.250 Z-22.000 F300.000
G1 X-115.250 Y6.000 Z-22.000 F300.000
G2 X-114.000 Y7.250 Z-22.000 I1.250 J0.000 K0.000 F300.000
G1 X114.000 Y7.250 Z-22.000 F300.000
G2 X115.250 Y6.000 Z-22.000 I0.000 J-1.250 K0.000 F300.000
G1 X115.250 Y4.250 Z-22.000 F300.000
G1 X119.000 Y4.250 Z-22.000 F300.000
G2 X119.353 Y4.199 Z-22.000 I0.000 J-1.250 K0.000 F300.000
G0 Z5.000
G0 Z5.000
(Finish operation: Profile005)
(Begin postamble)
M5
G17 G90
M2
