(Exported by FreeCAD)
(Post Processor: script_module)
(Output Time:2026-07-21 17:20:18.966935)
(Begin preamble)
G17 G90
G21
(Begin operation: Fixture)
(Path: Fixture)
G54
(Finish operation: Fixture)
(Begin operation: 3175mm001)
(Path: 3175mm001)
(3175mm001)
(Begin toolchange)
( M6 T2 )
M3 S10000
(Finish operation: 3175mm001)
(Begin operation: Profile)
(Path: Profile)
(Profile)
(Compensated Tool Path. Diameter: 3.17)
G0 Z10.000
G0 X0.000 Y0.000
G0 Y9.085
G0 Y9.085 Z8.000
G1 X0.000 Y9.085 Z-1.500 F180.000
G1 X-40.000 Y9.085 Z-1.500 F180.000
G3 X-41.238 Y8.490 Z-1.500 I-0.000 J-1.585 K0.000 F180.000
G1 X-61.238 Y-16.510 Z-1.500 F180.000
G3 X-60.000 Y-19.085 Z-1.500 I1.238 J-0.990 K0.000 F180.000
G1 X55.000 Y-19.085 Z-1.500 F180.000
G3 X56.121 Y-18.621 Z-1.500 I0.000 J1.585 K0.000 F180.000
G1 X61.121 Y-13.621 Z-1.500 F180.000
G3 X61.585 Y-12.500 Z-1.500 I-1.121 J1.121 K0.000 F180.000
G1 X61.585 Y-6.100 Z-1.500 F180.000
G3 X60.000 Y-4.515 Z-1.500 I-1.585 J-0.000 K0.000 F180.000
G1 X40.911 Y-4.515 Z-1.500 F180.000
G1 X38.280 Y0.000 Z-1.500 F180.000
G1 X40.911 Y4.515 Z-1.500 F180.000
G1 X60.000 Y4.515 Z-1.500 F180.000
G3 X61.585 Y6.100 Z-1.500 I-0.000 J1.585 K0.000 F180.000
G1 X61.585 Y12.500 Z-1.500 F180.000
G3 X61.121 Y13.621 Z-1.500 I-1.585 J0.000 K0.000 F180.000
G1 X56.121 Y18.621 Z-1.500 F180.000
G3 X55.000 Y19.085 Z-1.500 I-1.121 J-1.121 K0.000 F180.000
G1 X20.000 Y19.085 Z-1.500 F180.000
G3 X18.879 Y18.621 Z-1.500 I-0.000 J-1.585 K0.000 F180.000
G1 X9.343 Y9.085 Z-1.500 F180.000
G1 X0.000 Y9.085 Z-1.500 F180.000
G1 X0.000 Y9.085 Z-3.500 F180.000
G1 X-40.000 Y9.085 Z-3.500 F180.000
G3 X-41.238 Y8.490 Z-3.500 I-0.000 J-1.585 K0.000 F180.000
G1 X-61.238 Y-16.510 Z-3.500 F180.000
G3 X-60.000 Y-19.085 Z-3.500 I1.238 J-0.990 K0.000 F180.000
G1 X55.000 Y-19.085 Z-3.500 F180.000
G3 X56.121 Y-18.621 Z-3.500 I0.000 J1.585 K0.000 F180.000
G1 X61.121 Y-13.621 Z-3.500 F180.000
G3 X61.585 Y-12.500 Z-3.500 I-1.121 J1.121 K0.000 F180.000
G1 X61.585 Y-6.100 Z-3.500 F180.000
G3 X60.000 Y-4.515 Z-3.500 I-1.585 J-0.000 K0.000 F180.000
G1 X40.911 Y-4.515 Z-3.500 F180.000
G1 X38.280 Y0.000 Z-3.500 F180.000
G1 X40.911 Y4.515 Z-3.500 F180.000
G1 X60.000 Y4.515 Z-3.500 F180.000
G3 X61.585 Y6.100 Z-3.500 I-0.000 J1.585 K0.000 F180.000
G1 X61.585 Y12.500 Z-3.500 F180.000
G3 X61.121 Y13.621 Z-3.500 I-1.585 J0.000 K0.000 F180.000
G1 X56.121 Y18.621 Z-3.500 F180.000
G3 X55.000 Y19.085 Z-3.500 I-1.121 J-1.121 K0.000 F180.000
G1 X20.000 Y19.085 Z-3.500 F180.000
G3 X18.879 Y18.621 Z-3.500 I-0.000 J-1.585 K0.000 F180.000
G1 X9.343 Y9.085 Z-3.500 F180.000
G1 X0.000 Y9.085 Z-3.500 F180.000
G1 X0.000 Y9.085 Z-5.500 F180.000
G1 X-40.000 Y9.085 Z-5.500 F180.000
G3 X-41.238 Y8.490 Z-5.500 I-0.000 J-1.585 K0.000 F180.000
G1 X-61.238 Y-16.510 Z-5.500 F180.000
G3 X-60.000 Y-19.085 Z-5.500 I1.238 J-0.990 K0.000 F180.000
G1 X55.000 Y-19.085 Z-5.500 F180.000
G3 X56.121 Y-18.621 Z-5.500 I0.000 J1.585 K0.000 F180.000
G1 X61.121 Y-13.621 Z-5.500 F180.000
G3 X61.585 Y-12.500 Z-5.500 I-1.121 J1.121 K0.000 F180.000
G1 X61.585 Y-6.100 Z-5.500 F180.000
G3 X60.000 Y-4.515 Z-5.500 I-1.585 J-0.000 K0.000 F180.000
G1 X40.911 Y-4.515 Z-5.500 F180.000
G1 X38.280 Y0.000 Z-5.500 F180.000
G1 X40.911 Y4.515 Z-5.500 F180.000
G1 X60.000 Y4.515 Z-5.500 F180.000
G3 X61.585 Y6.100 Z-5.500 I-0.000 J1.585 K0.000 F180.000
G1 X61.585 Y12.500 Z-5.500 F180.000
G3 X61.121 Y13.621 Z-5.500 I-1.585 J0.000 K0.000 F180.000
G1 X56.121 Y18.621 Z-5.500 F180.000
G3 X55.000 Y19.085 Z-5.500 I-1.121 J-1.121 K0.000 F180.000
G1 X20.000 Y19.085 Z-5.500 F180.000
G3 X18.879 Y18.621 Z-5.500 I-0.000 J-1.585 K0.000 F180.000
G1 X9.343 Y9.085 Z-5.500 F180.000
G1 X0.000 Y9.085 Z-5.500 F180.000
G0 Z10.000
G0 Z10.000
(Finish operation: Profile)
(Begin postamble)
M5
G17 G90
M2
