(Exported by FreeCAD)
(Post Processor: script_module)
(Output Time:2025-02-25 11:29:23.601941)
(Begin preamble)
G17 G90
G21
(Begin operation: Fixture)
(Path: Fixture)
G54
(Finish operation: Fixture)
(Begin operation: 2mm_Endmill001)
(Path: 2mm_Endmill001)
(2mm_Endmill001)
(Begin toolchange)
( M6 T2 )
M3 S15000
(Finish operation: 2mm_Endmill001)
(Begin operation: Pocket_Shape)
(Path: Pocket_Shape)
(Pocket_Shape)
G0 Z15.000
G0 X15.218 Y6.932
G0 Z13.000
G1 X15.218 Y6.932 Z8.000 F900.000
G3 X16.469 Y11.013 Z8.000 I-2.711 J3.064 K0.000 F6000.000
G1 X11.487 Y6.031 Z8.000 F6000.000
G2 X9.672 Y7.043 Z8.000 I0.936 J3.814 K0.000 F6000.000
G1 X15.457 Y12.828 Z8.000 F6000.000
G3 X13.708 Y13.908 Z8.000 I-2.836 J-2.636 K0.000 F6000.000
G1 X8.592 Y8.792 Z8.000 F6000.000
G2 X8.867 Y11.896 Z8.000 I3.860 J1.221 K0.000 F6000.000
G1 X10.604 Y13.633 Z8.000 F6000.000
G3 X8.869 Y8.099 Z8.000 I1.896 J-3.633 K0.000 F6000.000
G3 X14.405 Y6.371 Z8.000 I3.631 J1.900 K0.000 F6000.000
G3 X10.595 Y13.629 Z8.000 I-1.905 J3.629 K0.000 F6000.000
G3 X8.867 Y11.896 Z8.000 I1.900 J-3.623 K0.000 F6000.000
G1 X8.867 Y11.896 Z6.000 F900.000
G2 X10.595 Y13.629 Z6.000 I3.628 J-1.890 K0.000 F6000.000
G2 X14.405 Y6.371 Z6.000 I1.905 J-3.629 K0.000 F6000.000
G2 X8.869 Y8.099 Z6.000 I-1.905 J3.628 K0.000 F6000.000
G2 X10.604 Y13.633 Z6.000 I3.631 J1.900 K0.000 F6000.000
G1 X8.867 Y11.896 Z6.000 F6000.000
G3 X8.592 Y8.792 Z6.000 I3.584 J-1.883 K0.000 F6000.000
G1 X13.708 Y13.908 Z6.000 F6000.000
G2 X15.457 Y12.828 Z6.000 I-1.087 J-3.716 K0.000 F6000.000
G1 X9.672 Y7.043 Z6.000 F6000.000
G3 X11.487 Y6.031 Z6.000 I2.752 J2.801 K0.000 F6000.000
G1 X16.469 Y11.013 Z6.000 F6000.000
G2 X15.218 Y6.932 Z6.000 I-3.963 J-1.016 K0.000 F6000.000
G1 X15.218 Y6.932 Z4.000 F900.000
G3 X16.469 Y11.013 Z4.000 I-2.711 J3.064 K0.000 F6000.000
G1 X11.487 Y6.031 Z4.000 F6000.000
G2 X9.672 Y7.043 Z4.000 I0.936 J3.814 K0.000 F6000.000
G1 X15.457 Y12.828 Z4.000 F6000.000
G3 X13.708 Y13.908 Z4.000 I-2.836 J-2.636 K0.000 F6000.000
G1 X8.592 Y8.792 Z4.000 F6000.000
G2 X8.867 Y11.896 Z4.000 I3.860 J1.221 K0.000 F6000.000
G1 X10.604 Y13.633 Z4.000 F6000.000
G3 X8.869 Y8.099 Z4.000 I1.896 J-3.633 K0.000 F6000.000
G3 X14.405 Y6.371 Z4.000 I3.631 J1.900 K0.000 F6000.000
G3 X10.595 Y13.629 Z4.000 I-1.905 J3.629 K0.000 F6000.000
G3 X8.867 Y11.896 Z4.000 I1.900 J-3.623 K0.000 F6000.000
G1 X8.867 Y11.896 Z2.000 F900.000
G2 X10.595 Y13.629 Z2.000 I3.628 J-1.890 K0.000 F6000.000
G2 X14.405 Y6.371 Z2.000 I1.905 J-3.629 K0.000 F6000.000
G2 X8.869 Y8.099 Z2.000 I-1.905 J3.628 K0.000 F6000.000
G2 X10.604 Y13.633 Z2.000 I3.631 J1.900 K0.000 F6000.000
G1 X8.867 Y11.896 Z2.000 F6000.000
G3 X8.592 Y8.792 Z2.000 I3.584 J-1.883 K0.000 F6000.000
G1 X13.708 Y13.908 Z2.000 F6000.000
G2 X15.457 Y12.828 Z2.000 I-1.087 J-3.716 K0.000 F6000.000
G1 X9.672 Y7.043 Z2.000 F6000.000
G3 X11.487 Y6.031 Z2.000 I2.752 J2.801 K0.000 F6000.000
G1 X16.469 Y11.013 Z2.000 F6000.000
G2 X15.218 Y6.932 Z2.000 I-3.963 J-1.016 K0.000 F6000.000
G1 X15.218 Y6.932 Z0.000 F900.000
G3 X16.469 Y11.013 Z0.000 I-2.711 J3.064 K0.000 F6000.000
G1 X11.487 Y6.031 Z0.000 F6000.000
G2 X9.672 Y7.043 Z0.000 I0.936 J3.814 K0.000 F6000.000
G1 X15.457 Y12.828 Z0.000 F6000.000
G3 X13.708 Y13.908 Z0.000 I-2.836 J-2.636 K0.000 F6000.000
G1 X8.592 Y8.792 Z0.000 F6000.000
G2 X8.867 Y11.896 Z0.000 I3.860 J1.221 K0.000 F6000.000
G1 X10.604 Y13.633 Z0.000 F6000.000
G3 X8.869 Y8.099 Z0.000 I1.896 J-3.633 K0.000 F6000.000
G3 X14.405 Y6.371 Z0.000 I3.631 J1.900 K0.000 F6000.000
G3 X10.595 Y13.629 Z0.000 I-1.905 J3.629 K0.000 F6000.000
G3 X8.867 Y11.896 Z0.000 I1.900 J-3.623 K0.000 F6000.000
G0 Z15.000
G0 Z15.000
G0 X8.867 Y11.896
G0 X12.413 Y49.084
G0 X12.413 Y49.084 Z13.000
G1 X12.413 Y49.084 Z8.000 F900.000
G3 X13.265 Y49.489 Z8.000 I0.087 J0.916 K0.000 F6000.000
G3 X11.735 Y50.511 Z8.000 I-0.765 J0.511 K0.000 F6000.000
G3 X13.265 Y49.489 Z8.000 I0.765 J-0.511 K0.000 F6000.000
G3 X13.011 Y50.765 Z8.000 I-0.765 J0.511 K0.000 F6000.000
G3 X11.735 Y50.511 Z8.000 I-0.511 J-0.765 K0.000 F6000.000
G3 X12.413 Y49.084 Z8.000 I0.765 J-0.511 K0.000 F6000.000
G1 X12.413 Y49.084 Z6.000 F900.000
G3 X13.265 Y49.489 Z6.000 I0.087 J0.916 K0.000 F6000.000
G3 X13.011 Y50.765 Z6.000 I-0.765 J0.511 K0.000 F6000.000
G3 X11.735 Y50.511 Z6.000 I-0.511 J-0.765 K0.000 F6000.000
G3 X11.989 Y49.235 Z6.000 I0.765 J-0.511 K0.000 F6000.000
G3 X13.265 Y49.489 Z6.000 I0.511 J0.765 K0.000 F6000.000
G3 X11.735 Y50.511 Z6.000 I-0.765 J0.511 K0.000 F6000.000
G3 X12.413 Y49.084 Z6.000 I0.765 J-0.511 K0.000 F6000.000
G1 X12.413 Y49.084 Z4.000 F900.000
G3 X13.265 Y49.489 Z4.000 I0.087 J0.916 K0.000 F6000.000
G3 X13.011 Y50.765 Z4.000 I-0.765 J0.511 K0.000 F6000.000
G3 X11.735 Y50.511 Z4.000 I-0.511 J-0.765 K0.000 F6000.000
G3 X11.989 Y49.235 Z4.000 I0.765 J-0.511 K0.000 F6000.000
G3 X13.265 Y49.489 Z4.000 I0.511 J0.765 K0.000 F6000.000
G3 X11.735 Y50.511 Z4.000 I-0.765 J0.511 K0.000 F6000.000
G3 X12.413 Y49.084 Z4.000 I0.765 J-0.511 K0.000 F6000.000
G1 X12.413 Y49.084 Z2.000 F900.000
G3 X13.265 Y49.489 Z2.000 I0.087 J0.916 K0.000 F6000.000
G3 X13.011 Y50.765 Z2.000 I-0.765 J0.511 K0.000 F6000.000
G3 X11.735 Y50.511 Z2.000 I-0.511 J-0.765 K0.000 F6000.000
G3 X11.989 Y49.235 Z2.000 I0.765 J-0.511 K0.000 F6000.000
G3 X13.265 Y49.489 Z2.000 I0.511 J0.765 K0.000 F6000.000
G3 X11.735 Y50.511 Z2.000 I-0.765 J0.511 K0.000 F6000.000
G3 X12.413 Y49.084 Z2.000 I0.765 J-0.511 K0.000 F6000.000
G1 X12.413 Y49.084 Z0.000 F900.000
G3 X13.265 Y49.489 Z0.000 I0.087 J0.916 K0.000 F6000.000
G3 X13.011 Y50.765 Z0.000 I-0.765 J0.511 K0.000 F6000.000
G3 X11.735 Y50.511 Z0.000 I-0.511 J-0.765 K0.000 F6000.000
G3 X11.989 Y49.235 Z0.000 I0.765 J-0.511 K0.000 F6000.000
G3 X13.265 Y49.489 Z0.000 I0.511 J0.765 K0.000 F6000.000
G3 X11.735 Y50.511 Z0.000 I-0.765 J0.511 K0.000 F6000.000
G3 X12.413 Y49.084 Z0.000 I0.765 J-0.511 K0.000 F6000.000
G0 Z15.000
G0 Z15.000
(Finish operation: Pocket_Shape)
(Begin operation: Profile)
(Path: Profile)
(Profile)
(Compensated Tool Path. Diameter: 2.0)
G0 Z15.000
G0 X22.046 Y59.545
G0 Z13.000
G1 X22.046 Y59.545 Z8.000 F900.000
G2 X25.999 Y50.039 Z8.000 I-9.546 J-9.545 K0.000 F6000.000
G1 X26.000 Y3.000 Z8.000 F6000.000
G2 X22.078 Y-0.997 Z8.000 I-4.002 J0.004 K0.000 F6000.000
G1 X3.000 Y-1.000 Z8.000 F6000.000
G2 X-0.997 Y2.922 Z8.000 I0.004 J4.002 K0.000 F6000.000
G1 X-1.000 Y50.000 Z8.000 F6000.000
G2 X22.046 Y59.545 Z8.000 I13.500 J-0.000 K0.000 F6000.000
G1 X22.046 Y59.545 Z6.000 F900.000
G2 X25.999 Y50.039 Z6.000 I-9.546 J-9.545 K0.000 F6000.000
G1 X26.000 Y3.000 Z6.000 F6000.000
G2 X22.078 Y-0.997 Z6.000 I-4.002 J0.004 K0.000 F6000.000
G1 X3.000 Y-1.000 Z6.000 F6000.000
G2 X-0.997 Y2.922 Z6.000 I0.004 J4.002 K0.000 F6000.000
G1 X-1.000 Y50.000 Z6.000 F6000.000
G2 X22.046 Y59.545 Z6.000 I13.500 J-0.000 K0.000 F6000.000
G1 X22.046 Y59.545 Z4.000 F900.000
G2 X25.999 Y50.039 Z4.000 I-9.546 J-9.545 K0.000 F6000.000
G1 X26.000 Y3.000 Z4.000 F6000.000
G2 X22.078 Y-0.997 Z4.000 I-4.002 J0.004 K0.000 F6000.000
G1 X3.000 Y-1.000 Z4.000 F6000.000
G2 X-0.997 Y2.922 Z4.000 I0.004 J4.002 K0.000 F6000.000
G1 X-1.000 Y50.000 Z4.000 F6000.000
G2 X22.046 Y59.545 Z4.000 I13.500 J-0.000 K0.000 F6000.000
G1 X22.046 Y59.545 Z2.000 F900.000
G2 X25.999 Y50.039 Z2.000 I-9.546 J-9.545 K0.000 F6000.000
G1 X26.000 Y3.000 Z2.000 F6000.000
G2 X22.078 Y-0.997 Z2.000 I-4.002 J0.004 K0.000 F6000.000
G1 X3.000 Y-1.000 Z2.000 F6000.000
G2 X-0.997 Y2.922 Z2.000 I0.004 J4.002 K0.000 F6000.000
G1 X-1.000 Y50.000 Z2.000 F6000.000
G2 X22.046 Y59.545 Z2.000 I13.500 J-0.000 K0.000 F6000.000
G1 X22.046 Y59.545 Z0.000 F900.000
G2 X25.999 Y50.039 Z0.000 I-9.546 J-9.545 K0.000 F6000.000
G1 X26.000 Y3.000 Z0.000 F6000.000
G2 X22.078 Y-0.997 Z0.000 I-4.002 J0.004 K0.000 F6000.000
G1 X3.000 Y-1.000 Z0.000 F6000.000
G2 X-0.997 Y2.922 Z0.000 I0.004 J4.002 K0.000 F6000.000
G1 X-1.000 Y50.000 Z0.000 F6000.000
G2 X22.046 Y59.545 Z0.000 I13.500 J-0.000 K0.000 F6000.000
G0 Z15.000
G0 Z15.000
(Finish operation: Profile)
(Begin postamble)
M5
G17 G90
M2
