(Exported by FreeCAD)
(Post Processor: script_module)
(Output Time:2025-10-09 18:08:48.244127)
(Begin preamble)
G17 G90
G21
(Begin operation: Fixture)
(Path: Fixture)
G54
(Finish operation: Fixture)
(Begin operation: 3mm_Endmill001)
(Path: 3mm_Endmill001)
(3mm_Endmill001)
(Begin toolchange)
( M6 T2 )
M3 S10000
(Finish operation: 3mm_Endmill001)
(Begin operation: Profile)
(Path: Profile)
(Profile)
(Compensated Tool Path. Diameter: 3.0)
G0 Z5.000
G0 X0.000 Y0.000
G0 X-18.655
G0 X-18.655 Z3.000
G1 X-18.655 Y-0.000 Z-3.000 F600.000
G2 X-19.681 Y-1.307 Z-3.000 I-1.345 J0.000 K0.000 F600.000
G2 X-21.307 Y-0.319 Z-3.000 I-0.319 J1.307 K0.000 F600.000
G2 X-20.319 Y1.307 Z-3.000 I1.307 J0.319 K0.000 F600.000
G2 X-18.655 Y-0.000 Z-3.000 I0.319 J-1.307 K0.000 F600.000
G1 X-18.655 Y-0.000 Z-6.000 F600.000
G2 X-19.681 Y-1.307 Z-6.000 I-1.345 J0.000 K0.000 F600.000
G2 X-21.307 Y-0.319 Z-6.000 I-0.319 J1.307 K0.000 F600.000
G2 X-20.319 Y1.307 Z-6.000 I1.307 J0.319 K0.000 F600.000
G2 X-18.655 Y-0.000 Z-6.000 I0.319 J-1.307 K0.000 F600.000
G1 X-18.655 Y-0.000 Z-9.000 F600.000
G2 X-19.681 Y-1.307 Z-9.000 I-1.345 J0.000 K0.000 F600.000
G2 X-21.307 Y-0.319 Z-9.000 I-0.319 J1.307 K0.000 F600.000
G2 X-20.319 Y1.307 Z-9.000 I1.307 J0.319 K0.000 F600.000
G2 X-18.655 Y-0.000 Z-9.000 I0.319 J-1.307 K0.000 F600.000
G1 X-18.655 Y-0.000 Z-10.000 F600.000
G2 X-19.681 Y-1.307 Z-10.000 I-1.345 J0.000 K0.000 F600.000
G2 X-21.307 Y-0.319 Z-10.000 I-0.319 J1.307 K0.000 F600.000
G2 X-20.319 Y1.307 Z-10.000 I1.307 J0.319 K0.000 F600.000
G2 X-18.655 Y-0.000 Z-10.000 I0.319 J-1.307 K0.000 F600.000
G0 Z5.000
G0 Z5.000
(Finish operation: Profile)
(Begin operation: Profile001)
(Path: Profile001)
(Profile001)
(Compensated Tool Path. Diameter: 3.0)
G0 Z5.000
G0 X0.000 Y0.000
G0 X-3.501
G0 X-3.501 Z3.000
G1 X-3.501 Y0.000 Z-3.000 F600.000
G2 X-17.599 Y-16.323 Z-3.000 I-16.499 J0.000 K0.000 F600.000
G2 X-36.323 Y-2.401 Z-3.000 I-2.401 J16.323 K0.000 F600.000
G2 X-22.401 Y16.323 Z-3.000 I16.323 J2.401 K0.000 F600.000
G2 X-3.501 Y0.000 Z-3.000 I2.401 J-16.323 K0.000 F600.000
G1 X-3.501 Y0.000 Z-6.000 F600.000
G2 X-17.599 Y-16.323 Z-6.000 I-16.499 J0.000 K0.000 F600.000
G2 X-36.323 Y-2.401 Z-6.000 I-2.401 J16.323 K0.000 F600.000
G2 X-22.401 Y16.323 Z-6.000 I16.323 J2.401 K0.000 F600.000
G2 X-3.501 Y0.000 Z-6.000 I2.401 J-16.323 K0.000 F600.000
G1 X-3.501 Y0.000 Z-9.000 F600.000
G2 X-17.599 Y-16.323 Z-9.000 I-16.499 J0.000 K0.000 F600.000
G2 X-36.323 Y-2.401 Z-9.000 I-2.401 J16.323 K0.000 F600.000
G2 X-22.401 Y16.323 Z-9.000 I16.323 J2.401 K0.000 F600.000
G2 X-3.501 Y0.000 Z-9.000 I2.401 J-16.323 K0.000 F600.000
G1 X-3.501 Y0.000 Z-10.000 F600.000
G2 X-17.599 Y-16.323 Z-10.000 I-16.499 J0.000 K0.000 F600.000
G2 X-36.323 Y-2.401 Z-10.000 I-2.401 J16.323 K0.000 F600.000
G2 X-22.401 Y16.323 Z-10.000 I16.323 J2.401 K0.000 F600.000
G2 X-3.501 Y0.000 Z-10.000 I2.401 J-16.323 K0.000 F600.000
G0 Z5.000
G0 Z5.000
(Finish operation: Profile001)
(Begin operation: Profile002)
(Path: Profile002)
(Profile002)
(Compensated Tool Path. Diameter: 3.0)
G0 Z5.000
G0 X0.000 Y0.000
G0 X13.655 Y0.000
G0 X13.655 Y0.000 Z3.000
G1 X13.655 Y0.000 Z-3.000 F600.000
G2 X14.681 Y1.307 Z-3.000 I1.345 J0.000 K0.000 F600.000
G2 X15.330 Y-1.304 Z-3.000 I0.319 J-1.307 K0.000 F600.000
G1 X15.108 Y-1.341 Z-3.000 F600.000
G2 X13.655 Y0.000 Z-3.000 I-0.108 J1.341 K0.000 F600.000
G1 X13.655 Y0.000 Z-6.000 F600.000
G2 X14.681 Y1.307 Z-6.000 I1.345 J0.000 K0.000 F600.000
G2 X15.330 Y-1.304 Z-6.000 I0.319 J-1.307 K0.000 F600.000
G1 X15.108 Y-1.341 Z-6.000 F600.000
G2 X13.655 Y0.000 Z-6.000 I-0.108 J1.341 K0.000 F600.000
G1 X13.655 Y0.000 Z-9.000 F600.000
G2 X14.681 Y1.307 Z-9.000 I1.345 J0.000 K0.000 F600.000
G2 X15.330 Y-1.304 Z-9.000 I0.319 J-1.307 K0.000 F600.000
G1 X15.108 Y-1.341 Z-9.000 F600.000
G2 X13.655 Y0.000 Z-9.000 I-0.108 J1.341 K0.000 F600.000
G1 X13.655 Y0.000 Z-10.000 F600.000
G2 X14.681 Y1.307 Z-10.000 I1.345 J0.000 K0.000 F600.000
G2 X15.330 Y-1.304 Z-10.000 I0.319 J-1.307 K0.000 F600.000
G1 X15.108 Y-1.341 Z-10.000 F600.000
G2 X13.655 Y0.000 Z-10.000 I-0.108 J1.341 K0.000 F600.000
G0 Z5.000
G0 Z5.000
(Finish operation: Profile002)
(Begin operation: Profile003)
(Path: Profile003)
(Profile003)
(Compensated Tool Path. Diameter: 3.0)
G0 Z5.000
G0 X0.000 Y0.000
G0 X43.655 Y0.000
G0 X43.655 Y0.000 Z3.000
G1 X43.655 Y0.000 Z-3.000 F600.000
G2 X44.892 Y1.341 Z-3.000 I1.345 J0.000 K0.000 F600.000
G2 X45.114 Y-1.340 Z-3.000 I0.108 J-1.341 K0.000 F600.000
G2 X43.655 Y0.000 Z-3.000 I-0.114 J1.340 K0.000 F600.000
G1 X43.655 Y0.000 Z-6.000 F600.000
G2 X44.892 Y1.341 Z-6.000 I1.345 J0.000 K0.000 F600.000
G2 X45.114 Y-1.340 Z-6.000 I0.108 J-1.341 K0.000 F600.000
G2 X43.655 Y0.000 Z-6.000 I-0.114 J1.340 K0.000 F600.000
G1 X43.655 Y0.000 Z-9.000 F600.000
G2 X44.892 Y1.341 Z-9.000 I1.345 J0.000 K0.000 F600.000
G2 X45.114 Y-1.340 Z-9.000 I0.108 J-1.341 K0.000 F600.000
G2 X43.655 Y0.000 Z-9.000 I-0.114 J1.340 K0.000 F600.000
G1 X43.655 Y0.000 Z-10.000 F600.000
G2 X44.892 Y1.341 Z-10.000 I1.345 J0.000 K0.000 F600.000
G2 X45.114 Y-1.340 Z-10.000 I0.108 J-1.341 K0.000 F600.000
G2 X43.655 Y0.000 Z-10.000 I-0.114 J1.340 K0.000 F600.000
G0 Z5.000
G0 Z5.000
(Finish operation: Profile003)
(Begin operation: Profile004)
(Path: Profile004)
(Profile004)
(Compensated Tool Path. Diameter: 3.0)
G0 Z5.000
G0 X0.000 Y0.000
G0 X-1.499 Y0.000
G0 X-1.499 Y0.000 Z3.000
G1 X-1.499 Y0.000 Z-3.000 F600.000
G2 X14.946 Y16.499 Z-3.000 I16.500 J-0.000 K0.000 F600.000
G1 X45.000 Y16.500 Z-3.000 F600.000
G2 X45.054 Y-16.499 Z-3.000 I-0.000 J-16.500 K0.000 F600.000
G1 X15.000 Y-16.500 Z-3.000 F600.000
G2 X-1.499 Y0.000 Z-3.000 I0.000 J16.500 K0.000 F600.000
G1 X-1.499 Y0.000 Z-6.000 F600.000
G2 X14.946 Y16.499 Z-6.000 I16.500 J-0.000 K0.000 F600.000
G1 X45.000 Y16.500 Z-6.000 F600.000
G2 X45.054 Y-16.499 Z-6.000 I-0.000 J-16.500 K0.000 F600.000
G1 X15.000 Y-16.500 Z-6.000 F600.000
G2 X-1.499 Y0.000 Z-6.000 I0.000 J16.500 K0.000 F600.000
G1 X-1.499 Y0.000 Z-9.000 F600.000
G2 X14.946 Y16.499 Z-9.000 I16.500 J-0.000 K0.000 F600.000
G1 X45.000 Y16.500 Z-9.000 F600.000
G2 X45.054 Y-16.499 Z-9.000 I-0.000 J-16.500 K0.000 F600.000
G1 X15.000 Y-16.500 Z-9.000 F600.000
G2 X-1.499 Y0.000 Z-9.000 I0.000 J16.500 K0.000 F600.000
G1 X-1.499 Y0.000 Z-10.000 F600.000
G2 X14.946 Y16.499 Z-10.000 I16.500 J-0.000 K0.000 F600.000
G1 X45.000 Y16.500 Z-10.000 F600.000
G2 X45.054 Y-16.499 Z-10.000 I-0.000 J-16.500 K0.000 F600.000
G1 X15.000 Y-16.500 Z-10.000 F600.000
G2 X-1.499 Y0.000 Z-10.000 I0.000 J16.500 K0.000 F600.000
G0 Z5.000
G0 Z5.000
(Finish operation: Profile004)
(Begin postamble)
M5
G17 G90
M2
