(Exported by FreeCAD)
(Post Processor: script_module)
(Output Time:2025-10-09 15:43:44.615132)
(Begin preamble)
G17 G90
G21
(Begin operation: Fixture)
(Path: Fixture)
G54
(Finish operation: Fixture)
(Begin operation: 3mm_Endmill001)
(Path: 3mm_Endmill001)
(3mm_Endmill001)
(Begin toolchange)
( M6 T2 )
M3 S15000
(Finish operation: 3mm_Endmill001)
(Begin operation: Profile)
(Path: Profile)
(Profile)
(Compensated Tool Path. Diameter: 3.0)
G0 Z5.000
G0 X-19.537 Y5.169
G0 Z3.000
G1 X-19.537 Y5.169 Z-3.000 F600.000
G2 X-19.811 Y4.545 Z-3.000 I-0.463 J-0.169 K0.000 F600.000
G2 X-20.189 Y5.455 Z-3.000 I-0.189 J0.455 K0.000 F600.000
G2 X-19.537 Y5.169 Z-3.000 I0.189 J-0.455 K0.000 F600.000
G0 Z5.000
G0 X-19.880 Y1.340 Z5.000
G0 X-19.880 Y1.340 Z3.000
G1 X-19.880 Y1.340 Z-3.000 F600.000
G2 X-19.681 Y-1.307 Z-3.000 I-0.120 J-1.340 K0.000 F600.000
G2 X-20.319 Y1.307 Z-3.000 I-0.319 J1.307 K0.000 F600.000
G2 X-19.880 Y1.340 Z-3.000 I0.319 J-1.307 K0.000 F600.000
G1 X-19.880 Y1.340 Z-6.000 F600.000
G2 X-19.681 Y-1.307 Z-6.000 I-0.120 J-1.340 K0.000 F600.000
G2 X-20.319 Y1.307 Z-6.000 I-0.319 J1.307 K0.000 F600.000
G2 X-19.880 Y1.340 Z-6.000 I0.319 J-1.307 K0.000 F600.000
G0 Z5.000
G0 X-19.984 Y4.508 Z5.000
G0 X-19.984 Y4.508 Z3.000
G1 X-19.984 Y4.508 Z-6.000 F600.000
G2 X-20.189 Y5.455 Z-6.000 I-0.016 J0.492 K0.000 F600.000
G2 X-19.811 Y4.545 Z-6.000 I0.189 J-0.455 K0.000 F600.000
G2 X-19.984 Y4.508 Z-6.000 I-0.189 J0.455 K0.000 F600.000
G1 X-19.984 Y4.508 Z-9.000 F600.000
G2 X-20.189 Y5.455 Z-9.000 I-0.016 J0.492 K0.000 F600.000
G2 X-19.811 Y4.545 Z-9.000 I0.189 J-0.455 K0.000 F600.000
G2 X-19.984 Y4.508 Z-9.000 I-0.189 J0.455 K0.000 F600.000
G0 Z5.000
G0 X-19.995 Y1.345 Z5.000
G0 X-19.995 Y1.345 Z3.000
G1 X-19.995 Y1.345 Z-9.000 F600.000
G2 X-19.681 Y-1.307 Z-9.000 I-0.005 J-1.345 K0.000 F600.000
G2 X-20.319 Y1.307 Z-9.000 I-0.319 J1.307 K0.000 F600.000
G2 X-19.995 Y1.345 Z-9.000 I0.319 J-1.307 K0.000 F600.000
G1 X-19.995 Y1.345 Z-10.000 F600.000
G2 X-19.681 Y-1.307 Z-10.000 I-0.005 J-1.345 K0.000 F600.000
G2 X-20.319 Y1.307 Z-10.000 I-0.319 J1.307 K0.000 F600.000
G2 X-19.995 Y1.345 Z-10.000 I0.319 J-1.307 K0.000 F600.000
G0 Z5.000
G0 X-19.999 Y4.507 Z5.000
G0 X-19.999 Y4.507 Z3.000
G1 X-19.999 Y4.507 Z-10.000 F600.000
G2 X-20.189 Y5.455 Z-10.000 I-0.001 J0.493 K0.000 F600.000
G2 X-19.811 Y4.545 Z-10.000 I0.189 J-0.455 K0.000 F600.000
G2 X-19.999 Y4.507 Z-10.000 I-0.189 J0.455 K0.000 F600.000
G0 Z5.000
G0 Z5.000
(Finish operation: Profile)
(Begin operation: Profile001)
(Path: Profile001)
(Profile001)
(Compensated Tool Path. Diameter: 3.0)
G0 Z5.000
G0 X20.463 Y5.170
G0 Z3.000
G1 X20.463 Y5.170 Z-3.000 F600.000
G2 X20.189 Y4.545 Z-3.000 I-0.463 J-0.170 K0.000 F600.000
G2 X19.545 Y4.811 Z-3.000 I-0.189 J0.455 K0.000 F600.000
G2 X19.811 Y5.455 Z-3.000 I0.455 J0.189 K0.000 F600.000
G2 X20.463 Y5.170 Z-3.000 I0.189 J-0.455 K0.000 F600.000
G0 Z5.000
G0 X20.120 Y1.340 Z5.000
G0 X20.120 Y1.340 Z3.000
G1 X20.120 Y1.340 Z-3.000 F600.000
G2 X20.330 Y-1.304 Z-3.000 I-0.120 J-1.340 K0.000 F600.000
G1 X20.108 Y-1.341 Z-3.000 F600.000
G2 X19.681 Y1.307 Z-3.000 I-0.108 J1.341 K0.000 F600.000
G2 X20.120 Y1.340 Z-3.000 I0.319 J-1.307 K0.000 F600.000
G1 X20.120 Y1.340 Z-6.000 F600.000
G2 X20.330 Y-1.304 Z-6.000 I-0.120 J-1.340 K0.000 F600.000
G1 X20.108 Y-1.341 Z-6.000 F600.000
G2 X19.681 Y1.307 Z-6.000 I-0.108 J1.341 K0.000 F600.000
G2 X20.120 Y1.340 Z-6.000 I0.319 J-1.307 K0.000 F600.000
G0 Z5.000
G0 X20.016 Y4.508 Z5.000
G0 X20.016 Y4.508 Z3.000
G1 X20.016 Y4.508 Z-6.000 F600.000
G2 X19.811 Y5.455 Z-6.000 I-0.016 J0.492 K0.000 F600.000
G2 X20.189 Y4.545 Z-6.000 I0.189 J-0.455 K0.000 F600.000
G2 X20.016 Y4.508 Z-6.000 I-0.189 J0.455 K0.000 F600.000
G1 X20.016 Y4.508 Z-9.000 F600.000
G2 X19.811 Y5.455 Z-9.000 I-0.016 J0.492 K0.000 F600.000
G2 X20.189 Y4.545 Z-9.000 I0.189 J-0.455 K0.000 F600.000
G2 X20.016 Y4.508 Z-9.000 I-0.189 J0.455 K0.000 F600.000
G0 Z5.000
G0 X20.005 Y1.345 Z5.000
G0 X20.005 Y1.345 Z3.000
G1 X20.005 Y1.345 Z-9.000 F600.000
G2 X20.330 Y-1.304 Z-9.000 I-0.005 J-1.345 K0.000 F600.000
G1 X20.108 Y-1.341 Z-9.000 F600.000
G2 X19.681 Y1.307 Z-9.000 I-0.108 J1.341 K0.000 F600.000
G2 X20.005 Y1.345 Z-9.000 I0.319 J-1.307 K0.000 F600.000
G1 X20.005 Y1.345 Z-10.000 F600.000
G2 X20.330 Y-1.304 Z-10.000 I-0.005 J-1.345 K0.000 F600.000
G1 X20.108 Y-1.341 Z-10.000 F600.000
G2 X19.681 Y1.307 Z-10.000 I-0.108 J1.341 K0.000 F600.000
G2 X20.005 Y1.345 Z-10.000 I0.319 J-1.307 K0.000 F600.000
G0 Z5.000
G0 X20.001 Y4.507 Z5.000
G0 X20.001 Y4.507 Z3.000
G1 X20.001 Y4.507 Z-10.000 F600.000
G2 X19.811 Y5.455 Z-10.000 I-0.001 J0.493 K0.000 F600.000
G2 X20.189 Y4.545 Z-10.000 I0.189 J-0.455 K0.000 F600.000
G2 X20.001 Y4.507 Z-10.000 I-0.189 J0.455 K0.000 F600.000
G0 Z5.000
G0 Z5.000
(Finish operation: Profile001)
(Begin operation: Profile002)
(Path: Profile002)
(Profile002)
(Compensated Tool Path. Diameter: 3.0)
G0 Z5.000
G0 X0.000 Y0.000
G0 X3.501
G0 X3.501 Z3.000
G1 X3.501 Y0.000 Z-3.000 F600.000
G2 X17.599 Y16.323 Z-3.000 I16.499 J0.000 K0.000 F600.000
G2 X22.401 Y-16.323 Z-3.000 I2.401 J-16.323 K0.000 F600.000
G2 X3.501 Y0.000 Z-3.000 I-2.401 J16.323 K0.000 F600.000
G0 Z5.000
G0 X-3.501 Z5.000
G0 X-3.501 Z3.000
G1 X-3.501 Y0.000 Z-3.000 F600.000
G2 X-17.599 Y-16.323 Z-3.000 I-16.499 J0.000 K0.000 F600.000
G2 X-36.323 Y-2.401 Z-3.000 I-2.401 J16.323 K0.000 F600.000
G2 X-22.401 Y16.323 Z-3.000 I16.323 J2.401 K0.000 F600.000
G2 X-3.501 Y0.000 Z-3.000 I2.401 J-16.323 K0.000 F600.000
G1 X-3.501 Y0.000 Z-6.000 F600.000
G2 X-17.599 Y-16.323 Z-6.000 I-16.499 J0.000 K0.000 F600.000
G2 X-36.323 Y-2.401 Z-6.000 I-2.401 J16.323 K0.000 F600.000
G2 X-22.401 Y16.323 Z-6.000 I16.323 J2.401 K0.000 F600.000
G2 X-3.501 Y0.000 Z-6.000 I2.401 J-16.323 K0.000 F600.000
G0 Z5.000
G0 X3.501 Z5.000
G0 X3.501 Z3.000
G1 X3.501 Y0.000 Z-6.000 F600.000
G2 X17.599 Y16.323 Z-6.000 I16.499 J0.000 K0.000 F600.000
G2 X22.401 Y-16.323 Z-6.000 I2.401 J-16.323 K0.000 F600.000
G2 X3.501 Y0.000 Z-6.000 I-2.401 J16.323 K0.000 F600.000
G1 X3.501 Y0.000 Z-9.000 F600.000
G2 X17.599 Y16.323 Z-9.000 I16.499 J0.000 K0.000 F600.000
G2 X22.401 Y-16.323 Z-9.000 I2.401 J-16.323 K0.000 F600.000
G2 X3.501 Y0.000 Z-9.000 I-2.401 J16.323 K0.000 F600.000
G0 Z5.000
G0 X-3.501 Z5.000
G0 X-3.501 Z3.000
G1 X-3.501 Y0.000 Z-9.000 F600.000
G2 X-17.599 Y-16.323 Z-9.000 I-16.499 J0.000 K0.000 F600.000
G2 X-36.323 Y-2.401 Z-9.000 I-2.401 J16.323 K0.000 F600.000
G2 X-22.401 Y16.323 Z-9.000 I16.323 J2.401 K0.000 F600.000
G2 X-3.501 Y0.000 Z-9.000 I2.401 J-16.323 K0.000 F600.000
G1 X-3.501 Y0.000 Z-10.000 F600.000
G2 X-17.599 Y-16.323 Z-10.000 I-16.499 J0.000 K0.000 F600.000
G2 X-36.323 Y-2.401 Z-10.000 I-2.401 J16.323 K0.000 F600.000
G2 X-22.401 Y16.323 Z-10.000 I16.323 J2.401 K0.000 F600.000
G2 X-3.501 Y0.000 Z-10.000 I2.401 J-16.323 K0.000 F600.000
G0 Z5.000
G0 X3.501 Z5.000
G0 X3.501 Z3.000
G1 X3.501 Y0.000 Z-10.000 F600.000
G2 X17.599 Y16.323 Z-10.000 I16.499 J0.000 K0.000 F600.000
G2 X22.401 Y-16.323 Z-10.000 I2.401 J-16.323 K0.000 F600.000
G2 X3.501 Y0.000 Z-10.000 I-2.401 J16.323 K0.000 F600.000
G0 Z5.000
G0 Z5.000
(Finish operation: Profile002)
(Begin postamble)
M5
G17 G90
M2
