(Exported by FreeCAD)
(Post Processor: script_module)
(Output Time:2026-04-17 18:02:55.635812)
(Begin preamble)
G17 G90
G21
(Begin operation: Fixture)
(Path: Fixture)
G54
(Finish operation: Fixture)
(Begin operation: 3175002002001)
(Path: 3175002002001)
(3175002002001)
(Begin toolchange)
( M6 T2 )
M3 S10000
(Finish operation: 3175002002001)
(Begin operation: Profile005)
(Path: Profile005)
(Profile005)
(Compensated Tool Path. Diameter: 3.17)
G0 Z5.000
G0 X0.000 Y0.000
G0 X-2.044 Y-6.195
G0 X-2.044 Y-6.195 Z3.000
G1 X-2.044 Y-6.195 Z-3.000 F300.000
G2 X3.155 Y-15.028 Z-3.000 I-2.435 J-7.380 K0.000 F300.000
G2 X0.078 Y-20.724 Z-3.000 I-16.900 J5.451 K0.000 F300.000
G2 X-6.549 Y-27.507 Z-3.000 I-44.340 J36.693 K0.000 F300.000
G1 X-6.578 Y-27.539 Z-3.000 F300.000
G2 X-6.639 Y-29.803 Z-3.000 I-35.536 J-0.175 K0.000 F300.000
G2 X-6.914 Y-31.178 Z-3.000 I-9.081 J1.103 K0.000 F300.000
G2 X-7.469 Y-32.493 Z-3.000 I-6.400 J1.927 K0.000 F300.000
G2 X-8.854 Y-34.248 Z-3.000 I-5.456 J2.881 K0.000 F300.000
G2 X-10.847 Y-35.070 Z-3.000 I-2.537 J3.323 K0.000 F300.000
G2 X-14.060 Y-34.473 Z-3.000 I-0.757 J4.868 K0.000 F300.000
G1 X-15.780 Y-33.250 Z-3.000 F300.000
G1 X-17.244 Y-32.010 Z-3.000 F300.000
G1 X-19.507 Y-29.781 Z-3.000 F300.000
G1 X-21.196 Y-27.757 Z-3.000 F300.000
G2 X-23.773 Y-23.320 Z-3.000 I92.198 J56.505 K0.000 F300.000
G1 X-25.130 Y-20.273 Z-3.000 F300.000
G2 X-26.726 Y-14.159 Z-3.000 I49.947 J16.307 K0.000 F300.000
G3 X-33.440 Y-7.115 Z-3.000 I-7.287 J-0.224 K0.000 F300.000
G2 X-49.936 Y-5.605 Z-3.000 I-5.475 J31.048 K0.000 F300.000
G2 X-52.663 Y-3.383 Z-3.000 I3.214 J6.732 K0.000 F300.000
G3 X-56.845 Y-5.275 Z-3.000 I7.846 J-22.910 K0.000 F300.000
G2 X-65.960 Y-3.995 Z-3.000 I-3.468 J8.403 K0.000 F300.000
G2 X-67.007 Y1.558 Z-3.000 I3.328 J3.503 K0.000 F300.000
G2 X-63.288 Y4.325 Z-3.000 I4.928 J-2.742 K0.000 F300.000
G3 X-59.789 Y5.010 Z-3.000 I-5.018 J34.933 K0.000 F300.000
G3 X-57.505 Y6.043 Z-3.000 I-1.456 J6.259 K0.000 F300.000
G2 X-58.662 Y12.169 Z-3.000 I33.935 J9.582 K0.000 F300.000
G2 X-59.231 Y27.663 Z-3.000 I176.749 J14.247 K0.000 F300.000
G2 X-58.949 Y28.570 Z-3.000 I1.585 J0.004 K0.000 F300.000
G2 X-51.250 Y31.991 Z-3.000 I7.904 J-7.413 K0.000 F300.000
G2 X-49.819 Y31.257 Z-3.000 I0.092 J-1.582 K0.000 F300.000
G3 X-9.296 Y30.968 Z-3.000 I20.349 J12.066 K0.000 F300.000
G2 X-7.329 Y31.550 Z-3.000 I1.327 J-0.867 K0.000 F300.000
G2 X1.800 Y25.899 Z-3.000 I-12.901 J-31.040 K0.000 F300.000
G2 X2.190 Y23.941 Z-3.000 I-1.012 J-1.220 K0.000 F300.000
G3 X-9.996 Y-7.876 Z-3.000 I114.623 J-62.144 K0.000 F300.000
G3 X-9.839 Y-7.947 Z-3.000 I0.106 J0.025 K0.000 F300.000
G2 X-2.044 Y-6.195 Z-3.000 I5.359 J-5.628 K0.000 F300.000
G0 Z5.000
G0 X6.619 Y-9.928 Z5.000
G0 X6.619 Y-9.928 Z3.000
G1 X6.619 Y-9.928 Z-3.000 F300.000
G2 X12.101 Y-1.200 Z-3.000 I30.871 J-13.302 K0.000 F300.000
G2 X14.059 Y-0.810 Z-3.000 I1.220 J-1.012 K0.000 F300.000
G3 X45.876 Y-12.996 Z-3.000 I62.144 J114.623 K0.000 F300.000
G3 X45.947 Y-12.839 Z-3.000 I-0.025 J0.106 K0.000 F300.000
G2 X53.028 Y0.155 Z-3.000 I5.628 J5.359 K0.000 F300.000
G2 X58.724 Y-2.922 Z-3.000 I-5.451 J-16.900 K0.000 F300.000
G2 X65.507 Y-9.549 Z-3.000 I-36.693 J-44.340 K0.000 F300.000
G1 X65.539 Y-9.578 Z-3.000 F300.000
G2 X67.803 Y-9.639 Z-3.000 I0.175 J-35.536 K0.000 F300.000
G2 X69.178 Y-9.914 Z-3.000 I-1.103 J-9.081 K0.000 F300.000
G2 X70.493 Y-10.469 Z-3.000 I-1.927 J-6.400 K0.000 F300.000
G2 X72.248 Y-11.854 Z-3.000 I-2.881 J-5.456 K0.000 F300.000
G2 X72.983 Y-13.368 Z-3.000 I-3.274 J-2.526 K0.000 F300.000
G2 X72.473 Y-17.060 Z-3.000 I-4.863 J-1.209 K0.000 F300.000
G1 X71.250 Y-18.780 Z-3.000 F300.000
G1 X70.010 Y-20.244 Z-3.000 F300.000
G1 X67.781 Y-22.507 Z-3.000 F300.000
G1 X65.757 Y-24.196 Z-3.000 F300.000
G2 X61.320 Y-26.773 Z-3.000 I-56.505 J92.198 K0.000 F300.000
G1 X58.273 Y-28.130 Z-3.000 F300.000
G2 X52.159 Y-29.726 Z-3.000 I-16.307 J49.947 K0.000 F300.000
G3 X45.115 Y-36.440 Z-3.000 I0.224 J-7.287 K0.000 F300.000
G2 X43.605 Y-52.936 Z-3.000 I-31.048 J-5.475 K0.000 F300.000
G2 X41.383 Y-55.663 Z-3.000 I-6.732 J3.214 K0.000 F300.000
G3 X43.275 Y-59.845 Z-3.000 I22.910 J7.846 K0.000 F300.000
G2 X41.995 Y-68.960 Z-3.000 I-8.403 J-3.468 K0.000 F300.000
G2 X39.055 Y-70.430 Z-3.000 I-3.449 J3.222 K0.000 F300.000
G2 X36.743 Y-70.130 Z-3.000 I-0.578 J4.596 K0.000 F300.000
G2 X33.675 Y-66.288 Z-3.000 I2.275 J4.963 K0.000 F300.000
G3 X32.990 Y-62.789 Z-3.000 I-34.933 J-5.018 K0.000 F300.000
G3 X31.957 Y-60.505 Z-3.000 I-6.259 J-1.456 K0.000 F300.000
G2 X25.831 Y-61.662 Z-3.000 I-9.582 J33.935 K0.000 F300.000
G2 X10.337 Y-62.231 Z-3.000 I-14.247 J176.749 K0.000 F300.000
G2 X9.430 Y-61.949 Z-3.000 I-0.004 J1.585 K0.000 F300.000
G2 X6.009 Y-54.250 Z-3.000 I7.413 J7.904 K0.000 F300.000
G2 X6.743 Y-52.819 Z-3.000 I1.582 J0.092 K0.000 F300.000
G3 X7.032 Y-12.296 Z-3.000 I-12.066 J20.349 K0.000 F300.000
G2 X6.450 Y-10.329 Z-3.000 I0.867 J1.327 K0.000 F300.000
G2 X6.619 Y-9.928 Z-3.000 I31.040 J-12.901 K0.000 F300.000
G0 Z5.000
G0 X21.782 Y7.969 Z5.000
G0 X21.782 Y7.969 Z3.000
G1 X21.782 Y7.969 Z-3.000 F300.000
G1 X21.756 Y7.990 Z-3.000 F300.000
G1 X19.493 Y10.219 Z-3.000 F300.000
G1 X17.804 Y12.243 Z-3.000 F300.000
G2 X15.227 Y16.680 Z-3.000 I92.199 J56.506 K0.000 F300.000
G1 X13.870 Y19.727 Z-3.000 F300.000
G2 X12.274 Y25.841 Z-3.000 I49.947 J16.307 K0.000 F300.000
G3 X5.560 Y32.885 Z-3.000 I-7.287 J-0.224 K0.000 F300.000
G2 X-10.936 Y34.395 Z-3.000 I-5.475 J31.048 K0.000 F300.000
G2 X-13.663 Y36.617 Z-3.000 I3.214 J6.732 K0.000 F300.000
G3 X-17.845 Y34.725 Z-3.000 I7.846 J-22.910 K0.000 F300.000
G2 X-26.960 Y36.005 Z-3.000 I-3.468 J8.403 K0.000 F300.000
G2 X-28.007 Y41.558 Z-3.000 I3.328 J3.503 K0.000 F300.000
G2 X-24.288 Y44.325 Z-3.000 I4.928 J-2.742 K0.000 F300.000
G3 X-20.789 Y45.010 Z-3.000 I-5.018 J34.933 K0.000 F300.000
G3 X-18.505 Y46.043 Z-3.000 I-1.456 J6.259 K0.000 F300.000
G2 X-19.662 Y52.169 Z-3.000 I33.935 J9.582 K0.000 F300.000
G2 X-20.231 Y67.663 Z-3.000 I176.749 J14.247 K0.000 F300.000
G2 X-19.949 Y68.570 Z-3.000 I1.585 J0.004 K0.000 F300.000
G2 X-12.250 Y71.991 Z-3.000 I7.904 J-7.413 K0.000 F300.000
G2 X-10.819 Y71.257 Z-3.000 I0.092 J-1.582 K0.000 F300.000
G3 X29.704 Y70.968 Z-3.000 I20.349 J12.066 K0.000 F300.000
G2 X31.671 Y71.550 Z-3.000 I1.327 J-0.867 K0.000 F300.000
G2 X40.800 Y65.899 Z-3.000 I-12.901 J-31.040 K0.000 F300.000
G2 X41.190 Y63.941 Z-3.000 I-1.012 J-1.220 K0.000 F300.000
G3 X29.004 Y32.124 Z-3.000 I114.623 J-62.144 K0.000 F300.000
G3 X29.161 Y32.053 Z-3.000 I0.106 J0.025 K0.000 F300.000
G2 X42.155 Y24.972 Z-3.000 I5.359 J-5.628 K0.000 F300.000
G2 X39.078 Y19.276 Z-3.000 I-16.900 J5.451 K0.000 F300.000
G2 X32.451 Y12.493 Z-3.000 I-44.340 J36.693 K0.000 F300.000
G1 X32.422 Y12.461 Z-3.000 F300.000
G2 X32.361 Y10.197 Z-3.000 I-35.536 J-0.175 K0.000 F300.000
G2 X32.086 Y8.822 Z-3.000 I-9.081 J1.103 K0.000 F300.000
G2 X31.531 Y7.507 Z-3.000 I-6.400 J1.927 K0.000 F300.000
G2 X30.146 Y5.752 Z-3.000 I-5.456 J2.881 K0.000 F300.000
G2 X28.153 Y4.930 Z-3.000 I-2.537 J3.323 K0.000 F300.000
G2 X24.940 Y5.527 Z-3.000 I-0.757 J4.868 K0.000 F300.000
G1 X23.220 Y6.750 Z-3.000 F300.000
G1 X21.782 Y7.969 Z-3.000 F300.000
G0 Z5.000
G0 X8.812 Y-37.388 Z5.000
G0 X8.812 Y-37.388 Z3.000
G1 X8.812 Y-37.388 Z-3.000 F300.000
G2 X11.960 Y-39.005 Z-3.000 I-2.499 J-8.740 K0.000 F300.000
G2 X13.007 Y-44.558 Z-3.000 I-3.328 J-3.503 K0.000 F300.000
G2 X9.288 Y-47.325 Z-3.000 I-4.928 J2.742 K0.000 F300.000
G3 X5.789 Y-48.010 Z-3.000 I5.018 J-34.933 K0.000 F300.000
G3 X3.505 Y-49.043 Z-3.000 I1.456 J-6.259 K0.000 F300.000
G2 X4.662 Y-55.169 Z-3.000 I-33.935 J-9.582 K0.000 F300.000
G2 X5.231 Y-70.663 Z-3.000 I-176.749 J-14.247 K0.000 F300.000
G2 X4.949 Y-71.570 Z-3.000 I-1.585 J-0.004 K0.000 F300.000
G2 X-2.750 Y-74.991 Z-3.000 I-7.904 J7.413 K0.000 F300.000
G2 X-4.181 Y-74.257 Z-3.000 I-0.092 J1.582 K0.000 F300.000
G3 X-44.704 Y-73.968 Z-3.000 I-20.349 J-12.066 K0.000 F300.000
G2 X-46.671 Y-74.550 Z-3.000 I-1.327 J0.867 K0.000 F300.000
G2 X-55.800 Y-68.899 Z-3.000 I12.901 J31.040 K0.000 F300.000
G2 X-56.190 Y-66.941 Z-3.000 I1.012 J1.220 K0.000 F300.000
G3 X-44.004 Y-35.124 Z-3.000 I-114.623 J62.144 K0.000 F300.000
G3 X-44.161 Y-35.053 Z-3.000 I-0.106 J-0.025 K0.000 F300.000
G2 X-57.155 Y-27.972 Z-3.000 I-5.359 J5.628 K0.000 F300.000
G2 X-54.078 Y-22.276 Z-3.000 I16.900 J-5.451 K0.000 F300.000
G2 X-47.451 Y-15.493 Z-3.000 I44.340 J-36.693 K0.000 F300.000
G1 X-47.422 Y-15.461 Z-3.000 F300.000
G2 X-47.361 Y-13.197 Z-3.000 I35.537 J0.175 K0.000 F300.000
G2 X-47.086 Y-11.822 Z-3.000 I9.081 J-1.103 K0.000 F300.000
G2 X-46.531 Y-10.507 Z-3.000 I6.400 J-1.927 K0.000 F300.000
G2 X-45.146 Y-8.752 Z-3.000 I5.456 J-2.881 K0.000 F300.000
G2 X-43.632 Y-8.017 Z-3.000 I2.526 J-3.274 K0.000 F300.000
G2 X-39.940 Y-8.527 Z-3.000 I1.209 J-4.863 K0.000 F300.000
G1 X-38.220 Y-9.750 Z-3.000 F300.000
G1 X-36.756 Y-10.990 Z-3.000 F300.000
G1 X-34.493 Y-13.219 Z-3.000 F300.000
G1 X-32.804 Y-15.243 Z-3.000 F300.000
G2 X-30.227 Y-19.680 Z-3.000 I-92.198 J-56.505 K0.000 F300.000
G1 X-28.870 Y-22.727 Z-3.000 F300.000
G2 X-27.274 Y-28.841 Z-3.000 I-49.947 J-16.307 K0.000 F300.000
G3 X-20.560 Y-35.885 Z-3.000 I7.287 J0.224 K0.000 F300.000
G2 X-4.064 Y-37.395 Z-3.000 I5.475 J-31.048 K0.000 F300.000
G2 X-1.337 Y-39.617 Z-3.000 I-3.214 J-6.732 K0.000 F300.000
G3 X2.845 Y-37.725 Z-3.000 I-7.846 J22.910 K0.000 F300.000
G2 X8.812 Y-37.388 Z-3.000 I3.468 J-8.403 K0.000 F300.000
G1 X8.812 Y-37.388 Z-6.000 F300.000
G2 X11.960 Y-39.005 Z-6.000 I-2.499 J-8.740 K0.000 F300.000
G2 X13.007 Y-44.558 Z-6.000 I-3.328 J-3.503 K0.000 F300.000
G2 X9.288 Y-47.325 Z-6.000 I-4.928 J2.742 K0.000 F300.000
G3 X5.789 Y-48.010 Z-6.000 I5.018 J-34.933 K0.000 F300.000
G3 X3.505 Y-49.043 Z-6.000 I1.456 J-6.259 K0.000 F300.000
G2 X4.662 Y-55.169 Z-6.000 I-33.935 J-9.582 K0.000 F300.000
G2 X5.231 Y-70.663 Z-6.000 I-176.749 J-14.247 K0.000 F300.000
G2 X4.949 Y-71.570 Z-6.000 I-1.585 J-0.004 K0.000 F300.000
G2 X-2.750 Y-74.991 Z-6.000 I-7.904 J7.413 K0.000 F300.000
G2 X-4.181 Y-74.257 Z-6.000 I-0.092 J1.582 K0.000 F300.000
G3 X-44.704 Y-73.968 Z-6.000 I-20.349 J-12.066 K0.000 F300.000
G2 X-46.671 Y-74.550 Z-6.000 I-1.327 J0.867 K0.000 F300.000
G2 X-55.800 Y-68.899 Z-6.000 I12.901 J31.040 K0.000 F300.000
G2 X-56.190 Y-66.941 Z-6.000 I1.012 J1.220 K0.000 F300.000
G3 X-44.004 Y-35.124 Z-6.000 I-114.623 J62.144 K0.000 F300.000
G3 X-44.161 Y-35.053 Z-6.000 I-0.106 J-0.025 K0.000 F300.000
G2 X-57.155 Y-27.972 Z-6.000 I-5.359 J5.628 K0.000 F300.000
G2 X-54.078 Y-22.276 Z-6.000 I16.900 J-5.451 K0.000 F300.000
G2 X-47.451 Y-15.493 Z-6.000 I44.340 J-36.693 K0.000 F300.000
G1 X-47.422 Y-15.461 Z-6.000 F300.000
G2 X-47.361 Y-13.197 Z-6.000 I35.537 J0.175 K0.000 F300.000
G2 X-47.086 Y-11.822 Z-6.000 I9.081 J-1.103 K0.000 F300.000
G2 X-46.531 Y-10.507 Z-6.000 I6.400 J-1.927 K0.000 F300.000
G2 X-45.146 Y-8.752 Z-6.000 I5.456 J-2.881 K0.000 F300.000
G2 X-43.632 Y-8.017 Z-6.000 I2.526 J-3.274 K0.000 F300.000
G2 X-39.940 Y-8.527 Z-6.000 I1.209 J-4.863 K0.000 F300.000
G1 X-38.220 Y-9.750 Z-6.000 F300.000
G1 X-36.756 Y-10.990 Z-6.000 F300.000
G1 X-34.493 Y-13.219 Z-6.000 F300.000
G1 X-32.804 Y-15.243 Z-6.000 F300.000
G2 X-30.227 Y-19.680 Z-6.000 I-92.198 J-56.505 K0.000 F300.000
G1 X-28.870 Y-22.727 Z-6.000 F300.000
G2 X-27.274 Y-28.841 Z-6.000 I-49.947 J-16.307 K0.000 F300.000
G3 X-20.560 Y-35.885 Z-6.000 I7.287 J0.224 K0.000 F300.000
G2 X-4.064 Y-37.395 Z-6.000 I5.475 J-31.048 K0.000 F300.000
G2 X-1.337 Y-39.617 Z-6.000 I-3.214 J-6.732 K0.000 F300.000
G3 X2.845 Y-37.725 Z-6.000 I-7.846 J22.910 K0.000 F300.000
G2 X8.812 Y-37.388 Z-6.000 I3.468 J-8.403 K0.000 F300.000
G0 Z5.000
G0 X17.021 Y-40.244 Z5.000
G0 X17.021 Y-40.244 Z3.000
G1 X17.021 Y-40.244 Z-6.000 F300.000
G3 X7.032 Y-12.296 Z-6.000 I-22.343 J7.774 K0.000 F300.000
G2 X6.450 Y-10.329 Z-6.000 I0.867 J1.327 K0.000 F300.000
G2 X12.101 Y-1.200 Z-6.000 I31.040 J-12.901 K0.000 F300.000
G2 X14.059 Y-0.810 Z-6.000 I1.220 J-1.012 K0.000 F300.000
G3 X45.876 Y-12.996 Z-6.000 I62.144 J114.623 K0.000 F300.000
G3 X45.947 Y-12.839 Z-6.000 I-0.025 J0.106 K0.000 F300.000
G2 X53.028 Y0.155 Z-6.000 I5.628 J5.359 K0.000 F300.000
G2 X58.724 Y-2.922 Z-6.000 I-5.451 J-16.900 K0.000 F300.000
G2 X65.507 Y-9.549 Z-6.000 I-36.693 J-44.340 K0.000 F300.000
G1 X65.539 Y-9.578 Z-6.000 F300.000
G2 X67.803 Y-9.639 Z-6.000 I0.175 J-35.536 K0.000 F300.000
G2 X69.178 Y-9.914 Z-6.000 I-1.103 J-9.081 K0.000 F300.000
G2 X70.493 Y-10.469 Z-6.000 I-1.927 J-6.400 K0.000 F300.000
G2 X72.248 Y-11.854 Z-6.000 I-2.881 J-5.456 K0.000 F300.000
G2 X72.983 Y-13.368 Z-6.000 I-3.274 J-2.526 K0.000 F300.000
G2 X72.473 Y-17.060 Z-6.000 I-4.863 J-1.209 K0.000 F300.000
G1 X71.250 Y-18.780 Z-6.000 F300.000
G1 X70.010 Y-20.244 Z-6.000 F300.000
G1 X67.781 Y-22.507 Z-6.000 F300.000
G1 X65.757 Y-24.196 Z-6.000 F300.000
G2 X61.320 Y-26.773 Z-6.000 I-56.505 J92.198 K0.000 F300.000
G1 X58.273 Y-28.130 Z-6.000 F300.000
G2 X52.159 Y-29.726 Z-6.000 I-16.307 J49.947 K0.000 F300.000
G3 X45.115 Y-36.440 Z-6.000 I0.224 J-7.287 K0.000 F300.000
G2 X43.605 Y-52.936 Z-6.000 I-31.048 J-5.475 K0.000 F300.000
G2 X41.383 Y-55.663 Z-6.000 I-6.732 J3.214 K0.000 F300.000
G3 X43.275 Y-59.845 Z-6.000 I22.910 J7.846 K0.000 F300.000
G2 X41.995 Y-68.960 Z-6.000 I-8.403 J-3.468 K0.000 F300.000
G2 X39.055 Y-70.430 Z-6.000 I-3.449 J3.222 K0.000 F300.000
G2 X36.743 Y-70.130 Z-6.000 I-0.578 J4.596 K0.000 F300.000
G2 X33.675 Y-66.288 Z-6.000 I2.275 J4.963 K0.000 F300.000
G3 X32.990 Y-62.789 Z-6.000 I-34.933 J-5.018 K0.000 F300.000
G3 X31.957 Y-60.505 Z-6.000 I-6.259 J-1.456 K0.000 F300.000
G2 X25.831 Y-61.662 Z-6.000 I-9.582 J33.935 K0.000 F300.000
G2 X10.337 Y-62.231 Z-6.000 I-14.247 J176.749 K0.000 F300.000
G2 X9.430 Y-61.949 Z-6.000 I-0.004 J1.585 K0.000 F300.000
G2 X6.009 Y-54.250 Z-6.000 I7.413 J7.904 K0.000 F300.000
G2 X6.743 Y-52.819 Z-6.000 I1.582 J0.092 K0.000 F300.000
G3 X17.021 Y-40.244 Z-6.000 I-12.066 J20.349 K0.000 F300.000
G0 Z5.000
G0 X-7.030 Y-31.528 Z5.000
G0 X-7.030 Y-31.528 Z3.000
G1 X-7.030 Y-31.528 Z-6.000 F300.000
G2 X-7.469 Y-32.493 Z-6.000 I-6.284 J2.277 K0.000 F300.000
G2 X-8.854 Y-34.248 Z-6.000 I-5.456 J2.881 K0.000 F300.000
G2 X-10.847 Y-35.070 Z-6.000 I-2.537 J3.323 K0.000 F300.000
G2 X-14.060 Y-34.473 Z-6.000 I-0.757 J4.868 K0.000 F300.000
G1 X-15.780 Y-33.250 Z-6.000 F300.000
G1 X-17.244 Y-32.010 Z-6.000 F300.000
G1 X-19.507 Y-29.781 Z-6.000 F300.000
G1 X-21.196 Y-27.757 Z-6.000 F300.000
G2 X-23.773 Y-23.320 Z-6.000 I92.198 J56.505 K0.000 F300.000
G1 X-25.130 Y-20.273 Z-6.000 F300.000
G2 X-26.726 Y-14.159 Z-6.000 I49.947 J16.307 K0.000 F300.000
G3 X-33.440 Y-7.115 Z-6.000 I-7.287 J-0.224 K0.000 F300.000
G2 X-49.936 Y-5.605 Z-6.000 I-5.475 J31.048 K0.000 F300.000
G2 X-52.663 Y-3.383 Z-6.000 I3.214 J6.732 K0.000 F300.000
G3 X-56.845 Y-5.275 Z-6.000 I7.846 J-22.910 K0.000 F300.000
G2 X-65.960 Y-3.995 Z-6.000 I-3.468 J8.403 K0.000 F300.000
G2 X-67.007 Y1.558 Z-6.000 I3.328 J3.503 K0.000 F300.000
G2 X-63.288 Y4.325 Z-6.000 I4.928 J-2.742 K0.000 F300.000
G3 X-59.789 Y5.010 Z-6.000 I-5.018 J34.933 K0.000 F300.000
G3 X-57.505 Y6.043 Z-6.000 I-1.456 J6.259 K0.000 F300.000
G2 X-58.662 Y12.169 Z-6.000 I33.935 J9.582 K0.000 F300.000
G2 X-59.231 Y27.663 Z-6.000 I176.749 J14.247 K0.000 F300.000
G2 X-58.949 Y28.570 Z-6.000 I1.585 J0.004 K0.000 F300.000
G2 X-51.250 Y31.991 Z-6.000 I7.904 J-7.413 K0.000 F300.000
G2 X-49.819 Y31.257 Z-6.000 I0.092 J-1.582 K0.000 F300.000
G3 X-9.296 Y30.968 Z-6.000 I20.349 J12.066 K0.000 F300.000
G2 X-7.329 Y31.550 Z-6.000 I1.327 J-0.867 K0.000 F300.000
G2 X1.800 Y25.899 Z-6.000 I-12.901 J-31.040 K0.000 F300.000
G2 X2.190 Y23.941 Z-6.000 I-1.012 J-1.220 K0.000 F300.000
G3 X-9.996 Y-7.876 Z-6.000 I114.623 J-62.144 K0.000 F300.000
G3 X-9.839 Y-7.947 Z-6.000 I0.106 J0.025 K0.000 F300.000
G2 X3.155 Y-15.028 Z-6.000 I5.359 J-5.628 K0.000 F300.000
G2 X0.078 Y-20.724 Z-6.000 I-16.900 J5.451 K0.000 F300.000
G2 X-6.549 Y-27.507 Z-6.000 I-44.340 J36.693 K0.000 F300.000
G1 X-6.578 Y-27.539 Z-6.000 F300.000
G2 X-6.639 Y-29.803 Z-6.000 I-35.536 J-0.175 K0.000 F300.000
G2 X-6.914 Y-31.178 Z-6.000 I-9.081 J1.103 K0.000 F300.000
G2 X-7.030 Y-31.528 Z-6.000 I-6.400 J1.927 K0.000 F300.000
G0 Z5.000
G0 X23.220 Y6.750 Z5.000
G0 X23.220 Y6.750 Z3.000
G1 X23.220 Y6.750 Z-6.000 F300.000
G1 X21.756 Y7.990 Z-6.000 F300.000
G1 X19.493 Y10.219 Z-6.000 F300.000
G1 X17.804 Y12.243 Z-6.000 F300.000
G2 X15.227 Y16.680 Z-6.000 I92.199 J56.506 K0.000 F300.000
G1 X13.870 Y19.727 Z-6.000 F300.000
G2 X12.274 Y25.841 Z-6.000 I49.947 J16.307 K0.000 F300.000
G3 X5.560 Y32.885 Z-6.000 I-7.287 J-0.224 K0.000 F300.000
G2 X-10.936 Y34.395 Z-6.000 I-5.475 J31.048 K0.000 F300.000
G2 X-13.663 Y36.617 Z-6.000 I3.214 J6.732 K0.000 F300.000
G3 X-17.845 Y34.725 Z-6.000 I7.846 J-22.910 K0.000 F300.000
G2 X-26.960 Y36.005 Z-6.000 I-3.468 J8.403 K0.000 F300.000
G2 X-28.007 Y41.558 Z-6.000 I3.328 J3.503 K0.000 F300.000
G2 X-24.288 Y44.325 Z-6.000 I4.928 J-2.742 K0.000 F300.000
G3 X-20.789 Y45.010 Z-6.000 I-5.018 J34.933 K0.000 F300.000
G3 X-18.505 Y46.043 Z-6.000 I-1.456 J6.259 K0.000 F300.000
G2 X-19.662 Y52.169 Z-6.000 I33.935 J9.582 K0.000 F300.000
G2 X-20.231 Y67.663 Z-6.000 I176.749 J14.247 K0.000 F300.000
G2 X-19.949 Y68.570 Z-6.000 I1.585 J0.004 K0.000 F300.000
G2 X-12.250 Y71.991 Z-6.000 I7.904 J-7.413 K0.000 F300.000
G2 X-10.819 Y71.257 Z-6.000 I0.092 J-1.582 K0.000 F300.000
G3 X29.704 Y70.968 Z-6.000 I20.349 J12.066 K0.000 F300.000
G2 X31.671 Y71.550 Z-6.000 I1.327 J-0.867 K0.000 F300.000
G2 X40.800 Y65.899 Z-6.000 I-12.901 J-31.040 K0.000 F300.000
G2 X41.190 Y63.941 Z-6.000 I-1.012 J-1.220 K0.000 F300.000
G3 X29.004 Y32.124 Z-6.000 I114.623 J-62.144 K0.000 F300.000
G3 X29.161 Y32.053 Z-6.000 I0.106 J0.025 K0.000 F300.000
G2 X42.155 Y24.972 Z-6.000 I5.359 J-5.628 K0.000 F300.000
G2 X39.078 Y19.276 Z-6.000 I-16.900 J5.451 K0.000 F300.000
G2 X32.451 Y12.493 Z-6.000 I-44.340 J36.693 K0.000 F300.000
G1 X32.422 Y12.461 Z-6.000 F300.000
G2 X32.361 Y10.197 Z-6.000 I-35.536 J-0.175 K0.000 F300.000
G2 X32.086 Y8.822 Z-6.000 I-9.081 J1.103 K0.000 F300.000
G2 X31.531 Y7.507 Z-6.000 I-6.400 J1.927 K0.000 F300.000
G2 X30.146 Y5.752 Z-6.000 I-5.456 J2.881 K0.000 F300.000
G2 X28.153 Y4.930 Z-6.000 I-2.537 J3.323 K0.000 F300.000
G2 X24.940 Y5.527 Z-6.000 I-0.757 J4.868 K0.000 F300.000
G1 X23.220 Y6.750 Z-6.000 F300.000
G1 X23.220 Y6.750 Z-9.000 F300.000
G1 X21.756 Y7.990 Z-9.000 F300.000
G1 X19.493 Y10.219 Z-9.000 F300.000
G1 X17.804 Y12.243 Z-9.000 F300.000
G2 X15.227 Y16.680 Z-9.000 I92.199 J56.506 K0.000 F300.000
G1 X13.870 Y19.727 Z-9.000 F300.000
G2 X12.274 Y25.841 Z-9.000 I49.947 J16.307 K0.000 F300.000
G3 X5.560 Y32.885 Z-9.000 I-7.287 J-0.224 K0.000 F300.000
G2 X-10.936 Y34.395 Z-9.000 I-5.475 J31.048 K0.000 F300.000
G2 X-13.663 Y36.617 Z-9.000 I3.214 J6.732 K0.000 F300.000
G3 X-17.845 Y34.725 Z-9.000 I7.846 J-22.910 K0.000 F300.000
G2 X-26.960 Y36.005 Z-9.000 I-3.468 J8.403 K0.000 F300.000
G2 X-28.007 Y41.558 Z-9.000 I3.328 J3.503 K0.000 F300.000
G2 X-24.288 Y44.325 Z-9.000 I4.928 J-2.742 K0.000 F300.000
G3 X-20.789 Y45.010 Z-9.000 I-5.018 J34.933 K0.000 F300.000
G3 X-18.505 Y46.043 Z-9.000 I-1.456 J6.259 K0.000 F300.000
G2 X-19.662 Y52.169 Z-9.000 I33.935 J9.582 K0.000 F300.000
G2 X-20.231 Y67.663 Z-9.000 I176.749 J14.247 K0.000 F300.000
G2 X-19.949 Y68.570 Z-9.000 I1.585 J0.004 K0.000 F300.000
G2 X-12.250 Y71.991 Z-9.000 I7.904 J-7.413 K0.000 F300.000
G2 X-10.819 Y71.257 Z-9.000 I0.092 J-1.582 K0.000 F300.000
G3 X29.704 Y70.968 Z-9.000 I20.349 J12.066 K0.000 F300.000
G2 X31.671 Y71.550 Z-9.000 I1.327 J-0.867 K0.000 F300.000
G2 X40.800 Y65.899 Z-9.000 I-12.901 J-31.040 K0.000 F300.000
G2 X41.190 Y63.941 Z-9.000 I-1.012 J-1.220 K0.000 F300.000
G3 X29.004 Y32.124 Z-9.000 I114.623 J-62.144 K0.000 F300.000
G3 X29.161 Y32.053 Z-9.000 I0.106 J0.025 K0.000 F300.000
G2 X42.155 Y24.972 Z-9.000 I5.359 J-5.628 K0.000 F300.000
G2 X39.078 Y19.276 Z-9.000 I-16.900 J5.451 K0.000 F300.000
G2 X32.451 Y12.493 Z-9.000 I-44.340 J36.693 K0.000 F300.000
G1 X32.422 Y12.461 Z-9.000 F300.000
G2 X32.361 Y10.197 Z-9.000 I-35.536 J-0.175 K0.000 F300.000
G2 X32.086 Y8.822 Z-9.000 I-9.081 J1.103 K0.000 F300.000
G2 X31.531 Y7.507 Z-9.000 I-6.400 J1.927 K0.000 F300.000
G2 X30.146 Y5.752 Z-9.000 I-5.456 J2.881 K0.000 F300.000
G2 X28.153 Y4.930 Z-9.000 I-2.537 J3.323 K0.000 F300.000
G2 X24.940 Y5.527 Z-9.000 I-0.757 J4.868 K0.000 F300.000
G1 X23.220 Y6.750 Z-9.000 F300.000
G0 Z5.000
G0 X18.373 Y-3.046 Z5.000
G0 X18.373 Y-3.046 Z3.000
G1 X18.373 Y-3.046 Z-9.000 F300.000
G3 X45.876 Y-12.996 Z-9.000 I57.830 J116.859 K0.000 F300.000
G3 X45.947 Y-12.839 Z-9.000 I-0.025 J0.106 K0.000 F300.000
G2 X53.028 Y0.155 Z-9.000 I5.628 J5.359 K0.000 F300.000
G2 X58.724 Y-2.922 Z-9.000 I-5.451 J-16.900 K0.000 F300.000
G2 X65.507 Y-9.549 Z-9.000 I-36.693 J-44.340 K0.000 F300.000
G1 X65.539 Y-9.578 Z-9.000 F300.000
G2 X67.803 Y-9.639 Z-9.000 I0.175 J-35.536 K0.000 F300.000
G2 X69.178 Y-9.914 Z-9.000 I-1.103 J-9.081 K0.000 F300.000
G2 X70.493 Y-10.469 Z-9.000 I-1.927 J-6.400 K0.000 F300.000
G2 X72.248 Y-11.854 Z-9.000 I-2.881 J-5.456 K0.000 F300.000
G2 X72.983 Y-13.368 Z-9.000 I-3.274 J-2.526 K0.000 F300.000
G2 X72.473 Y-17.060 Z-9.000 I-4.863 J-1.209 K0.000 F300.000
G1 X71.250 Y-18.780 Z-9.000 F300.000
G1 X70.010 Y-20.244 Z-9.000 F300.000
G1 X67.781 Y-22.507 Z-9.000 F300.000
G1 X65.757 Y-24.196 Z-9.000 F300.000
G2 X61.320 Y-26.773 Z-9.000 I-56.505 J92.198 K0.000 F300.000
G1 X58.273 Y-28.130 Z-9.000 F300.000
G2 X52.159 Y-29.726 Z-9.000 I-16.307 J49.947 K0.000 F300.000
G3 X45.115 Y-36.440 Z-9.000 I0.224 J-7.287 K0.000 F300.000
G2 X43.605 Y-52.936 Z-9.000 I-31.048 J-5.475 K0.000 F300.000
G2 X41.383 Y-55.663 Z-9.000 I-6.732 J3.214 K0.000 F300.000
G3 X43.275 Y-59.845 Z-9.000 I22.910 J7.846 K0.000 F300.000
G2 X41.995 Y-68.960 Z-9.000 I-8.403 J-3.468 K0.000 F300.000
G2 X39.055 Y-70.430 Z-9.000 I-3.449 J3.222 K0.000 F300.000
G2 X36.743 Y-70.130 Z-9.000 I-0.578 J4.596 K0.000 F300.000
G2 X33.675 Y-66.288 Z-9.000 I2.275 J4.963 K0.000 F300.000
G3 X32.990 Y-62.789 Z-9.000 I-34.933 J-5.018 K0.000 F300.000
G3 X31.957 Y-60.505 Z-9.000 I-6.259 J-1.456 K0.000 F300.000
G2 X25.831 Y-61.662 Z-9.000 I-9.582 J33.935 K0.000 F300.000
G2 X10.337 Y-62.231 Z-9.000 I-14.247 J176.749 K0.000 F300.000
G2 X9.430 Y-61.949 Z-9.000 I-0.004 J1.585 K0.000 F300.000
G2 X6.009 Y-54.250 Z-9.000 I7.413 J7.904 K0.000 F300.000
G2 X6.743 Y-52.819 Z-9.000 I1.582 J0.092 K0.000 F300.000
G3 X7.032 Y-12.296 Z-9.000 I-12.066 J20.349 K0.000 F300.000
G2 X6.450 Y-10.329 Z-9.000 I0.867 J1.327 K0.000 F300.000
G2 X12.101 Y-1.200 Z-9.000 I31.040 J-12.901 K0.000 F300.000
G2 X14.059 Y-0.810 Z-9.000 I1.220 J-1.012 K0.000 F300.000
G3 X18.373 Y-3.046 Z-9.000 I62.144 J114.623 K0.000 F300.000
G0 Z5.000
G0 X2.579 Y-10.323 Z5.000
G0 X2.579 Y-10.323 Z3.000
G1 X2.579 Y-10.323 Z-9.000 F300.000
G2 X3.155 Y-15.028 Z-9.000 I-7.058 J-3.252 K0.000 F300.000
G2 X0.078 Y-20.724 Z-9.000 I-16.900 J5.451 K0.000 F300.000
G2 X-6.549 Y-27.507 Z-9.000 I-44.340 J36.693 K0.000 F300.000
G1 X-6.578 Y-27.539 Z-9.000 F300.000
G2 X-6.639 Y-29.803 Z-9.000 I-35.536 J-0.175 K0.000 F300.000
G2 X-6.914 Y-31.178 Z-9.000 I-9.081 J1.103 K0.000 F300.000
G2 X-7.469 Y-32.493 Z-9.000 I-6.400 J1.927 K0.000 F300.000
G2 X-8.854 Y-34.248 Z-9.000 I-5.456 J2.881 K0.000 F300.000
G2 X-10.847 Y-35.070 Z-9.000 I-2.537 J3.323 K0.000 F300.000
G2 X-14.060 Y-34.473 Z-9.000 I-0.757 J4.868 K0.000 F300.000
G1 X-15.780 Y-33.250 Z-9.000 F300.000
G1 X-17.244 Y-32.010 Z-9.000 F300.000
G1 X-19.507 Y-29.781 Z-9.000 F300.000
G1 X-21.196 Y-27.757 Z-9.000 F300.000
G2 X-23.773 Y-23.320 Z-9.000 I92.198 J56.505 K0.000 F300.000
G1 X-25.130 Y-20.273 Z-9.000 F300.000
G2 X-26.726 Y-14.159 Z-9.000 I49.947 J16.307 K0.000 F300.000
G3 X-33.440 Y-7.115 Z-9.000 I-7.287 J-0.224 K0.000 F300.000
G2 X-49.936 Y-5.605 Z-9.000 I-5.475 J31.048 K0.000 F300.000
G2 X-52.663 Y-3.383 Z-9.000 I3.214 J6.732 K0.000 F300.000
G3 X-56.845 Y-5.275 Z-9.000 I7.846 J-22.910 K0.000 F300.000
G2 X-65.960 Y-3.995 Z-9.000 I-3.468 J8.403 K0.000 F300.000
G2 X-67.007 Y1.558 Z-9.000 I3.328 J3.503 K0.000 F300.000
G2 X-63.288 Y4.325 Z-9.000 I4.928 J-2.742 K0.000 F300.000
G3 X-59.789 Y5.010 Z-9.000 I-5.018 J34.933 K0.000 F300.000
G3 X-57.505 Y6.043 Z-9.000 I-1.456 J6.259 K0.000 F300.000
G2 X-58.662 Y12.169 Z-9.000 I33.935 J9.582 K0.000 F300.000
G2 X-59.231 Y27.663 Z-9.000 I176.749 J14.247 K0.000 F300.000
G2 X-58.949 Y28.570 Z-9.000 I1.585 J0.004 K0.000 F300.000
G2 X-51.250 Y31.991 Z-9.000 I7.904 J-7.413 K0.000 F300.000
G2 X-49.819 Y31.257 Z-9.000 I0.092 J-1.582 K0.000 F300.000
G3 X-9.296 Y30.968 Z-9.000 I20.349 J12.066 K0.000 F300.000
G2 X-7.329 Y31.550 Z-9.000 I1.327 J-0.867 K0.000 F300.000
G2 X1.800 Y25.899 Z-9.000 I-12.901 J-31.040 K0.000 F300.000
G2 X2.190 Y23.941 Z-9.000 I-1.012 J-1.220 K0.000 F300.000
G3 X-9.996 Y-7.876 Z-9.000 I114.623 J-62.144 K0.000 F300.000
G3 X-9.839 Y-7.947 Z-9.000 I0.106 J0.025 K0.000 F300.000
G2 X2.579 Y-10.323 Z-9.000 I5.359 J-5.628 K0.000 F300.000
G0 Z5.000
G0 X5.370 Y-37.087 Z5.000
G0 X5.370 Y-37.087 Z3.000
G1 X5.370 Y-37.087 Z-9.000 F300.000
G2 X11.960 Y-39.005 Z-9.000 I0.943 J-9.041 K0.000 F300.000
G2 X13.007 Y-44.558 Z-9.000 I-3.328 J-3.503 K0.000 F300.000
G2 X9.288 Y-47.325 Z-9.000 I-4.928 J2.742 K0.000 F300.000
G3 X5.789 Y-48.010 Z-9.000 I5.018 J-34.933 K0.000 F300.000
G3 X3.505 Y-49.043 Z-9.000 I1.456 J-6.259 K0.000 F300.000
G2 X4.662 Y-55.169 Z-9.000 I-33.935 J-9.582 K0.000 F300.000
G2 X5.231 Y-70.663 Z-9.000 I-176.749 J-14.247 K0.000 F300.000
G2 X4.949 Y-71.570 Z-9.000 I-1.585 J-0.004 K0.000 F300.000
G2 X-2.750 Y-74.991 Z-9.000 I-7.904 J7.413 K0.000 F300.000
G2 X-4.181 Y-74.257 Z-9.000 I-0.092 J1.582 K0.000 F300.000
G3 X-44.704 Y-73.968 Z-9.000 I-20.349 J-12.066 K0.000 F300.000
G2 X-46.671 Y-74.550 Z-9.000 I-1.327 J0.867 K0.000 F300.000
G2 X-55.800 Y-68.899 Z-9.000 I12.901 J31.040 K0.000 F300.000
G2 X-56.190 Y-66.941 Z-9.000 I1.012 J1.220 K0.000 F300.000
G3 X-44.004 Y-35.124 Z-9.000 I-114.623 J62.144 K0.000 F300.000
G3 X-44.161 Y-35.053 Z-9.000 I-0.106 J-0.025 K0.000 F300.000
G2 X-57.155 Y-27.972 Z-9.000 I-5.359 J5.628 K0.000 F300.000
G2 X-54.078 Y-22.276 Z-9.000 I16.900 J-5.451 K0.000 F300.000
G2 X-47.451 Y-15.493 Z-9.000 I44.340 J-36.693 K0.000 F300.000
G1 X-47.422 Y-15.461 Z-9.000 F300.000
G2 X-47.361 Y-13.197 Z-9.000 I35.537 J0.175 K0.000 F300.000
G2 X-47.086 Y-11.822 Z-9.000 I9.081 J-1.103 K0.000 F300.000
G2 X-46.531 Y-10.507 Z-9.000 I6.400 J-1.927 K0.000 F300.000
G2 X-45.146 Y-8.752 Z-9.000 I5.456 J-2.881 K0.000 F300.000
G2 X-43.632 Y-8.017 Z-9.000 I2.526 J-3.274 K0.000 F300.000
G2 X-39.940 Y-8.527 Z-9.000 I1.209 J-4.863 K0.000 F300.000
G1 X-38.220 Y-9.750 Z-9.000 F300.000
G1 X-36.756 Y-10.990 Z-9.000 F300.000
G1 X-34.493 Y-13.219 Z-9.000 F300.000
G1 X-32.804 Y-15.243 Z-9.000 F300.000
G2 X-30.227 Y-19.680 Z-9.000 I-92.198 J-56.505 K0.000 F300.000
G1 X-28.870 Y-22.727 Z-9.000 F300.000
G2 X-27.274 Y-28.841 Z-9.000 I-49.947 J-16.307 K0.000 F300.000
G3 X-20.560 Y-35.885 Z-9.000 I7.287 J0.224 K0.000 F300.000
G2 X-4.064 Y-37.395 Z-9.000 I5.475 J-31.048 K0.000 F300.000
G2 X-1.337 Y-39.617 Z-9.000 I-3.214 J-6.732 K0.000 F300.000
G3 X2.845 Y-37.725 Z-9.000 I-7.846 J22.910 K0.000 F300.000
G2 X5.370 Y-37.087 Z-9.000 I3.468 J-8.403 K0.000 F300.000
G1 X5.370 Y-37.087 Z-11.000 F300.000
G2 X11.960 Y-39.005 Z-11.000 I0.943 J-9.041 K0.000 F300.000
G2 X13.007 Y-44.558 Z-11.000 I-3.328 J-3.503 K0.000 F300.000
G2 X9.288 Y-47.325 Z-11.000 I-4.928 J2.742 K0.000 F300.000
G3 X5.789 Y-48.010 Z-11.000 I5.018 J-34.933 K0.000 F300.000
G3 X3.505 Y-49.043 Z-11.000 I1.456 J-6.259 K0.000 F300.000
G2 X4.662 Y-55.169 Z-11.000 I-33.935 J-9.582 K0.000 F300.000
G2 X5.231 Y-70.663 Z-11.000 I-176.749 J-14.247 K0.000 F300.000
G2 X4.949 Y-71.570 Z-11.000 I-1.585 J-0.004 K0.000 F300.000
G2 X-2.750 Y-74.991 Z-11.000 I-7.904 J7.413 K0.000 F300.000
G2 X-4.181 Y-74.257 Z-11.000 I-0.092 J1.582 K0.000 F300.000
G3 X-44.704 Y-73.968 Z-11.000 I-20.349 J-12.066 K0.000 F300.000
G2 X-46.671 Y-74.550 Z-11.000 I-1.327 J0.867 K0.000 F300.000
G2 X-55.800 Y-68.899 Z-11.000 I12.901 J31.040 K0.000 F300.000
G2 X-56.190 Y-66.941 Z-11.000 I1.012 J1.220 K0.000 F300.000
G3 X-44.004 Y-35.124 Z-11.000 I-114.623 J62.144 K0.000 F300.000
G3 X-44.161 Y-35.053 Z-11.000 I-0.106 J-0.025 K0.000 F300.000
G2 X-57.155 Y-27.972 Z-11.000 I-5.359 J5.628 K0.000 F300.000
G2 X-54.078 Y-22.276 Z-11.000 I16.900 J-5.451 K0.000 F300.000
G2 X-47.451 Y-15.493 Z-11.000 I44.340 J-36.693 K0.000 F300.000
G1 X-47.422 Y-15.461 Z-11.000 F300.000
G2 X-47.361 Y-13.197 Z-11.000 I35.537 J0.175 K0.000 F300.000
G2 X-47.086 Y-11.822 Z-11.000 I9.081 J-1.103 K0.000 F300.000
G2 X-46.531 Y-10.507 Z-11.000 I6.400 J-1.927 K0.000 F300.000
G2 X-45.146 Y-8.752 Z-11.000 I5.456 J-2.881 K0.000 F300.000
G2 X-43.632 Y-8.017 Z-11.000 I2.526 J-3.274 K0.000 F300.000
G2 X-39.940 Y-8.527 Z-11.000 I1.209 J-4.863 K0.000 F300.000
G1 X-38.220 Y-9.750 Z-11.000 F300.000
G1 X-36.756 Y-10.990 Z-11.000 F300.000
G1 X-34.493 Y-13.219 Z-11.000 F300.000
G1 X-32.804 Y-15.243 Z-11.000 F300.000
G2 X-30.227 Y-19.680 Z-11.000 I-92.198 J-56.505 K0.000 F300.000
G1 X-28.870 Y-22.727 Z-11.000 F300.000
G2 X-27.274 Y-28.841 Z-11.000 I-49.947 J-16.307 K0.000 F300.000
G3 X-20.560 Y-35.885 Z-11.000 I7.287 J0.224 K0.000 F300.000
G2 X-4.064 Y-37.395 Z-11.000 I5.475 J-31.048 K0.000 F300.000
G2 X-1.337 Y-39.617 Z-11.000 I-3.214 J-6.732 K0.000 F300.000
G3 X2.845 Y-37.725 Z-11.000 I-7.846 J22.910 K0.000 F300.000
G2 X5.370 Y-37.087 Z-11.000 I3.468 J-8.403 K0.000 F300.000
G0 Z5.000
G0 X16.396 Y-41.847 Z5.000
G0 X16.396 Y-41.847 Z3.000
G1 X16.396 Y-41.847 Z-11.000 F300.000
G3 X7.032 Y-12.296 Z-11.000 I-21.719 J9.377 K0.000 F300.000
G2 X6.450 Y-10.329 Z-11.000 I0.867 J1.327 K0.000 F300.000
G2 X12.101 Y-1.200 Z-11.000 I31.040 J-12.901 K0.000 F300.000
G2 X14.059 Y-0.810 Z-11.000 I1.220 J-1.012 K0.000 F300.000
G3 X45.876 Y-12.996 Z-11.000 I62.144 J114.623 K0.000 F300.000
G3 X45.947 Y-12.839 Z-11.000 I-0.025 J0.106 K0.000 F300.000
G2 X53.028 Y0.155 Z-11.000 I5.628 J5.359 K0.000 F300.000
G2 X58.724 Y-2.922 Z-11.000 I-5.451 J-16.900 K0.000 F300.000
G2 X65.507 Y-9.549 Z-11.000 I-36.693 J-44.340 K0.000 F300.000
G1 X65.539 Y-9.578 Z-11.000 F300.000
G2 X67.803 Y-9.639 Z-11.000 I0.175 J-35.536 K0.000 F300.000
G2 X69.178 Y-9.914 Z-11.000 I-1.103 J-9.081 K0.000 F300.000
G2 X70.493 Y-10.469 Z-11.000 I-1.927 J-6.400 K0.000 F300.000
G2 X72.248 Y-11.854 Z-11.000 I-2.881 J-5.456 K0.000 F300.000
G2 X72.983 Y-13.368 Z-11.000 I-3.274 J-2.526 K0.000 F300.000
G2 X72.473 Y-17.060 Z-11.000 I-4.863 J-1.209 K0.000 F300.000
G1 X71.250 Y-18.780 Z-11.000 F300.000
G1 X70.010 Y-20.244 Z-11.000 F300.000
G1 X67.781 Y-22.507 Z-11.000 F300.000
G1 X65.757 Y-24.196 Z-11.000 F300.000
G2 X61.320 Y-26.773 Z-11.000 I-56.505 J92.198 K0.000 F300.000
G1 X58.273 Y-28.130 Z-11.000 F300.000
G2 X52.159 Y-29.726 Z-11.000 I-16.307 J49.947 K0.000 F300.000
G3 X45.115 Y-36.440 Z-11.000 I0.224 J-7.287 K0.000 F300.000
G2 X43.605 Y-52.936 Z-11.000 I-31.048 J-5.475 K0.000 F300.000
G2 X41.383 Y-55.663 Z-11.000 I-6.732 J3.214 K0.000 F300.000
G3 X43.275 Y-59.845 Z-11.000 I22.910 J7.846 K0.000 F300.000
G2 X41.995 Y-68.960 Z-11.000 I-8.403 J-3.468 K0.000 F300.000
G2 X39.055 Y-70.430 Z-11.000 I-3.449 J3.222 K0.000 F300.000
G2 X36.743 Y-70.130 Z-11.000 I-0.578 J4.596 K0.000 F300.000
G2 X33.675 Y-66.288 Z-11.000 I2.275 J4.963 K0.000 F300.000
G3 X32.990 Y-62.789 Z-11.000 I-34.933 J-5.018 K0.000 F300.000
G3 X31.957 Y-60.505 Z-11.000 I-6.259 J-1.456 K0.000 F300.000
G2 X25.831 Y-61.662 Z-11.000 I-9.582 J33.935 K0.000 F300.000
G2 X10.337 Y-62.231 Z-11.000 I-14.247 J176.749 K0.000 F300.000
G2 X9.430 Y-61.949 Z-11.000 I-0.004 J1.585 K0.000 F300.000
G2 X6.009 Y-54.250 Z-11.000 I7.413 J7.904 K0.000 F300.000
G2 X6.743 Y-52.819 Z-11.000 I1.582 J0.092 K0.000 F300.000
G3 X16.396 Y-41.847 Z-11.000 I-12.066 J20.349 K0.000 F300.000
G0 Z5.000
G0 X-7.160 Y-31.860 Z5.000
G0 X-7.160 Y-31.860 Z3.000
G1 X-7.160 Y-31.860 Z-11.000 F300.000
G2 X-7.469 Y-32.493 Z-11.000 I-6.154 J2.609 K0.000 F300.000
G2 X-8.854 Y-34.248 Z-11.000 I-5.456 J2.881 K0.000 F300.000
G2 X-10.847 Y-35.070 Z-11.000 I-2.537 J3.323 K0.000 F300.000
G2 X-14.060 Y-34.473 Z-11.000 I-0.757 J4.868 K0.000 F300.000
G1 X-15.780 Y-33.250 Z-11.000 F300.000
G1 X-17.244 Y-32.010 Z-11.000 F300.000
G1 X-19.507 Y-29.781 Z-11.000 F300.000
G1 X-21.196 Y-27.757 Z-11.000 F300.000
G2 X-23.773 Y-23.320 Z-11.000 I92.198 J56.505 K0.000 F300.000
G1 X-25.130 Y-20.273 Z-11.000 F300.000
G2 X-26.726 Y-14.159 Z-11.000 I49.947 J16.307 K0.000 F300.000
G3 X-33.440 Y-7.115 Z-11.000 I-7.287 J-0.224 K0.000 F300.000
G2 X-49.936 Y-5.605 Z-11.000 I-5.475 J31.048 K0.000 F300.000
G2 X-52.663 Y-3.383 Z-11.000 I3.214 J6.732 K0.000 F300.000
G3 X-56.845 Y-5.275 Z-11.000 I7.846 J-22.910 K0.000 F300.000
G2 X-65.960 Y-3.995 Z-11.000 I-3.468 J8.403 K0.000 F300.000
G2 X-67.007 Y1.558 Z-11.000 I3.328 J3.503 K0.000 F300.000
G2 X-63.288 Y4.325 Z-11.000 I4.928 J-2.742 K0.000 F300.000
G3 X-59.789 Y5.010 Z-11.000 I-5.018 J34.933 K0.000 F300.000
G3 X-57.505 Y6.043 Z-11.000 I-1.456 J6.259 K0.000 F300.000
G2 X-58.662 Y12.169 Z-11.000 I33.935 J9.582 K0.000 F300.000
G2 X-59.231 Y27.663 Z-11.000 I176.749 J14.247 K0.000 F300.000
G2 X-58.949 Y28.570 Z-11.000 I1.585 J0.004 K0.000 F300.000
G2 X-51.250 Y31.991 Z-11.000 I7.904 J-7.413 K0.000 F300.000
G2 X-49.819 Y31.257 Z-11.000 I0.092 J-1.582 K0.000 F300.000
G3 X-9.296 Y30.968 Z-11.000 I20.349 J12.066 K0.000 F300.000
G2 X-7.329 Y31.550 Z-11.000 I1.327 J-0.867 K0.000 F300.000
G2 X1.800 Y25.899 Z-11.000 I-12.901 J-31.040 K0.000 F300.000
G2 X2.190 Y23.941 Z-11.000 I-1.012 J-1.220 K0.000 F300.000
G3 X-9.996 Y-7.876 Z-11.000 I114.623 J-62.144 K0.000 F300.000
G3 X-9.839 Y-7.947 Z-11.000 I0.106 J0.025 K0.000 F300.000
G2 X3.155 Y-15.028 Z-11.000 I5.359 J-5.628 K0.000 F300.000
G2 X0.078 Y-20.724 Z-11.000 I-16.900 J5.451 K0.000 F300.000
G2 X-6.549 Y-27.507 Z-11.000 I-44.340 J36.693 K0.000 F300.000
G1 X-6.578 Y-27.539 Z-11.000 F300.000
G2 X-6.639 Y-29.803 Z-11.000 I-35.536 J-0.175 K0.000 F300.000
G2 X-6.914 Y-31.178 Z-11.000 I-9.081 J1.103 K0.000 F300.000
G2 X-7.160 Y-31.860 Z-11.000 I-6.400 J1.927 K0.000 F300.000
G0 Z5.000
G0 X23.220 Y6.750 Z5.000
G0 X23.220 Y6.750 Z3.000
G1 X23.220 Y6.750 Z-11.000 F300.000
G1 X21.756 Y7.990 Z-11.000 F300.000
G1 X19.493 Y10.219 Z-11.000 F300.000
G1 X17.804 Y12.243 Z-11.000 F300.000
G2 X15.227 Y16.680 Z-11.000 I92.199 J56.506 K0.000 F300.000
G1 X13.870 Y19.727 Z-11.000 F300.000
G2 X12.274 Y25.841 Z-11.000 I49.947 J16.307 K0.000 F300.000
G3 X5.560 Y32.885 Z-11.000 I-7.287 J-0.224 K0.000 F300.000
G2 X-10.936 Y34.395 Z-11.000 I-5.475 J31.048 K0.000 F300.000
G2 X-13.663 Y36.617 Z-11.000 I3.214 J6.732 K0.000 F300.000
G3 X-17.845 Y34.725 Z-11.000 I7.846 J-22.910 K0.000 F300.000
G2 X-26.960 Y36.005 Z-11.000 I-3.468 J8.403 K0.000 F300.000
G2 X-28.007 Y41.558 Z-11.000 I3.328 J3.503 K0.000 F300.000
G2 X-24.288 Y44.325 Z-11.000 I4.928 J-2.742 K0.000 F300.000
G3 X-20.789 Y45.010 Z-11.000 I-5.018 J34.933 K0.000 F300.000
G3 X-18.505 Y46.043 Z-11.000 I-1.456 J6.259 K0.000 F300.000
G2 X-19.662 Y52.169 Z-11.000 I33.935 J9.582 K0.000 F300.000
G2 X-20.231 Y67.663 Z-11.000 I176.749 J14.247 K0.000 F300.000
G2 X-19.949 Y68.570 Z-11.000 I1.585 J0.004 K0.000 F300.000
G2 X-12.250 Y71.991 Z-11.000 I7.904 J-7.413 K0.000 F300.000
G2 X-10.819 Y71.257 Z-11.000 I0.092 J-1.582 K0.000 F300.000
G3 X29.704 Y70.968 Z-11.000 I20.349 J12.066 K0.000 F300.000
G2 X31.671 Y71.550 Z-11.000 I1.327 J-0.867 K0.000 F300.000
G2 X40.800 Y65.899 Z-11.000 I-12.901 J-31.040 K0.000 F300.000
G2 X41.190 Y63.941 Z-11.000 I-1.012 J-1.220 K0.000 F300.000
G3 X29.004 Y32.124 Z-11.000 I114.623 J-62.144 K0.000 F300.000
G3 X29.161 Y32.053 Z-11.000 I0.106 J0.025 K0.000 F300.000
G2 X42.155 Y24.972 Z-11.000 I5.359 J-5.628 K0.000 F300.000
G2 X39.078 Y19.276 Z-11.000 I-16.900 J5.451 K0.000 F300.000
G2 X32.451 Y12.493 Z-11.000 I-44.340 J36.693 K0.000 F300.000
G1 X32.422 Y12.461 Z-11.000 F300.000
G2 X32.361 Y10.197 Z-11.000 I-35.536 J-0.175 K0.000 F300.000
G2 X32.086 Y8.822 Z-11.000 I-9.081 J1.103 K0.000 F300.000
G2 X31.531 Y7.507 Z-11.000 I-6.400 J1.927 K0.000 F300.000
G2 X30.146 Y5.752 Z-11.000 I-5.456 J2.881 K0.000 F300.000
G2 X28.153 Y4.930 Z-11.000 I-2.537 J3.323 K0.000 F300.000
G2 X24.940 Y5.527 Z-11.000 I-0.757 J4.868 K0.000 F300.000
G1 X23.220 Y6.750 Z-11.000 F300.000
G0 Z5.000
G0 Z5.000
(Finish operation: Profile005)
(Begin postamble)
M5
G17 G90
M2
