(Exported by FreeCAD)
(Post Processor: script_module)
(Output Time:2026-04-17 17:32:48.185409)
(Begin preamble)
G17 G90
G21
(Begin operation: Fixture)
(Path: Fixture)
G54
(Finish operation: Fixture)
(Begin operation: 3175002001)
(Path: 3175002001)
(3175002001)
(Begin toolchange)
( M6 T2 )
M3 S10000
(Finish operation: 3175002001)
(Begin operation: Profile004)
(Path: Profile004)
(Profile004)
(Compensated Tool Path. Diameter: 3.17)
G0 Z5.000
G0 X32.983 Y5.808
G0 Z3.000
G1 X32.983 Y5.808 Z-3.170 F300.000
G2 X36.960 Y3.995 Z-3.170 I-1.670 J-8.936 K0.000 F300.000
G2 X38.007 Y-1.558 Z-3.170 I-3.328 J-3.503 K0.000 F300.000
G2 X34.288 Y-4.325 Z-3.170 I-4.928 J2.742 K0.000 F300.000
G3 X30.789 Y-5.010 Z-3.170 I5.018 J-34.933 K0.000 F300.000
G3 X28.505 Y-6.043 Z-3.170 I1.456 J-6.259 K0.000 F300.000
G2 X29.662 Y-12.169 Z-3.170 I-33.935 J-9.582 K0.000 F300.000
G2 X30.231 Y-27.663 Z-3.170 I-176.749 J-14.247 K0.000 F300.000
G2 X29.949 Y-28.570 Z-3.170 I-1.585 J-0.004 K0.000 F300.000
G2 X22.250 Y-31.991 Z-3.170 I-7.904 J7.413 K0.000 F300.000
G2 X20.819 Y-31.257 Z-3.170 I-0.092 J1.582 K0.000 F300.000
G3 X-19.704 Y-30.968 Z-3.170 I-20.349 J-12.066 K0.000 F300.000
G2 X-21.671 Y-31.550 Z-3.170 I-1.327 J0.867 K0.000 F300.000
G2 X-30.800 Y-25.899 Z-3.170 I12.901 J31.040 K0.000 F300.000
G2 X-31.190 Y-23.941 Z-3.170 I1.012 J1.220 K0.000 F300.000
G3 X-19.004 Y7.876 Z-3.170 I-114.623 J62.144 K0.000 F300.000
G3 X-19.161 Y7.947 Z-3.170 I-0.106 J-0.025 K0.000 F300.000
G2 X-32.155 Y15.028 Z-3.170 I-5.359 J5.628 K0.000 F300.000
G2 X-29.078 Y20.724 Z-3.170 I16.900 J-5.451 K0.000 F300.000
G2 X-22.451 Y27.507 Z-3.170 I44.340 J-36.693 K0.000 F300.000
G1 X-22.422 Y27.539 Z-3.170 F300.000
G2 X-22.361 Y29.803 Z-3.170 I35.536 J0.175 K0.000 F300.000
G2 X-22.086 Y31.178 Z-3.170 I9.081 J-1.103 K0.000 F300.000
G2 X-21.531 Y32.493 Z-3.170 I6.400 J-1.927 K0.000 F300.000
G2 X-20.146 Y34.248 Z-3.170 I5.456 J-2.881 K0.000 F300.000
G2 X-18.632 Y34.983 Z-3.170 I2.526 J-3.274 K0.000 F300.000
G2 X-14.940 Y34.473 Z-3.170 I1.209 J-4.863 K0.000 F300.000
G1 X-13.220 Y33.250 Z-3.170 F300.000
G1 X-11.756 Y32.010 Z-3.170 F300.000
G1 X-9.493 Y29.781 Z-3.170 F300.000
G1 X-7.804 Y27.757 Z-3.170 F300.000
G2 X-5.227 Y23.320 Z-3.170 I-92.198 J-56.505 K0.000 F300.000
G1 X-3.870 Y20.273 Z-3.170 F300.000
G2 X-2.274 Y14.159 Z-3.170 I-49.947 J-16.307 K0.000 F300.000
G3 X4.440 Y7.115 Z-3.170 I7.287 J0.224 K0.000 F300.000
G2 X20.936 Y5.605 Z-3.170 I5.475 J-31.048 K0.000 F300.000
G2 X23.663 Y3.383 Z-3.170 I-3.214 J-6.732 K0.000 F300.000
G3 X27.845 Y5.275 Z-3.170 I-7.846 J22.910 K0.000 F300.000
G2 X32.983 Y5.808 Z-3.170 I3.468 J-8.403 K0.000 F300.000
G1 X32.983 Y5.808 Z-6.340 F300.000
G2 X36.960 Y3.995 Z-6.340 I-1.670 J-8.936 K0.000 F300.000
G2 X38.007 Y-1.558 Z-6.340 I-3.328 J-3.503 K0.000 F300.000
G2 X34.288 Y-4.325 Z-6.340 I-4.928 J2.742 K0.000 F300.000
G3 X30.789 Y-5.010 Z-6.340 I5.018 J-34.933 K0.000 F300.000
G3 X28.505 Y-6.043 Z-6.340 I1.456 J-6.259 K0.000 F300.000
G2 X29.662 Y-12.169 Z-6.340 I-33.935 J-9.582 K0.000 F300.000
G2 X30.231 Y-27.663 Z-6.340 I-176.749 J-14.247 K0.000 F300.000
G2 X29.949 Y-28.570 Z-6.340 I-1.585 J-0.004 K0.000 F300.000
G2 X22.250 Y-31.991 Z-6.340 I-7.904 J7.413 K0.000 F300.000
G2 X20.819 Y-31.257 Z-6.340 I-0.092 J1.582 K0.000 F300.000
G3 X-19.704 Y-30.968 Z-6.340 I-20.349 J-12.066 K0.000 F300.000
G2 X-21.671 Y-31.550 Z-6.340 I-1.327 J0.867 K0.000 F300.000
G2 X-30.800 Y-25.899 Z-6.340 I12.901 J31.040 K0.000 F300.000
G2 X-31.190 Y-23.941 Z-6.340 I1.012 J1.220 K0.000 F300.000
G3 X-19.004 Y7.876 Z-6.340 I-114.623 J62.144 K0.000 F300.000
G3 X-19.161 Y7.947 Z-6.340 I-0.106 J-0.025 K0.000 F300.000
G2 X-32.155 Y15.028 Z-6.340 I-5.359 J5.628 K0.000 F300.000
G2 X-29.078 Y20.724 Z-6.340 I16.900 J-5.451 K0.000 F300.000
G2 X-22.451 Y27.507 Z-6.340 I44.340 J-36.693 K0.000 F300.000
G1 X-22.422 Y27.539 Z-6.340 F300.000
G2 X-22.361 Y29.803 Z-6.340 I35.536 J0.175 K0.000 F300.000
G2 X-22.086 Y31.178 Z-6.340 I9.081 J-1.103 K0.000 F300.000
G2 X-21.531 Y32.493 Z-6.340 I6.400 J-1.927 K0.000 F300.000
G2 X-20.146 Y34.248 Z-6.340 I5.456 J-2.881 K0.000 F300.000
G2 X-18.632 Y34.983 Z-6.340 I2.526 J-3.274 K0.000 F300.000
G2 X-14.940 Y34.473 Z-6.340 I1.209 J-4.863 K0.000 F300.000
G1 X-13.220 Y33.250 Z-6.340 F300.000
G1 X-11.756 Y32.010 Z-6.340 F300.000
G1 X-9.493 Y29.781 Z-6.340 F300.000
G1 X-7.804 Y27.757 Z-6.340 F300.000
G2 X-5.227 Y23.320 Z-6.340 I-92.198 J-56.505 K0.000 F300.000
G1 X-3.870 Y20.273 Z-6.340 F300.000
G2 X-2.274 Y14.159 Z-6.340 I-49.947 J-16.307 K0.000 F300.000
G3 X4.440 Y7.115 Z-6.340 I7.287 J0.224 K0.000 F300.000
G2 X20.936 Y5.605 Z-6.340 I5.475 J-31.048 K0.000 F300.000
G2 X23.663 Y3.383 Z-6.340 I-3.214 J-6.732 K0.000 F300.000
G3 X27.845 Y5.275 Z-6.340 I-7.846 J22.910 K0.000 F300.000
G2 X32.983 Y5.808 Z-6.340 I3.468 J-8.403 K0.000 F300.000
G1 X32.983 Y5.808 Z-9.510 F300.000
G2 X36.960 Y3.995 Z-9.510 I-1.670 J-8.936 K0.000 F300.000
G2 X38.007 Y-1.558 Z-9.510 I-3.328 J-3.503 K0.000 F300.000
G2 X34.288 Y-4.325 Z-9.510 I-4.928 J2.742 K0.000 F300.000
G3 X30.789 Y-5.010 Z-9.510 I5.018 J-34.933 K0.000 F300.000
G3 X28.505 Y-6.043 Z-9.510 I1.456 J-6.259 K0.000 F300.000
G2 X29.662 Y-12.169 Z-9.510 I-33.935 J-9.582 K0.000 F300.000
G2 X30.231 Y-27.663 Z-9.510 I-176.749 J-14.247 K0.000 F300.000
G2 X29.949 Y-28.570 Z-9.510 I-1.585 J-0.004 K0.000 F300.000
G2 X22.250 Y-31.991 Z-9.510 I-7.904 J7.413 K0.000 F300.000
G2 X20.819 Y-31.257 Z-9.510 I-0.092 J1.582 K0.000 F300.000
G3 X-19.704 Y-30.968 Z-9.510 I-20.349 J-12.066 K0.000 F300.000
G2 X-21.671 Y-31.550 Z-9.510 I-1.327 J0.867 K0.000 F300.000
G2 X-30.800 Y-25.899 Z-9.510 I12.901 J31.040 K0.000 F300.000
G2 X-31.190 Y-23.941 Z-9.510 I1.012 J1.220 K0.000 F300.000
G3 X-19.004 Y7.876 Z-9.510 I-114.623 J62.144 K0.000 F300.000
G3 X-19.161 Y7.947 Z-9.510 I-0.106 J-0.025 K0.000 F300.000
G2 X-32.155 Y15.028 Z-9.510 I-5.359 J5.628 K0.000 F300.000
G2 X-29.078 Y20.724 Z-9.510 I16.900 J-5.451 K0.000 F300.000
G2 X-22.451 Y27.507 Z-9.510 I44.340 J-36.693 K0.000 F300.000
G1 X-22.422 Y27.539 Z-9.510 F300.000
G2 X-22.361 Y29.803 Z-9.510 I35.536 J0.175 K0.000 F300.000
G2 X-22.086 Y31.178 Z-9.510 I9.081 J-1.103 K0.000 F300.000
G2 X-21.531 Y32.493 Z-9.510 I6.400 J-1.927 K0.000 F300.000
G2 X-20.146 Y34.248 Z-9.510 I5.456 J-2.881 K0.000 F300.000
G2 X-18.632 Y34.983 Z-9.510 I2.526 J-3.274 K0.000 F300.000
G2 X-14.940 Y34.473 Z-9.510 I1.209 J-4.863 K0.000 F300.000
G1 X-13.220 Y33.250 Z-9.510 F300.000
G1 X-11.756 Y32.010 Z-9.510 F300.000
G1 X-9.493 Y29.781 Z-9.510 F300.000
G1 X-7.804 Y27.757 Z-9.510 F300.000
G2 X-5.227 Y23.320 Z-9.510 I-92.198 J-56.505 K0.000 F300.000
G1 X-3.870 Y20.273 Z-9.510 F300.000
G2 X-2.274 Y14.159 Z-9.510 I-49.947 J-16.307 K0.000 F300.000
G3 X4.440 Y7.115 Z-9.510 I7.287 J0.224 K0.000 F300.000
G2 X20.936 Y5.605 Z-9.510 I5.475 J-31.048 K0.000 F300.000
G2 X23.663 Y3.383 Z-9.510 I-3.214 J-6.732 K0.000 F300.000
G3 X27.845 Y5.275 Z-9.510 I-7.846 J22.910 K0.000 F300.000
G2 X32.983 Y5.808 Z-9.510 I3.468 J-8.403 K0.000 F300.000
G1 X32.983 Y5.808 Z-11.000 F300.000
G2 X36.960 Y3.995 Z-11.000 I-1.670 J-8.936 K0.000 F300.000
G2 X38.007 Y-1.558 Z-11.000 I-3.328 J-3.503 K0.000 F300.000
G2 X34.288 Y-4.325 Z-11.000 I-4.928 J2.742 K0.000 F300.000
G3 X30.789 Y-5.010 Z-11.000 I5.018 J-34.933 K0.000 F300.000
G3 X28.505 Y-6.043 Z-11.000 I1.456 J-6.259 K0.000 F300.000
G2 X29.662 Y-12.169 Z-11.000 I-33.935 J-9.582 K0.000 F300.000
G2 X30.231 Y-27.663 Z-11.000 I-176.749 J-14.247 K0.000 F300.000
G2 X29.949 Y-28.570 Z-11.000 I-1.585 J-0.004 K0.000 F300.000
G2 X22.250 Y-31.991 Z-11.000 I-7.904 J7.413 K0.000 F300.000
G2 X20.819 Y-31.257 Z-11.000 I-0.092 J1.582 K0.000 F300.000
G3 X-19.704 Y-30.968 Z-11.000 I-20.349 J-12.066 K0.000 F300.000
G2 X-21.671 Y-31.550 Z-11.000 I-1.327 J0.867 K0.000 F300.000
G2 X-30.800 Y-25.899 Z-11.000 I12.901 J31.040 K0.000 F300.000
G2 X-31.190 Y-23.941 Z-11.000 I1.012 J1.220 K0.000 F300.000
G3 X-19.004 Y7.876 Z-11.000 I-114.623 J62.144 K0.000 F300.000
G3 X-19.161 Y7.947 Z-11.000 I-0.106 J-0.025 K0.000 F300.000
G2 X-32.155 Y15.028 Z-11.000 I-5.359 J5.628 K0.000 F300.000
G2 X-29.078 Y20.724 Z-11.000 I16.900 J-5.451 K0.000 F300.000
G2 X-22.451 Y27.507 Z-11.000 I44.340 J-36.693 K0.000 F300.000
G1 X-22.422 Y27.539 Z-11.000 F300.000
G2 X-22.361 Y29.803 Z-11.000 I35.536 J0.175 K0.000 F300.000
G2 X-22.086 Y31.178 Z-11.000 I9.081 J-1.103 K0.000 F300.000
G2 X-21.531 Y32.493 Z-11.000 I6.400 J-1.927 K0.000 F300.000
G2 X-20.146 Y34.248 Z-11.000 I5.456 J-2.881 K0.000 F300.000
G2 X-18.632 Y34.983 Z-11.000 I2.526 J-3.274 K0.000 F300.000
G2 X-14.940 Y34.473 Z-11.000 I1.209 J-4.863 K0.000 F300.000
G1 X-13.220 Y33.250 Z-11.000 F300.000
G1 X-11.756 Y32.010 Z-11.000 F300.000
G1 X-9.493 Y29.781 Z-11.000 F300.000
G1 X-7.804 Y27.757 Z-11.000 F300.000
G2 X-5.227 Y23.320 Z-11.000 I-92.198 J-56.505 K0.000 F300.000
G1 X-3.870 Y20.273 Z-11.000 F300.000
G2 X-2.274 Y14.159 Z-11.000 I-49.947 J-16.307 K0.000 F300.000
G3 X4.440 Y7.115 Z-11.000 I7.287 J0.224 K0.000 F300.000
G2 X20.936 Y5.605 Z-11.000 I5.475 J-31.048 K0.000 F300.000
G2 X23.663 Y3.383 Z-11.000 I-3.214 J-6.732 K0.000 F300.000
G3 X27.845 Y5.275 Z-11.000 I-7.846 J22.910 K0.000 F300.000
G2 X32.983 Y5.808 Z-11.000 I3.468 J-8.403 K0.000 F300.000
G0 Z5.000
G0 Z5.000
(Finish operation: Profile004)
(Begin postamble)
M5
G17 G90
M2
