(Exported by FreeCAD)
(Post Processor: script_module)
(Output Time:2026-04-17 17:32:54.146339)
(Begin preamble)
G17 G90
G21
(Begin operation: Fixture)
(Path: Fixture)
G54
(Finish operation: Fixture)
(Begin operation: 3175001)
(Path: 3175001)
(3175001)
(Begin toolchange)
( M6 T2 )
M3 S10000
(Finish operation: 3175001)
(Begin operation: Profile)
(Path: Profile)
(Profile)
(Compensated Tool Path. Diameter: 3.17)
G0 Z5.000
G0 X1.745 Y27.168
G0 Z3.000
G1 X1.745 Y27.168 Z-3.170 F300.000
G2 X2.723 Y25.306 Z-3.170 I-3.130 J-2.831 K0.000 F300.000
G2 X2.357 Y19.776 Z-3.170 I-10.429 J-2.085 K0.000 F300.000
G2 X3.438 Y17.480 Z-3.170 I-3.420 J-3.013 K0.000 F300.000
G2 X2.466 Y12.635 Z-3.170 I-8.291 J-0.857 K0.000 F300.000
G2 X1.337 Y11.096 Z-3.170 I-4.821 J2.352 K0.000 F300.000
G2 X2.203 Y8.171 Z-3.170 I-3.662 J-2.675 K0.000 F300.000
G2 X0.691 Y3.318 Z-3.170 I-14.872 J1.970 K0.000 F300.000
G2 X-0.328 Y1.795 Z-3.170 I-27.011 J16.967 K0.000 F300.000
G2 X-2.688 Y-0.945 Z-3.170 I-11.507 J7.529 K0.000 F300.000
G2 X-8.983 Y-5.222 Z-3.170 I-25.875 J31.307 K0.000 F300.000
G1 X-9.226 Y-5.334 Z-3.170 F300.000
G1 X-11.236 Y-6.058 Z-3.170 F300.000
G1 X-11.494 Y-6.127 Z-3.170 F300.000
G1 X-13.613 Y-6.507 Z-3.170 F300.000
G1 X-13.830 Y-6.531 Z-3.170 F300.000
G1 X-15.641 Y-6.603 Z-3.170 F300.000
G2 X-19.373 Y-6.102 Z-3.170 I1.314 J23.905 K0.000 F300.000
G1 X-20.990 Y-5.508 Z-3.170 F300.000
G1 X-21.177 Y-5.425 Z-3.170 F300.000
G1 X-22.695 Y-4.633 Z-3.170 F300.000
G1 X-22.886 Y-4.515 Z-3.170 F300.000
G1 X-24.173 Y-3.591 Z-3.170 F300.000
G1 X-24.423 Y-3.368 Z-3.170 F300.000
G1 X-25.710 Y-1.949 Z-3.170 F300.000
G2 X-26.555 Y-0.779 Z-3.170 I9.365 J7.647 K0.000 F300.000
G1 X-26.769 Y-0.353 Z-3.170 F300.000
G1 X-27.264 Y1.165 Z-3.170 F300.000
G1 X-27.342 Y1.657 Z-3.170 F300.000
G1 X-27.342 Y3.868 Z-3.170 F300.000
G1 X-27.288 Y4.278 Z-3.170 F300.000
G1 X-26.793 Y6.127 Z-3.170 F300.000
G1 X-26.681 Y6.423 Z-3.170 F300.000
G1 X-25.657 Y8.479 Z-3.170 F300.000
G1 X-24.698 Y10.054 Z-3.170 F300.000
G1 X-24.487 Y10.326 Z-3.170 F300.000
G1 X-23.184 Y11.675 Z-3.170 F300.000
G2 X-19.570 Y13.958 Z-3.170 I14.531 J-19.002 K0.000 F300.000
G3 X-16.882 Y15.449 Z-3.170 I-7.977 J17.550 K0.000 F300.000
G3 X-13.428 Y17.959 Z-3.170 I-8.566 J15.417 K0.000 F300.000
G3 X-10.020 Y22.426 Z-3.170 I-26.825 J24.000 K0.000 F300.000
G2 X-8.229 Y25.312 Z-3.170 I814.631 J-503.302 K0.000 F300.000
G1 X-8.075 Y25.521 Z-3.170 F300.000
G1 X-6.968 Y26.782 Z-3.170 F300.000
G1 X-6.719 Y27.012 Z-3.170 F300.000
G1 X-5.701 Y27.764 Z-3.170 F300.000
G1 X-5.380 Y27.948 Z-3.170 F300.000
G1 X-4.340 Y28.390 Z-3.170 F300.000
G2 X-1.884 Y28.723 Z-3.170 I2.024 J-5.700 K0.000 F300.000
G2 X0.719 Y27.995 Z-3.170 I0.029 J-4.916 K0.000 F300.000
G2 X1.745 Y27.168 Z-3.170 I-2.103 J-3.659 K0.000 F300.000
G1 X1.745 Y27.168 Z-6.000 F300.000
G2 X2.723 Y25.306 Z-6.000 I-3.130 J-2.831 K0.000 F300.000
G2 X2.357 Y19.776 Z-6.000 I-10.429 J-2.085 K0.000 F300.000
G2 X3.438 Y17.480 Z-6.000 I-3.420 J-3.013 K0.000 F300.000
G2 X2.466 Y12.635 Z-6.000 I-8.291 J-0.857 K0.000 F300.000
G2 X1.337 Y11.096 Z-6.000 I-4.821 J2.352 K0.000 F300.000
G2 X2.203 Y8.171 Z-6.000 I-3.662 J-2.675 K0.000 F300.000
G2 X0.691 Y3.318 Z-6.000 I-14.872 J1.970 K0.000 F300.000
G2 X-0.328 Y1.795 Z-6.000 I-27.011 J16.967 K0.000 F300.000
G2 X-2.688 Y-0.945 Z-6.000 I-11.507 J7.529 K0.000 F300.000
G2 X-8.983 Y-5.222 Z-6.000 I-25.875 J31.307 K0.000 F300.000
G1 X-9.226 Y-5.334 Z-6.000 F300.000
G1 X-11.236 Y-6.058 Z-6.000 F300.000
G1 X-11.494 Y-6.127 Z-6.000 F300.000
G1 X-13.613 Y-6.507 Z-6.000 F300.000
G1 X-13.830 Y-6.531 Z-6.000 F300.000
G1 X-15.641 Y-6.603 Z-6.000 F300.000
G2 X-19.373 Y-6.102 Z-6.000 I1.314 J23.905 K0.000 F300.000
G1 X-20.990 Y-5.508 Z-6.000 F300.000
G1 X-21.177 Y-5.425 Z-6.000 F300.000
G1 X-22.695 Y-4.633 Z-6.000 F300.000
G1 X-22.886 Y-4.515 Z-6.000 F300.000
G1 X-24.173 Y-3.591 Z-6.000 F300.000
G1 X-24.423 Y-3.368 Z-6.000 F300.000
G1 X-25.710 Y-1.949 Z-6.000 F300.000
G2 X-26.555 Y-0.779 Z-6.000 I9.365 J7.647 K0.000 F300.000
G1 X-26.769 Y-0.353 Z-6.000 F300.000
G1 X-27.264 Y1.165 Z-6.000 F300.000
G1 X-27.342 Y1.657 Z-6.000 F300.000
G1 X-27.342 Y3.868 Z-6.000 F300.000
G1 X-27.288 Y4.278 Z-6.000 F300.000
G1 X-26.793 Y6.127 Z-6.000 F300.000
G1 X-26.681 Y6.423 Z-6.000 F300.000
G1 X-25.657 Y8.479 Z-6.000 F300.000
G1 X-24.698 Y10.054 Z-6.000 F300.000
G1 X-24.487 Y10.326 Z-6.000 F300.000
G1 X-23.184 Y11.675 Z-6.000 F300.000
G2 X-19.570 Y13.958 Z-6.000 I14.531 J-19.002 K0.000 F300.000
G3 X-16.882 Y15.449 Z-6.000 I-7.977 J17.550 K0.000 F300.000
G3 X-13.428 Y17.959 Z-6.000 I-8.566 J15.417 K0.000 F300.000
G3 X-10.020 Y22.426 Z-6.000 I-26.825 J24.000 K0.000 F300.000
G2 X-8.229 Y25.312 Z-6.000 I814.631 J-503.302 K0.000 F300.000
G1 X-8.075 Y25.521 Z-6.000 F300.000
G1 X-6.968 Y26.782 Z-6.000 F300.000
G1 X-6.719 Y27.012 Z-6.000 F300.000
G1 X-5.701 Y27.764 Z-6.000 F300.000
G1 X-5.380 Y27.948 Z-6.000 F300.000
G1 X-4.340 Y28.390 Z-6.000 F300.000
G2 X-1.884 Y28.723 Z-6.000 I2.024 J-5.700 K0.000 F300.000
G2 X0.719 Y27.995 Z-6.000 I0.029 J-4.916 K0.000 F300.000
G2 X1.745 Y27.168 Z-6.000 I-2.103 J-3.659 K0.000 F300.000
G0 Z5.000
G0 Z5.000
(Finish operation: Profile)
(Begin operation: Profile001)
(Path: Profile001)
(Profile001)
(Compensated Tool Path. Diameter: 3.17)
G0 Z5.000
G0 X30.745 Y25.168
G0 Z3.000
G1 X30.745 Y25.168 Z-3.170 F300.000
G2 X31.723 Y23.306 Z-3.170 I-3.130 J-2.831 K0.000 F300.000
G2 X31.357 Y17.776 Z-3.170 I-10.429 J-2.085 K0.000 F300.000
G2 X32.438 Y15.480 Z-3.170 I-3.420 J-3.013 K0.000 F300.000
G2 X31.466 Y10.635 Z-3.170 I-8.291 J-0.857 K0.000 F300.000
G2 X30.337 Y9.096 Z-3.170 I-4.821 J2.352 K0.000 F300.000
G2 X31.203 Y6.171 Z-3.170 I-3.662 J-2.675 K0.000 F300.000
G2 X29.691 Y1.318 Z-3.170 I-14.872 J1.970 K0.000 F300.000
G2 X28.672 Y-0.205 Z-3.170 I-27.011 J16.967 K0.000 F300.000
G2 X26.312 Y-2.945 Z-3.170 I-11.507 J7.529 K0.000 F300.000
G2 X20.017 Y-7.222 Z-3.170 I-25.875 J31.307 K0.000 F300.000
G1 X19.774 Y-7.334 Z-3.170 F300.000
G1 X17.764 Y-8.058 Z-3.170 F300.000
G1 X17.506 Y-8.127 Z-3.170 F300.000
G1 X15.387 Y-8.507 Z-3.170 F300.000
G1 X15.170 Y-8.531 Z-3.170 F300.000
G1 X13.359 Y-8.603 Z-3.170 F300.000
G2 X9.627 Y-8.102 Z-3.170 I1.314 J23.905 K0.000 F300.000
G1 X8.010 Y-7.508 Z-3.170 F300.000
G1 X7.823 Y-7.425 Z-3.170 F300.000
G1 X6.305 Y-6.633 Z-3.170 F300.000
G1 X6.114 Y-6.515 Z-3.170 F300.000
G1 X4.827 Y-5.591 Z-3.170 F300.000
G1 X4.577 Y-5.368 Z-3.170 F300.000
G1 X3.290 Y-3.949 Z-3.170 F300.000
G2 X2.445 Y-2.779 Z-3.170 I9.365 J7.647 K0.000 F300.000
G1 X2.231 Y-2.353 Z-3.170 F300.000
G1 X1.736 Y-0.835 Z-3.170 F300.000
G1 X1.658 Y-0.343 Z-3.170 F300.000
G1 X1.658 Y1.868 Z-3.170 F300.000
G1 X1.712 Y2.278 Z-3.170 F300.000
G1 X2.207 Y4.127 Z-3.170 F300.000
G1 X2.319 Y4.423 Z-3.170 F300.000
G1 X3.343 Y6.479 Z-3.170 F300.000
G1 X4.302 Y8.054 Z-3.170 F300.000
G1 X4.513 Y8.326 Z-3.170 F300.000
G1 X5.816 Y9.675 Z-3.170 F300.000
G2 X9.430 Y11.958 Z-3.170 I14.531 J-19.002 K0.000 F300.000
G3 X12.118 Y13.449 Z-3.170 I-7.977 J17.550 K0.000 F300.000
G3 X15.572 Y15.959 Z-3.170 I-8.566 J15.417 K0.000 F300.000
G3 X18.980 Y20.426 Z-3.170 I-26.826 J24.000 K0.000 F300.000
G2 X20.771 Y23.312 Z-3.170 I814.628 J-503.300 K0.000 F300.000
G1 X20.925 Y23.521 Z-3.170 F300.000
G1 X22.032 Y24.782 Z-3.170 F300.000
G1 X22.281 Y25.012 Z-3.170 F300.000
G1 X23.299 Y25.764 Z-3.170 F300.000
G1 X23.620 Y25.948 Z-3.170 F300.000
G1 X24.660 Y26.390 Z-3.170 F300.000
G2 X27.116 Y26.723 Z-3.170 I2.024 J-5.700 K0.000 F300.000
G2 X29.719 Y25.995 Z-3.170 I0.029 J-4.916 K0.000 F300.000
G2 X30.745 Y25.168 Z-3.170 I-2.103 J-3.659 K0.000 F300.000
G1 X30.745 Y25.168 Z-6.000 F300.000
G2 X31.723 Y23.306 Z-6.000 I-3.130 J-2.831 K0.000 F300.000
G2 X31.357 Y17.776 Z-6.000 I-10.429 J-2.085 K0.000 F300.000
G2 X32.438 Y15.480 Z-6.000 I-3.420 J-3.013 K0.000 F300.000
G2 X31.466 Y10.635 Z-6.000 I-8.291 J-0.857 K0.000 F300.000
G2 X30.337 Y9.096 Z-6.000 I-4.821 J2.352 K0.000 F300.000
G2 X31.203 Y6.171 Z-6.000 I-3.662 J-2.675 K0.000 F300.000
G2 X29.691 Y1.318 Z-6.000 I-14.872 J1.970 K0.000 F300.000
G2 X28.672 Y-0.205 Z-6.000 I-27.011 J16.967 K0.000 F300.000
G2 X26.312 Y-2.945 Z-6.000 I-11.507 J7.529 K0.000 F300.000
G2 X20.017 Y-7.222 Z-6.000 I-25.875 J31.307 K0.000 F300.000
G1 X19.774 Y-7.334 Z-6.000 F300.000
G1 X17.764 Y-8.058 Z-6.000 F300.000
G1 X17.506 Y-8.127 Z-6.000 F300.000
G1 X15.387 Y-8.507 Z-6.000 F300.000
G1 X15.170 Y-8.531 Z-6.000 F300.000
G1 X13.359 Y-8.603 Z-6.000 F300.000
G2 X9.627 Y-8.102 Z-6.000 I1.314 J23.905 K0.000 F300.000
G1 X8.010 Y-7.508 Z-6.000 F300.000
G1 X7.823 Y-7.425 Z-6.000 F300.000
G1 X6.305 Y-6.633 Z-6.000 F300.000
G1 X6.114 Y-6.515 Z-6.000 F300.000
G1 X4.827 Y-5.591 Z-6.000 F300.000
G1 X4.577 Y-5.368 Z-6.000 F300.000
G1 X3.290 Y-3.949 Z-6.000 F300.000
G2 X2.445 Y-2.779 Z-6.000 I9.365 J7.647 K0.000 F300.000
G1 X2.231 Y-2.353 Z-6.000 F300.000
G1 X1.736 Y-0.835 Z-6.000 F300.000
G1 X1.658 Y-0.343 Z-6.000 F300.000
G1 X1.658 Y1.868 Z-6.000 F300.000
G1 X1.712 Y2.278 Z-6.000 F300.000
G1 X2.207 Y4.127 Z-6.000 F300.000
G1 X2.319 Y4.423 Z-6.000 F300.000
G1 X3.343 Y6.479 Z-6.000 F300.000
G1 X4.302 Y8.054 Z-6.000 F300.000
G1 X4.513 Y8.326 Z-6.000 F300.000
G1 X5.816 Y9.675 Z-6.000 F300.000
G2 X9.430 Y11.958 Z-6.000 I14.531 J-19.002 K0.000 F300.000
G3 X12.118 Y13.449 Z-6.000 I-7.977 J17.550 K0.000 F300.000
G3 X15.572 Y15.959 Z-6.000 I-8.566 J15.417 K0.000 F300.000
G3 X18.980 Y20.426 Z-6.000 I-26.826 J24.000 K0.000 F300.000
G2 X20.771 Y23.312 Z-6.000 I814.628 J-503.300 K0.000 F300.000
G1 X20.925 Y23.521 Z-6.000 F300.000
G1 X22.032 Y24.782 Z-6.000 F300.000
G1 X22.281 Y25.012 Z-6.000 F300.000
G1 X23.299 Y25.764 Z-6.000 F300.000
G1 X23.620 Y25.948 Z-6.000 F300.000
G1 X24.660 Y26.390 Z-6.000 F300.000
G2 X27.116 Y26.723 Z-6.000 I2.024 J-5.700 K0.000 F300.000
G2 X29.719 Y25.995 Z-6.000 I0.029 J-4.916 K0.000 F300.000
G2 X30.745 Y25.168 Z-6.000 I-2.103 J-3.659 K0.000 F300.000
G0 Z5.000
G0 Z5.000
(Finish operation: Profile001)
(Begin operation: Profile002)
(Path: Profile002)
(Profile002)
(Compensated Tool Path. Diameter: 3.17)
G0 Z5.000
G0 X38.478 Y-1.155
G0 Z3.000
G1 X38.478 Y-1.155 Z-3.170 F300.000
G2 X39.042 Y-8.388 Z-3.170 I-3.946 J-3.946 K0.000 F300.000
G2 X4.839 Y-24.598 Z-3.170 I-37.716 J35.392 K0.000 F300.000
G2 X-35.810 Y-8.996 Z-3.170 I-3.513 J51.602 K0.000 F300.000
G2 X-30.109 Y0.096 Z-3.170 I4.213 J3.691 K0.000 F300.000
G2 X-28.843 Y-0.503 Z-3.170 I-0.657 J-3.025 K0.000 F300.000
G3 X31.565 Y-0.417 Z-3.170 I30.161 J29.603 K0.000 F300.000
G1 X31.738 Y-0.270 Z-3.170 F300.000
G2 X38.478 Y-1.155 Z-3.170 I2.793 J-4.832 K0.000 F300.000
G1 X38.478 Y-1.155 Z-6.000 F300.000
G2 X39.042 Y-8.388 Z-6.000 I-3.946 J-3.946 K0.000 F300.000
G2 X4.839 Y-24.598 Z-6.000 I-37.716 J35.392 K0.000 F300.000
G2 X-35.810 Y-8.996 Z-6.000 I-3.513 J51.602 K0.000 F300.000
G2 X-30.109 Y0.096 Z-6.000 I4.213 J3.691 K0.000 F300.000
G2 X-28.843 Y-0.503 Z-6.000 I-0.657 J-3.025 K0.000 F300.000
G3 X31.565 Y-0.417 Z-6.000 I30.161 J29.603 K0.000 F300.000
G1 X31.738 Y-0.270 Z-6.000 F300.000
G2 X38.478 Y-1.155 Z-6.000 I2.793 J-4.832 K0.000 F300.000
G0 Z5.000
G0 Z5.000
(Finish operation: Profile002)
(Begin operation: Profile003)
(Path: Profile003)
(Profile003)
(Compensated Tool Path. Diameter: 3.17)
G0 Z5.000
G0 X38.478 Y-16.155
G0 Z3.000
G1 X38.478 Y-16.155 Z-3.170 F300.000
G2 X39.042 Y-23.388 Z-3.170 I-3.946 J-3.946 K0.000 F300.000
G2 X4.839 Y-39.598 Z-3.170 I-37.716 J35.392 K0.000 F300.000
G2 X-35.810 Y-23.996 Z-3.170 I-3.513 J51.602 K0.000 F300.000
G2 X-30.109 Y-14.904 Z-3.170 I4.213 J3.691 K0.000 F300.000
G2 X-28.843 Y-15.503 Z-3.170 I-0.657 J-3.025 K0.000 F300.000
G3 X31.565 Y-15.417 Z-3.170 I30.161 J29.603 K0.000 F300.000
G1 X31.738 Y-15.270 Z-3.170 F300.000
G2 X38.478 Y-16.155 Z-3.170 I2.793 J-4.832 K0.000 F300.000
G1 X38.478 Y-16.155 Z-6.000 F300.000
G2 X39.042 Y-23.388 Z-6.000 I-3.946 J-3.946 K0.000 F300.000
G2 X4.839 Y-39.598 Z-6.000 I-37.716 J35.392 K0.000 F300.000
G2 X-35.810 Y-23.996 Z-6.000 I-3.513 J51.602 K0.000 F300.000
G2 X-30.109 Y-14.904 Z-6.000 I4.213 J3.691 K0.000 F300.000
G2 X-28.843 Y-15.503 Z-6.000 I-0.657 J-3.025 K0.000 F300.000
G3 X31.565 Y-15.417 Z-6.000 I30.161 J29.603 K0.000 F300.000
G1 X31.738 Y-15.270 Z-6.000 F300.000
G2 X38.478 Y-16.155 Z-6.000 I2.793 J-4.832 K0.000 F300.000
G0 Z5.000
G0 Z5.000
(Finish operation: Profile003)
(Begin postamble)
M5
G17 G90
M2
