(Exported by FreeCAD)
(Post Processor: script_module)
(Output Time:2026-05-13 14:07:05.027213)
(Begin preamble)
G17 G90
G21
(Begin operation: Fixture)
(Path: Fixture)
G54
(Finish operation: Fixture)
(Begin operation: 3175001)
(Path: 3175001)
(3175001)
(Begin toolchange)
( M6 T2 )
M3 S10000
(Finish operation: 3175001)
(Begin operation: Pocket_Shape)
(Path: Pocket_Shape)
(Pocket_Shape)
G0 Z5.000
G0 X0.000 Y0.000
G0 X0.026 Y7.756
G0 X0.026 Y7.756 Z3.000
G1 X0.026 Y7.756 Z-2.000 F300.000
G1 X0.000 Y7.732 Z-2.000 F300.000
G1 X-26.263 Y-19.141 Z-2.000 F300.000
G1 X-26.285 Y-19.166 Z-2.000 F300.000
G1 X-26.252 Y-19.168 Z-2.000 F300.000
G1 X-22.417 Y-19.168 Z-2.000 F300.000
G1 X2.293 Y5.543 Z-2.000 F300.000
G1 X4.561 Y3.327 Z-2.000 F300.000
G1 X-17.934 Y-19.168 Z-2.000 F300.000
G1 X-13.451 Y-19.168 Z-2.000 F300.000
G1 X6.828 Y1.111 Z-2.000 F300.000
G1 X9.095 Y-1.105 Z-2.000 F300.000
G1 X-8.968 Y-19.168 Z-2.000 F300.000
G1 X-4.485 Y-19.168 Z-2.000 F300.000
G1 X11.363 Y-3.321 Z-2.000 F300.000
G1 X13.630 Y-5.536 Z-2.000 F300.000
G1 X-0.002 Y-19.168 Z-2.000 F300.000
G1 X4.481 Y-19.168 Z-2.000 F300.000
G1 X15.897 Y-7.752 Z-2.000 F300.000
G1 X18.164 Y-9.968 Z-2.000 F300.000
G1 X8.964 Y-19.168 Z-2.000 F300.000
G1 X13.447 Y-19.168 Z-2.000 F300.000
G1 X20.432 Y-12.184 Z-2.000 F300.000
G1 X22.699 Y-14.399 Z-2.000 F300.000
G1 X17.930 Y-19.168 Z-2.000 F300.000
G1 X22.413 Y-19.168 Z-2.000 F300.000
G1 X24.966 Y-16.615 Z-2.000 F300.000
G1 X27.234 Y-18.831 Z-2.000 F300.000
G1 X26.897 Y-19.168 Z-2.000 F300.000
G1 X27.542 Y-19.168 Z-2.000 F300.000
G1 X27.575 Y-19.167 Z-2.000 F300.000
G1 X27.553 Y-19.143 Z-2.000 F300.000
G1 X0.052 Y7.733 Z-2.000 F300.000
G1 X0.026 Y7.756 Z-2.000 F300.000
G1 X0.000 Y7.732 Z-2.000 F300.000
G1 X-26.263 Y-19.141 Z-2.000 F300.000
G1 X-26.285 Y-19.166 Z-2.000 F300.000
G1 X-26.252 Y-19.168 Z-2.000 F300.000
G1 X27.542 Y-19.168 Z-2.000 F300.000
G1 X27.575 Y-19.167 Z-2.000 F300.000
G1 X27.553 Y-19.143 Z-2.000 F300.000
G1 X27.234 Y-18.831 Z-2.000 F300.000
G1 X27.234 Y-18.831 Z-4.000 F300.000
G1 X27.553 Y-19.143 Z-4.000 F300.000
G1 X27.575 Y-19.167 Z-4.000 F300.000
G1 X27.542 Y-19.168 Z-4.000 F300.000
G1 X-26.252 Y-19.168 Z-4.000 F300.000
G1 X-26.285 Y-19.166 Z-4.000 F300.000
G1 X-26.263 Y-19.141 Z-4.000 F300.000
G1 X0.000 Y7.732 Z-4.000 F300.000
G1 X0.026 Y7.756 Z-4.000 F300.000
G1 X0.052 Y7.733 Z-4.000 F300.000
G1 X27.553 Y-19.143 Z-4.000 F300.000
G1 X27.575 Y-19.167 Z-4.000 F300.000
G1 X27.542 Y-19.168 Z-4.000 F300.000
G1 X26.897 Y-19.168 Z-4.000 F300.000
G1 X27.234 Y-18.831 Z-4.000 F300.000
G1 X24.966 Y-16.615 Z-4.000 F300.000
G1 X22.413 Y-19.168 Z-4.000 F300.000
G1 X17.930 Y-19.168 Z-4.000 F300.000
G1 X22.699 Y-14.399 Z-4.000 F300.000
G1 X20.432 Y-12.184 Z-4.000 F300.000
G1 X13.447 Y-19.168 Z-4.000 F300.000
G1 X8.964 Y-19.168 Z-4.000 F300.000
G1 X18.164 Y-9.968 Z-4.000 F300.000
G1 X15.897 Y-7.752 Z-4.000 F300.000
G1 X4.481 Y-19.168 Z-4.000 F300.000
G1 X-0.002 Y-19.168 Z-4.000 F300.000
G1 X13.630 Y-5.536 Z-4.000 F300.000
G1 X11.363 Y-3.321 Z-4.000 F300.000
G1 X-4.485 Y-19.168 Z-4.000 F300.000
G1 X-8.968 Y-19.168 Z-4.000 F300.000
G1 X9.095 Y-1.105 Z-4.000 F300.000
G1 X6.828 Y1.111 Z-4.000 F300.000
G1 X-13.451 Y-19.168 Z-4.000 F300.000
G1 X-17.934 Y-19.168 Z-4.000 F300.000
G1 X4.561 Y3.327 Z-4.000 F300.000
G1 X2.293 Y5.543 Z-4.000 F300.000
G1 X-22.417 Y-19.168 Z-4.000 F300.000
G1 X-26.252 Y-19.168 Z-4.000 F300.000
G1 X-26.285 Y-19.166 Z-4.000 F300.000
G1 X-26.263 Y-19.141 Z-4.000 F300.000
G1 X0.000 Y7.732 Z-4.000 F300.000
G1 X0.026 Y7.756 Z-4.000 F300.000
G1 X0.026 Y7.756 Z-6.000 F300.000
G1 X0.000 Y7.732 Z-6.000 F300.000
G1 X-26.263 Y-19.141 Z-6.000 F300.000
G1 X-26.285 Y-19.166 Z-6.000 F300.000
G1 X-26.252 Y-19.168 Z-6.000 F300.000
G1 X-22.417 Y-19.168 Z-6.000 F300.000
G1 X2.293 Y5.543 Z-6.000 F300.000
G1 X4.561 Y3.327 Z-6.000 F300.000
G1 X-17.934 Y-19.168 Z-6.000 F300.000
G1 X-13.451 Y-19.168 Z-6.000 F300.000
G1 X6.828 Y1.111 Z-6.000 F300.000
G1 X9.095 Y-1.105 Z-6.000 F300.000
G1 X-8.968 Y-19.168 Z-6.000 F300.000
G1 X-4.485 Y-19.168 Z-6.000 F300.000
G1 X11.363 Y-3.321 Z-6.000 F300.000
G1 X13.630 Y-5.536 Z-6.000 F300.000
G1 X-0.002 Y-19.168 Z-6.000 F300.000
G1 X4.481 Y-19.168 Z-6.000 F300.000
G1 X15.897 Y-7.752 Z-6.000 F300.000
G1 X18.164 Y-9.968 Z-6.000 F300.000
G1 X8.964 Y-19.168 Z-6.000 F300.000
G1 X13.447 Y-19.168 Z-6.000 F300.000
G1 X20.432 Y-12.184 Z-6.000 F300.000
G1 X22.699 Y-14.399 Z-6.000 F300.000
G1 X17.930 Y-19.168 Z-6.000 F300.000
G1 X22.413 Y-19.168 Z-6.000 F300.000
G1 X24.966 Y-16.615 Z-6.000 F300.000
G1 X27.234 Y-18.831 Z-6.000 F300.000
G1 X26.897 Y-19.168 Z-6.000 F300.000
G1 X27.542 Y-19.168 Z-6.000 F300.000
G1 X27.575 Y-19.167 Z-6.000 F300.000
G1 X27.553 Y-19.143 Z-6.000 F300.000
G1 X0.052 Y7.733 Z-6.000 F300.000
G1 X0.026 Y7.756 Z-6.000 F300.000
G1 X0.000 Y7.732 Z-6.000 F300.000
G1 X-26.263 Y-19.141 Z-6.000 F300.000
G1 X-26.285 Y-19.166 Z-6.000 F300.000
G1 X-26.252 Y-19.168 Z-6.000 F300.000
G1 X27.542 Y-19.168 Z-6.000 F300.000
G1 X27.575 Y-19.167 Z-6.000 F300.000
G1 X27.553 Y-19.143 Z-6.000 F300.000
G1 X27.234 Y-18.831 Z-6.000 F300.000
G0 Z5.000
G0 Z5.000
(Finish operation: Pocket_Shape)
(Begin postamble)
M5
G17 G90
M2
