(Exported by FreeCAD)
(Post Processor: script_module)
(Output Time:2025-03-21 14:42:11.070158)
(Begin preamble)
G17 G90
G21
(Begin operation: Fixture)
(Path: Fixture)
G54
(Finish operation: Fixture)
(Begin operation: 3mm_Endmill001)
(Path: 3mm_Endmill001)
(3mm_Endmill001)
(Begin toolchange)
( M6 T2 )
M3 S10000
(Finish operation: 3mm_Endmill001)
(Begin operation: Profile)
(Path: Profile)
(Profile)
(Compensated Tool Path. Diameter: 3.0)
G0 Z15.000
G0 X-49.298 Y15.202
G0 Z13.000
G1 X-49.298 Y15.202 Z7.000 F600.000
G2 X-61.759 Y-21.324 Z7.000 I-15.202 J-15.202 K0.000 F600.000
G2 X-67.241 Y21.324 Z7.000 I-2.741 J21.324 K0.000 F600.000
G2 X-49.298 Y15.202 Z7.000 I2.741 J-21.324 K0.000 F600.000
G1 X-49.298 Y15.202 Z4.000 F600.000
G2 X-61.759 Y-21.324 Z4.000 I-15.202 J-15.202 K0.000 F600.000
G2 X-67.241 Y21.324 Z4.000 I-2.741 J21.324 K0.000 F600.000
G2 X-49.298 Y15.202 Z4.000 I2.741 J-21.324 K0.000 F600.000
G1 X-49.298 Y15.202 Z1.000 F600.000
G2 X-61.759 Y-21.324 Z1.000 I-15.202 J-15.202 K0.000 F600.000
G2 X-67.241 Y21.324 Z1.000 I-2.741 J21.324 K0.000 F600.000
G2 X-49.298 Y15.202 Z1.000 I2.741 J-21.324 K0.000 F600.000
G1 X-49.298 Y15.202 Z0.000 F600.000
G2 X-61.759 Y-21.324 Z0.000 I-15.202 J-15.202 K0.000 F600.000
G2 X-67.241 Y21.324 Z0.000 I-2.741 J21.324 K0.000 F600.000
G2 X-49.298 Y15.202 Z0.000 I2.741 J-21.324 K0.000 F600.000
G0 Z15.000
G0 Z15.000
(Finish operation: Profile)
(Begin operation: Profile001)
(Path: Profile001)
(Profile001)
(Compensated Tool Path. Diameter: 3.0)
G0 Z15.000
G0 X0.000 Y0.000
G0 X-0.001
G0 X-0.001 Z13.000
G1 X-0.001 Y-0.000 Z7.000 F600.000
G2 X-18.759 Y-21.324 Z7.000 I-21.499 J0.000 K0.000 F600.000
G2 X-24.241 Y21.324 Z7.000 I-2.741 J21.324 K0.000 F600.000
G2 X-0.001 Y-0.000 Z7.000 I2.741 J-21.324 K0.000 F600.000
G1 X-0.001 Y-0.000 Z4.000 F600.000
G2 X-18.759 Y-21.324 Z4.000 I-21.499 J0.000 K0.000 F600.000
G2 X-24.241 Y21.324 Z4.000 I-2.741 J21.324 K0.000 F600.000
G2 X-0.001 Y-0.000 Z4.000 I2.741 J-21.324 K0.000 F600.000
G1 X-0.001 Y-0.000 Z1.000 F600.000
G2 X-18.759 Y-21.324 Z1.000 I-21.499 J0.000 K0.000 F600.000
G2 X-24.241 Y21.324 Z1.000 I-2.741 J21.324 K0.000 F600.000
G2 X-0.001 Y-0.000 Z1.000 I2.741 J-21.324 K0.000 F600.000
G1 X-0.001 Y-0.000 Z0.000 F600.000
G2 X-18.759 Y-21.324 Z0.000 I-21.499 J0.000 K0.000 F600.000
G2 X-24.241 Y21.324 Z0.000 I-2.741 J21.324 K0.000 F600.000
G2 X-0.001 Y-0.000 Z0.000 I2.741 J-21.324 K0.000 F600.000
G0 Z15.000
G0 Z15.000
(Finish operation: Profile001)
(Begin operation: Profile002)
(Path: Profile002)
(Profile002)
(Compensated Tool Path. Diameter: 3.0)
G0 Z15.000
G0 X36.702 Y15.202
G0 Z13.000
G1 X36.702 Y15.202 Z7.000 F600.000
G2 X24.241 Y-21.324 Z7.000 I-15.202 J-15.202 K0.000 F600.000
G2 X18.759 Y21.324 Z7.000 I-2.741 J21.324 K0.000 F600.000
G2 X36.702 Y15.202 Z7.000 I2.741 J-21.324 K0.000 F600.000
G1 X36.702 Y15.202 Z4.000 F600.000
G2 X24.241 Y-21.324 Z4.000 I-15.202 J-15.202 K0.000 F600.000
G2 X18.759 Y21.324 Z4.000 I-2.741 J21.324 K0.000 F600.000
G2 X36.702 Y15.202 Z4.000 I2.741 J-21.324 K0.000 F600.000
G1 X36.702 Y15.202 Z1.000 F600.000
G2 X24.241 Y-21.324 Z1.000 I-15.202 J-15.202 K0.000 F600.000
G2 X18.759 Y21.324 Z1.000 I-2.741 J21.324 K0.000 F600.000
G2 X36.702 Y15.202 Z1.000 I2.741 J-21.324 K0.000 F600.000
G1 X36.702 Y15.202 Z0.000 F600.000
G2 X24.241 Y-21.324 Z0.000 I-15.202 J-15.202 K0.000 F600.000
G2 X18.759 Y21.324 Z0.000 I-2.741 J21.324 K0.000 F600.000
G2 X36.702 Y15.202 Z0.000 I2.741 J-21.324 K0.000 F600.000
G0 Z15.000
G0 Z15.000
(Finish operation: Profile002)
(Begin operation: Profile003)
(Path: Profile003)
(Profile003)
(Compensated Tool Path. Diameter: 3.0)
G0 Z15.000
G0 X79.702 Y15.202
G0 Z13.000
G1 X79.702 Y15.202 Z7.000 F600.000
G2 X67.241 Y-21.324 Z7.000 I-15.202 J-15.202 K0.000 F600.000
G2 X61.759 Y21.324 Z7.000 I-2.741 J21.324 K0.000 F600.000
G2 X79.702 Y15.202 Z7.000 I2.741 J-21.324 K0.000 F600.000
G1 X79.702 Y15.202 Z4.000 F600.000
G2 X67.241 Y-21.324 Z4.000 I-15.202 J-15.202 K0.000 F600.000
G2 X61.759 Y21.324 Z4.000 I-2.741 J21.324 K0.000 F600.000
G2 X79.702 Y15.202 Z4.000 I2.741 J-21.324 K0.000 F600.000
G1 X79.702 Y15.202 Z1.000 F600.000
G2 X67.241 Y-21.324 Z1.000 I-15.202 J-15.202 K0.000 F600.000
G2 X61.759 Y21.324 Z1.000 I-2.741 J21.324 K0.000 F600.000
G2 X79.702 Y15.202 Z1.000 I2.741 J-21.324 K0.000 F600.000
G1 X79.702 Y15.202 Z0.000 F600.000
G2 X67.241 Y-21.324 Z0.000 I-15.202 J-15.202 K0.000 F600.000
G2 X61.759 Y21.324 Z0.000 I-2.741 J21.324 K0.000 F600.000
G2 X79.702 Y15.202 Z0.000 I2.741 J-21.324 K0.000 F600.000
G0 Z15.000
G0 Z15.000
(Finish operation: Profile003)
(Begin postamble)
M5
G17 G90
M2
