(Exported by FreeCAD)
(Post Processor: script_module)
(Output Time:2026-05-04 15:27:09.767025)
(Begin preamble)
G17 G90
G21
(Begin operation: Fixture)
(Path: Fixture)
G54
(Finish operation: Fixture)
(Begin operation: 3175001)
(Path: 3175001)
(3175001)
(Begin toolchange)
( M6 T2 )
M3 S10000
(Finish operation: 3175001)
(Begin operation: Profile)
(Path: Profile)
(Profile)
(Compensated Tool Path. Diameter: 3.17)
G0 Z5.000
G0 X-1.111 Y15.439
G0 Z3.000
G1 X-1.111 Y15.439 Z-2.500 F360.000
G2 X0.800 Y13.899 Z-2.500 I-20.119 J-26.929 K0.000 F360.000
G2 X1.190 Y11.941 Z-2.500 I-1.012 J-1.220 K0.000 F360.000
G3 X-10.996 Y-19.876 Z-2.500 I114.623 J-62.144 K0.000 F360.000
G3 X-10.839 Y-19.947 Z-2.500 I0.106 J0.025 K0.000 F360.000
G2 X2.155 Y-27.028 Z-2.500 I5.359 J-5.628 K0.000 F360.000
G2 X-0.922 Y-32.724 Z-2.500 I-16.900 J5.451 K0.000 F360.000
G2 X-7.549 Y-39.507 Z-2.500 I-44.340 J36.693 K0.000 F360.000
G1 X-7.578 Y-39.539 Z-2.500 F360.000
G2 X-7.639 Y-41.803 Z-2.500 I-35.536 J-0.175 K0.000 F360.000
G2 X-7.914 Y-43.178 Z-2.500 I-9.081 J1.103 K0.000 F360.000
G2 X-8.469 Y-44.493 Z-2.500 I-6.400 J1.927 K0.000 F360.000
G2 X-9.854 Y-46.248 Z-2.500 I-5.456 J2.881 K0.000 F360.000
G2 X-11.847 Y-47.070 Z-2.500 I-2.537 J3.323 K0.000 F360.000
G2 X-15.060 Y-46.473 Z-2.500 I-0.757 J4.868 K0.000 F360.000
G1 X-16.780 Y-45.250 Z-2.500 F360.000
G1 X-18.244 Y-44.010 Z-2.500 F360.000
G1 X-20.507 Y-41.781 Z-2.500 F360.000
G1 X-22.196 Y-39.757 Z-2.500 F360.000
G2 X-24.773 Y-35.320 Z-2.500 I92.198 J56.505 K0.000 F360.000
G1 X-26.130 Y-32.273 Z-2.500 F360.000
G2 X-27.726 Y-26.159 Z-2.500 I49.947 J16.307 K0.000 F360.000
G3 X-34.440 Y-19.115 Z-2.500 I-7.287 J-0.224 K0.000 F360.000
G2 X-50.936 Y-17.605 Z-2.500 I-5.475 J31.048 K0.000 F360.000
G2 X-53.663 Y-15.383 Z-2.500 I3.214 J6.732 K0.000 F360.000
G3 X-57.845 Y-17.275 Z-2.500 I7.846 J-22.910 K0.000 F360.000
G2 X-66.960 Y-15.995 Z-2.500 I-3.468 J8.403 K0.000 F360.000
G2 X-68.007 Y-10.442 Z-2.500 I3.328 J3.503 K0.000 F360.000
G2 X-64.288 Y-7.675 Z-2.500 I4.928 J-2.742 K0.000 F360.000
G3 X-60.789 Y-6.990 Z-2.500 I-5.018 J34.933 K0.000 F360.000
G3 X-58.505 Y-5.957 Z-2.500 I-1.456 J6.259 K0.000 F360.000
G2 X-59.662 Y0.169 Z-2.500 I33.935 J9.582 K0.000 F360.000
G2 X-60.231 Y15.663 Z-2.500 I176.749 J14.247 K0.000 F360.000
G2 X-59.949 Y16.570 Z-2.500 I1.585 J0.004 K0.000 F360.000
G2 X-52.250 Y19.991 Z-2.500 I7.904 J-7.413 K0.000 F360.000
G2 X-50.819 Y19.257 Z-2.500 I0.092 J-1.582 K0.000 F360.000
G3 X-10.296 Y18.968 Z-2.500 I20.349 J12.066 K0.000 F360.000
G2 X-8.329 Y19.550 Z-2.500 I1.327 J-0.867 K0.000 F360.000
G2 X-1.111 Y15.439 Z-2.500 I-12.901 J-31.040 K0.000 F360.000
G1 X-1.111 Y15.439 Z-5.000 F360.000
G2 X0.800 Y13.899 Z-5.000 I-20.119 J-26.929 K0.000 F360.000
G2 X1.190 Y11.941 Z-5.000 I-1.012 J-1.220 K0.000 F360.000
G3 X-10.996 Y-19.876 Z-5.000 I114.623 J-62.144 K0.000 F360.000
G3 X-10.839 Y-19.947 Z-5.000 I0.106 J0.025 K0.000 F360.000
G2 X2.155 Y-27.028 Z-5.000 I5.359 J-5.628 K0.000 F360.000
G2 X-0.922 Y-32.724 Z-5.000 I-16.900 J5.451 K0.000 F360.000
G2 X-7.549 Y-39.507 Z-5.000 I-44.340 J36.693 K0.000 F360.000
G1 X-7.578 Y-39.539 Z-5.000 F360.000
G2 X-7.639 Y-41.803 Z-5.000 I-35.536 J-0.175 K0.000 F360.000
G2 X-7.914 Y-43.178 Z-5.000 I-9.081 J1.103 K0.000 F360.000
G2 X-8.469 Y-44.493 Z-5.000 I-6.400 J1.927 K0.000 F360.000
G2 X-9.854 Y-46.248 Z-5.000 I-5.456 J2.881 K0.000 F360.000
G2 X-11.847 Y-47.070 Z-5.000 I-2.537 J3.323 K0.000 F360.000
G2 X-15.060 Y-46.473 Z-5.000 I-0.757 J4.868 K0.000 F360.000
G1 X-16.780 Y-45.250 Z-5.000 F360.000
G1 X-18.244 Y-44.010 Z-5.000 F360.000
G1 X-20.507 Y-41.781 Z-5.000 F360.000
G1 X-22.196 Y-39.757 Z-5.000 F360.000
G2 X-24.773 Y-35.320 Z-5.000 I92.198 J56.505 K0.000 F360.000
G1 X-26.130 Y-32.273 Z-5.000 F360.000
G2 X-27.726 Y-26.159 Z-5.000 I49.947 J16.307 K0.000 F360.000
G3 X-34.440 Y-19.115 Z-5.000 I-7.287 J-0.224 K0.000 F360.000
G2 X-50.936 Y-17.605 Z-5.000 I-5.475 J31.048 K0.000 F360.000
G2 X-53.663 Y-15.383 Z-5.000 I3.214 J6.732 K0.000 F360.000
G3 X-57.845 Y-17.275 Z-5.000 I7.846 J-22.910 K0.000 F360.000
G2 X-66.960 Y-15.995 Z-5.000 I-3.468 J8.403 K0.000 F360.000
G2 X-68.007 Y-10.442 Z-5.000 I3.328 J3.503 K0.000 F360.000
G2 X-64.288 Y-7.675 Z-5.000 I4.928 J-2.742 K0.000 F360.000
G3 X-60.789 Y-6.990 Z-5.000 I-5.018 J34.933 K0.000 F360.000
G3 X-58.505 Y-5.957 Z-5.000 I-1.456 J6.259 K0.000 F360.000
G2 X-59.662 Y0.169 Z-5.000 I33.935 J9.582 K0.000 F360.000
G2 X-60.231 Y15.663 Z-5.000 I176.749 J14.247 K0.000 F360.000
G2 X-59.949 Y16.570 Z-5.000 I1.585 J0.004 K0.000 F360.000
G2 X-52.250 Y19.991 Z-5.000 I7.904 J-7.413 K0.000 F360.000
G2 X-50.819 Y19.257 Z-5.000 I0.092 J-1.582 K0.000 F360.000
G3 X-10.296 Y18.968 Z-5.000 I20.349 J12.066 K0.000 F360.000
G2 X-8.329 Y19.550 Z-5.000 I1.327 J-0.867 K0.000 F360.000
G2 X-1.111 Y15.439 Z-5.000 I-12.901 J-31.040 K0.000 F360.000
G1 X-1.111 Y15.439 Z-7.500 F360.000
G2 X0.800 Y13.899 Z-7.500 I-20.119 J-26.929 K0.000 F360.000
G2 X1.190 Y11.941 Z-7.500 I-1.012 J-1.220 K0.000 F360.000
G3 X-10.996 Y-19.876 Z-7.500 I114.623 J-62.144 K0.000 F360.000
G3 X-10.839 Y-19.947 Z-7.500 I0.106 J0.025 K0.000 F360.000
G2 X2.155 Y-27.028 Z-7.500 I5.359 J-5.628 K0.000 F360.000
G2 X-0.922 Y-32.724 Z-7.500 I-16.900 J5.451 K0.000 F360.000
G2 X-7.549 Y-39.507 Z-7.500 I-44.340 J36.693 K0.000 F360.000
G1 X-7.578 Y-39.539 Z-7.500 F360.000
G2 X-7.639 Y-41.803 Z-7.500 I-35.536 J-0.175 K0.000 F360.000
G2 X-7.914 Y-43.178 Z-7.500 I-9.081 J1.103 K0.000 F360.000
G2 X-8.469 Y-44.493 Z-7.500 I-6.400 J1.927 K0.000 F360.000
G2 X-9.854 Y-46.248 Z-7.500 I-5.456 J2.881 K0.000 F360.000
G2 X-11.847 Y-47.070 Z-7.500 I-2.537 J3.323 K0.000 F360.000
G2 X-15.060 Y-46.473 Z-7.500 I-0.757 J4.868 K0.000 F360.000
G1 X-16.780 Y-45.250 Z-7.500 F360.000
G1 X-18.244 Y-44.010 Z-7.500 F360.000
G1 X-20.507 Y-41.781 Z-7.500 F360.000
G1 X-22.196 Y-39.757 Z-7.500 F360.000
G2 X-24.773 Y-35.320 Z-7.500 I92.198 J56.505 K0.000 F360.000
G1 X-26.130 Y-32.273 Z-7.500 F360.000
G2 X-27.726 Y-26.159 Z-7.500 I49.947 J16.307 K0.000 F360.000
G3 X-34.440 Y-19.115 Z-7.500 I-7.287 J-0.224 K0.000 F360.000
G2 X-50.936 Y-17.605 Z-7.500 I-5.475 J31.048 K0.000 F360.000
G2 X-53.663 Y-15.383 Z-7.500 I3.214 J6.732 K0.000 F360.000
G3 X-57.845 Y-17.275 Z-7.500 I7.846 J-22.910 K0.000 F360.000
G2 X-66.960 Y-15.995 Z-7.500 I-3.468 J8.403 K0.000 F360.000
G2 X-68.007 Y-10.442 Z-7.500 I3.328 J3.503 K0.000 F360.000
G2 X-64.288 Y-7.675 Z-7.500 I4.928 J-2.742 K0.000 F360.000
G3 X-60.789 Y-6.990 Z-7.500 I-5.018 J34.933 K0.000 F360.000
G3 X-58.505 Y-5.957 Z-7.500 I-1.456 J6.259 K0.000 F360.000
G2 X-59.662 Y0.169 Z-7.500 I33.935 J9.582 K0.000 F360.000
G2 X-60.231 Y15.663 Z-7.500 I176.749 J14.247 K0.000 F360.000
G2 X-59.949 Y16.570 Z-7.500 I1.585 J0.004 K0.000 F360.000
G2 X-52.250 Y19.991 Z-7.500 I7.904 J-7.413 K0.000 F360.000
G2 X-50.819 Y19.257 Z-7.500 I0.092 J-1.582 K0.000 F360.000
G3 X-10.296 Y18.968 Z-7.500 I20.349 J12.066 K0.000 F360.000
G2 X-8.329 Y19.550 Z-7.500 I1.327 J-0.867 K0.000 F360.000
G2 X-1.111 Y15.439 Z-7.500 I-12.901 J-31.040 K0.000 F360.000
G1 X-1.111 Y15.439 Z-10.000 F360.000
G2 X0.800 Y13.899 Z-10.000 I-20.119 J-26.929 K0.000 F360.000
G2 X1.190 Y11.941 Z-10.000 I-1.012 J-1.220 K0.000 F360.000
G3 X-10.996 Y-19.876 Z-10.000 I114.623 J-62.144 K0.000 F360.000
G3 X-10.839 Y-19.947 Z-10.000 I0.106 J0.025 K0.000 F360.000
G2 X2.155 Y-27.028 Z-10.000 I5.359 J-5.628 K0.000 F360.000
G2 X-0.922 Y-32.724 Z-10.000 I-16.900 J5.451 K0.000 F360.000
G2 X-7.549 Y-39.507 Z-10.000 I-44.340 J36.693 K0.000 F360.000
G1 X-7.578 Y-39.539 Z-10.000 F360.000
G2 X-7.639 Y-41.803 Z-10.000 I-35.536 J-0.175 K0.000 F360.000
G2 X-7.914 Y-43.178 Z-10.000 I-9.081 J1.103 K0.000 F360.000
G2 X-8.469 Y-44.493 Z-10.000 I-6.400 J1.927 K0.000 F360.000
G2 X-9.854 Y-46.248 Z-10.000 I-5.456 J2.881 K0.000 F360.000
G2 X-11.847 Y-47.070 Z-10.000 I-2.537 J3.323 K0.000 F360.000
G2 X-15.060 Y-46.473 Z-10.000 I-0.757 J4.868 K0.000 F360.000
G1 X-16.780 Y-45.250 Z-10.000 F360.000
G1 X-18.244 Y-44.010 Z-10.000 F360.000
G1 X-20.507 Y-41.781 Z-10.000 F360.000
G1 X-22.196 Y-39.757 Z-10.000 F360.000
G2 X-24.773 Y-35.320 Z-10.000 I92.198 J56.505 K0.000 F360.000
G1 X-26.130 Y-32.273 Z-10.000 F360.000
G2 X-27.726 Y-26.159 Z-10.000 I49.947 J16.307 K0.000 F360.000
G3 X-34.440 Y-19.115 Z-10.000 I-7.287 J-0.224 K0.000 F360.000
G2 X-50.936 Y-17.605 Z-10.000 I-5.475 J31.048 K0.000 F360.000
G2 X-53.663 Y-15.383 Z-10.000 I3.214 J6.732 K0.000 F360.000
G3 X-57.845 Y-17.275 Z-10.000 I7.846 J-22.910 K0.000 F360.000
G2 X-66.960 Y-15.995 Z-10.000 I-3.468 J8.403 K0.000 F360.000
G2 X-68.007 Y-10.442 Z-10.000 I3.328 J3.503 K0.000 F360.000
G2 X-64.288 Y-7.675 Z-10.000 I4.928 J-2.742 K0.000 F360.000
G3 X-60.789 Y-6.990 Z-10.000 I-5.018 J34.933 K0.000 F360.000
G3 X-58.505 Y-5.957 Z-10.000 I-1.456 J6.259 K0.000 F360.000
G2 X-59.662 Y0.169 Z-10.000 I33.935 J9.582 K0.000 F360.000
G2 X-60.231 Y15.663 Z-10.000 I176.749 J14.247 K0.000 F360.000
G2 X-59.949 Y16.570 Z-10.000 I1.585 J0.004 K0.000 F360.000
G2 X-52.250 Y19.991 Z-10.000 I7.904 J-7.413 K0.000 F360.000
G2 X-50.819 Y19.257 Z-10.000 I0.092 J-1.582 K0.000 F360.000
G3 X-10.296 Y18.968 Z-10.000 I20.349 J12.066 K0.000 F360.000
G2 X-8.329 Y19.550 Z-10.000 I1.327 J-0.867 K0.000 F360.000
G2 X-1.111 Y15.439 Z-10.000 I-12.901 J-31.040 K0.000 F360.000
G0 Z5.000
G0 Z5.000
(Finish operation: Profile)
(Begin operation: Profile001)
(Path: Profile001)
(Profile001)
(Compensated Tool Path. Diameter: 3.17)
G0 Z5.000
G0 X62.983 Y17.808
G0 Z3.000
G1 X62.983 Y17.808 Z-2.500 F360.000
G2 X66.960 Y15.995 Z-2.500 I-1.670 J-8.936 K0.000 F360.000
G2 X68.007 Y10.442 Z-2.500 I-3.328 J-3.503 K0.000 F360.000
G2 X64.288 Y7.675 Z-2.500 I-4.928 J2.742 K0.000 F360.000
G3 X60.789 Y6.990 Z-2.500 I5.018 J-34.933 K0.000 F360.000
G3 X58.505 Y5.957 Z-2.500 I1.456 J-6.259 K0.000 F360.000
G2 X59.662 Y-0.169 Z-2.500 I-33.935 J-9.582 K0.000 F360.000
G2 X60.231 Y-15.663 Z-2.500 I-176.749 J-14.247 K0.000 F360.000
G2 X59.949 Y-16.570 Z-2.500 I-1.585 J-0.004 K0.000 F360.000
G2 X52.250 Y-19.991 Z-2.500 I-7.904 J7.413 K0.000 F360.000
G2 X50.819 Y-19.257 Z-2.500 I-0.092 J1.582 K0.000 F360.000
G3 X10.296 Y-18.968 Z-2.500 I-20.349 J-12.066 K0.000 F360.000
G2 X8.329 Y-19.550 Z-2.500 I-1.327 J0.867 K0.000 F360.000
G2 X-0.800 Y-13.899 Z-2.500 I12.901 J31.040 K0.000 F360.000
G2 X-1.190 Y-11.941 Z-2.500 I1.012 J1.220 K0.000 F360.000
G3 X10.996 Y19.876 Z-2.500 I-114.623 J62.144 K0.000 F360.000
G3 X10.839 Y19.947 Z-2.500 I-0.106 J-0.025 K0.000 F360.000
G2 X-2.155 Y27.028 Z-2.500 I-5.359 J5.628 K0.000 F360.000
G2 X0.922 Y32.724 Z-2.500 I16.900 J-5.451 K0.000 F360.000
G2 X7.549 Y39.507 Z-2.500 I44.340 J-36.693 K0.000 F360.000
G1 X7.578 Y39.539 Z-2.500 F360.000
G2 X7.639 Y41.803 Z-2.500 I35.536 J0.175 K0.000 F360.000
G2 X7.914 Y43.178 Z-2.500 I9.081 J-1.103 K0.000 F360.000
G2 X8.469 Y44.493 Z-2.500 I6.400 J-1.927 K0.000 F360.000
G2 X9.854 Y46.248 Z-2.500 I5.456 J-2.881 K0.000 F360.000
G2 X11.368 Y46.983 Z-2.500 I2.526 J-3.274 K0.000 F360.000
G2 X15.060 Y46.473 Z-2.500 I1.209 J-4.863 K0.000 F360.000
G1 X16.780 Y45.250 Z-2.500 F360.000
G1 X18.244 Y44.010 Z-2.500 F360.000
G1 X20.507 Y41.781 Z-2.500 F360.000
G1 X22.196 Y39.757 Z-2.500 F360.000
G2 X24.773 Y35.320 Z-2.500 I-92.198 J-56.505 K0.000 F360.000
G1 X26.130 Y32.273 Z-2.500 F360.000
G2 X27.726 Y26.159 Z-2.500 I-49.947 J-16.307 K0.000 F360.000
G3 X34.440 Y19.115 Z-2.500 I7.287 J0.224 K0.000 F360.000
G2 X50.936 Y17.605 Z-2.500 I5.475 J-31.048 K0.000 F360.000
G2 X53.663 Y15.383 Z-2.500 I-3.214 J-6.732 K0.000 F360.000
G3 X57.845 Y17.275 Z-2.500 I-7.846 J22.910 K0.000 F360.000
G2 X62.983 Y17.808 Z-2.500 I3.468 J-8.403 K0.000 F360.000
G1 X62.983 Y17.808 Z-5.000 F360.000
G2 X66.960 Y15.995 Z-5.000 I-1.670 J-8.936 K0.000 F360.000
G2 X68.007 Y10.442 Z-5.000 I-3.328 J-3.503 K0.000 F360.000
G2 X64.288 Y7.675 Z-5.000 I-4.928 J2.742 K0.000 F360.000
G3 X60.789 Y6.990 Z-5.000 I5.018 J-34.933 K0.000 F360.000
G3 X58.505 Y5.957 Z-5.000 I1.456 J-6.259 K0.000 F360.000
G2 X59.662 Y-0.169 Z-5.000 I-33.935 J-9.582 K0.000 F360.000
G2 X60.231 Y-15.663 Z-5.000 I-176.749 J-14.247 K0.000 F360.000
G2 X59.949 Y-16.570 Z-5.000 I-1.585 J-0.004 K0.000 F360.000
G2 X52.250 Y-19.991 Z-5.000 I-7.904 J7.413 K0.000 F360.000
G2 X50.819 Y-19.257 Z-5.000 I-0.092 J1.582 K0.000 F360.000
G3 X10.296 Y-18.968 Z-5.000 I-20.349 J-12.066 K0.000 F360.000
G2 X8.329 Y-19.550 Z-5.000 I-1.327 J0.867 K0.000 F360.000
G2 X-0.800 Y-13.899 Z-5.000 I12.901 J31.040 K0.000 F360.000
G2 X-1.190 Y-11.941 Z-5.000 I1.012 J1.220 K0.000 F360.000
G3 X10.996 Y19.876 Z-5.000 I-114.623 J62.144 K0.000 F360.000
G3 X10.839 Y19.947 Z-5.000 I-0.106 J-0.025 K0.000 F360.000
G2 X-2.155 Y27.028 Z-5.000 I-5.359 J5.628 K0.000 F360.000
G2 X0.922 Y32.724 Z-5.000 I16.900 J-5.451 K0.000 F360.000
G2 X7.549 Y39.507 Z-5.000 I44.340 J-36.693 K0.000 F360.000
G1 X7.578 Y39.539 Z-5.000 F360.000
G2 X7.639 Y41.803 Z-5.000 I35.536 J0.175 K0.000 F360.000
G2 X7.914 Y43.178 Z-5.000 I9.081 J-1.103 K0.000 F360.000
G2 X8.469 Y44.493 Z-5.000 I6.400 J-1.927 K0.000 F360.000
G2 X9.854 Y46.248 Z-5.000 I5.456 J-2.881 K0.000 F360.000
G2 X11.368 Y46.983 Z-5.000 I2.526 J-3.274 K0.000 F360.000
G2 X15.060 Y46.473 Z-5.000 I1.209 J-4.863 K0.000 F360.000
G1 X16.780 Y45.250 Z-5.000 F360.000
G1 X18.244 Y44.010 Z-5.000 F360.000
G1 X20.507 Y41.781 Z-5.000 F360.000
G1 X22.196 Y39.757 Z-5.000 F360.000
G2 X24.773 Y35.320 Z-5.000 I-92.198 J-56.505 K0.000 F360.000
G1 X26.130 Y32.273 Z-5.000 F360.000
G2 X27.726 Y26.159 Z-5.000 I-49.947 J-16.307 K0.000 F360.000
G3 X34.440 Y19.115 Z-5.000 I7.287 J0.224 K0.000 F360.000
G2 X50.936 Y17.605 Z-5.000 I5.475 J-31.048 K0.000 F360.000
G2 X53.663 Y15.383 Z-5.000 I-3.214 J-6.732 K0.000 F360.000
G3 X57.845 Y17.275 Z-5.000 I-7.846 J22.910 K0.000 F360.000
G2 X62.983 Y17.808 Z-5.000 I3.468 J-8.403 K0.000 F360.000
G1 X62.983 Y17.808 Z-7.500 F360.000
G2 X66.960 Y15.995 Z-7.500 I-1.670 J-8.936 K0.000 F360.000
G2 X68.007 Y10.442 Z-7.500 I-3.328 J-3.503 K0.000 F360.000
G2 X64.288 Y7.675 Z-7.500 I-4.928 J2.742 K0.000 F360.000
G3 X60.789 Y6.990 Z-7.500 I5.018 J-34.933 K0.000 F360.000
G3 X58.505 Y5.957 Z-7.500 I1.456 J-6.259 K0.000 F360.000
G2 X59.662 Y-0.169 Z-7.500 I-33.935 J-9.582 K0.000 F360.000
G2 X60.231 Y-15.663 Z-7.500 I-176.749 J-14.247 K0.000 F360.000
G2 X59.949 Y-16.570 Z-7.500 I-1.585 J-0.004 K0.000 F360.000
G2 X52.250 Y-19.991 Z-7.500 I-7.904 J7.413 K0.000 F360.000
G2 X50.819 Y-19.257 Z-7.500 I-0.092 J1.582 K0.000 F360.000
G3 X10.296 Y-18.968 Z-7.500 I-20.349 J-12.066 K0.000 F360.000
G2 X8.329 Y-19.550 Z-7.500 I-1.327 J0.867 K0.000 F360.000
G2 X-0.800 Y-13.899 Z-7.500 I12.901 J31.040 K0.000 F360.000
G2 X-1.190 Y-11.941 Z-7.500 I1.012 J1.220 K0.000 F360.000
G3 X10.996 Y19.876 Z-7.500 I-114.623 J62.144 K0.000 F360.000
G3 X10.839 Y19.947 Z-7.500 I-0.106 J-0.025 K0.000 F360.000
G2 X-2.155 Y27.028 Z-7.500 I-5.359 J5.628 K0.000 F360.000
G2 X0.922 Y32.724 Z-7.500 I16.900 J-5.451 K0.000 F360.000
G2 X7.549 Y39.507 Z-7.500 I44.340 J-36.693 K0.000 F360.000
G1 X7.578 Y39.539 Z-7.500 F360.000
G2 X7.639 Y41.803 Z-7.500 I35.536 J0.175 K0.000 F360.000
G2 X7.914 Y43.178 Z-7.500 I9.081 J-1.103 K0.000 F360.000
G2 X8.469 Y44.493 Z-7.500 I6.400 J-1.927 K0.000 F360.000
G2 X9.854 Y46.248 Z-7.500 I5.456 J-2.881 K0.000 F360.000
G2 X11.368 Y46.983 Z-7.500 I2.526 J-3.274 K0.000 F360.000
G2 X15.060 Y46.473 Z-7.500 I1.209 J-4.863 K0.000 F360.000
G1 X16.780 Y45.250 Z-7.500 F360.000
G1 X18.244 Y44.010 Z-7.500 F360.000
G1 X20.507 Y41.781 Z-7.500 F360.000
G1 X22.196 Y39.757 Z-7.500 F360.000
G2 X24.773 Y35.320 Z-7.500 I-92.198 J-56.505 K0.000 F360.000
G1 X26.130 Y32.273 Z-7.500 F360.000
G2 X27.726 Y26.159 Z-7.500 I-49.947 J-16.307 K0.000 F360.000
G3 X34.440 Y19.115 Z-7.500 I7.287 J0.224 K0.000 F360.000
G2 X50.936 Y17.605 Z-7.500 I5.475 J-31.048 K0.000 F360.000
G2 X53.663 Y15.383 Z-7.500 I-3.214 J-6.732 K0.000 F360.000
G3 X57.845 Y17.275 Z-7.500 I-7.846 J22.910 K0.000 F360.000
G2 X62.983 Y17.808 Z-7.500 I3.468 J-8.403 K0.000 F360.000
G1 X62.983 Y17.808 Z-10.000 F360.000
G2 X66.960 Y15.995 Z-10.000 I-1.670 J-8.936 K0.000 F360.000
G2 X68.007 Y10.442 Z-10.000 I-3.328 J-3.503 K0.000 F360.000
G2 X64.288 Y7.675 Z-10.000 I-4.928 J2.742 K0.000 F360.000
G3 X60.789 Y6.990 Z-10.000 I5.018 J-34.933 K0.000 F360.000
G3 X58.505 Y5.957 Z-10.000 I1.456 J-6.259 K0.000 F360.000
G2 X59.662 Y-0.169 Z-10.000 I-33.935 J-9.582 K0.000 F360.000
G2 X60.231 Y-15.663 Z-10.000 I-176.749 J-14.247 K0.000 F360.000
G2 X59.949 Y-16.570 Z-10.000 I-1.585 J-0.004 K0.000 F360.000
G2 X52.250 Y-19.991 Z-10.000 I-7.904 J7.413 K0.000 F360.000
G2 X50.819 Y-19.257 Z-10.000 I-0.092 J1.582 K0.000 F360.000
G3 X10.296 Y-18.968 Z-10.000 I-20.349 J-12.066 K0.000 F360.000
G2 X8.329 Y-19.550 Z-10.000 I-1.327 J0.867 K0.000 F360.000
G2 X-0.800 Y-13.899 Z-10.000 I12.901 J31.040 K0.000 F360.000
G2 X-1.190 Y-11.941 Z-10.000 I1.012 J1.220 K0.000 F360.000
G3 X10.996 Y19.876 Z-10.000 I-114.623 J62.144 K0.000 F360.000
G3 X10.839 Y19.947 Z-10.000 I-0.106 J-0.025 K0.000 F360.000
G2 X-2.155 Y27.028 Z-10.000 I-5.359 J5.628 K0.000 F360.000
G2 X0.922 Y32.724 Z-10.000 I16.900 J-5.451 K0.000 F360.000
G2 X7.549 Y39.507 Z-10.000 I44.340 J-36.693 K0.000 F360.000
G1 X7.578 Y39.539 Z-10.000 F360.000
G2 X7.639 Y41.803 Z-10.000 I35.536 J0.175 K0.000 F360.000
G2 X7.914 Y43.178 Z-10.000 I9.081 J-1.103 K0.000 F360.000
G2 X8.469 Y44.493 Z-10.000 I6.400 J-1.927 K0.000 F360.000
G2 X9.854 Y46.248 Z-10.000 I5.456 J-2.881 K0.000 F360.000
G2 X11.368 Y46.983 Z-10.000 I2.526 J-3.274 K0.000 F360.000
G2 X15.060 Y46.473 Z-10.000 I1.209 J-4.863 K0.000 F360.000
G1 X16.780 Y45.250 Z-10.000 F360.000
G1 X18.244 Y44.010 Z-10.000 F360.000
G1 X20.507 Y41.781 Z-10.000 F360.000
G1 X22.196 Y39.757 Z-10.000 F360.000
G2 X24.773 Y35.320 Z-10.000 I-92.198 J-56.505 K0.000 F360.000
G1 X26.130 Y32.273 Z-10.000 F360.000
G2 X27.726 Y26.159 Z-10.000 I-49.947 J-16.307 K0.000 F360.000
G3 X34.440 Y19.115 Z-10.000 I7.287 J0.224 K0.000 F360.000
G2 X50.936 Y17.605 Z-10.000 I5.475 J-31.048 K0.000 F360.000
G2 X53.663 Y15.383 Z-10.000 I-3.214 J-6.732 K0.000 F360.000
G3 X57.845 Y17.275 Z-10.000 I-7.846 J22.910 K0.000 F360.000
G2 X62.983 Y17.808 Z-10.000 I3.468 J-8.403 K0.000 F360.000
G0 Z5.000
G0 Z5.000
(Finish operation: Profile001)
(Begin operation: Profile002)
(Path: Profile002)
(Profile002)
(Compensated Tool Path. Diameter: 3.17)
G0 Z5.000
G0 X80.983 Y-50.192
G0 Z3.000
G1 X80.983 Y-50.192 Z-2.500 F360.000
G2 X84.960 Y-52.005 Z-2.500 I-1.670 J-8.936 K0.000 F360.000
G2 X86.007 Y-57.558 Z-2.500 I-3.328 J-3.503 K0.000 F360.000
G2 X82.288 Y-60.325 Z-2.500 I-4.928 J2.742 K0.000 F360.000
G3 X78.789 Y-61.010 Z-2.500 I5.018 J-34.933 K0.000 F360.000
G3 X76.505 Y-62.043 Z-2.500 I1.456 J-6.259 K0.000 F360.000
G2 X77.662 Y-68.169 Z-2.500 I-33.935 J-9.582 K0.000 F360.000
G2 X78.231 Y-83.663 Z-2.500 I-176.749 J-14.247 K0.000 F360.000
G2 X77.949 Y-84.570 Z-2.500 I-1.585 J-0.004 K0.000 F360.000
G2 X70.250 Y-87.991 Z-2.500 I-7.904 J7.413 K0.000 F360.000
G2 X68.819 Y-87.257 Z-2.500 I-0.092 J1.582 K0.000 F360.000
G3 X28.296 Y-86.968 Z-2.500 I-20.349 J-12.066 K0.000 F360.000
G2 X26.329 Y-87.550 Z-2.500 I-1.327 J0.867 K0.000 F360.000
G2 X17.200 Y-81.899 Z-2.500 I12.901 J31.040 K0.000 F360.000
G2 X16.810 Y-79.941 Z-2.500 I1.012 J1.220 K0.000 F360.000
G3 X28.996 Y-48.124 Z-2.500 I-114.623 J62.144 K0.000 F360.000
G3 X28.839 Y-48.053 Z-2.500 I-0.106 J-0.025 K0.000 F360.000
G2 X15.845 Y-40.972 Z-2.500 I-5.359 J5.628 K0.000 F360.000
G2 X18.922 Y-35.276 Z-2.500 I16.900 J-5.451 K0.000 F360.000
G2 X25.549 Y-28.493 Z-2.500 I44.340 J-36.693 K0.000 F360.000
G1 X25.578 Y-28.461 Z-2.500 F360.000
G2 X25.639 Y-26.197 Z-2.500 I35.536 J0.175 K0.000 F360.000
G2 X25.914 Y-24.822 Z-2.500 I9.081 J-1.103 K0.000 F360.000
G2 X26.469 Y-23.507 Z-2.500 I6.400 J-1.927 K0.000 F360.000
G2 X27.854 Y-21.752 Z-2.500 I5.456 J-2.881 K0.000 F360.000
G2 X29.368 Y-21.017 Z-2.500 I2.526 J-3.274 K0.000 F360.000
G2 X33.060 Y-21.527 Z-2.500 I1.209 J-4.863 K0.000 F360.000
G1 X34.780 Y-22.750 Z-2.500 F360.000
G1 X36.244 Y-23.990 Z-2.500 F360.000
G1 X38.507 Y-26.219 Z-2.500 F360.000
G1 X40.196 Y-28.243 Z-2.500 F360.000
G2 X42.773 Y-32.680 Z-2.500 I-92.198 J-56.505 K0.000 F360.000
G1 X44.130 Y-35.727 Z-2.500 F360.000
G2 X45.726 Y-41.841 Z-2.500 I-49.947 J-16.307 K0.000 F360.000
G3 X52.440 Y-48.885 Z-2.500 I7.287 J0.224 K0.000 F360.000
G2 X68.936 Y-50.395 Z-2.500 I5.475 J-31.048 K0.000 F360.000
G2 X71.663 Y-52.617 Z-2.500 I-3.214 J-6.732 K0.000 F360.000
G3 X75.845 Y-50.725 Z-2.500 I-7.846 J22.910 K0.000 F360.000
G2 X80.983 Y-50.192 Z-2.500 I3.468 J-8.403 K0.000 F360.000
G1 X80.983 Y-50.192 Z-5.000 F360.000
G2 X84.960 Y-52.005 Z-5.000 I-1.670 J-8.936 K0.000 F360.000
G2 X86.007 Y-57.558 Z-5.000 I-3.328 J-3.503 K0.000 F360.000
G2 X82.288 Y-60.325 Z-5.000 I-4.928 J2.742 K0.000 F360.000
G3 X78.789 Y-61.010 Z-5.000 I5.018 J-34.933 K0.000 F360.000
G3 X76.505 Y-62.043 Z-5.000 I1.456 J-6.259 K0.000 F360.000
G2 X77.662 Y-68.169 Z-5.000 I-33.935 J-9.582 K0.000 F360.000
G2 X78.231 Y-83.663 Z-5.000 I-176.749 J-14.247 K0.000 F360.000
G2 X77.949 Y-84.570 Z-5.000 I-1.585 J-0.004 K0.000 F360.000
G2 X70.250 Y-87.991 Z-5.000 I-7.904 J7.413 K0.000 F360.000
G2 X68.819 Y-87.257 Z-5.000 I-0.092 J1.582 K0.000 F360.000
G3 X28.296 Y-86.968 Z-5.000 I-20.349 J-12.066 K0.000 F360.000
G2 X26.329 Y-87.550 Z-5.000 I-1.327 J0.867 K0.000 F360.000
G2 X17.200 Y-81.899 Z-5.000 I12.901 J31.040 K0.000 F360.000
G2 X16.810 Y-79.941 Z-5.000 I1.012 J1.220 K0.000 F360.000
G3 X28.996 Y-48.124 Z-5.000 I-114.623 J62.144 K0.000 F360.000
G3 X28.839 Y-48.053 Z-5.000 I-0.106 J-0.025 K0.000 F360.000
G2 X15.845 Y-40.972 Z-5.000 I-5.359 J5.628 K0.000 F360.000
G2 X18.922 Y-35.276 Z-5.000 I16.900 J-5.451 K0.000 F360.000
G2 X25.549 Y-28.493 Z-5.000 I44.340 J-36.693 K0.000 F360.000
G1 X25.578 Y-28.461 Z-5.000 F360.000
G2 X25.639 Y-26.197 Z-5.000 I35.536 J0.175 K0.000 F360.000
G2 X25.914 Y-24.822 Z-5.000 I9.081 J-1.103 K0.000 F360.000
G2 X26.469 Y-23.507 Z-5.000 I6.400 J-1.927 K0.000 F360.000
G2 X27.854 Y-21.752 Z-5.000 I5.456 J-2.881 K0.000 F360.000
G2 X29.368 Y-21.017 Z-5.000 I2.526 J-3.274 K0.000 F360.000
G2 X33.060 Y-21.527 Z-5.000 I1.209 J-4.863 K0.000 F360.000
G1 X34.780 Y-22.750 Z-5.000 F360.000
G1 X36.244 Y-23.990 Z-5.000 F360.000
G1 X38.507 Y-26.219 Z-5.000 F360.000
G1 X40.196 Y-28.243 Z-5.000 F360.000
G2 X42.773 Y-32.680 Z-5.000 I-92.198 J-56.505 K0.000 F360.000
G1 X44.130 Y-35.727 Z-5.000 F360.000
G2 X45.726 Y-41.841 Z-5.000 I-49.947 J-16.307 K0.000 F360.000
G3 X52.440 Y-48.885 Z-5.000 I7.287 J0.224 K0.000 F360.000
G2 X68.936 Y-50.395 Z-5.000 I5.475 J-31.048 K0.000 F360.000
G2 X71.663 Y-52.617 Z-5.000 I-3.214 J-6.732 K0.000 F360.000
G3 X75.845 Y-50.725 Z-5.000 I-7.846 J22.910 K0.000 F360.000
G2 X80.983 Y-50.192 Z-5.000 I3.468 J-8.403 K0.000 F360.000
G1 X80.983 Y-50.192 Z-7.500 F360.000
G2 X84.960 Y-52.005 Z-7.500 I-1.670 J-8.936 K0.000 F360.000
G2 X86.007 Y-57.558 Z-7.500 I-3.328 J-3.503 K0.000 F360.000
G2 X82.288 Y-60.325 Z-7.500 I-4.928 J2.742 K0.000 F360.000
G3 X78.789 Y-61.010 Z-7.500 I5.018 J-34.933 K0.000 F360.000
G3 X76.505 Y-62.043 Z-7.500 I1.456 J-6.259 K0.000 F360.000
G2 X77.662 Y-68.169 Z-7.500 I-33.935 J-9.582 K0.000 F360.000
G2 X78.231 Y-83.663 Z-7.500 I-176.749 J-14.247 K0.000 F360.000
G2 X77.949 Y-84.570 Z-7.500 I-1.585 J-0.004 K0.000 F360.000
G2 X70.250 Y-87.991 Z-7.500 I-7.904 J7.413 K0.000 F360.000
G2 X68.819 Y-87.257 Z-7.500 I-0.092 J1.582 K0.000 F360.000
G3 X28.296 Y-86.968 Z-7.500 I-20.349 J-12.066 K0.000 F360.000
G2 X26.329 Y-87.550 Z-7.500 I-1.327 J0.867 K0.000 F360.000
G2 X17.200 Y-81.899 Z-7.500 I12.901 J31.040 K0.000 F360.000
G2 X16.810 Y-79.941 Z-7.500 I1.012 J1.220 K0.000 F360.000
G3 X28.996 Y-48.124 Z-7.500 I-114.623 J62.144 K0.000 F360.000
G3 X28.839 Y-48.053 Z-7.500 I-0.106 J-0.025 K0.000 F360.000
G2 X15.845 Y-40.972 Z-7.500 I-5.359 J5.628 K0.000 F360.000
G2 X18.922 Y-35.276 Z-7.500 I16.900 J-5.451 K0.000 F360.000
G2 X25.549 Y-28.493 Z-7.500 I44.340 J-36.693 K0.000 F360.000
G1 X25.578 Y-28.461 Z-7.500 F360.000
G2 X25.639 Y-26.197 Z-7.500 I35.536 J0.175 K0.000 F360.000
G2 X25.914 Y-24.822 Z-7.500 I9.081 J-1.103 K0.000 F360.000
G2 X26.469 Y-23.507 Z-7.500 I6.400 J-1.927 K0.000 F360.000
G2 X27.854 Y-21.752 Z-7.500 I5.456 J-2.881 K0.000 F360.000
G2 X29.368 Y-21.017 Z-7.500 I2.526 J-3.274 K0.000 F360.000
G2 X33.060 Y-21.527 Z-7.500 I1.209 J-4.863 K0.000 F360.000
G1 X34.780 Y-22.750 Z-7.500 F360.000
G1 X36.244 Y-23.990 Z-7.500 F360.000
G1 X38.507 Y-26.219 Z-7.500 F360.000
G1 X40.196 Y-28.243 Z-7.500 F360.000
G2 X42.773 Y-32.680 Z-7.500 I-92.198 J-56.505 K0.000 F360.000
G1 X44.130 Y-35.727 Z-7.500 F360.000
G2 X45.726 Y-41.841 Z-7.500 I-49.947 J-16.307 K0.000 F360.000
G3 X52.440 Y-48.885 Z-7.500 I7.287 J0.224 K0.000 F360.000
G2 X68.936 Y-50.395 Z-7.500 I5.475 J-31.048 K0.000 F360.000
G2 X71.663 Y-52.617 Z-7.500 I-3.214 J-6.732 K0.000 F360.000
G3 X75.845 Y-50.725 Z-7.500 I-7.846 J22.910 K0.000 F360.000
G2 X80.983 Y-50.192 Z-7.500 I3.468 J-8.403 K0.000 F360.000
G1 X80.983 Y-50.192 Z-10.000 F360.000
G2 X84.960 Y-52.005 Z-10.000 I-1.670 J-8.936 K0.000 F360.000
G2 X86.007 Y-57.558 Z-10.000 I-3.328 J-3.503 K0.000 F360.000
G2 X82.288 Y-60.325 Z-10.000 I-4.928 J2.742 K0.000 F360.000
G3 X78.789 Y-61.010 Z-10.000 I5.018 J-34.933 K0.000 F360.000
G3 X76.505 Y-62.043 Z-10.000 I1.456 J-6.259 K0.000 F360.000
G2 X77.662 Y-68.169 Z-10.000 I-33.935 J-9.582 K0.000 F360.000
G2 X78.231 Y-83.663 Z-10.000 I-176.749 J-14.247 K0.000 F360.000
G2 X77.949 Y-84.570 Z-10.000 I-1.585 J-0.004 K0.000 F360.000
G2 X70.250 Y-87.991 Z-10.000 I-7.904 J7.413 K0.000 F360.000
G2 X68.819 Y-87.257 Z-10.000 I-0.092 J1.582 K0.000 F360.000
G3 X28.296 Y-86.968 Z-10.000 I-20.349 J-12.066 K0.000 F360.000
G2 X26.329 Y-87.550 Z-10.000 I-1.327 J0.867 K0.000 F360.000
G2 X17.200 Y-81.899 Z-10.000 I12.901 J31.040 K0.000 F360.000
G2 X16.810 Y-79.941 Z-10.000 I1.012 J1.220 K0.000 F360.000
G3 X28.996 Y-48.124 Z-10.000 I-114.623 J62.144 K0.000 F360.000
G3 X28.839 Y-48.053 Z-10.000 I-0.106 J-0.025 K0.000 F360.000
G2 X15.845 Y-40.972 Z-10.000 I-5.359 J5.628 K0.000 F360.000
G2 X18.922 Y-35.276 Z-10.000 I16.900 J-5.451 K0.000 F360.000
G2 X25.549 Y-28.493 Z-10.000 I44.340 J-36.693 K0.000 F360.000
G1 X25.578 Y-28.461 Z-10.000 F360.000
G2 X25.639 Y-26.197 Z-10.000 I35.536 J0.175 K0.000 F360.000
G2 X25.914 Y-24.822 Z-10.000 I9.081 J-1.103 K0.000 F360.000
G2 X26.469 Y-23.507 Z-10.000 I6.400 J-1.927 K0.000 F360.000
G2 X27.854 Y-21.752 Z-10.000 I5.456 J-2.881 K0.000 F360.000
G2 X29.368 Y-21.017 Z-10.000 I2.526 J-3.274 K0.000 F360.000
G2 X33.060 Y-21.527 Z-10.000 I1.209 J-4.863 K0.000 F360.000
G1 X34.780 Y-22.750 Z-10.000 F360.000
G1 X36.244 Y-23.990 Z-10.000 F360.000
G1 X38.507 Y-26.219 Z-10.000 F360.000
G1 X40.196 Y-28.243 Z-10.000 F360.000
G2 X42.773 Y-32.680 Z-10.000 I-92.198 J-56.505 K0.000 F360.000
G1 X44.130 Y-35.727 Z-10.000 F360.000
G2 X45.726 Y-41.841 Z-10.000 I-49.947 J-16.307 K0.000 F360.000
G3 X52.440 Y-48.885 Z-10.000 I7.287 J0.224 K0.000 F360.000
G2 X68.936 Y-50.395 Z-10.000 I5.475 J-31.048 K0.000 F360.000
G2 X71.663 Y-52.617 Z-10.000 I-3.214 J-6.732 K0.000 F360.000
G3 X75.845 Y-50.725 Z-10.000 I-7.846 J22.910 K0.000 F360.000
G2 X80.983 Y-50.192 Z-10.000 I3.468 J-8.403 K0.000 F360.000
G0 Z5.000
G0 Z5.000
(Finish operation: Profile002)
(Begin operation: Profile003)
(Path: Profile003)
(Profile003)
(Compensated Tool Path. Diameter: 3.17)
G0 Z5.000
G0 X-19.111 Y83.439
G0 Z3.000
G1 X-19.111 Y83.439 Z-2.500 F360.000
G2 X-17.200 Y81.899 Z-2.500 I-20.119 J-26.929 K0.000 F360.000
G2 X-16.810 Y79.941 Z-2.500 I-1.012 J-1.220 K0.000 F360.000
G3 X-28.996 Y48.124 Z-2.500 I114.623 J-62.144 K0.000 F360.000
G3 X-28.839 Y48.053 Z-2.500 I0.106 J0.025 K0.000 F360.000
G2 X-15.845 Y40.972 Z-2.500 I5.359 J-5.628 K0.000 F360.000
G2 X-18.922 Y35.276 Z-2.500 I-16.900 J5.451 K0.000 F360.000
G2 X-25.549 Y28.493 Z-2.500 I-44.340 J36.693 K0.000 F360.000
G1 X-25.578 Y28.461 Z-2.500 F360.000
G2 X-25.639 Y26.197 Z-2.500 I-35.536 J-0.175 K0.000 F360.000
G2 X-25.914 Y24.822 Z-2.500 I-9.081 J1.103 K0.000 F360.000
G2 X-26.469 Y23.507 Z-2.500 I-6.400 J1.927 K0.000 F360.000
G2 X-27.854 Y21.752 Z-2.500 I-5.456 J2.881 K0.000 F360.000
G2 X-29.847 Y20.930 Z-2.500 I-2.537 J3.323 K0.000 F360.000
G2 X-33.060 Y21.527 Z-2.500 I-0.757 J4.868 K0.000 F360.000
G1 X-34.780 Y22.750 Z-2.500 F360.000
G1 X-36.244 Y23.990 Z-2.500 F360.000
G1 X-38.507 Y26.219 Z-2.500 F360.000
G1 X-40.196 Y28.243 Z-2.500 F360.000
G2 X-42.773 Y32.680 Z-2.500 I92.198 J56.505 K0.000 F360.000
G1 X-44.130 Y35.727 Z-2.500 F360.000
G2 X-45.726 Y41.841 Z-2.500 I49.947 J16.307 K0.000 F360.000
G3 X-52.440 Y48.885 Z-2.500 I-7.287 J-0.224 K0.000 F360.000
G2 X-68.936 Y50.395 Z-2.500 I-5.475 J31.048 K0.000 F360.000
G2 X-71.663 Y52.617 Z-2.500 I3.214 J6.732 K0.000 F360.000
G3 X-75.845 Y50.725 Z-2.500 I7.846 J-22.910 K0.000 F360.000
G2 X-84.960 Y52.005 Z-2.500 I-3.468 J8.403 K0.000 F360.000
G2 X-86.007 Y57.558 Z-2.500 I3.328 J3.503 K0.000 F360.000
G2 X-82.288 Y60.325 Z-2.500 I4.928 J-2.742 K0.000 F360.000
G3 X-78.789 Y61.010 Z-2.500 I-5.018 J34.933 K0.000 F360.000
G3 X-76.505 Y62.043 Z-2.500 I-1.456 J6.259 K0.000 F360.000
G2 X-77.662 Y68.169 Z-2.500 I33.935 J9.582 K0.000 F360.000
G2 X-78.231 Y83.663 Z-2.500 I176.749 J14.247 K0.000 F360.000
G2 X-77.949 Y84.570 Z-2.500 I1.585 J0.004 K0.000 F360.000
G2 X-70.250 Y87.991 Z-2.500 I7.904 J-7.413 K0.000 F360.000
G2 X-68.819 Y87.257 Z-2.500 I0.092 J-1.582 K0.000 F360.000
G3 X-28.296 Y86.968 Z-2.500 I20.349 J12.066 K0.000 F360.000
G2 X-26.329 Y87.550 Z-2.500 I1.327 J-0.867 K0.000 F360.000
G2 X-19.111 Y83.439 Z-2.500 I-12.901 J-31.040 K0.000 F360.000
G1 X-19.111 Y83.439 Z-5.000 F360.000
G2 X-17.200 Y81.899 Z-5.000 I-20.119 J-26.929 K0.000 F360.000
G2 X-16.810 Y79.941 Z-5.000 I-1.012 J-1.220 K0.000 F360.000
G3 X-28.996 Y48.124 Z-5.000 I114.623 J-62.144 K0.000 F360.000
G3 X-28.839 Y48.053 Z-5.000 I0.106 J0.025 K0.000 F360.000
G2 X-15.845 Y40.972 Z-5.000 I5.359 J-5.628 K0.000 F360.000
G2 X-18.922 Y35.276 Z-5.000 I-16.900 J5.451 K0.000 F360.000
G2 X-25.549 Y28.493 Z-5.000 I-44.340 J36.693 K0.000 F360.000
G1 X-25.578 Y28.461 Z-5.000 F360.000
G2 X-25.639 Y26.197 Z-5.000 I-35.536 J-0.175 K0.000 F360.000
G2 X-25.914 Y24.822 Z-5.000 I-9.081 J1.103 K0.000 F360.000
G2 X-26.469 Y23.507 Z-5.000 I-6.400 J1.927 K0.000 F360.000
G2 X-27.854 Y21.752 Z-5.000 I-5.456 J2.881 K0.000 F360.000
G2 X-29.847 Y20.930 Z-5.000 I-2.537 J3.323 K0.000 F360.000
G2 X-33.060 Y21.527 Z-5.000 I-0.757 J4.868 K0.000 F360.000
G1 X-34.780 Y22.750 Z-5.000 F360.000
G1 X-36.244 Y23.990 Z-5.000 F360.000
G1 X-38.507 Y26.219 Z-5.000 F360.000
G1 X-40.196 Y28.243 Z-5.000 F360.000
G2 X-42.773 Y32.680 Z-5.000 I92.198 J56.505 K0.000 F360.000
G1 X-44.130 Y35.727 Z-5.000 F360.000
G2 X-45.726 Y41.841 Z-5.000 I49.947 J16.307 K0.000 F360.000
G3 X-52.440 Y48.885 Z-5.000 I-7.287 J-0.224 K0.000 F360.000
G2 X-68.936 Y50.395 Z-5.000 I-5.475 J31.048 K0.000 F360.000
G2 X-71.663 Y52.617 Z-5.000 I3.214 J6.732 K0.000 F360.000
G3 X-75.845 Y50.725 Z-5.000 I7.846 J-22.910 K0.000 F360.000
G2 X-84.960 Y52.005 Z-5.000 I-3.468 J8.403 K0.000 F360.000
G2 X-86.007 Y57.558 Z-5.000 I3.328 J3.503 K0.000 F360.000
G2 X-82.288 Y60.325 Z-5.000 I4.928 J-2.742 K0.000 F360.000
G3 X-78.789 Y61.010 Z-5.000 I-5.018 J34.933 K0.000 F360.000
G3 X-76.505 Y62.043 Z-5.000 I-1.456 J6.259 K0.000 F360.000
G2 X-77.662 Y68.169 Z-5.000 I33.935 J9.582 K0.000 F360.000
G2 X-78.231 Y83.663 Z-5.000 I176.749 J14.247 K0.000 F360.000
G2 X-77.949 Y84.570 Z-5.000 I1.585 J0.004 K0.000 F360.000
G2 X-70.250 Y87.991 Z-5.000 I7.904 J-7.413 K0.000 F360.000
G2 X-68.819 Y87.257 Z-5.000 I0.092 J-1.582 K0.000 F360.000
G3 X-28.296 Y86.968 Z-5.000 I20.349 J12.066 K0.000 F360.000
G2 X-26.329 Y87.550 Z-5.000 I1.327 J-0.867 K0.000 F360.000
G2 X-19.111 Y83.439 Z-5.000 I-12.901 J-31.040 K0.000 F360.000
G1 X-19.111 Y83.439 Z-7.500 F360.000
G2 X-17.200 Y81.899 Z-7.500 I-20.119 J-26.929 K0.000 F360.000
G2 X-16.810 Y79.941 Z-7.500 I-1.012 J-1.220 K0.000 F360.000
G3 X-28.996 Y48.124 Z-7.500 I114.623 J-62.144 K0.000 F360.000
G3 X-28.839 Y48.053 Z-7.500 I0.106 J0.025 K0.000 F360.000
G2 X-15.845 Y40.972 Z-7.500 I5.359 J-5.628 K0.000 F360.000
G2 X-18.922 Y35.276 Z-7.500 I-16.900 J5.451 K0.000 F360.000
G2 X-25.549 Y28.493 Z-7.500 I-44.340 J36.693 K0.000 F360.000
G1 X-25.578 Y28.461 Z-7.500 F360.000
G2 X-25.639 Y26.197 Z-7.500 I-35.536 J-0.175 K0.000 F360.000
G2 X-25.914 Y24.822 Z-7.500 I-9.081 J1.103 K0.000 F360.000
G2 X-26.469 Y23.507 Z-7.500 I-6.400 J1.927 K0.000 F360.000
G2 X-27.854 Y21.752 Z-7.500 I-5.456 J2.881 K0.000 F360.000
G2 X-29.847 Y20.930 Z-7.500 I-2.537 J3.323 K0.000 F360.000
G2 X-33.060 Y21.527 Z-7.500 I-0.757 J4.868 K0.000 F360.000
G1 X-34.780 Y22.750 Z-7.500 F360.000
G1 X-36.244 Y23.990 Z-7.500 F360.000
G1 X-38.507 Y26.219 Z-7.500 F360.000
G1 X-40.196 Y28.243 Z-7.500 F360.000
G2 X-42.773 Y32.680 Z-7.500 I92.198 J56.505 K0.000 F360.000
G1 X-44.130 Y35.727 Z-7.500 F360.000
G2 X-45.726 Y41.841 Z-7.500 I49.947 J16.307 K0.000 F360.000
G3 X-52.440 Y48.885 Z-7.500 I-7.287 J-0.224 K0.000 F360.000
G2 X-68.936 Y50.395 Z-7.500 I-5.475 J31.048 K0.000 F360.000
G2 X-71.663 Y52.617 Z-7.500 I3.214 J6.732 K0.000 F360.000
G3 X-75.845 Y50.725 Z-7.500 I7.846 J-22.910 K0.000 F360.000
G2 X-84.960 Y52.005 Z-7.500 I-3.468 J8.403 K0.000 F360.000
G2 X-86.007 Y57.558 Z-7.500 I3.328 J3.503 K0.000 F360.000
G2 X-82.288 Y60.325 Z-7.500 I4.928 J-2.742 K0.000 F360.000
G3 X-78.789 Y61.010 Z-7.500 I-5.018 J34.933 K0.000 F360.000
G3 X-76.505 Y62.043 Z-7.500 I-1.456 J6.259 K0.000 F360.000
G2 X-77.662 Y68.169 Z-7.500 I33.935 J9.582 K0.000 F360.000
G2 X-78.231 Y83.663 Z-7.500 I176.749 J14.247 K0.000 F360.000
G2 X-77.949 Y84.570 Z-7.500 I1.585 J0.004 K0.000 F360.000
G2 X-70.250 Y87.991 Z-7.500 I7.904 J-7.413 K0.000 F360.000
G2 X-68.819 Y87.257 Z-7.500 I0.092 J-1.582 K0.000 F360.000
G3 X-28.296 Y86.968 Z-7.500 I20.349 J12.066 K0.000 F360.000
G2 X-26.329 Y87.550 Z-7.500 I1.327 J-0.867 K0.000 F360.000
G2 X-19.111 Y83.439 Z-7.500 I-12.901 J-31.040 K0.000 F360.000
G1 X-19.111 Y83.439 Z-10.000 F360.000
G2 X-17.200 Y81.899 Z-10.000 I-20.119 J-26.929 K0.000 F360.000
G2 X-16.810 Y79.941 Z-10.000 I-1.012 J-1.220 K0.000 F360.000
G3 X-28.996 Y48.124 Z-10.000 I114.623 J-62.144 K0.000 F360.000
G3 X-28.839 Y48.053 Z-10.000 I0.106 J0.025 K0.000 F360.000
G2 X-15.845 Y40.972 Z-10.000 I5.359 J-5.628 K0.000 F360.000
G2 X-18.922 Y35.276 Z-10.000 I-16.900 J5.451 K0.000 F360.000
G2 X-25.549 Y28.493 Z-10.000 I-44.340 J36.693 K0.000 F360.000
G1 X-25.578 Y28.461 Z-10.000 F360.000
G2 X-25.639 Y26.197 Z-10.000 I-35.536 J-0.175 K0.000 F360.000
G2 X-25.914 Y24.822 Z-10.000 I-9.081 J1.103 K0.000 F360.000
G2 X-26.469 Y23.507 Z-10.000 I-6.400 J1.927 K0.000 F360.000
G2 X-27.854 Y21.752 Z-10.000 I-5.456 J2.881 K0.000 F360.000
G2 X-29.847 Y20.930 Z-10.000 I-2.537 J3.323 K0.000 F360.000
G2 X-33.060 Y21.527 Z-10.000 I-0.757 J4.868 K0.000 F360.000
G1 X-34.780 Y22.750 Z-10.000 F360.000
G1 X-36.244 Y23.990 Z-10.000 F360.000
G1 X-38.507 Y26.219 Z-10.000 F360.000
G1 X-40.196 Y28.243 Z-10.000 F360.000
G2 X-42.773 Y32.680 Z-10.000 I92.198 J56.505 K0.000 F360.000
G1 X-44.130 Y35.727 Z-10.000 F360.000
G2 X-45.726 Y41.841 Z-10.000 I49.947 J16.307 K0.000 F360.000
G3 X-52.440 Y48.885 Z-10.000 I-7.287 J-0.224 K0.000 F360.000
G2 X-68.936 Y50.395 Z-10.000 I-5.475 J31.048 K0.000 F360.000
G2 X-71.663 Y52.617 Z-10.000 I3.214 J6.732 K0.000 F360.000
G3 X-75.845 Y50.725 Z-10.000 I7.846 J-22.910 K0.000 F360.000
G2 X-84.960 Y52.005 Z-10.000 I-3.468 J8.403 K0.000 F360.000
G2 X-86.007 Y57.558 Z-10.000 I3.328 J3.503 K0.000 F360.000
G2 X-82.288 Y60.325 Z-10.000 I4.928 J-2.742 K0.000 F360.000
G3 X-78.789 Y61.010 Z-10.000 I-5.018 J34.933 K0.000 F360.000
G3 X-76.505 Y62.043 Z-10.000 I-1.456 J6.259 K0.000 F360.000
G2 X-77.662 Y68.169 Z-10.000 I33.935 J9.582 K0.000 F360.000
G2 X-78.231 Y83.663 Z-10.000 I176.749 J14.247 K0.000 F360.000
G2 X-77.949 Y84.570 Z-10.000 I1.585 J0.004 K0.000 F360.000
G2 X-70.250 Y87.991 Z-10.000 I7.904 J-7.413 K0.000 F360.000
G2 X-68.819 Y87.257 Z-10.000 I0.092 J-1.582 K0.000 F360.000
G3 X-28.296 Y86.968 Z-10.000 I20.349 J12.066 K0.000 F360.000
G2 X-26.329 Y87.550 Z-10.000 I1.327 J-0.867 K0.000 F360.000
G2 X-19.111 Y83.439 Z-10.000 I-12.901 J-31.040 K0.000 F360.000
G0 Z5.000
G0 Z5.000
(Finish operation: Profile003)
(Begin operation: Profile004)
(Path: Profile004)
(Profile004)
(Compensated Tool Path. Diameter: 3.17)
G0 Z5.000
G0 X-38.621 Y-25.879
G0 Z3.000
G1 X-38.621 Y-25.879 Z-2.500 F360.000
G2 X-38.003 Y-27.937 Z-2.500 I-4.202 J-2.384 K0.000 F360.000
G2 X-39.914 Y-32.159 Z-2.500 I-5.640 J0.009 K0.000 F360.000
G3 X-42.643 Y-34.455 Z-2.500 I21.324 J-28.120 K0.000 F360.000
G3 X-44.139 Y-36.466 Z-2.500 I4.308 J-4.768 K0.000 F360.000
G2 X-40.157 Y-41.263 Z-2.500 I-25.035 J-24.833 K0.000 F360.000
G2 X-32.148 Y-54.539 Z-2.500 I-147.681 J-98.150 K0.000 F360.000
G2 X-31.955 Y-55.468 Z-2.500 I-1.384 J-0.772 K0.000 F360.000
G2 X-37.030 Y-62.193 Z-2.500 I-10.507 J2.651 K0.000 F360.000
G2 X-38.638 Y-62.245 Z-2.500 I-0.848 J1.339 K0.000 F360.000
G3 X-74.221 Y-81.638 Z-2.500 I-11.948 J-20.418 K0.000 F360.000
G2 X-75.658 Y-83.101 Z-2.500 I-1.581 J0.115 K0.000 F360.000
G2 X-86.382 Y-82.584 Z-2.500 I-3.765 J33.403 K0.000 F360.000
G2 X-87.673 Y-81.061 Z-2.500 I0.294 J1.557 K0.000 F360.000
G3 X-92.440 Y-47.325 Z-2.500 I-130.380 J-1.218 K0.000 F360.000
G3 X-92.612 Y-47.339 Z-2.500 I-0.081 J-0.073 K0.000 F360.000
G2 X-107.409 Y-47.445 Z-2.500 I-7.416 J2.324 K0.000 F360.000
G2 X-107.479 Y-40.972 Z-2.500 I17.424 J3.425 K0.000 F360.000
G2 X-104.971 Y-31.826 Z-2.500 I56.570 J-10.596 K0.000 F360.000
G1 X-104.962 Y-31.784 Z-2.500 F360.000
G2 X-106.006 Y-29.775 Z-2.500 I30.996 J17.381 K0.000 F360.000
G2 X-106.432 Y-28.438 Z-2.500 I8.478 J3.438 K0.000 F360.000
G2 X-106.584 Y-27.020 Z-2.500 I6.532 J1.417 K0.000 F360.000
G2 X-106.224 Y-24.813 Z-2.500 I6.168 J0.125 K0.000 F360.000
G2 X-105.256 Y-23.436 Z-2.500 I3.796 J-1.639 K0.000 F360.000
G2 X-101.780 Y-22.093 Z-2.500 I3.415 J-3.667 K0.000 F360.000
G1 X-99.683 Y-22.328 Z-2.500 F360.000
G1 X-97.800 Y-22.703 Z-2.500 F360.000
G1 X-94.741 Y-23.555 Z-2.500 F360.000
G1 X-92.282 Y-24.506 Z-2.500 F360.000
G2 X-87.877 Y-27.138 Z-2.500 I-53.244 J-94.120 K0.000 F360.000
G1 X-85.214 Y-29.145 Z-2.500 F360.000
G2 X-80.853 Y-33.719 Z-2.500 I-35.779 J-38.478 K0.000 F360.000
G3 X-71.566 Y-36.625 Z-2.500 I6.265 J3.729 K0.000 F360.000
G2 X-56.407 Y-29.948 Z-2.500 I19.841 J-24.501 K0.000 F360.000
G2 X-52.944 Y-30.569 Z-2.500 I0.453 J-7.446 K0.000 F360.000
G3 X-50.204 Y-26.887 Z-2.500 I-17.969 J16.233 K0.000 F360.000
G2 X-41.611 Y-23.587 Z-2.500 I7.107 J-5.668 K0.000 F360.000
G2 X-38.621 Y-25.879 Z-2.500 I-1.212 J-4.677 K0.000 F360.000
G1 X-38.621 Y-25.879 Z-5.000 F360.000
G2 X-38.003 Y-27.937 Z-5.000 I-4.202 J-2.384 K0.000 F360.000
G2 X-39.914 Y-32.159 Z-5.000 I-5.640 J0.009 K0.000 F360.000
G3 X-42.643 Y-34.455 Z-5.000 I21.324 J-28.120 K0.000 F360.000
G3 X-44.139 Y-36.466 Z-5.000 I4.308 J-4.768 K0.000 F360.000
G2 X-40.157 Y-41.263 Z-5.000 I-25.035 J-24.833 K0.000 F360.000
G2 X-32.148 Y-54.539 Z-5.000 I-147.681 J-98.150 K0.000 F360.000
G2 X-31.955 Y-55.468 Z-5.000 I-1.384 J-0.772 K0.000 F360.000
G2 X-37.030 Y-62.193 Z-5.000 I-10.507 J2.651 K0.000 F360.000
G2 X-38.638 Y-62.245 Z-5.000 I-0.848 J1.339 K0.000 F360.000
G3 X-74.221 Y-81.638 Z-5.000 I-11.948 J-20.418 K0.000 F360.000
G2 X-75.658 Y-83.101 Z-5.000 I-1.581 J0.115 K0.000 F360.000
G2 X-86.382 Y-82.584 Z-5.000 I-3.765 J33.403 K0.000 F360.000
G2 X-87.673 Y-81.061 Z-5.000 I0.294 J1.557 K0.000 F360.000
G3 X-92.440 Y-47.325 Z-5.000 I-130.380 J-1.218 K0.000 F360.000
G3 X-92.612 Y-47.339 Z-5.000 I-0.081 J-0.073 K0.000 F360.000
G2 X-107.409 Y-47.445 Z-5.000 I-7.416 J2.324 K0.000 F360.000
G2 X-107.479 Y-40.972 Z-5.000 I17.424 J3.425 K0.000 F360.000
G2 X-104.971 Y-31.826 Z-5.000 I56.570 J-10.596 K0.000 F360.000
G1 X-104.962 Y-31.784 Z-5.000 F360.000
G2 X-106.006 Y-29.775 Z-5.000 I30.996 J17.381 K0.000 F360.000
G2 X-106.432 Y-28.438 Z-5.000 I8.478 J3.438 K0.000 F360.000
G2 X-106.584 Y-27.020 Z-5.000 I6.532 J1.417 K0.000 F360.000
G2 X-106.224 Y-24.813 Z-5.000 I6.168 J0.125 K0.000 F360.000
G2 X-105.256 Y-23.436 Z-5.000 I3.796 J-1.639 K0.000 F360.000
G2 X-101.780 Y-22.093 Z-5.000 I3.415 J-3.667 K0.000 F360.000
G1 X-99.683 Y-22.328 Z-5.000 F360.000
G1 X-97.800 Y-22.703 Z-5.000 F360.000
G1 X-94.741 Y-23.555 Z-5.000 F360.000
G1 X-92.282 Y-24.506 Z-5.000 F360.000
G2 X-87.877 Y-27.138 Z-5.000 I-53.244 J-94.120 K0.000 F360.000
G1 X-85.214 Y-29.145 Z-5.000 F360.000
G2 X-80.853 Y-33.719 Z-5.000 I-35.779 J-38.478 K0.000 F360.000
G3 X-71.566 Y-36.625 Z-5.000 I6.265 J3.729 K0.000 F360.000
G2 X-56.407 Y-29.948 Z-5.000 I19.841 J-24.501 K0.000 F360.000
G2 X-52.944 Y-30.569 Z-5.000 I0.453 J-7.446 K0.000 F360.000
G3 X-50.204 Y-26.887 Z-5.000 I-17.969 J16.233 K0.000 F360.000
G2 X-41.611 Y-23.587 Z-5.000 I7.107 J-5.668 K0.000 F360.000
G2 X-38.621 Y-25.879 Z-5.000 I-1.212 J-4.677 K0.000 F360.000
G1 X-38.621 Y-25.879 Z-7.500 F360.000
G2 X-38.003 Y-27.937 Z-7.500 I-4.202 J-2.384 K0.000 F360.000
G2 X-39.914 Y-32.159 Z-7.500 I-5.640 J0.009 K0.000 F360.000
G3 X-42.643 Y-34.455 Z-7.500 I21.324 J-28.120 K0.000 F360.000
G3 X-44.139 Y-36.466 Z-7.500 I4.308 J-4.768 K0.000 F360.000
G2 X-40.157 Y-41.263 Z-7.500 I-25.035 J-24.833 K0.000 F360.000
G2 X-32.148 Y-54.539 Z-7.500 I-147.681 J-98.150 K0.000 F360.000
G2 X-31.955 Y-55.468 Z-7.500 I-1.384 J-0.772 K0.000 F360.000
G2 X-37.030 Y-62.193 Z-7.500 I-10.507 J2.651 K0.000 F360.000
G2 X-38.638 Y-62.245 Z-7.500 I-0.848 J1.339 K0.000 F360.000
G3 X-74.221 Y-81.638 Z-7.500 I-11.948 J-20.418 K0.000 F360.000
G2 X-75.658 Y-83.101 Z-7.500 I-1.581 J0.115 K0.000 F360.000
G2 X-86.382 Y-82.584 Z-7.500 I-3.765 J33.403 K0.000 F360.000
G2 X-87.673 Y-81.061 Z-7.500 I0.294 J1.557 K0.000 F360.000
G3 X-92.440 Y-47.325 Z-7.500 I-130.380 J-1.218 K0.000 F360.000
G3 X-92.612 Y-47.339 Z-7.500 I-0.081 J-0.073 K0.000 F360.000
G2 X-107.409 Y-47.445 Z-7.500 I-7.416 J2.324 K0.000 F360.000
G2 X-107.479 Y-40.972 Z-7.500 I17.424 J3.425 K0.000 F360.000
G2 X-104.971 Y-31.826 Z-7.500 I56.570 J-10.596 K0.000 F360.000
G1 X-104.962 Y-31.784 Z-7.500 F360.000
G2 X-106.006 Y-29.775 Z-7.500 I30.996 J17.381 K0.000 F360.000
G2 X-106.432 Y-28.438 Z-7.500 I8.478 J3.438 K0.000 F360.000
G2 X-106.584 Y-27.020 Z-7.500 I6.532 J1.417 K0.000 F360.000
G2 X-106.224 Y-24.813 Z-7.500 I6.168 J0.125 K0.000 F360.000
G2 X-105.256 Y-23.436 Z-7.500 I3.796 J-1.639 K0.000 F360.000
G2 X-101.780 Y-22.093 Z-7.500 I3.415 J-3.667 K0.000 F360.000
G1 X-99.683 Y-22.328 Z-7.500 F360.000
G1 X-97.800 Y-22.703 Z-7.500 F360.000
G1 X-94.741 Y-23.555 Z-7.500 F360.000
G1 X-92.282 Y-24.506 Z-7.500 F360.000
G2 X-87.877 Y-27.138 Z-7.500 I-53.244 J-94.120 K0.000 F360.000
G1 X-85.214 Y-29.145 Z-7.500 F360.000
G2 X-80.853 Y-33.719 Z-7.500 I-35.779 J-38.478 K0.000 F360.000
G3 X-71.566 Y-36.625 Z-7.500 I6.265 J3.729 K0.000 F360.000
G2 X-56.407 Y-29.948 Z-7.500 I19.841 J-24.501 K0.000 F360.000
G2 X-52.944 Y-30.569 Z-7.500 I0.453 J-7.446 K0.000 F360.000
G3 X-50.204 Y-26.887 Z-7.500 I-17.969 J16.233 K0.000 F360.000
G2 X-41.611 Y-23.587 Z-7.500 I7.107 J-5.668 K0.000 F360.000
G2 X-38.621 Y-25.879 Z-7.500 I-1.212 J-4.677 K0.000 F360.000
G1 X-38.621 Y-25.879 Z-10.000 F360.000
G2 X-38.003 Y-27.937 Z-10.000 I-4.202 J-2.384 K0.000 F360.000
G2 X-39.914 Y-32.159 Z-10.000 I-5.640 J0.009 K0.000 F360.000
G3 X-42.643 Y-34.455 Z-10.000 I21.324 J-28.120 K0.000 F360.000
G3 X-44.139 Y-36.466 Z-10.000 I4.308 J-4.768 K0.000 F360.000
G2 X-40.157 Y-41.263 Z-10.000 I-25.035 J-24.833 K0.000 F360.000
G2 X-32.148 Y-54.539 Z-10.000 I-147.681 J-98.150 K0.000 F360.000
G2 X-31.955 Y-55.468 Z-10.000 I-1.384 J-0.772 K0.000 F360.000
G2 X-37.030 Y-62.193 Z-10.000 I-10.507 J2.651 K0.000 F360.000
G2 X-38.638 Y-62.245 Z-10.000 I-0.848 J1.339 K0.000 F360.000
G3 X-74.221 Y-81.638 Z-10.000 I-11.948 J-20.418 K0.000 F360.000
G2 X-75.658 Y-83.101 Z-10.000 I-1.581 J0.115 K0.000 F360.000
G2 X-86.382 Y-82.584 Z-10.000 I-3.765 J33.403 K0.000 F360.000
G2 X-87.673 Y-81.061 Z-10.000 I0.294 J1.557 K0.000 F360.000
G3 X-92.440 Y-47.325 Z-10.000 I-130.380 J-1.218 K0.000 F360.000
G3 X-92.612 Y-47.339 Z-10.000 I-0.081 J-0.073 K0.000 F360.000
G2 X-107.409 Y-47.445 Z-10.000 I-7.416 J2.324 K0.000 F360.000
G2 X-107.479 Y-40.972 Z-10.000 I17.424 J3.425 K0.000 F360.000
G2 X-104.971 Y-31.826 Z-10.000 I56.570 J-10.596 K0.000 F360.000
G1 X-104.962 Y-31.784 Z-10.000 F360.000
G2 X-106.006 Y-29.775 Z-10.000 I30.996 J17.381 K0.000 F360.000
G2 X-106.432 Y-28.438 Z-10.000 I8.478 J3.438 K0.000 F360.000
G2 X-106.584 Y-27.020 Z-10.000 I6.532 J1.417 K0.000 F360.000
G2 X-106.224 Y-24.813 Z-10.000 I6.168 J0.125 K0.000 F360.000
G2 X-105.256 Y-23.436 Z-10.000 I3.796 J-1.639 K0.000 F360.000
G2 X-101.780 Y-22.093 Z-10.000 I3.415 J-3.667 K0.000 F360.000
G1 X-99.683 Y-22.328 Z-10.000 F360.000
G1 X-97.800 Y-22.703 Z-10.000 F360.000
G1 X-94.741 Y-23.555 Z-10.000 F360.000
G1 X-92.282 Y-24.506 Z-10.000 F360.000
G2 X-87.877 Y-27.138 Z-10.000 I-53.244 J-94.120 K0.000 F360.000
G1 X-85.214 Y-29.145 Z-10.000 F360.000
G2 X-80.853 Y-33.719 Z-10.000 I-35.779 J-38.478 K0.000 F360.000
G3 X-71.566 Y-36.625 Z-10.000 I6.265 J3.729 K0.000 F360.000
G2 X-56.407 Y-29.948 Z-10.000 I19.841 J-24.501 K0.000 F360.000
G2 X-52.944 Y-30.569 Z-10.000 I0.453 J-7.446 K0.000 F360.000
G3 X-50.204 Y-26.887 Z-10.000 I-17.969 J16.233 K0.000 F360.000
G2 X-41.611 Y-23.587 Z-10.000 I7.107 J-5.668 K0.000 F360.000
G2 X-38.621 Y-25.879 Z-10.000 I-1.212 J-4.677 K0.000 F360.000
G0 Z5.000
G0 Z5.000
(Finish operation: Profile004)
(Begin operation: Profile005)
(Path: Profile005)
(Profile005)
(Compensated Tool Path. Diameter: 3.17)
G0 Z5.000
G0 X-53.518 Y36.987
G0 Z3.000
G1 X-53.518 Y36.987 Z-2.500 F360.000
G2 X-52.507 Y36.531 Z-2.500 I-2.231 J-6.301 K0.000 F360.000
G2 X-50.752 Y35.146 Z-2.500 I-2.881 J-5.456 K0.000 F360.000
G2 X-50.017 Y33.632 Z-2.500 I-3.274 J-2.526 K0.000 F360.000
G2 X-50.527 Y29.940 Z-2.500 I-4.863 J-1.209 K0.000 F360.000
G1 X-51.750 Y28.220 Z-2.500 F360.000
G1 X-52.990 Y26.756 Z-2.500 F360.000
G1 X-55.219 Y24.493 Z-2.500 F360.000
G1 X-57.243 Y22.804 Z-2.500 F360.000
G2 X-61.680 Y20.227 Z-2.500 I-56.505 J92.198 K0.000 F360.000
G1 X-64.727 Y18.870 Z-2.500 F360.000
G2 X-70.841 Y17.274 Z-2.500 I-16.307 J49.947 K0.000 F360.000
G3 X-77.885 Y10.560 Z-2.500 I0.224 J-7.287 K0.000 F360.000
G2 X-79.395 Y-5.936 Z-2.500 I-31.048 J-5.475 K0.000 F360.000
G2 X-81.617 Y-8.663 Z-2.500 I-6.732 J3.214 K0.000 F360.000
G3 X-79.725 Y-12.845 Z-2.500 I22.910 J7.846 K0.000 F360.000
G2 X-81.005 Y-21.960 Z-2.500 I-8.403 J-3.468 K0.000 F360.000
G2 X-83.945 Y-23.430 Z-2.500 I-3.449 J3.222 K0.000 F360.000
G2 X-86.257 Y-23.130 Z-2.500 I-0.578 J4.596 K0.000 F360.000
G2 X-89.325 Y-19.288 Z-2.500 I2.275 J4.963 K0.000 F360.000
G3 X-90.010 Y-15.789 Z-2.500 I-34.933 J-5.018 K0.000 F360.000
G3 X-91.043 Y-13.505 Z-2.500 I-6.259 J-1.456 K0.000 F360.000
G2 X-97.169 Y-14.662 Z-2.500 I-9.582 J33.935 K0.000 F360.000
G2 X-112.663 Y-15.231 Z-2.500 I-14.247 J176.749 K0.000 F360.000
G2 X-113.570 Y-14.949 Z-2.500 I-0.004 J1.585 K0.000 F360.000
G2 X-116.991 Y-7.250 Z-2.500 I7.413 J7.904 K0.000 F360.000
G2 X-116.257 Y-5.819 Z-2.500 I1.582 J0.092 K0.000 F360.000
G3 X-115.968 Y34.704 Z-2.500 I-12.066 J20.349 K0.000 F360.000
G2 X-116.550 Y36.671 Z-2.500 I0.867 J1.327 K0.000 F360.000
G2 X-110.899 Y45.800 Z-2.500 I31.040 J-12.901 K0.000 F360.000
G2 X-108.941 Y46.190 Z-2.500 I1.220 J-1.012 K0.000 F360.000
G3 X-77.124 Y34.004 Z-2.500 I62.144 J114.623 K0.000 F360.000
G3 X-77.053 Y34.161 Z-2.500 I-0.025 J0.106 K0.000 F360.000
G2 X-69.972 Y47.155 Z-2.500 I5.628 J5.359 K0.000 F360.000
G2 X-64.276 Y44.078 Z-2.500 I-5.451 J-16.900 K0.000 F360.000
G2 X-57.493 Y37.451 Z-2.500 I-36.693 J-44.340 K0.000 F360.000
G1 X-57.461 Y37.422 Z-2.500 F360.000
G2 X-55.197 Y37.361 Z-2.500 I0.175 J-35.536 K0.000 F360.000
G2 X-53.822 Y37.086 Z-2.500 I-1.103 J-9.081 K0.000 F360.000
G2 X-53.518 Y36.987 Z-2.500 I-1.927 J-6.400 K0.000 F360.000
G1 X-53.518 Y36.987 Z-5.000 F360.000
G2 X-52.507 Y36.531 Z-5.000 I-2.231 J-6.301 K0.000 F360.000
G2 X-50.752 Y35.146 Z-5.000 I-2.881 J-5.456 K0.000 F360.000
G2 X-50.017 Y33.632 Z-5.000 I-3.274 J-2.526 K0.000 F360.000
G2 X-50.527 Y29.940 Z-5.000 I-4.863 J-1.209 K0.000 F360.000
G1 X-51.750 Y28.220 Z-5.000 F360.000
G1 X-52.990 Y26.756 Z-5.000 F360.000
G1 X-55.219 Y24.493 Z-5.000 F360.000
G1 X-57.243 Y22.804 Z-5.000 F360.000
G2 X-61.680 Y20.227 Z-5.000 I-56.505 J92.198 K0.000 F360.000
G1 X-64.727 Y18.870 Z-5.000 F360.000
G2 X-70.841 Y17.274 Z-5.000 I-16.307 J49.947 K0.000 F360.000
G3 X-77.885 Y10.560 Z-5.000 I0.224 J-7.287 K0.000 F360.000
G2 X-79.395 Y-5.936 Z-5.000 I-31.048 J-5.475 K0.000 F360.000
G2 X-81.617 Y-8.663 Z-5.000 I-6.732 J3.214 K0.000 F360.000
G3 X-79.725 Y-12.845 Z-5.000 I22.910 J7.846 K0.000 F360.000
G2 X-81.005 Y-21.960 Z-5.000 I-8.403 J-3.468 K0.000 F360.000
G2 X-83.945 Y-23.430 Z-5.000 I-3.449 J3.222 K0.000 F360.000
G2 X-86.257 Y-23.130 Z-5.000 I-0.578 J4.596 K0.000 F360.000
G2 X-89.325 Y-19.288 Z-5.000 I2.275 J4.963 K0.000 F360.000
G3 X-90.010 Y-15.789 Z-5.000 I-34.933 J-5.018 K0.000 F360.000
G3 X-91.043 Y-13.505 Z-5.000 I-6.259 J-1.456 K0.000 F360.000
G2 X-97.169 Y-14.662 Z-5.000 I-9.582 J33.935 K0.000 F360.000
G2 X-112.663 Y-15.231 Z-5.000 I-14.247 J176.749 K0.000 F360.000
G2 X-113.570 Y-14.949 Z-5.000 I-0.004 J1.585 K0.000 F360.000
G2 X-116.991 Y-7.250 Z-5.000 I7.413 J7.904 K0.000 F360.000
G2 X-116.257 Y-5.819 Z-5.000 I1.582 J0.092 K0.000 F360.000
G3 X-115.968 Y34.704 Z-5.000 I-12.066 J20.349 K0.000 F360.000
G2 X-116.550 Y36.671 Z-5.000 I0.867 J1.327 K0.000 F360.000
G2 X-110.899 Y45.800 Z-5.000 I31.040 J-12.901 K0.000 F360.000
G2 X-108.941 Y46.190 Z-5.000 I1.220 J-1.012 K0.000 F360.000
G3 X-77.124 Y34.004 Z-5.000 I62.144 J114.623 K0.000 F360.000
G3 X-77.053 Y34.161 Z-5.000 I-0.025 J0.106 K0.000 F360.000
G2 X-69.972 Y47.155 Z-5.000 I5.628 J5.359 K0.000 F360.000
G2 X-64.276 Y44.078 Z-5.000 I-5.451 J-16.900 K0.000 F360.000
G2 X-57.493 Y37.451 Z-5.000 I-36.693 J-44.340 K0.000 F360.000
G1 X-57.461 Y37.422 Z-5.000 F360.000
G2 X-55.197 Y37.361 Z-5.000 I0.175 J-35.536 K0.000 F360.000
G2 X-53.822 Y37.086 Z-5.000 I-1.103 J-9.081 K0.000 F360.000
G2 X-53.518 Y36.987 Z-5.000 I-1.927 J-6.400 K0.000 F360.000
G1 X-53.518 Y36.987 Z-7.500 F360.000
G2 X-52.507 Y36.531 Z-7.500 I-2.231 J-6.301 K0.000 F360.000
G2 X-50.752 Y35.146 Z-7.500 I-2.881 J-5.456 K0.000 F360.000
G2 X-50.017 Y33.632 Z-7.500 I-3.274 J-2.526 K0.000 F360.000
G2 X-50.527 Y29.940 Z-7.500 I-4.863 J-1.209 K0.000 F360.000
G1 X-51.750 Y28.220 Z-7.500 F360.000
G1 X-52.990 Y26.756 Z-7.500 F360.000
G1 X-55.219 Y24.493 Z-7.500 F360.000
G1 X-57.243 Y22.804 Z-7.500 F360.000
G2 X-61.680 Y20.227 Z-7.500 I-56.505 J92.198 K0.000 F360.000
G1 X-64.727 Y18.870 Z-7.500 F360.000
G2 X-70.841 Y17.274 Z-7.500 I-16.307 J49.947 K0.000 F360.000
G3 X-77.885 Y10.560 Z-7.500 I0.224 J-7.287 K0.000 F360.000
G2 X-79.395 Y-5.936 Z-7.500 I-31.048 J-5.475 K0.000 F360.000
G2 X-81.617 Y-8.663 Z-7.500 I-6.732 J3.214 K0.000 F360.000
G3 X-79.725 Y-12.845 Z-7.500 I22.910 J7.846 K0.000 F360.000
G2 X-81.005 Y-21.960 Z-7.500 I-8.403 J-3.468 K0.000 F360.000
G2 X-83.945 Y-23.430 Z-7.500 I-3.449 J3.222 K0.000 F360.000
G2 X-86.257 Y-23.130 Z-7.500 I-0.578 J4.596 K0.000 F360.000
G2 X-89.325 Y-19.288 Z-7.500 I2.275 J4.963 K0.000 F360.000
G3 X-90.010 Y-15.789 Z-7.500 I-34.933 J-5.018 K0.000 F360.000
G3 X-91.043 Y-13.505 Z-7.500 I-6.259 J-1.456 K0.000 F360.000
G2 X-97.169 Y-14.662 Z-7.500 I-9.582 J33.935 K0.000 F360.000
G2 X-112.663 Y-15.231 Z-7.500 I-14.247 J176.749 K0.000 F360.000
G2 X-113.570 Y-14.949 Z-7.500 I-0.004 J1.585 K0.000 F360.000
G2 X-116.991 Y-7.250 Z-7.500 I7.413 J7.904 K0.000 F360.000
G2 X-116.257 Y-5.819 Z-7.500 I1.582 J0.092 K0.000 F360.000
G3 X-115.968 Y34.704 Z-7.500 I-12.066 J20.349 K0.000 F360.000
G2 X-116.550 Y36.671 Z-7.500 I0.867 J1.327 K0.000 F360.000
G2 X-110.899 Y45.800 Z-7.500 I31.040 J-12.901 K0.000 F360.000
G2 X-108.941 Y46.190 Z-7.500 I1.220 J-1.012 K0.000 F360.000
G3 X-77.124 Y34.004 Z-7.500 I62.144 J114.623 K0.000 F360.000
G3 X-77.053 Y34.161 Z-7.500 I-0.025 J0.106 K0.000 F360.000
G2 X-69.972 Y47.155 Z-7.500 I5.628 J5.359 K0.000 F360.000
G2 X-64.276 Y44.078 Z-7.500 I-5.451 J-16.900 K0.000 F360.000
G2 X-57.493 Y37.451 Z-7.500 I-36.693 J-44.340 K0.000 F360.000
G1 X-57.461 Y37.422 Z-7.500 F360.000
G2 X-55.197 Y37.361 Z-7.500 I0.175 J-35.536 K0.000 F360.000
G2 X-53.822 Y37.086 Z-7.500 I-1.103 J-9.081 K0.000 F360.000
G2 X-53.518 Y36.987 Z-7.500 I-1.927 J-6.400 K0.000 F360.000
G1 X-53.518 Y36.987 Z-10.000 F360.000
G2 X-52.507 Y36.531 Z-10.000 I-2.231 J-6.301 K0.000 F360.000
G2 X-50.752 Y35.146 Z-10.000 I-2.881 J-5.456 K0.000 F360.000
G2 X-50.017 Y33.632 Z-10.000 I-3.274 J-2.526 K0.000 F360.000
G2 X-50.527 Y29.940 Z-10.000 I-4.863 J-1.209 K0.000 F360.000
G1 X-51.750 Y28.220 Z-10.000 F360.000
G1 X-52.990 Y26.756 Z-10.000 F360.000
G1 X-55.219 Y24.493 Z-10.000 F360.000
G1 X-57.243 Y22.804 Z-10.000 F360.000
G2 X-61.680 Y20.227 Z-10.000 I-56.505 J92.198 K0.000 F360.000
G1 X-64.727 Y18.870 Z-10.000 F360.000
G2 X-70.841 Y17.274 Z-10.000 I-16.307 J49.947 K0.000 F360.000
G3 X-77.885 Y10.560 Z-10.000 I0.224 J-7.287 K0.000 F360.000
G2 X-79.395 Y-5.936 Z-10.000 I-31.048 J-5.475 K0.000 F360.000
G2 X-81.617 Y-8.663 Z-10.000 I-6.732 J3.214 K0.000 F360.000
G3 X-79.725 Y-12.845 Z-10.000 I22.910 J7.846 K0.000 F360.000
G2 X-81.005 Y-21.960 Z-10.000 I-8.403 J-3.468 K0.000 F360.000
G2 X-83.945 Y-23.430 Z-10.000 I-3.449 J3.222 K0.000 F360.000
G2 X-86.257 Y-23.130 Z-10.000 I-0.578 J4.596 K0.000 F360.000
G2 X-89.325 Y-19.288 Z-10.000 I2.275 J4.963 K0.000 F360.000
G3 X-90.010 Y-15.789 Z-10.000 I-34.933 J-5.018 K0.000 F360.000
G3 X-91.043 Y-13.505 Z-10.000 I-6.259 J-1.456 K0.000 F360.000
G2 X-97.169 Y-14.662 Z-10.000 I-9.582 J33.935 K0.000 F360.000
G2 X-112.663 Y-15.231 Z-10.000 I-14.247 J176.749 K0.000 F360.000
G2 X-113.570 Y-14.949 Z-10.000 I-0.004 J1.585 K0.000 F360.000
G2 X-116.991 Y-7.250 Z-10.000 I7.413 J7.904 K0.000 F360.000
G2 X-116.257 Y-5.819 Z-10.000 I1.582 J0.092 K0.000 F360.000
G3 X-115.968 Y34.704 Z-10.000 I-12.066 J20.349 K0.000 F360.000
G2 X-116.550 Y36.671 Z-10.000 I0.867 J1.327 K0.000 F360.000
G2 X-110.899 Y45.800 Z-10.000 I31.040 J-12.901 K0.000 F360.000
G2 X-108.941 Y46.190 Z-10.000 I1.220 J-1.012 K0.000 F360.000
G3 X-77.124 Y34.004 Z-10.000 I62.144 J114.623 K0.000 F360.000
G3 X-77.053 Y34.161 Z-10.000 I-0.025 J0.106 K0.000 F360.000
G2 X-69.972 Y47.155 Z-10.000 I5.628 J5.359 K0.000 F360.000
G2 X-64.276 Y44.078 Z-10.000 I-5.451 J-16.900 K0.000 F360.000
G2 X-57.493 Y37.451 Z-10.000 I-36.693 J-44.340 K0.000 F360.000
G1 X-57.461 Y37.422 Z-10.000 F360.000
G2 X-55.197 Y37.361 Z-10.000 I0.175 J-35.536 K0.000 F360.000
G2 X-53.822 Y37.086 Z-10.000 I-1.103 J-9.081 K0.000 F360.000
G2 X-53.518 Y36.987 Z-10.000 I-1.927 J-6.400 K0.000 F360.000
G0 Z5.000
G0 Z5.000
(Finish operation: Profile005)
(Begin operation: Profile006)
(Path: Profile006)
(Profile006)
(Compensated Tool Path. Diameter: 3.17)
G0 Z5.000
G0 X87.664 Y81.193
G0 Z3.000
G1 X87.664 Y81.193 Z-2.500 F360.000
G2 X87.673 Y81.061 Z-2.500 I-1.576 J-0.166 K0.000 F360.000
G3 X92.440 Y47.325 Z-2.500 I130.380 J1.218 K0.000 F360.000
G3 X92.612 Y47.339 Z-2.500 I0.081 J0.073 K0.000 F360.000
G2 X107.409 Y47.445 Z-2.500 I7.416 J-2.324 K0.000 F360.000
G2 X107.479 Y40.972 Z-2.500 I-17.424 J-3.425 K0.000 F360.000
G2 X104.971 Y31.826 Z-2.500 I-56.570 J10.596 K0.000 F360.000
G1 X104.962 Y31.784 Z-2.500 F360.000
G2 X106.006 Y29.775 Z-2.500 I-30.996 J-17.381 K0.000 F360.000
G2 X106.432 Y28.438 Z-2.500 I-8.478 J-3.438 K0.000 F360.000
G2 X106.566 Y26.399 Z-2.500 I-7.342 J-1.504 K0.000 F360.000
G2 X105.993 Y24.358 Z-2.500 I-5.058 J0.318 K0.000 F360.000
G2 X103.073 Y22.226 Z-2.500 I-4.231 J2.729 K0.000 F360.000
G2 X101.780 Y22.093 Z-2.500 I-1.082 J4.164 K0.000 F360.000
G1 X99.683 Y22.328 Z-2.500 F360.000
G1 X97.800 Y22.703 Z-2.500 F360.000
G1 X94.741 Y23.555 Z-2.500 F360.000
G1 X92.282 Y24.506 Z-2.500 F360.000
G2 X87.877 Y27.138 Z-2.500 I53.244 J94.120 K0.000 F360.000
G1 X85.214 Y29.145 Z-2.500 F360.000
G2 X80.853 Y33.719 Z-2.500 I35.779 J38.478 K0.000 F360.000
G3 X71.566 Y36.625 Z-2.500 I-6.265 J-3.729 K0.000 F360.000
G2 X56.407 Y29.948 Z-2.500 I-19.841 J24.501 K0.000 F360.000
G2 X52.944 Y30.569 Z-2.500 I-0.453 J7.446 K0.000 F360.000
G3 X50.204 Y26.887 Z-2.500 I17.969 J-16.233 K0.000 F360.000
G2 X41.611 Y23.587 Z-2.500 I-7.107 J5.668 K0.000 F360.000
G2 X38.003 Y27.937 Z-2.500 I1.212 J4.677 K0.000 F360.000
G2 X39.914 Y32.159 Z-2.500 I5.640 J-0.009 K0.000 F360.000
G3 X42.643 Y34.455 Z-2.500 I-21.324 J28.120 K0.000 F360.000
G3 X44.139 Y36.466 Z-2.500 I-4.308 J4.768 K0.000 F360.000
G2 X40.157 Y41.263 Z-2.500 I25.035 J24.833 K0.000 F360.000
G2 X32.148 Y54.539 Z-2.500 I147.681 J98.150 K0.000 F360.000
G2 X31.955 Y55.468 Z-2.500 I1.384 J0.772 K0.000 F360.000
G2 X37.030 Y62.193 Z-2.500 I10.507 J-2.651 K0.000 F360.000
G2 X38.638 Y62.245 Z-2.500 I0.848 J-1.339 K0.000 F360.000
G3 X74.221 Y81.638 Z-2.500 I11.948 J20.418 K0.000 F360.000
G2 X75.658 Y83.101 Z-2.500 I1.581 J-0.115 K0.000 F360.000
G2 X86.382 Y82.584 Z-2.500 I3.765 J-33.403 K0.000 F360.000
G2 X87.664 Y81.193 Z-2.500 I-0.294 J-1.557 K0.000 F360.000
G1 X87.664 Y81.193 Z-5.000 F360.000
G2 X87.673 Y81.061 Z-5.000 I-1.576 J-0.166 K0.000 F360.000
G3 X92.440 Y47.325 Z-5.000 I130.380 J1.218 K0.000 F360.000
G3 X92.612 Y47.339 Z-5.000 I0.081 J0.073 K0.000 F360.000
G2 X107.409 Y47.445 Z-5.000 I7.416 J-2.324 K0.000 F360.000
G2 X107.479 Y40.972 Z-5.000 I-17.424 J-3.425 K0.000 F360.000
G2 X104.971 Y31.826 Z-5.000 I-56.570 J10.596 K0.000 F360.000
G1 X104.962 Y31.784 Z-5.000 F360.000
G2 X106.006 Y29.775 Z-5.000 I-30.996 J-17.381 K0.000 F360.000
G2 X106.432 Y28.438 Z-5.000 I-8.478 J-3.438 K0.000 F360.000
G2 X106.566 Y26.399 Z-5.000 I-7.342 J-1.504 K0.000 F360.000
G2 X105.993 Y24.358 Z-5.000 I-5.058 J0.318 K0.000 F360.000
G2 X103.073 Y22.226 Z-5.000 I-4.231 J2.729 K0.000 F360.000
G2 X101.780 Y22.093 Z-5.000 I-1.082 J4.164 K0.000 F360.000
G1 X99.683 Y22.328 Z-5.000 F360.000
G1 X97.800 Y22.703 Z-5.000 F360.000
G1 X94.741 Y23.555 Z-5.000 F360.000
G1 X92.282 Y24.506 Z-5.000 F360.000
G2 X87.877 Y27.138 Z-5.000 I53.244 J94.120 K0.000 F360.000
G1 X85.214 Y29.145 Z-5.000 F360.000
G2 X80.853 Y33.719 Z-5.000 I35.779 J38.478 K0.000 F360.000
G3 X71.566 Y36.625 Z-5.000 I-6.265 J-3.729 K0.000 F360.000
G2 X56.407 Y29.948 Z-5.000 I-19.841 J24.501 K0.000 F360.000
G2 X52.944 Y30.569 Z-5.000 I-0.453 J7.446 K0.000 F360.000
G3 X50.204 Y26.887 Z-5.000 I17.969 J-16.233 K0.000 F360.000
G2 X41.611 Y23.587 Z-5.000 I-7.107 J5.668 K0.000 F360.000
G2 X38.003 Y27.937 Z-5.000 I1.212 J4.677 K0.000 F360.000
G2 X39.914 Y32.159 Z-5.000 I5.640 J-0.009 K0.000 F360.000
G3 X42.643 Y34.455 Z-5.000 I-21.324 J28.120 K0.000 F360.000
G3 X44.139 Y36.466 Z-5.000 I-4.308 J4.768 K0.000 F360.000
G2 X40.157 Y41.263 Z-5.000 I25.035 J24.833 K0.000 F360.000
G2 X32.148 Y54.539 Z-5.000 I147.681 J98.150 K0.000 F360.000
G2 X31.955 Y55.468 Z-5.000 I1.384 J0.772 K0.000 F360.000
G2 X37.030 Y62.193 Z-5.000 I10.507 J-2.651 K0.000 F360.000
G2 X38.638 Y62.245 Z-5.000 I0.848 J-1.339 K0.000 F360.000
G3 X74.221 Y81.638 Z-5.000 I11.948 J20.418 K0.000 F360.000
G2 X75.658 Y83.101 Z-5.000 I1.581 J-0.115 K0.000 F360.000
G2 X86.382 Y82.584 Z-5.000 I3.765 J-33.403 K0.000 F360.000
G2 X87.664 Y81.193 Z-5.000 I-0.294 J-1.557 K0.000 F360.000
G1 X87.664 Y81.193 Z-7.500 F360.000
G2 X87.673 Y81.061 Z-7.500 I-1.576 J-0.166 K0.000 F360.000
G3 X92.440 Y47.325 Z-7.500 I130.380 J1.218 K0.000 F360.000
G3 X92.612 Y47.339 Z-7.500 I0.081 J0.073 K0.000 F360.000
G2 X107.409 Y47.445 Z-7.500 I7.416 J-2.324 K0.000 F360.000
G2 X107.479 Y40.972 Z-7.500 I-17.424 J-3.425 K0.000 F360.000
G2 X104.971 Y31.826 Z-7.500 I-56.570 J10.596 K0.000 F360.000
G1 X104.962 Y31.784 Z-7.500 F360.000
G2 X106.006 Y29.775 Z-7.500 I-30.996 J-17.381 K0.000 F360.000
G2 X106.432 Y28.438 Z-7.500 I-8.478 J-3.438 K0.000 F360.000
G2 X106.566 Y26.399 Z-7.500 I-7.342 J-1.504 K0.000 F360.000
G2 X105.993 Y24.358 Z-7.500 I-5.058 J0.318 K0.000 F360.000
G2 X103.073 Y22.226 Z-7.500 I-4.231 J2.729 K0.000 F360.000
G2 X101.780 Y22.093 Z-7.500 I-1.082 J4.164 K0.000 F360.000
G1 X99.683 Y22.328 Z-7.500 F360.000
G1 X97.800 Y22.703 Z-7.500 F360.000
G1 X94.741 Y23.555 Z-7.500 F360.000
G1 X92.282 Y24.506 Z-7.500 F360.000
G2 X87.877 Y27.138 Z-7.500 I53.244 J94.120 K0.000 F360.000
G1 X85.214 Y29.145 Z-7.500 F360.000
G2 X80.853 Y33.719 Z-7.500 I35.779 J38.478 K0.000 F360.000
G3 X71.566 Y36.625 Z-7.500 I-6.265 J-3.729 K0.000 F360.000
G2 X56.407 Y29.948 Z-7.500 I-19.841 J24.501 K0.000 F360.000
G2 X52.944 Y30.569 Z-7.500 I-0.453 J7.446 K0.000 F360.000
G3 X50.204 Y26.887 Z-7.500 I17.969 J-16.233 K0.000 F360.000
G2 X41.611 Y23.587 Z-7.500 I-7.107 J5.668 K0.000 F360.000
G2 X38.003 Y27.937 Z-7.500 I1.212 J4.677 K0.000 F360.000
G2 X39.914 Y32.159 Z-7.500 I5.640 J-0.009 K0.000 F360.000
G3 X42.643 Y34.455 Z-7.500 I-21.324 J28.120 K0.000 F360.000
G3 X44.139 Y36.466 Z-7.500 I-4.308 J4.768 K0.000 F360.000
G2 X40.157 Y41.263 Z-7.500 I25.035 J24.833 K0.000 F360.000
G2 X32.148 Y54.539 Z-7.500 I147.681 J98.150 K0.000 F360.000
G2 X31.955 Y55.468 Z-7.500 I1.384 J0.772 K0.000 F360.000
G2 X37.030 Y62.193 Z-7.500 I10.507 J-2.651 K0.000 F360.000
G2 X38.638 Y62.245 Z-7.500 I0.848 J-1.339 K0.000 F360.000
G3 X74.221 Y81.638 Z-7.500 I11.948 J20.418 K0.000 F360.000
G2 X75.658 Y83.101 Z-7.500 I1.581 J-0.115 K0.000 F360.000
G2 X86.382 Y82.584 Z-7.500 I3.765 J-33.403 K0.000 F360.000
G2 X87.664 Y81.193 Z-7.500 I-0.294 J-1.557 K0.000 F360.000
G1 X87.664 Y81.193 Z-10.000 F360.000
G2 X87.673 Y81.061 Z-10.000 I-1.576 J-0.166 K0.000 F360.000
G3 X92.440 Y47.325 Z-10.000 I130.380 J1.218 K0.000 F360.000
G3 X92.612 Y47.339 Z-10.000 I0.081 J0.073 K0.000 F360.000
G2 X107.409 Y47.445 Z-10.000 I7.416 J-2.324 K0.000 F360.000
G2 X107.479 Y40.972 Z-10.000 I-17.424 J-3.425 K0.000 F360.000
G2 X104.971 Y31.826 Z-10.000 I-56.570 J10.596 K0.000 F360.000
G1 X104.962 Y31.784 Z-10.000 F360.000
G2 X106.006 Y29.775 Z-10.000 I-30.996 J-17.381 K0.000 F360.000
G2 X106.432 Y28.438 Z-10.000 I-8.478 J-3.438 K0.000 F360.000
G2 X106.566 Y26.399 Z-10.000 I-7.342 J-1.504 K0.000 F360.000
G2 X105.993 Y24.358 Z-10.000 I-5.058 J0.318 K0.000 F360.000
G2 X103.073 Y22.226 Z-10.000 I-4.231 J2.729 K0.000 F360.000
G2 X101.780 Y22.093 Z-10.000 I-1.082 J4.164 K0.000 F360.000
G1 X99.683 Y22.328 Z-10.000 F360.000
G1 X97.800 Y22.703 Z-10.000 F360.000
G1 X94.741 Y23.555 Z-10.000 F360.000
G1 X92.282 Y24.506 Z-10.000 F360.000
G2 X87.877 Y27.138 Z-10.000 I53.244 J94.120 K0.000 F360.000
G1 X85.214 Y29.145 Z-10.000 F360.000
G2 X80.853 Y33.719 Z-10.000 I35.779 J38.478 K0.000 F360.000
G3 X71.566 Y36.625 Z-10.000 I-6.265 J-3.729 K0.000 F360.000
G2 X56.407 Y29.948 Z-10.000 I-19.841 J24.501 K0.000 F360.000
G2 X52.944 Y30.569 Z-10.000 I-0.453 J7.446 K0.000 F360.000
G3 X50.204 Y26.887 Z-10.000 I17.969 J-16.233 K0.000 F360.000
G2 X41.611 Y23.587 Z-10.000 I-7.107 J5.668 K0.000 F360.000
G2 X38.003 Y27.937 Z-10.000 I1.212 J4.677 K0.000 F360.000
G2 X39.914 Y32.159 Z-10.000 I5.640 J-0.009 K0.000 F360.000
G3 X42.643 Y34.455 Z-10.000 I-21.324 J28.120 K0.000 F360.000
G3 X44.139 Y36.466 Z-10.000 I-4.308 J4.768 K0.000 F360.000
G2 X40.157 Y41.263 Z-10.000 I25.035 J24.833 K0.000 F360.000
G2 X32.148 Y54.539 Z-10.000 I147.681 J98.150 K0.000 F360.000
G2 X31.955 Y55.468 Z-10.000 I1.384 J0.772 K0.000 F360.000
G2 X37.030 Y62.193 Z-10.000 I10.507 J-2.651 K0.000 F360.000
G2 X38.638 Y62.245 Z-10.000 I0.848 J-1.339 K0.000 F360.000
G3 X74.221 Y81.638 Z-10.000 I11.948 J20.418 K0.000 F360.000
G2 X75.658 Y83.101 Z-10.000 I1.581 J-0.115 K0.000 F360.000
G2 X86.382 Y82.584 Z-10.000 I3.765 J-33.403 K0.000 F360.000
G2 X87.664 Y81.193 Z-10.000 I-0.294 J-1.557 K0.000 F360.000
G0 Z5.000
G0 Z5.000
(Finish operation: Profile006)
(Begin operation: Profile007)
(Path: Profile007)
(Profile007)
(Compensated Tool Path. Diameter: 3.17)
G0 Z5.000
G0 X113.307 Y15.096
G0 Z3.000
G1 X113.307 Y15.096 Z-2.500 F360.000
G2 X113.570 Y14.949 Z-2.500 I-0.639 J-1.450 K0.000 F360.000
G2 X116.991 Y7.250 Z-2.500 I-7.413 J-7.904 K0.000 F360.000
G2 X116.257 Y5.819 Z-2.500 I-1.582 J-0.092 K0.000 F360.000
G3 X115.968 Y-34.704 Z-2.500 I12.066 J-20.349 K0.000 F360.000
G2 X116.550 Y-36.671 Z-2.500 I-0.867 J-1.327 K0.000 F360.000
G2 X110.899 Y-45.800 Z-2.500 I-31.040 J12.901 K0.000 F360.000
G2 X108.941 Y-46.190 Z-2.500 I-1.220 J1.012 K0.000 F360.000
G3 X77.124 Y-34.004 Z-2.500 I-62.144 J-114.623 K0.000 F360.000
G3 X77.053 Y-34.161 Z-2.500 I0.025 J-0.106 K0.000 F360.000
G2 X72.537 Y-47.214 Z-2.500 I-5.632 J-5.359 K0.000 F360.000
G2 X69.929 Y-47.148 Z-2.500 I-1.113 J7.634 K0.000 F360.000
G2 X64.276 Y-44.078 Z-2.500 I5.629 J17.101 K0.000 F360.000
G2 X57.493 Y-37.451 Z-2.500 I36.693 J44.340 K0.000 F360.000
G1 X57.461 Y-37.422 Z-2.500 F360.000
G2 X55.197 Y-37.361 Z-2.500 I-0.175 J35.536 K0.000 F360.000
G2 X53.822 Y-37.086 Z-2.500 I1.103 J9.081 K0.000 F360.000
G2 X52.507 Y-36.531 Z-2.500 I1.927 J6.400 K0.000 F360.000
G2 X50.752 Y-35.146 Z-2.500 I2.881 J5.456 K0.000 F360.000
G2 X50.017 Y-33.632 Z-2.500 I3.274 J2.526 K0.000 F360.000
G2 X50.527 Y-29.940 Z-2.500 I4.863 J1.209 K0.000 F360.000
G1 X51.750 Y-28.220 Z-2.500 F360.000
G1 X52.990 Y-26.756 Z-2.500 F360.000
G1 X55.219 Y-24.493 Z-2.500 F360.000
G1 X57.243 Y-22.804 Z-2.500 F360.000
G2 X61.680 Y-20.227 Z-2.500 I56.505 J-92.198 K0.000 F360.000
G1 X64.727 Y-18.870 Z-2.500 F360.000
G2 X70.841 Y-17.274 Z-2.500 I16.307 J-49.947 K0.000 F360.000
G3 X77.885 Y-10.560 Z-2.500 I-0.224 J7.287 K0.000 F360.000
G2 X79.395 Y5.936 Z-2.500 I31.048 J5.475 K0.000 F360.000
G2 X81.617 Y8.663 Z-2.500 I6.732 J-3.214 K0.000 F360.000
G3 X79.725 Y12.845 Z-2.500 I-22.910 J-7.846 K0.000 F360.000
G2 X81.005 Y21.960 Z-2.500 I8.403 J3.468 K0.000 F360.000
G2 X86.558 Y23.007 Z-2.500 I3.503 J-3.328 K0.000 F360.000
G2 X89.325 Y19.288 Z-2.500 I-2.742 J-4.928 K0.000 F360.000
G3 X90.010 Y15.789 Z-2.500 I34.933 J5.018 K0.000 F360.000
G3 X91.043 Y13.505 Z-2.500 I6.259 J1.456 K0.000 F360.000
G2 X97.169 Y14.662 Z-2.500 I9.582 J-33.935 K0.000 F360.000
G2 X112.663 Y15.231 Z-2.500 I14.247 J-176.749 K0.000 F360.000
G2 X113.307 Y15.096 Z-2.500 I0.004 J-1.585 K0.000 F360.000
G1 X113.307 Y15.096 Z-5.000 F360.000
G2 X113.570 Y14.949 Z-5.000 I-0.639 J-1.450 K0.000 F360.000
G2 X116.991 Y7.250 Z-5.000 I-7.413 J-7.904 K0.000 F360.000
G2 X116.257 Y5.819 Z-5.000 I-1.582 J-0.092 K0.000 F360.000
G3 X115.968 Y-34.704 Z-5.000 I12.066 J-20.349 K0.000 F360.000
G2 X116.550 Y-36.671 Z-5.000 I-0.867 J-1.327 K0.000 F360.000
G2 X110.899 Y-45.800 Z-5.000 I-31.040 J12.901 K0.000 F360.000
G2 X108.941 Y-46.190 Z-5.000 I-1.220 J1.012 K0.000 F360.000
G3 X77.124 Y-34.004 Z-5.000 I-62.144 J-114.623 K0.000 F360.000
G3 X77.053 Y-34.161 Z-5.000 I0.025 J-0.106 K0.000 F360.000
G2 X72.537 Y-47.214 Z-5.000 I-5.632 J-5.359 K0.000 F360.000
G2 X69.929 Y-47.148 Z-5.000 I-1.113 J7.634 K0.000 F360.000
G2 X64.276 Y-44.078 Z-5.000 I5.629 J17.101 K0.000 F360.000
G2 X57.493 Y-37.451 Z-5.000 I36.693 J44.340 K0.000 F360.000
G1 X57.461 Y-37.422 Z-5.000 F360.000
G2 X55.197 Y-37.361 Z-5.000 I-0.175 J35.536 K0.000 F360.000
G2 X53.822 Y-37.086 Z-5.000 I1.103 J9.081 K0.000 F360.000
G2 X52.507 Y-36.531 Z-5.000 I1.927 J6.400 K0.000 F360.000
G2 X50.752 Y-35.146 Z-5.000 I2.881 J5.456 K0.000 F360.000
G2 X50.017 Y-33.632 Z-5.000 I3.274 J2.526 K0.000 F360.000
G2 X50.527 Y-29.940 Z-5.000 I4.863 J1.209 K0.000 F360.000
G1 X51.750 Y-28.220 Z-5.000 F360.000
G1 X52.990 Y-26.756 Z-5.000 F360.000
G1 X55.219 Y-24.493 Z-5.000 F360.000
G1 X57.243 Y-22.804 Z-5.000 F360.000
G2 X61.680 Y-20.227 Z-5.000 I56.505 J-92.198 K0.000 F360.000
G1 X64.727 Y-18.870 Z-5.000 F360.000
G2 X70.841 Y-17.274 Z-5.000 I16.307 J-49.947 K0.000 F360.000
G3 X77.885 Y-10.560 Z-5.000 I-0.224 J7.287 K0.000 F360.000
G2 X79.395 Y5.936 Z-5.000 I31.048 J5.475 K0.000 F360.000
G2 X81.617 Y8.663 Z-5.000 I6.732 J-3.214 K0.000 F360.000
G3 X79.725 Y12.845 Z-5.000 I-22.910 J-7.846 K0.000 F360.000
G2 X81.005 Y21.960 Z-5.000 I8.403 J3.468 K0.000 F360.000
G2 X86.558 Y23.007 Z-5.000 I3.503 J-3.328 K0.000 F360.000
G2 X89.325 Y19.288 Z-5.000 I-2.742 J-4.928 K0.000 F360.000
G3 X90.010 Y15.789 Z-5.000 I34.933 J5.018 K0.000 F360.000
G3 X91.043 Y13.505 Z-5.000 I6.259 J1.456 K0.000 F360.000
G2 X97.169 Y14.662 Z-5.000 I9.582 J-33.935 K0.000 F360.000
G2 X112.663 Y15.231 Z-5.000 I14.247 J-176.749 K0.000 F360.000
G2 X113.307 Y15.096 Z-5.000 I0.004 J-1.585 K0.000 F360.000
G1 X113.307 Y15.096 Z-7.500 F360.000
G2 X113.570 Y14.949 Z-7.500 I-0.639 J-1.450 K0.000 F360.000
G2 X116.991 Y7.250 Z-7.500 I-7.413 J-7.904 K0.000 F360.000
G2 X116.257 Y5.819 Z-7.500 I-1.582 J-0.092 K0.000 F360.000
G3 X115.968 Y-34.704 Z-7.500 I12.066 J-20.349 K0.000 F360.000
G2 X116.550 Y-36.671 Z-7.500 I-0.867 J-1.327 K0.000 F360.000
G2 X110.899 Y-45.800 Z-7.500 I-31.040 J12.901 K0.000 F360.000
G2 X108.941 Y-46.190 Z-7.500 I-1.220 J1.012 K0.000 F360.000
G3 X77.124 Y-34.004 Z-7.500 I-62.144 J-114.623 K0.000 F360.000
G3 X77.053 Y-34.161 Z-7.500 I0.025 J-0.106 K0.000 F360.000
G2 X72.537 Y-47.214 Z-7.500 I-5.632 J-5.359 K0.000 F360.000
G2 X69.929 Y-47.148 Z-7.500 I-1.113 J7.634 K0.000 F360.000
G2 X64.276 Y-44.078 Z-7.500 I5.629 J17.101 K0.000 F360.000
G2 X57.493 Y-37.451 Z-7.500 I36.693 J44.340 K0.000 F360.000
G1 X57.461 Y-37.422 Z-7.500 F360.000
G2 X55.197 Y-37.361 Z-7.500 I-0.175 J35.536 K0.000 F360.000
G2 X53.822 Y-37.086 Z-7.500 I1.103 J9.081 K0.000 F360.000
G2 X52.507 Y-36.531 Z-7.500 I1.927 J6.400 K0.000 F360.000
G2 X50.752 Y-35.146 Z-7.500 I2.881 J5.456 K0.000 F360.000
G2 X50.017 Y-33.632 Z-7.500 I3.274 J2.526 K0.000 F360.000
G2 X50.527 Y-29.940 Z-7.500 I4.863 J1.209 K0.000 F360.000
G1 X51.750 Y-28.220 Z-7.500 F360.000
G1 X52.990 Y-26.756 Z-7.500 F360.000
G1 X55.219 Y-24.493 Z-7.500 F360.000
G1 X57.243 Y-22.804 Z-7.500 F360.000
G2 X61.680 Y-20.227 Z-7.500 I56.505 J-92.198 K0.000 F360.000
G1 X64.727 Y-18.870 Z-7.500 F360.000
G2 X70.841 Y-17.274 Z-7.500 I16.307 J-49.947 K0.000 F360.000
G3 X77.885 Y-10.560 Z-7.500 I-0.224 J7.287 K0.000 F360.000
G2 X79.395 Y5.936 Z-7.500 I31.048 J5.475 K0.000 F360.000
G2 X81.617 Y8.663 Z-7.500 I6.732 J-3.214 K0.000 F360.000
G3 X79.725 Y12.845 Z-7.500 I-22.910 J-7.846 K0.000 F360.000
G2 X81.005 Y21.960 Z-7.500 I8.403 J3.468 K0.000 F360.000
G2 X86.558 Y23.007 Z-7.500 I3.503 J-3.328 K0.000 F360.000
G2 X89.325 Y19.288 Z-7.500 I-2.742 J-4.928 K0.000 F360.000
G3 X90.010 Y15.789 Z-7.500 I34.933 J5.018 K0.000 F360.000
G3 X91.043 Y13.505 Z-7.500 I6.259 J1.456 K0.000 F360.000
G2 X97.169 Y14.662 Z-7.500 I9.582 J-33.935 K0.000 F360.000
G2 X112.663 Y15.231 Z-7.500 I14.247 J-176.749 K0.000 F360.000
G2 X113.307 Y15.096 Z-7.500 I0.004 J-1.585 K0.000 F360.000
G1 X113.307 Y15.096 Z-10.000 F360.000
G2 X113.570 Y14.949 Z-10.000 I-0.639 J-1.450 K0.000 F360.000
G2 X116.991 Y7.250 Z-10.000 I-7.413 J-7.904 K0.000 F360.000
G2 X116.257 Y5.819 Z-10.000 I-1.582 J-0.092 K0.000 F360.000
G3 X115.968 Y-34.704 Z-10.000 I12.066 J-20.349 K0.000 F360.000
G2 X116.550 Y-36.671 Z-10.000 I-0.867 J-1.327 K0.000 F360.000
G2 X110.899 Y-45.800 Z-10.000 I-31.040 J12.901 K0.000 F360.000
G2 X108.941 Y-46.190 Z-10.000 I-1.220 J1.012 K0.000 F360.000
G3 X77.124 Y-34.004 Z-10.000 I-62.144 J-114.623 K0.000 F360.000
G3 X77.053 Y-34.161 Z-10.000 I0.025 J-0.106 K0.000 F360.000
G2 X72.537 Y-47.214 Z-10.000 I-5.632 J-5.359 K0.000 F360.000
G2 X69.929 Y-47.148 Z-10.000 I-1.113 J7.634 K0.000 F360.000
G2 X64.276 Y-44.078 Z-10.000 I5.629 J17.101 K0.000 F360.000
G2 X57.493 Y-37.451 Z-10.000 I36.693 J44.340 K0.000 F360.000
G1 X57.461 Y-37.422 Z-10.000 F360.000
G2 X55.197 Y-37.361 Z-10.000 I-0.175 J35.536 K0.000 F360.000
G2 X53.822 Y-37.086 Z-10.000 I1.103 J9.081 K0.000 F360.000
G2 X52.507 Y-36.531 Z-10.000 I1.927 J6.400 K0.000 F360.000
G2 X50.752 Y-35.146 Z-10.000 I2.881 J5.456 K0.000 F360.000
G2 X50.017 Y-33.632 Z-10.000 I3.274 J2.526 K0.000 F360.000
G2 X50.527 Y-29.940 Z-10.000 I4.863 J1.209 K0.000 F360.000
G1 X51.750 Y-28.220 Z-10.000 F360.000
G1 X52.990 Y-26.756 Z-10.000 F360.000
G1 X55.219 Y-24.493 Z-10.000 F360.000
G1 X57.243 Y-22.804 Z-10.000 F360.000
G2 X61.680 Y-20.227 Z-10.000 I56.505 J-92.198 K0.000 F360.000
G1 X64.727 Y-18.870 Z-10.000 F360.000
G2 X70.841 Y-17.274 Z-10.000 I16.307 J-49.947 K0.000 F360.000
G3 X77.885 Y-10.560 Z-10.000 I-0.224 J7.287 K0.000 F360.000
G2 X79.395 Y5.936 Z-10.000 I31.048 J5.475 K0.000 F360.000
G2 X81.617 Y8.663 Z-10.000 I6.732 J-3.214 K0.000 F360.000
G3 X79.725 Y12.845 Z-10.000 I-22.910 J-7.846 K0.000 F360.000
G2 X81.005 Y21.960 Z-10.000 I8.403 J3.468 K0.000 F360.000
G2 X86.558 Y23.007 Z-10.000 I3.503 J-3.328 K0.000 F360.000
G2 X89.325 Y19.288 Z-10.000 I-2.742 J-4.928 K0.000 F360.000
G3 X90.010 Y15.789 Z-10.000 I34.933 J5.018 K0.000 F360.000
G3 X91.043 Y13.505 Z-10.000 I6.259 J1.456 K0.000 F360.000
G2 X97.169 Y14.662 Z-10.000 I9.582 J-33.935 K0.000 F360.000
G2 X112.663 Y15.231 Z-10.000 I14.247 J-176.749 K0.000 F360.000
G2 X113.307 Y15.096 Z-10.000 I0.004 J-1.585 K0.000 F360.000
G0 Z5.000
G0 Z5.000
(Finish operation: Profile007)
(Begin postamble)
M5
G17 G90
M2
