(Exported by FreeCAD)
(Post Processor: script_module)
(Output Time:2026-05-08 14:41:01.702311)
(Begin preamble)
G17 G90
G21
(Begin operation: Fixture)
(Path: Fixture)
G54
(Finish operation: Fixture)
(Begin operation: 3175001)
(Path: 3175001)
(3175001)
(Begin toolchange)
( M6 T2 )
M3 S10000
(Finish operation: 3175001)
(Begin operation: Profile)
(Path: Profile)
(Profile)
(Compensated Tool Path. Diameter: 3.17)
G0 Z5.000
G0 X83.529 Y-3.972
G0 Z3.000
G1 X83.529 Y-3.972 Z-2.000 F300.000
G1 X103.415 Y-13.675 Z-2.000 F300.000
G1 X103.415 Y-113.415 Z-2.000 F300.000
G1 X-108.415 Y-113.415 Z-2.000 F300.000
G1 X-108.415 Y-16.115 Z-2.000 F300.000
G1 X-0.000 Y36.783 Z-2.000 F300.000
G1 X83.529 Y-3.972 Z-2.000 F300.000
G1 X83.529 Y-3.972 Z-4.000 F300.000
G1 X103.415 Y-13.675 Z-4.000 F300.000
G1 X103.415 Y-113.415 Z-4.000 F300.000
G1 X-108.415 Y-113.415 Z-4.000 F300.000
G1 X-108.415 Y-16.115 Z-4.000 F300.000
G1 X-0.000 Y36.783 Z-4.000 F300.000
G1 X83.529 Y-3.972 Z-4.000 F300.000
G1 X83.529 Y-3.972 Z-6.000 F300.000
G1 X103.415 Y-13.675 Z-6.000 F300.000
G1 X103.415 Y-113.415 Z-6.000 F300.000
G1 X-108.415 Y-113.415 Z-6.000 F300.000
G1 X-108.415 Y-16.115 Z-6.000 F300.000
G1 X-0.000 Y36.783 Z-6.000 F300.000
G1 X83.529 Y-3.972 Z-6.000 F300.000
G1 X83.529 Y-3.972 Z-8.000 F300.000
G1 X103.415 Y-13.675 Z-8.000 F300.000
G1 X103.415 Y-113.415 Z-8.000 F300.000
G1 X-108.415 Y-113.415 Z-8.000 F300.000
G1 X-108.415 Y-16.115 Z-8.000 F300.000
G1 X-0.000 Y36.783 Z-8.000 F300.000
G1 X83.529 Y-3.972 Z-8.000 F300.000
G1 X83.529 Y-3.972 Z-10.000 F300.000
G1 X103.415 Y-13.675 Z-10.000 F300.000
G1 X103.415 Y-113.415 Z-10.000 F300.000
G1 X-108.415 Y-113.415 Z-10.000 F300.000
G1 X-108.415 Y-16.115 Z-10.000 F300.000
G1 X-0.000 Y36.783 Z-10.000 F300.000
G1 X83.529 Y-3.972 Z-10.000 F300.000
G1 X83.529 Y-3.972 Z-12.000 F300.000
G1 X103.415 Y-13.675 Z-12.000 F300.000
G1 X103.415 Y-113.415 Z-12.000 F300.000
G1 X-108.415 Y-113.415 Z-12.000 F300.000
G1 X-108.415 Y-16.115 Z-12.000 F300.000
G1 X-0.000 Y36.783 Z-12.000 F300.000
G1 X83.529 Y-3.972 Z-12.000 F300.000
G1 X83.529 Y-3.972 Z-14.000 F300.000
G1 X103.415 Y-13.675 Z-14.000 F300.000
G1 X103.415 Y-113.415 Z-14.000 F300.000
G1 X-108.415 Y-113.415 Z-14.000 F300.000
G1 X-108.415 Y-16.115 Z-14.000 F300.000
G1 X-0.000 Y36.783 Z-14.000 F300.000
G1 X83.529 Y-3.972 Z-14.000 F300.000
G1 X83.529 Y-3.972 Z-16.000 F300.000
G1 X103.415 Y-13.675 Z-16.000 F300.000
G1 X103.415 Y-113.415 Z-16.000 F300.000
G1 X-108.415 Y-113.415 Z-16.000 F300.000
G1 X-108.415 Y-16.115 Z-16.000 F300.000
G1 X-0.000 Y36.783 Z-16.000 F300.000
G1 X83.529 Y-3.972 Z-16.000 F300.000
G1 X83.529 Y-3.972 Z-18.000 F300.000
G1 X103.415 Y-13.675 Z-18.000 F300.000
G1 X103.415 Y-113.415 Z-18.000 F300.000
G1 X-108.415 Y-113.415 Z-18.000 F300.000
G1 X-108.415 Y-16.115 Z-18.000 F300.000
G1 X-0.000 Y36.783 Z-18.000 F300.000
G1 X83.529 Y-3.972 Z-18.000 F300.000
G1 X83.529 Y-3.972 Z-20.000 F300.000
G1 X103.415 Y-13.675 Z-20.000 F300.000
G1 X103.415 Y-113.415 Z-20.000 F300.000
G1 X-108.415 Y-113.415 Z-20.000 F300.000
G1 X-108.415 Y-16.115 Z-20.000 F300.000
G1 X-0.000 Y36.783 Z-20.000 F300.000
G1 X83.529 Y-3.972 Z-20.000 F300.000
G1 X83.529 Y-3.972 Z-21.000 F300.000
G1 X103.415 Y-13.675 Z-21.000 F300.000
G1 X103.415 Y-113.415 Z-21.000 F300.000
G1 X-108.415 Y-113.415 Z-21.000 F300.000
G1 X-108.415 Y-16.115 Z-21.000 F300.000
G1 X-0.000 Y36.783 Z-21.000 F300.000
G1 X83.529 Y-3.972 Z-21.000 F300.000
G0 Z5.000
G0 Z5.000
(Finish operation: Profile)
(Begin operation: Pocket_Shape)
(Path: Pocket_Shape)
(Pocket_Shape)
G0 Z5.000
G0 X0.000 Y0.000
G0 X106.588 Y-15.225
G0 X106.588 Y-15.225 Z3.000
G1 X106.588 Y-15.225 Z-3.170 F300.000
G1 X106.587 Y-15.224 Z-3.170 F300.000
G1 X106.585 Y-15.258 Z-3.170 F300.000
G1 X106.585 Y-19.709 Z-3.170 F300.000
G1 X108.415 Y-17.879 Z-3.170 F300.000
G1 X108.415 Y-22.362 Z-3.170 F300.000
G1 X106.585 Y-24.192 Z-3.170 F300.000
G1 X106.585 Y-28.675 Z-3.170 F300.000
G1 X108.415 Y-26.845 Z-3.170 F300.000
G1 X108.415 Y-31.328 Z-3.170 F300.000
G1 X106.585 Y-33.158 Z-3.170 F300.000
G1 X106.585 Y-37.641 Z-3.170 F300.000
G1 X108.415 Y-35.811 Z-3.170 F300.000
G1 X108.415 Y-40.294 Z-3.170 F300.000
G1 X106.585 Y-42.124 Z-3.170 F300.000
G1 X106.585 Y-46.607 Z-3.170 F300.000
G1 X108.415 Y-44.777 Z-3.170 F300.000
G1 X108.415 Y-49.260 Z-3.170 F300.000
G1 X106.585 Y-51.090 Z-3.170 F300.000
G1 X106.585 Y-55.573 Z-3.170 F300.000
G1 X108.415 Y-53.743 Z-3.170 F300.000
G1 X108.415 Y-58.226 Z-3.170 F300.000
G1 X106.585 Y-60.056 Z-3.170 F300.000
G1 X106.585 Y-64.539 Z-3.170 F300.000
G1 X108.415 Y-62.710 Z-3.170 F300.000
G1 X108.415 Y-67.193 Z-3.170 F300.000
G1 X106.585 Y-69.022 Z-3.170 F300.000
G1 X106.585 Y-73.506 Z-3.170 F300.000
G1 X108.415 Y-71.676 Z-3.170 F300.000
G1 X108.415 Y-76.159 Z-3.170 F300.000
G1 X106.585 Y-77.989 Z-3.170 F300.000
G1 X106.585 Y-82.472 Z-3.170 F300.000
G1 X108.415 Y-80.642 Z-3.170 F300.000
G1 X108.415 Y-85.125 Z-3.170 F300.000
G1 X106.585 Y-86.955 Z-3.170 F300.000
G1 X106.585 Y-91.438 Z-3.170 F300.000
G1 X108.415 Y-89.608 Z-3.170 F300.000
G1 X108.415 Y-94.091 Z-3.170 F300.000
G1 X106.585 Y-95.921 Z-3.170 F300.000
G1 X106.585 Y-100.404 Z-3.170 F300.000
G1 X108.415 Y-98.574 Z-3.170 F300.000
G1 X108.415 Y-103.057 Z-3.170 F300.000
G1 X106.585 Y-104.887 Z-3.170 F300.000
G1 X106.585 Y-109.370 Z-3.170 F300.000
G1 X108.415 Y-107.540 Z-3.170 F300.000
G1 X108.415 Y-112.023 Z-3.170 F300.000
G1 X107.012 Y-113.426 Z-3.170 F300.000
G3 X108.413 Y-113.413 Z-3.170 I0.592 J12.420 K0.000 F300.000
G1 X108.415 Y-113.378 Z-3.170 F300.000
G1 X108.415 Y-16.150 Z-3.170 F300.000
G1 X108.414 Y-16.134 Z-3.170 F300.000
G3 X106.587 Y-15.224 Z-3.170 I-7.226 J-12.229 K0.000 F300.000
G1 X106.585 Y-15.258 Z-3.170 F300.000
G1 X106.585 Y-113.379 Z-3.170 F300.000
G1 X106.586 Y-113.399 Z-3.170 F300.000
G3 X108.413 Y-113.413 Z-3.170 I1.015 J12.491 K0.000 F300.000
G1 X108.415 Y-113.378 Z-3.170 F300.000
G1 X108.415 Y-112.023 Z-3.170 F300.000
G1 X108.415 Y-112.023 Z-5.000 F300.000
G1 X108.415 Y-113.378 Z-5.000 F300.000
G1 X108.413 Y-113.413 Z-5.000 F300.000
G2 X106.586 Y-113.399 Z-5.000 I-0.813 J12.506 K0.000 F300.000
G1 X106.585 Y-113.379 Z-5.000 F300.000
G1 X106.585 Y-15.258 Z-5.000 F300.000
G1 X106.587 Y-15.224 Z-5.000 F300.000
G2 X108.414 Y-16.134 Z-5.000 I-5.398 J-13.139 K0.000 F300.000
G1 X108.415 Y-16.150 Z-5.000 F300.000
G1 X108.415 Y-113.378 Z-5.000 F300.000
G1 X108.413 Y-113.413 Z-5.000 F300.000
G2 X107.012 Y-113.426 Z-5.000 I-0.809 J12.408 K0.000 F300.000
G1 X108.415 Y-112.023 Z-5.000 F300.000
G1 X108.415 Y-107.540 Z-5.000 F300.000
G1 X106.585 Y-109.370 Z-5.000 F300.000
G1 X106.585 Y-104.887 Z-5.000 F300.000
G1 X108.415 Y-103.057 Z-5.000 F300.000
G1 X108.415 Y-98.574 Z-5.000 F300.000
G1 X106.585 Y-100.404 Z-5.000 F300.000
G1 X106.585 Y-95.921 Z-5.000 F300.000
G1 X108.415 Y-94.091 Z-5.000 F300.000
G1 X108.415 Y-89.608 Z-5.000 F300.000
G1 X106.585 Y-91.438 Z-5.000 F300.000
G1 X106.585 Y-86.955 Z-5.000 F300.000
G1 X108.415 Y-85.125 Z-5.000 F300.000
G1 X108.415 Y-80.642 Z-5.000 F300.000
G1 X106.585 Y-82.472 Z-5.000 F300.000
G1 X106.585 Y-77.989 Z-5.000 F300.000
G1 X108.415 Y-76.159 Z-5.000 F300.000
G1 X108.415 Y-71.676 Z-5.000 F300.000
G1 X106.585 Y-73.506 Z-5.000 F300.000
G1 X106.585 Y-69.022 Z-5.000 F300.000
G1 X108.415 Y-67.193 Z-5.000 F300.000
G1 X108.415 Y-62.710 Z-5.000 F300.000
G1 X106.585 Y-64.539 Z-5.000 F300.000
G1 X106.585 Y-60.056 Z-5.000 F300.000
G1 X108.415 Y-58.226 Z-5.000 F300.000
G1 X108.415 Y-53.743 Z-5.000 F300.000
G1 X106.585 Y-55.573 Z-5.000 F300.000
G1 X106.585 Y-51.090 Z-5.000 F300.000
G1 X108.415 Y-49.260 Z-5.000 F300.000
G1 X108.415 Y-44.777 Z-5.000 F300.000
G1 X106.585 Y-46.607 Z-5.000 F300.000
G1 X106.585 Y-42.124 Z-5.000 F300.000
G1 X108.415 Y-40.294 Z-5.000 F300.000
G1 X108.415 Y-35.811 Z-5.000 F300.000
G1 X106.585 Y-37.641 Z-5.000 F300.000
G1 X106.585 Y-33.158 Z-5.000 F300.000
G1 X108.415 Y-31.328 Z-5.000 F300.000
G1 X108.415 Y-26.845 Z-5.000 F300.000
G1 X106.585 Y-28.675 Z-5.000 F300.000
G1 X106.585 Y-24.192 Z-5.000 F300.000
G1 X108.415 Y-22.362 Z-5.000 F300.000
G1 X108.415 Y-17.879 Z-5.000 F300.000
G1 X106.585 Y-19.709 Z-5.000 F300.000
G1 X106.585 Y-15.258 Z-5.000 F300.000
G1 X106.587 Y-15.224 Z-5.000 F300.000
G1 X106.588 Y-15.225 Z-5.000 F300.000
G0 Z5.000
G0 Z5.000
(Finish operation: Pocket_Shape)
(Begin operation: Profile001)
(Path: Profile001)
(Profile001)
(Compensated Tool Path. Diameter: 3.17)
G0 Z5.000
G0 X94.251 Y-0.117
G0 Z3.000
G1 X94.251 Y-0.117 Z-2.000 F300.000
G1 X115.695 Y-10.575 Z-2.000 F300.000
G2 X116.585 Y-12.000 Z-2.000 I-0.695 J-1.425 K0.000 F300.000
G1 X116.585 Y-120.000 Z-2.000 F300.000
G2 X115.000 Y-121.585 Z-2.000 I-1.585 J0.000 K0.000 F300.000
G1 X-115.000 Y-121.585 Z-2.000 F300.000
G2 X-116.585 Y-120.000 Z-2.000 I0.000 J1.585 K0.000 F300.000
G1 X-116.585 Y-12.000 Z-2.000 F300.000
G2 X-115.695 Y-10.575 Z-2.000 I1.585 J-0.000 K0.000 F300.000
G1 X-110.695 Y-8.137 Z-2.000 F300.000
G1 X-110.695 Y-8.137 Z-2.000 F300.000
G1 X-0.695 Y45.514 Z-2.000 F300.000
G2 X0.695 Y45.514 Z-2.000 I0.695 J-1.425 K0.000 F300.000
G1 X94.251 Y-0.117 Z-2.000 F300.000
G1 X94.251 Y-0.117 Z-4.000 F300.000
G1 X115.695 Y-10.575 Z-4.000 F300.000
G2 X116.585 Y-12.000 Z-4.000 I-0.695 J-1.425 K0.000 F300.000
G1 X116.585 Y-120.000 Z-4.000 F300.000
G2 X115.000 Y-121.585 Z-4.000 I-1.585 J0.000 K0.000 F300.000
G1 X-115.000 Y-121.585 Z-4.000 F300.000
G2 X-116.585 Y-120.000 Z-4.000 I0.000 J1.585 K0.000 F300.000
G1 X-116.585 Y-12.000 Z-4.000 F300.000
G2 X-115.695 Y-10.575 Z-4.000 I1.585 J-0.000 K0.000 F300.000
G1 X-110.695 Y-8.137 Z-4.000 F300.000
G1 X-110.695 Y-8.137 Z-4.000 F300.000
G1 X-0.695 Y45.514 Z-4.000 F300.000
G2 X0.695 Y45.514 Z-4.000 I0.695 J-1.425 K0.000 F300.000
G1 X94.251 Y-0.117 Z-4.000 F300.000
G1 X94.251 Y-0.117 Z-6.000 F300.000
G1 X115.695 Y-10.575 Z-6.000 F300.000
G2 X116.585 Y-12.000 Z-6.000 I-0.695 J-1.425 K0.000 F300.000
G1 X116.585 Y-120.000 Z-6.000 F300.000
G2 X115.000 Y-121.585 Z-6.000 I-1.585 J0.000 K0.000 F300.000
G1 X-115.000 Y-121.585 Z-6.000 F300.000
G2 X-116.585 Y-120.000 Z-6.000 I0.000 J1.585 K0.000 F300.000
G1 X-116.585 Y-12.000 Z-6.000 F300.000
G2 X-115.695 Y-10.575 Z-6.000 I1.585 J-0.000 K0.000 F300.000
G1 X-110.695 Y-8.137 Z-6.000 F300.000
G1 X-110.695 Y-8.137 Z-6.000 F300.000
G1 X-0.695 Y45.514 Z-6.000 F300.000
G2 X0.695 Y45.514 Z-6.000 I0.695 J-1.425 K0.000 F300.000
G1 X94.251 Y-0.117 Z-6.000 F300.000
G1 X94.251 Y-0.117 Z-8.000 F300.000
G1 X115.695 Y-10.575 Z-8.000 F300.000
G2 X116.585 Y-12.000 Z-8.000 I-0.695 J-1.425 K0.000 F300.000
G1 X116.585 Y-120.000 Z-8.000 F300.000
G2 X115.000 Y-121.585 Z-8.000 I-1.585 J0.000 K0.000 F300.000
G1 X-115.000 Y-121.585 Z-8.000 F300.000
G2 X-116.585 Y-120.000 Z-8.000 I0.000 J1.585 K0.000 F300.000
G1 X-116.585 Y-12.000 Z-8.000 F300.000
G2 X-115.695 Y-10.575 Z-8.000 I1.585 J-0.000 K0.000 F300.000
G1 X-110.695 Y-8.137 Z-8.000 F300.000
G1 X-110.695 Y-8.137 Z-8.000 F300.000
G1 X-0.695 Y45.514 Z-8.000 F300.000
G2 X0.695 Y45.514 Z-8.000 I0.695 J-1.425 K0.000 F300.000
G1 X94.251 Y-0.117 Z-8.000 F300.000
G1 X94.251 Y-0.117 Z-10.000 F300.000
G1 X115.695 Y-10.575 Z-10.000 F300.000
G2 X116.585 Y-12.000 Z-10.000 I-0.695 J-1.425 K0.000 F300.000
G1 X116.585 Y-120.000 Z-10.000 F300.000
G2 X115.000 Y-121.585 Z-10.000 I-1.585 J0.000 K0.000 F300.000
G1 X-115.000 Y-121.585 Z-10.000 F300.000
G2 X-116.585 Y-120.000 Z-10.000 I0.000 J1.585 K0.000 F300.000
G1 X-116.585 Y-12.000 Z-10.000 F300.000
G2 X-115.695 Y-10.575 Z-10.000 I1.585 J-0.000 K0.000 F300.000
G1 X-110.695 Y-8.137 Z-10.000 F300.000
G1 X-110.695 Y-8.137 Z-10.000 F300.000
G1 X-0.695 Y45.514 Z-10.000 F300.000
G2 X0.695 Y45.514 Z-10.000 I0.695 J-1.425 K0.000 F300.000
G1 X94.251 Y-0.117 Z-10.000 F300.000
G1 X94.251 Y-0.117 Z-12.000 F300.000
G1 X115.695 Y-10.575 Z-12.000 F300.000
G2 X116.585 Y-12.000 Z-12.000 I-0.695 J-1.425 K0.000 F300.000
G1 X116.585 Y-120.000 Z-12.000 F300.000
G2 X115.000 Y-121.585 Z-12.000 I-1.585 J0.000 K0.000 F300.000
G1 X-115.000 Y-121.585 Z-12.000 F300.000
G2 X-116.585 Y-120.000 Z-12.000 I0.000 J1.585 K0.000 F300.000
G1 X-116.585 Y-12.000 Z-12.000 F300.000
G2 X-115.695 Y-10.575 Z-12.000 I1.585 J-0.000 K0.000 F300.000
G1 X-110.695 Y-8.137 Z-12.000 F300.000
G1 X-110.695 Y-8.137 Z-12.000 F300.000
G1 X-0.695 Y45.514 Z-12.000 F300.000
G2 X0.695 Y45.514 Z-12.000 I0.695 J-1.425 K0.000 F300.000
G1 X94.251 Y-0.117 Z-12.000 F300.000
G1 X94.251 Y-0.117 Z-14.000 F300.000
G1 X115.695 Y-10.575 Z-14.000 F300.000
G2 X116.585 Y-12.000 Z-14.000 I-0.695 J-1.425 K0.000 F300.000
G1 X116.585 Y-120.000 Z-14.000 F300.000
G2 X115.000 Y-121.585 Z-14.000 I-1.585 J0.000 K0.000 F300.000
G1 X-115.000 Y-121.585 Z-14.000 F300.000
G2 X-116.585 Y-120.000 Z-14.000 I0.000 J1.585 K0.000 F300.000
G1 X-116.585 Y-12.000 Z-14.000 F300.000
G2 X-115.695 Y-10.575 Z-14.000 I1.585 J-0.000 K0.000 F300.000
G1 X-110.695 Y-8.137 Z-14.000 F300.000
G1 X-110.695 Y-8.137 Z-14.000 F300.000
G1 X-0.695 Y45.514 Z-14.000 F300.000
G2 X0.695 Y45.514 Z-14.000 I0.695 J-1.425 K0.000 F300.000
G1 X94.251 Y-0.117 Z-14.000 F300.000
G1 X94.251 Y-0.117 Z-16.000 F300.000
G1 X115.695 Y-10.575 Z-16.000 F300.000
G2 X116.585 Y-12.000 Z-16.000 I-0.695 J-1.425 K0.000 F300.000
G1 X116.585 Y-120.000 Z-16.000 F300.000
G2 X115.000 Y-121.585 Z-16.000 I-1.585 J0.000 K0.000 F300.000
G1 X-115.000 Y-121.585 Z-16.000 F300.000
G2 X-116.585 Y-120.000 Z-16.000 I0.000 J1.585 K0.000 F300.000
G1 X-116.585 Y-12.000 Z-16.000 F300.000
G2 X-115.695 Y-10.575 Z-16.000 I1.585 J-0.000 K0.000 F300.000
G1 X-110.695 Y-8.137 Z-16.000 F300.000
G1 X-110.695 Y-8.137 Z-16.000 F300.000
G1 X-0.695 Y45.514 Z-16.000 F300.000
G2 X0.695 Y45.514 Z-16.000 I0.695 J-1.425 K0.000 F300.000
G1 X94.251 Y-0.117 Z-16.000 F300.000
G1 X94.251 Y-0.117 Z-18.000 F300.000
G1 X115.695 Y-10.575 Z-18.000 F300.000
G2 X116.585 Y-12.000 Z-18.000 I-0.695 J-1.425 K0.000 F300.000
G1 X116.585 Y-120.000 Z-18.000 F300.000
G2 X115.000 Y-121.585 Z-18.000 I-1.585 J0.000 K0.000 F300.000
G1 X-115.000 Y-121.585 Z-18.000 F300.000
G2 X-116.585 Y-120.000 Z-18.000 I0.000 J1.585 K0.000 F300.000
G1 X-116.585 Y-12.000 Z-18.000 F300.000
G2 X-115.695 Y-10.575 Z-18.000 I1.585 J-0.000 K0.000 F300.000
G1 X-110.695 Y-8.137 Z-18.000 F300.000
G1 X-110.695 Y-8.137 Z-18.000 F300.000
G1 X-0.695 Y45.514 Z-18.000 F300.000
G2 X0.695 Y45.514 Z-18.000 I0.695 J-1.425 K0.000 F300.000
G1 X94.251 Y-0.117 Z-18.000 F300.000
G1 X94.251 Y-0.117 Z-20.000 F300.000
G1 X115.695 Y-10.575 Z-20.000 F300.000
G2 X116.585 Y-12.000 Z-20.000 I-0.695 J-1.425 K0.000 F300.000
G1 X116.585 Y-120.000 Z-20.000 F300.000
G2 X115.000 Y-121.585 Z-20.000 I-1.585 J0.000 K0.000 F300.000
G1 X-115.000 Y-121.585 Z-20.000 F300.000
G2 X-116.585 Y-120.000 Z-20.000 I0.000 J1.585 K0.000 F300.000
G1 X-116.585 Y-12.000 Z-20.000 F300.000
G2 X-115.695 Y-10.575 Z-20.000 I1.585 J-0.000 K0.000 F300.000
G1 X-110.695 Y-8.137 Z-20.000 F300.000
G1 X-110.695 Y-8.137 Z-20.000 F300.000
G1 X-0.695 Y45.514 Z-20.000 F300.000
G2 X0.695 Y45.514 Z-20.000 I0.695 J-1.425 K0.000 F300.000
G1 X94.251 Y-0.117 Z-20.000 F300.000
G1 X94.251 Y-0.117 Z-21.000 F300.000
G1 X115.695 Y-10.575 Z-21.000 F300.000
G2 X116.585 Y-12.000 Z-21.000 I-0.695 J-1.425 K0.000 F300.000
G1 X116.585 Y-120.000 Z-21.000 F300.000
G2 X115.000 Y-121.585 Z-21.000 I-1.585 J0.000 K0.000 F300.000
G1 X-115.000 Y-121.585 Z-21.000 F300.000
G2 X-116.585 Y-120.000 Z-21.000 I0.000 J1.585 K0.000 F300.000
G1 X-116.585 Y-12.000 Z-21.000 F300.000
G2 X-115.695 Y-10.575 Z-21.000 I1.585 J-0.000 K0.000 F300.000
G1 X-110.695 Y-8.137 Z-21.000 F300.000
G1 X-110.695 Y-8.137 Z-21.000 F300.000
G1 X-0.695 Y45.514 Z-21.000 F300.000
G2 X0.695 Y45.514 Z-21.000 I0.695 J-1.425 K0.000 F300.000
G1 X94.251 Y-0.117 Z-21.000 F300.000
G0 Z5.000
G0 Z5.000
(Finish operation: Profile001)
(Begin postamble)
M5
G17 G90
M2
