(Exported by FreeCAD)
(Post Processor: script_module)
(Output Time:2026-05-08 15:24:11.314637)
(Begin preamble)
G17 G90
G21
(Begin operation: Fixture)
(Path: Fixture)
G54
(Finish operation: Fixture)
(Begin operation: 3175002001)
(Path: 3175002001)
(3175002001)
(Begin toolchange)
( M6 T2 )
M3 S10000
(Finish operation: 3175002001)
(Begin operation: Profile002)
(Path: Profile002)
(Profile002)
(Compensated Tool Path. Diameter: 3.17)
G0 Z5.000
G0 X68.926 Y-2.418
G0 Z3.000
G1 X68.926 Y-2.418 Z-2.000 F300.000
G1 X85.323 Y-10.415 Z-2.000 F300.000
G1 X-85.323 Y-10.415 Z-2.000 F300.000
G1 X-0.000 Y31.200 Z-2.000 F300.000
G1 X68.926 Y-2.418 Z-2.000 F300.000
G1 X68.926 Y-2.418 Z-4.000 F300.000
G1 X85.323 Y-10.415 Z-4.000 F300.000
G1 X-85.323 Y-10.415 Z-4.000 F300.000
G1 X-0.000 Y31.200 Z-4.000 F300.000
G1 X68.926 Y-2.418 Z-4.000 F300.000
G1 X68.926 Y-2.418 Z-6.000 F300.000
G1 X85.323 Y-10.415 Z-6.000 F300.000
G1 X-85.323 Y-10.415 Z-6.000 F300.000
G1 X-0.000 Y31.200 Z-6.000 F300.000
G1 X68.926 Y-2.418 Z-6.000 F300.000
G0 Z5.000
G0 Z5.000
(Finish operation: Profile002)
(Begin operation: Profile003)
(Path: Profile003)
(Profile003)
(Compensated Tool Path. Diameter: 3.17)
G0 Z5.000
G0 X94.251 Y-0.117
G0 Z3.000
G1 X94.251 Y-0.117 Z-2.000 F300.000
G1 X115.695 Y-10.575 Z-2.000 F300.000
G2 X116.585 Y-12.000 Z-2.000 I-0.695 J-1.425 K0.000 F300.000
G1 X116.585 Y-120.000 Z-2.000 F300.000
G2 X115.000 Y-121.585 Z-2.000 I-1.585 J0.000 K0.000 F300.000
G1 X-115.000 Y-121.585 Z-2.000 F300.000
G2 X-116.585 Y-120.000 Z-2.000 I0.000 J1.585 K0.000 F300.000
G1 X-116.585 Y-12.000 Z-2.000 F300.000
G2 X-115.695 Y-10.575 Z-2.000 I1.585 J0.000 K0.000 F300.000
G1 X-0.695 Y45.514 Z-2.000 F300.000
G2 X0.695 Y45.514 Z-2.000 I0.695 J-1.425 K0.000 F300.000
G1 X94.251 Y-0.117 Z-2.000 F300.000
G1 X94.251 Y-0.117 Z-4.000 F300.000
G1 X115.695 Y-10.575 Z-4.000 F300.000
G2 X116.585 Y-12.000 Z-4.000 I-0.695 J-1.425 K0.000 F300.000
G1 X116.585 Y-120.000 Z-4.000 F300.000
G2 X115.000 Y-121.585 Z-4.000 I-1.585 J0.000 K0.000 F300.000
G1 X-115.000 Y-121.585 Z-4.000 F300.000
G2 X-116.585 Y-120.000 Z-4.000 I0.000 J1.585 K0.000 F300.000
G1 X-116.585 Y-12.000 Z-4.000 F300.000
G2 X-115.695 Y-10.575 Z-4.000 I1.585 J0.000 K0.000 F300.000
G1 X-0.695 Y45.514 Z-4.000 F300.000
G2 X0.695 Y45.514 Z-4.000 I0.695 J-1.425 K0.000 F300.000
G1 X94.251 Y-0.117 Z-4.000 F300.000
G1 X94.251 Y-0.117 Z-6.000 F300.000
G1 X115.695 Y-10.575 Z-6.000 F300.000
G2 X116.585 Y-12.000 Z-6.000 I-0.695 J-1.425 K0.000 F300.000
G1 X116.585 Y-120.000 Z-6.000 F300.000
G2 X115.000 Y-121.585 Z-6.000 I-1.585 J0.000 K0.000 F300.000
G1 X-115.000 Y-121.585 Z-6.000 F300.000
G2 X-116.585 Y-120.000 Z-6.000 I0.000 J1.585 K0.000 F300.000
G1 X-116.585 Y-12.000 Z-6.000 F300.000
G2 X-115.695 Y-10.575 Z-6.000 I1.585 J0.000 K0.000 F300.000
G1 X-0.695 Y45.514 Z-6.000 F300.000
G2 X0.695 Y45.514 Z-6.000 I0.695 J-1.425 K0.000 F300.000
G1 X94.251 Y-0.117 Z-6.000 F300.000
G0 Z5.000
G0 Z5.000
(Finish operation: Profile003)
(Begin postamble)
M5
G17 G90
M2
