(Exported by FreeCAD)
(Post Processor: script_module)
(Output Time:2026-05-08 15:42:44.509184)
(Begin preamble)
G17 G90
G21
(Begin operation: Fixture)
(Path: Fixture)
G54
(Finish operation: Fixture)
(Begin operation: 3175002002001)
(Path: 3175002002001)
(3175002002001)
(Begin toolchange)
( M6 T2 )
M3 S10000
(Finish operation: 3175002002001)
(Begin operation: Profile004)
(Path: Profile004)
(Profile004)
(Compensated Tool Path. Diameter: 3.17)
G0 Z5.000
G0 X28.415 Y-23.585
G0 Z3.000
G1 X28.415 Y-23.585 Z-2.000 F300.000
G1 X28.415 Y-62.415 Z-2.000 F300.000
G1 X-28.415 Y-62.415 Z-2.000 F300.000
G1 X-28.415 Y-23.585 Z-2.000 F300.000
G1 X28.415 Y-23.585 Z-2.000 F300.000
G1 X28.415 Y-23.585 Z-4.000 F300.000
G1 X28.415 Y-62.415 Z-4.000 F300.000
G1 X-28.415 Y-62.415 Z-4.000 F300.000
G1 X-28.415 Y-23.585 Z-4.000 F300.000
G1 X28.415 Y-23.585 Z-4.000 F300.000
G1 X28.415 Y-23.585 Z-6.000 F300.000
G1 X28.415 Y-62.415 Z-6.000 F300.000
G1 X-28.415 Y-62.415 Z-6.000 F300.000
G1 X-28.415 Y-23.585 Z-6.000 F300.000
G1 X28.415 Y-23.585 Z-6.000 F300.000
G0 Z5.000
G0 Z5.000
(Finish operation: Profile004)
(Begin operation: Profile005)
(Path: Profile005)
(Profile005)
(Compensated Tool Path. Diameter: 3.17)
G0 Z5.000
G0 X68.926 Y-2.418
G0 Z3.000
G1 X68.926 Y-2.418 Z-2.000 F300.000
G1 X85.323 Y-10.415 Z-2.000 F300.000
G1 X-85.323 Y-10.415 Z-2.000 F300.000
G1 X-0.000 Y31.200 Z-2.000 F300.000
G1 X68.926 Y-2.418 Z-2.000 F300.000
G1 X68.926 Y-2.418 Z-4.000 F300.000
G1 X85.323 Y-10.415 Z-4.000 F300.000
G1 X-85.323 Y-10.415 Z-4.000 F300.000
G1 X-0.000 Y31.200 Z-4.000 F300.000
G1 X68.926 Y-2.418 Z-4.000 F300.000
G1 X68.926 Y-2.418 Z-6.000 F300.000
G1 X85.323 Y-10.415 Z-6.000 F300.000
G1 X-85.323 Y-10.415 Z-6.000 F300.000
G1 X-0.000 Y31.200 Z-6.000 F300.000
G1 X68.926 Y-2.418 Z-6.000 F300.000
G0 Z5.000
G0 Z5.000
(Finish operation: Profile005)
(Begin operation: Profile006)
(Path: Profile006)
(Profile006)
(Compensated Tool Path. Diameter: 3.17)
G0 Z5.000
G0 X90.199 Y-3.699
G0 Z3.000
G1 X90.199 Y-3.699 Z-2.000 F300.000
G1 X110.695 Y-13.700 Z-2.000 F300.000
G2 X111.585 Y-15.124 Z-2.000 I-0.695 J-1.424 K0.000 F300.000
G1 X111.585 Y-115.000 Z-2.000 F300.000
G2 X110.000 Y-116.585 Z-2.000 I-1.585 J0.000 K0.000 F300.000
G1 X-110.000 Y-116.585 Z-2.000 F300.000
G2 X-111.585 Y-115.000 Z-2.000 I0.000 J1.585 K0.000 F300.000
G1 X-111.585 Y-15.124 Z-2.000 F300.000
G2 X-110.695 Y-13.700 Z-2.000 I1.585 J-0.000 K0.000 F300.000
G1 X-0.695 Y39.972 Z-2.000 F300.000
G2 X0.695 Y39.972 Z-2.000 I0.695 J-1.424 K0.000 F300.000
G1 X90.199 Y-3.699 Z-2.000 F300.000
G1 X90.199 Y-3.699 Z-4.000 F300.000
G1 X110.695 Y-13.700 Z-4.000 F300.000
G2 X111.585 Y-15.124 Z-4.000 I-0.695 J-1.424 K0.000 F300.000
G1 X111.585 Y-115.000 Z-4.000 F300.000
G2 X110.000 Y-116.585 Z-4.000 I-1.585 J0.000 K0.000 F300.000
G1 X-110.000 Y-116.585 Z-4.000 F300.000
G2 X-111.585 Y-115.000 Z-4.000 I0.000 J1.585 K0.000 F300.000
G1 X-111.585 Y-15.124 Z-4.000 F300.000
G2 X-110.695 Y-13.700 Z-4.000 I1.585 J-0.000 K0.000 F300.000
G1 X-0.695 Y39.972 Z-4.000 F300.000
G2 X0.695 Y39.972 Z-4.000 I0.695 J-1.424 K0.000 F300.000
G1 X90.199 Y-3.699 Z-4.000 F300.000
G1 X90.199 Y-3.699 Z-6.000 F300.000
G1 X110.695 Y-13.700 Z-6.000 F300.000
G2 X111.585 Y-15.124 Z-6.000 I-0.695 J-1.424 K0.000 F300.000
G1 X111.585 Y-115.000 Z-6.000 F300.000
G2 X110.000 Y-116.585 Z-6.000 I-1.585 J0.000 K0.000 F300.000
G1 X-110.000 Y-116.585 Z-6.000 F300.000
G2 X-111.585 Y-115.000 Z-6.000 I0.000 J1.585 K0.000 F300.000
G1 X-111.585 Y-15.124 Z-6.000 F300.000
G2 X-110.695 Y-13.700 Z-6.000 I1.585 J-0.000 K0.000 F300.000
G1 X-0.695 Y39.972 Z-6.000 F300.000
G2 X0.695 Y39.972 Z-6.000 I0.695 J-1.424 K0.000 F300.000
G1 X90.199 Y-3.699 Z-6.000 F300.000
G0 Z5.000
G0 Z5.000
(Finish operation: Profile006)
(Begin postamble)
M5
G17 G90
M2
