(Exported by FreeCAD)
(Post Processor: script_module)
(Output Time:2026-01-05 14:26:06.752126)
(begin preamble)
%
G17 G21 G40 G49 G80 G90
M08
G21
(begin operation: Fixture)
(machine: not set, mm/min)
G54
(finish operation: Fixture)
(begin operation: 3mm_Endmill001)
(machine: not set, mm/min)
(3mm_Endmill001)
M05
M09M6 T2
M3 S15000
(finish operation: 3mm_Endmill001)
(begin operation: MillFace)
(machine: not set, mm/min)
(MillFace)
G0 Z7.000
G0 X0.000 Y0.000
G0 X28.500 Y-47.238
G0 X28.500 Y-47.238 Z5.000
G1 X28.500 Y-47.238 Z0.000 F420.000
G1 X28.500 Y-48.465 Z0.000 F420.000
G1 X28.498 Y-48.498 Z0.000 F420.000
G1 X28.465 Y-48.500 Z0.000 F420.000
G1 X-28.465 Y-48.500 Z0.000 F420.000
G1 X-28.498 Y-48.498 Z0.000 F420.000
G1 X-28.500 Y-48.465 Z0.000 F420.000
G1 X-28.500 Y48.465 Z0.000 F420.000
G1 X-28.498 Y48.498 Z0.000 F420.000
G1 X-28.465 Y48.500 Z0.000 F420.000
G1 X28.465 Y48.500 Z0.000 F420.000
G1 X28.498 Y48.498 Z0.000 F420.000
G1 X28.500 Y48.465 Z0.000 F420.000
G1 X28.500 Y-48.465 Z0.000 F420.000
G1 X28.498 Y-48.498 Z0.000 F420.000
G1 X28.465 Y-48.500 Z0.000 F420.000
G1 X27.238 Y-48.500 Z0.000 F420.000
G1 X28.500 Y-47.238 Z0.000 F420.000
G1 X28.500 Y-45.117 Z0.000 F420.000
G1 X25.117 Y-48.500 Z0.000 F420.000
G1 X22.995 Y-48.500 Z0.000 F420.000
G1 X28.500 Y-42.995 Z0.000 F420.000
G1 X28.500 Y-40.874 Z0.000 F420.000
G1 X20.874 Y-48.500 Z0.000 F420.000
G1 X18.753 Y-48.500 Z0.000 F420.000
G1 X28.500 Y-38.753 Z0.000 F420.000
G1 X28.500 Y-36.632 Z0.000 F420.000
G1 X16.632 Y-48.500 Z0.000 F420.000
G1 X14.510 Y-48.500 Z0.000 F420.000
G1 X28.500 Y-34.510 Z0.000 F420.000
G1 X28.500 Y-32.389 Z0.000 F420.000
G1 X12.389 Y-48.500 Z0.000 F420.000
G1 X10.268 Y-48.500 Z0.000 F420.000
G1 X28.500 Y-30.268 Z0.000 F420.000
G1 X28.500 Y-28.146 Z0.000 F420.000
G1 X8.146 Y-48.500 Z0.000 F420.000
G1 X6.025 Y-48.500 Z0.000 F420.000
G1 X28.500 Y-26.025 Z0.000 F420.000
G1 X28.500 Y-23.904 Z0.000 F420.000
G1 X3.904 Y-48.500 Z0.000 F420.000
G1 X1.782 Y-48.500 Z0.000 F420.000
G1 X28.500 Y-21.782 Z0.000 F420.000
G1 X28.500 Y-19.661 Z0.000 F420.000
G1 X-0.339 Y-48.500 Z0.000 F420.000
G1 X-2.460 Y-48.500 Z0.000 F420.000
G1 X28.500 Y-17.540 Z0.000 F420.000
G1 X28.500 Y-15.418 Z0.000 F420.000
G1 X-4.582 Y-48.500 Z0.000 F420.000
G1 X-6.703 Y-48.500 Z0.000 F420.000
G1 X28.500 Y-13.297 Z0.000 F420.000
G1 X28.500 Y-11.176 Z0.000 F420.000
G1 X-8.824 Y-48.500 Z0.000 F420.000
G1 X-10.946 Y-48.500 Z0.000 F420.000
G1 X28.500 Y-9.054 Z0.000 F420.000
G1 X28.500 Y-6.933 Z0.000 F420.000
G1 X-13.067 Y-48.500 Z0.000 F420.000
G1 X-15.188 Y-48.500 Z0.000 F420.000
G1 X28.500 Y-4.812 Z0.000 F420.000
G1 X28.500 Y-2.690 Z0.000 F420.000
G1 X-17.310 Y-48.500 Z0.000 F420.000
G1 X-19.431 Y-48.500 Z0.000 F420.000
G1 X28.500 Y-0.569 Z0.000 F420.000
G1 X28.500 Y1.552 Z0.000 F420.000
G1 X-21.552 Y-48.500 Z0.000 F420.000
G1 X-23.674 Y-48.500 Z0.000 F420.000
G1 X28.500 Y3.674 Z0.000 F420.000
G1 X28.500 Y5.795 Z0.000 F420.000
G1 X-25.795 Y-48.500 Z0.000 F420.000
G1 X-27.916 Y-48.500 Z0.000 F420.000
G1 X28.500 Y7.916 Z0.000 F420.000
G1 X28.500 Y10.038 Z0.000 F420.000
G1 X-28.500 Y-46.962 Z0.000 F420.000
G1 X-28.500 Y-44.841 Z0.000 F420.000
G1 X28.500 Y12.159 Z0.000 F420.000
G1 X28.500 Y14.280 Z0.000 F420.000
G1 X-28.500 Y-42.720 Z0.000 F420.000
G1 X-28.500 Y-40.599 Z0.000 F420.000
G1 X28.500 Y16.401 Z0.000 F420.000
G1 X28.500 Y18.523 Z0.000 F420.000
G1 X-28.500 Y-38.477 Z0.000 F420.000
G1 X-28.500 Y-36.356 Z0.000 F420.000
G1 X28.500 Y20.644 Z0.000 F420.000
G1 X28.500 Y22.765 Z0.000 F420.000
G1 X-28.500 Y-34.235 Z0.000 F420.000
G1 X-28.500 Y-32.113 Z0.000 F420.000
G1 X28.500 Y24.887 Z0.000 F420.000
G1 X28.500 Y27.008 Z0.000 F420.000
G1 X-28.500 Y-29.992 Z0.000 F420.000
G1 X-28.500 Y-27.871 Z0.000 F420.000
G1 X28.500 Y29.129 Z0.000 F420.000
G1 X28.500 Y31.251 Z0.000 F420.000
G1 X-28.500 Y-25.749 Z0.000 F420.000
G1 X-28.500 Y-23.628 Z0.000 F420.000
G1 X28.500 Y33.372 Z0.000 F420.000
G1 X28.500 Y35.493 Z0.000 F420.000
G1 X-28.500 Y-21.507 Z0.000 F420.000
G1 X-28.500 Y-19.385 Z0.000 F420.000
G1 X28.500 Y37.615 Z0.000 F420.000
G1 X28.500 Y39.736 Z0.000 F420.000
G1 X-28.500 Y-17.264 Z0.000 F420.000
G1 X-28.500 Y-15.143 Z0.000 F420.000
G1 X28.500 Y41.857 Z0.000 F420.000
G1 X28.500 Y43.979 Z0.000 F420.000
G1 X-28.500 Y-13.021 Z0.000 F420.000
G1 X-28.500 Y-10.900 Z0.000 F420.000
G1 X28.500 Y46.100 Z0.000 F420.000
G1 X28.500 Y48.221 Z0.000 F420.000
G1 X-28.500 Y-8.779 Z0.000 F420.000
G1 X-28.500 Y-6.657 Z0.000 F420.000
G1 X26.657 Y48.500 Z0.000 F420.000
G1 X24.536 Y48.500 Z0.000 F420.000
G1 X-28.500 Y-4.536 Z0.000 F420.000
G1 X-28.500 Y-2.415 Z0.000 F420.000
G1 X22.415 Y48.500 Z0.000 F420.000
G1 X20.293 Y48.500 Z0.000 F420.000
G1 X-28.500 Y-0.293 Z0.000 F420.000
G1 X-28.500 Y1.828 Z0.000 F420.000
G1 X18.172 Y48.500 Z0.000 F420.000
G1 X16.051 Y48.500 Z0.000 F420.000
G1 X-28.500 Y3.949 Z0.000 F420.000
G1 X-28.500 Y6.071 Z0.000 F420.000
G1 X13.929 Y48.500 Z0.000 F420.000
G1 X11.808 Y48.500 Z0.000 F420.000
G1 X-28.500 Y8.192 Z0.000 F420.000
G1 X-28.500 Y10.313 Z0.000 F420.000
G1 X9.687 Y48.500 Z0.000 F420.000
G1 X7.566 Y48.500 Z0.000 F420.000
G1 X-28.500 Y12.434 Z0.000 F420.000
G1 X-28.500 Y14.556 Z0.000 F420.000
G1 X5.444 Y48.500 Z0.000 F420.000
G1 X3.323 Y48.500 Z0.000 F420.000
G1 X-28.500 Y16.677 Z0.000 F420.000
G1 X-28.500 Y18.798 Z0.000 F420.000
G1 X1.202 Y48.500 Z0.000 F420.000
G1 X-0.920 Y48.500 Z0.000 F420.000
G1 X-28.500 Y20.920 Z0.000 F420.000
G1 X-28.500 Y23.041 Z0.000 F420.000
G1 X-3.041 Y48.500 Z0.000 F420.000
G1 X-5.162 Y48.500 Z0.000 F420.000
G1 X-28.500 Y25.162 Z0.000 F420.000
G1 X-28.500 Y27.284 Z0.000 F420.000
G1 X-7.284 Y48.500 Z0.000 F420.000
G1 X-9.405 Y48.500 Z0.000 F420.000
G1 X-28.500 Y29.405 Z0.000 F420.000
G1 X-28.500 Y31.526 Z0.000 F420.000
G1 X-11.526 Y48.500 Z0.000 F420.000
G1 X-13.648 Y48.500 Z0.000 F420.000
G1 X-28.500 Y33.648 Z0.000 F420.000
G1 X-28.500 Y35.769 Z0.000 F420.000
G1 X-15.769 Y48.500 Z0.000 F420.000
G1 X-17.890 Y48.500 Z0.000 F420.000
G1 X-28.500 Y37.890 Z0.000 F420.000
G1 X-28.500 Y40.012 Z0.000 F420.000
G1 X-20.012 Y48.500 Z0.000 F420.000
G1 X-22.133 Y48.500 Z0.000 F420.000
G1 X-28.500 Y42.133 Z0.000 F420.000
G1 X-28.500 Y44.254 Z0.000 F420.000
G1 X-24.254 Y48.500 Z0.000 F420.000
G1 X-26.376 Y48.500 Z0.000 F420.000
G1 X-28.500 Y46.376 Z0.000 F420.000
G1 X-28.500 Y48.465 Z0.000 F420.000
G1 X-28.498 Y48.498 Z0.000 F420.000
G0 Z7.000
G0 Z7.000
(finish operation: MillFace)
(begin operation: Profile)
(machine: not set, mm/min)
(Profile)
(Compensated Tool Path. Diameter: 3.0)
G0 Z7.000
G0 X0.000 Y0.000
G0 X-9.003
G0 X-9.003 Z5.000
G1 X-9.003 Y0.000 Z-1.000 F420.000
G1 X-11.497 Y37.400 Z-1.000 F420.000
G2 X-9.963 Y39.000 Z-1.000 I1.497 J0.100 F420.000
G1 X10.037 Y38.500 Z-1.000 F420.000
G2 X11.497 Y36.899 Z-1.000 I-0.037 J-1.500 F420.000
G1 X9.003 Y-0.001 Z-1.000 F420.000
G1 X11.497 Y-37.400 Z-1.000 F420.000
G2 X10.000 Y-39.000 Z-1.000 I-1.497 J-0.100 F420.000
G1 X-10.000 Y-39.000 Z-1.000 F420.000
G2 X-11.497 Y-37.400 Z-1.000 I-0.000 J1.500 F420.000
G1 X-9.003 Y0.000 Z-1.000 F420.000
G1 X-9.003 Y0.000 Z-4.000 F420.000
G1 X-11.497 Y37.400 Z-4.000 F420.000
G2 X-9.963 Y39.000 Z-4.000 I1.497 J0.100 F420.000
G1 X10.037 Y38.500 Z-4.000 F420.000
G2 X11.497 Y36.899 Z-4.000 I-0.037 J-1.500 F420.000
G1 X9.003 Y-0.001 Z-4.000 F420.000
G1 X11.497 Y-37.400 Z-4.000 F420.000
G2 X10.000 Y-39.000 Z-4.000 I-1.497 J-0.100 F420.000
G1 X-10.000 Y-39.000 Z-4.000 F420.000
G2 X-11.497 Y-37.400 Z-4.000 I-0.000 J1.500 F420.000
G1 X-9.003 Y0.000 Z-4.000 F420.000
G1 X-9.003 Y0.000 Z-7.000 F420.000
G1 X-11.497 Y37.400 Z-7.000 F420.000
G2 X-9.963 Y39.000 Z-7.000 I1.497 J0.100 F420.000
G1 X10.037 Y38.500 Z-7.000 F420.000
G2 X11.497 Y36.899 Z-7.000 I-0.037 J-1.500 F420.000
G1 X9.003 Y-0.001 Z-7.000 F420.000
G1 X11.497 Y-37.400 Z-7.000 F420.000
G2 X10.000 Y-39.000 Z-7.000 I-1.497 J-0.100 F420.000
G1 X-10.000 Y-39.000 Z-7.000 F420.000
G2 X-11.497 Y-37.400 Z-7.000 I-0.000 J1.500 F420.000
G1 X-9.003 Y0.000 Z-7.000 F420.000
G1 X-9.003 Y0.000 Z-8.000 F420.000
G1 X-11.497 Y37.400 Z-8.000 F420.000
G2 X-9.963 Y39.000 Z-8.000 I1.497 J0.100 F420.000
G1 X10.037 Y38.500 Z-8.000 F420.000
G2 X11.497 Y36.899 Z-8.000 I-0.037 J-1.500 F420.000
G1 X9.003 Y-0.001 Z-8.000 F420.000
G1 X11.497 Y-37.400 Z-8.000 F420.000
G2 X10.000 Y-39.000 Z-8.000 I-1.497 J-0.100 F420.000
G1 X-10.000 Y-39.000 Z-8.000 F420.000
G2 X-11.497 Y-37.400 Z-8.000 I-0.000 J1.500 F420.000
G1 X-9.003 Y0.000 Z-8.000 F420.000
G0 Z7.000
G0 Z7.000
(finish operation: Profile)
(begin operation: Pocket_Shape)
(machine: not set, mm/min)
(Pocket_Shape)
G0 Z7.000
G0 X0.000 Y0.000
G0 X-9.007 Y-0.000
G0 X-9.007 Y-0.000 Z5.000
G1 X-9.007 Y-0.000 Z-1.000 F420.000
G2 X-9.011 Y-0.114 Z-1.000 I-1.593 J-0.000 F420.000
G1 X-11.489 Y-37.283 Z-1.000 F420.000
G3 X-11.495 Y-37.459 Z-1.000 I1.966 J-0.158 F420.000
G3 X-11.117 Y-38.492 Z-1.000 I1.591 J-0.002 F420.000
G2 X-11.117 Y-38.497 Z-1.000 I-0.003 J-0.002 F420.000
G2 X-11.154 Y-38.500 Z-1.000 I-0.021 J0.035 F420.000
G1 X-18.465 Y-38.500 Z-1.000 F420.000
G1 X-18.498 Y-38.498 Z-1.000 F420.000
G1 X-18.500 Y-38.465 Z-1.000 F420.000
G1 X-18.500 Y38.465 Z-1.000 F420.000
G1 X-18.498 Y38.498 Z-1.000 F420.000
G1 X-18.465 Y38.500 Z-1.000 F420.000
G1 X-11.159 Y38.500 Z-1.000 F420.000
G1 X-11.130 Y38.498 Z-1.000 F420.000
G2 X-11.120 Y38.489 Z-1.000 I-0.001 J-0.010 F420.000
G3 X-11.488 Y37.274 Z-1.000 I1.225 J-1.034 F420.000
G1 X-9.011 Y0.114 Z-1.000 F420.000
G2 X-9.007 Y-0.000 Z-1.000 I-1.589 J-0.114 F420.000
G0 Z7.000
G0 X-14.887 Y-38.500 Z7.000
G0 X-14.887 Y-38.500 Z5.000
G1 X-14.887 Y-38.500 Z-1.000 F420.000
G1 X-11.333 Y-34.946 Z-1.000 F420.000
G1 X-11.489 Y-37.283 Z-1.000 F420.000
G3 X-11.411 Y-37.984 Z-1.000 I1.814 J-0.153 F420.000
G3 X-11.116 Y-38.493 Z-1.000 I1.633 J0.607 F420.000
G2 X-11.120 Y-38.498 Z-1.000 I-0.004 J-0.001 F420.000
G1 X-11.154 Y-38.500 Z-1.000 F420.000
G1 X-14.887 Y-38.500 Z-1.000 F420.000
G1 X-18.465 Y-38.500 Z-1.000 F420.000
G1 X-18.498 Y-38.498 Z-1.000 F420.000
G1 X-18.500 Y-38.465 Z-1.000 F420.000
G1 X-18.500 Y-37.871 Z-1.000 F420.000
G1 X-11.030 Y-30.401 Z-1.000 F420.000
G1 X-10.727 Y-25.855 Z-1.000 F420.000
G1 X-18.500 Y-33.628 Z-1.000 F420.000
G1 X-18.500 Y-29.385 Z-1.000 F420.000
G1 X-10.424 Y-21.309 Z-1.000 F420.000
G1 X-10.121 Y-16.764 Z-1.000 F420.000
G1 X-18.500 Y-25.143 Z-1.000 F420.000
G1 X-18.500 Y-20.900 Z-1.000 F420.000
G1 X-9.818 Y-12.218 Z-1.000 F420.000
G1 X-9.515 Y-7.672 Z-1.000 F420.000
G1 X-18.500 Y-16.657 Z-1.000 F420.000
G1 X-18.500 Y-12.415 Z-1.000 F420.000
G1 X-9.212 Y-3.127 Z-1.000 F420.000
G1 X-9.011 Y-0.114 Z-1.000 F420.000
G3 X-9.011 Y0.114 Z-1.000 I-1.589 J0.114 F420.000
G1 X-9.086 Y1.242 Z-1.000 F420.000
G1 X-18.500 Y-8.172 Z-1.000 F420.000
G1 X-18.500 Y-3.929 Z-1.000 F420.000
G1 X-9.351 Y5.219 Z-1.000 F420.000
G1 X-9.616 Y9.197 Z-1.000 F420.000
G1 X-18.500 Y0.313 Z-1.000 F420.000
G1 X-18.500 Y4.556 Z-1.000 F420.000
G1 X-9.882 Y13.174 Z-1.000 F420.000
G1 X-10.147 Y17.152 Z-1.000 F420.000
G1 X-18.500 Y8.798 Z-1.000 F420.000
G1 X-18.500 Y13.041 Z-1.000 F420.000
G1 X-10.412 Y21.129 Z-1.000 F420.000
G1 X-10.677 Y25.107 Z-1.000 F420.000
G1 X-18.500 Y17.284 Z-1.000 F420.000
G1 X-18.500 Y21.526 Z-1.000 F420.000
G1 X-10.942 Y29.084 Z-1.000 F420.000
G1 X-11.207 Y33.062 Z-1.000 F420.000
G1 X-18.500 Y25.769 Z-1.000 F420.000
G1 X-18.500 Y30.012 Z-1.000 F420.000
G1 X-11.473 Y37.039 Z-1.000 F420.000
G1 X-11.488 Y37.274 Z-1.000 F420.000
G2 X-11.122 Y38.482 Z-1.000 I1.576 J0.182 F420.000
G3 X-11.123 Y38.495 Z-1.000 I-0.008 J0.006 F420.000
G3 X-11.159 Y38.500 Z-1.000 I-0.022 J-0.030 F420.000
G1 X-14.254 Y38.500 Z-1.000 F420.000
G1 X-18.500 Y34.254 Z-1.000 F420.000
G1 X-18.500 Y38.465 Z-1.000 F420.000
G1 X-18.498 Y38.498 Z-1.000 F420.000
G0 Z7.000
G0 X11.202 Y38.500 Z7.000
G0 X11.202 Y38.500 Z5.000
G1 X11.202 Y38.500 Z-1.000 F420.000
G1 X10.055 Y38.500 Z-1.000 F420.000
G1 X10.033 Y38.499 Z-1.000 F420.000
G3 X10.124 Y38.488 Z-1.000 I0.095 J0.410 F420.000
G2 X10.887 Y38.185 Z-1.000 I-0.146 J-1.479 F420.000
G1 X11.202 Y38.500 Z-1.000 F420.000
G1 X15.444 Y38.500 Z-1.000 F420.000
G1 X11.327 Y34.382 Z-1.000 F420.000
G1 X11.019 Y29.832 Z-1.000 F420.000
G1 X18.500 Y37.313 Z-1.000 F420.000
G1 X18.500 Y33.071 Z-1.000 F420.000
G1 X10.712 Y25.282 Z-1.000 F420.000
G1 X10.404 Y20.732 Z-1.000 F420.000
G1 X18.500 Y28.828 Z-1.000 F420.000
G1 X18.500 Y24.585 Z-1.000 F420.000
G1 X10.097 Y16.182 Z-1.000 F420.000
G1 X9.789 Y11.632 Z-1.000 F420.000
G1 X18.500 Y20.343 Z-1.000 F420.000
G1 X18.500 Y16.100 Z-1.000 F420.000
G1 X9.482 Y7.082 Z-1.000 F420.000
G1 X9.175 Y2.532 Z-1.000 F420.000
G1 X18.500 Y11.857 Z-1.000 F420.000
G1 X18.500 Y7.615 Z-1.000 F420.000
G1 X9.121 Y-1.764 Z-1.000 F420.000
G1 X9.386 Y-5.742 Z-1.000 F420.000
G1 X18.500 Y3.372 Z-1.000 F420.000
G1 X18.500 Y-0.871 Z-1.000 F420.000
G1 X9.651 Y-9.719 Z-1.000 F420.000
G1 X9.917 Y-13.697 Z-1.000 F420.000
G1 X18.500 Y-5.113 Z-1.000 F420.000
G1 X18.500 Y-9.356 Z-1.000 F420.000
G1 X10.182 Y-17.674 Z-1.000 F420.000
G1 X10.447 Y-21.652 Z-1.000 F420.000
G1 X18.500 Y-13.599 Z-1.000 F420.000
G1 X18.500 Y-17.841 Z-1.000 F420.000
G1 X10.712 Y-25.629 Z-1.000 F420.000
G1 X10.977 Y-29.607 Z-1.000 F420.000
G1 X18.500 Y-22.084 Z-1.000 F420.000
G1 X18.500 Y-26.326 Z-1.000 F420.000
G1 X11.242 Y-33.584 Z-1.000 F420.000
G1 X11.488 Y-37.274 Z-1.000 F420.000
G2 X11.494 Y-37.575 Z-1.000 I-1.613 J-0.180 F420.000
G1 X18.500 Y-30.569 Z-1.000 F420.000
G1 X18.500 Y-34.812 Z-1.000 F420.000
G1 X14.812 Y-38.500 Z-1.000 F420.000
G1 X18.465 Y-38.500 Z-1.000 F420.000
G1 X18.498 Y-38.498 Z-1.000 F420.000
G1 X18.500 Y-38.465 Z-1.000 F420.000
G1 X18.500 Y38.465 Z-1.000 F420.000
G1 X18.498 Y38.498 Z-1.000 F420.000
G1 X18.465 Y38.500 Z-1.000 F420.000
G1 X18.465 Y38.500 Z-1.000 F420.000
G1 X10.055 Y38.500 Z-1.000 F420.000
G1 X10.033 Y38.499 Z-1.000 F420.000
G3 X10.124 Y38.488 Z-1.000 I0.095 J0.410 F420.000
G2 X11.461 Y37.251 Z-1.000 I-0.165 J-1.520 F420.000
G2 X11.488 Y36.767 Z-1.000 I-1.604 J-0.332 F420.000
G1 X9.011 Y0.114 Z-1.000 F420.000
G3 X9.011 Y-0.115 Z-1.000 I1.586 J-0.115 F420.000
G1 X11.488 Y-37.274 Z-1.000 F420.000
G2 X11.120 Y-38.490 Z-1.000 I-1.593 J-0.181 F420.000
G3 X11.129 Y-38.498 Z-1.000 I0.010 J0.001 F420.000
G1 X11.159 Y-38.500 Z-1.000 F420.000
G1 X18.465 Y-38.500 Z-1.000 F420.000
G1 X18.498 Y-38.498 Z-1.000 F420.000
G1 X18.500 Y-38.465 Z-1.000 F420.000
G1 X18.500 Y-34.812 Z-1.000 F420.000
G1 X18.500 Y-34.812 Z-4.000 F420.000
G1 X18.500 Y-38.465 Z-4.000 F420.000
G1 X18.498 Y-38.498 Z-4.000 F420.000
G1 X18.465 Y-38.500 Z-4.000 F420.000
G1 X11.159 Y-38.500 Z-4.000 F420.000
G1 X11.129 Y-38.498 Z-4.000 F420.000
G2 X11.120 Y-38.490 Z-4.000 I0.001 J0.010 F420.000
G3 X11.488 Y-37.274 Z-4.000 I-1.225 J1.034 F420.000
G1 X9.011 Y-0.115 Z-4.000 F420.000
G2 X9.011 Y0.114 Z-4.000 I1.586 J0.114 F420.000
G1 X11.488 Y36.767 Z-4.000 F420.000
G3 X11.461 Y37.251 Z-4.000 I-1.631 J0.152 F420.000
G3 X10.124 Y38.488 Z-4.000 I-1.502 J-0.283 F420.000
G2 X10.033 Y38.499 Z-4.000 I0.004 J0.421 F420.000
G1 X10.055 Y38.500 Z-4.000 F420.000
G1 X18.465 Y38.500 Z-4.000 F420.000
G1 X18.465 Y38.500 Z-4.000 F420.000
G1 X18.498 Y38.498 Z-4.000 F420.000
G1 X18.500 Y38.465 Z-4.000 F420.000
G1 X18.500 Y-38.465 Z-4.000 F420.000
G1 X18.498 Y-38.498 Z-4.000 F420.000
G1 X18.465 Y-38.500 Z-4.000 F420.000
G1 X14.812 Y-38.500 Z-4.000 F420.000
G1 X18.500 Y-34.812 Z-4.000 F420.000
G1 X18.500 Y-30.569 Z-4.000 F420.000
G1 X11.494 Y-37.575 Z-4.000 F420.000
G3 X11.488 Y-37.274 Z-4.000 I-1.619 J0.121 F420.000
G1 X11.242 Y-33.584 Z-4.000 F420.000
G1 X18.500 Y-26.326 Z-4.000 F420.000
G1 X18.500 Y-22.084 Z-4.000 F420.000
G1 X10.977 Y-29.607 Z-4.000 F420.000
G1 X10.712 Y-25.629 Z-4.000 F420.000
G1 X18.500 Y-17.841 Z-4.000 F420.000
G1 X18.500 Y-13.599 Z-4.000 F420.000
G1 X10.447 Y-21.652 Z-4.000 F420.000
G1 X10.182 Y-17.674 Z-4.000 F420.000
G1 X18.500 Y-9.356 Z-4.000 F420.000
G1 X18.500 Y-5.113 Z-4.000 F420.000
G1 X9.917 Y-13.697 Z-4.000 F420.000
G1 X9.651 Y-9.719 Z-4.000 F420.000
G1 X18.500 Y-0.871 Z-4.000 F420.000
G1 X18.500 Y3.372 Z-4.000 F420.000
G1 X9.386 Y-5.742 Z-4.000 F420.000
G1 X9.121 Y-1.764 Z-4.000 F420.000
G1 X18.500 Y7.615 Z-4.000 F420.000
G1 X18.500 Y11.857 Z-4.000 F420.000
G1 X9.175 Y2.532 Z-4.000 F420.000
G1 X9.482 Y7.082 Z-4.000 F420.000
G1 X18.500 Y16.100 Z-4.000 F420.000
G1 X18.500 Y20.343 Z-4.000 F420.000
G1 X9.789 Y11.632 Z-4.000 F420.000
G1 X10.097 Y16.182 Z-4.000 F420.000
G1 X18.500 Y24.585 Z-4.000 F420.000
G1 X18.500 Y28.828 Z-4.000 F420.000
G1 X10.404 Y20.732 Z-4.000 F420.000
G1 X10.712 Y25.282 Z-4.000 F420.000
G1 X18.500 Y33.071 Z-4.000 F420.000
G1 X18.500 Y37.313 Z-4.000 F420.000
G1 X11.019 Y29.832 Z-4.000 F420.000
G1 X11.327 Y34.382 Z-4.000 F420.000
G1 X15.444 Y38.500 Z-4.000 F420.000
G1 X11.202 Y38.500 Z-4.000 F420.000
G1 X10.887 Y38.185 Z-4.000 F420.000
G3 X10.124 Y38.488 Z-4.000 I-0.909 J-1.176 F420.000
G2 X10.033 Y38.499 Z-4.000 I0.004 J0.421 F420.000
G1 X10.055 Y38.500 Z-4.000 F420.000
G1 X11.202 Y38.500 Z-4.000 F420.000
G0 Z7.000
G0 X-11.120 Y38.489 Z7.000
G0 X-11.120 Y38.489 Z5.000
G1 X-11.120 Y38.489 Z-4.000 F420.000
G3 X-11.488 Y37.274 Z-4.000 I1.225 J-1.034 F420.000
G1 X-9.011 Y0.114 Z-4.000 F420.000
G2 X-9.011 Y-0.114 Z-4.000 I-1.589 J-0.114 F420.000
G1 X-11.489 Y-37.283 Z-4.000 F420.000
G3 X-11.495 Y-37.459 Z-4.000 I1.966 J-0.158 F420.000
G3 X-11.117 Y-38.492 Z-4.000 I1.591 J-0.002 F420.000
G2 X-11.117 Y-38.497 Z-4.000 I-0.003 J-0.002 F420.000
G2 X-11.154 Y-38.500 Z-4.000 I-0.021 J0.035 F420.000
G1 X-18.465 Y-38.500 Z-4.000 F420.000
G1 X-18.498 Y-38.498 Z-4.000 F420.000
G1 X-18.500 Y-38.465 Z-4.000 F420.000
G1 X-18.500 Y38.465 Z-4.000 F420.000
G1 X-18.498 Y38.498 Z-4.000 F420.000
G1 X-18.465 Y38.500 Z-4.000 F420.000
G1 X-11.159 Y38.500 Z-4.000 F420.000
G1 X-11.130 Y38.498 Z-4.000 F420.000
G2 X-11.120 Y38.489 Z-4.000 I-0.001 J-0.010 F420.000
G0 Z7.000
G0 X-18.498 Y38.498 Z7.000
G0 X-18.498 Y38.498 Z5.000
G1 X-18.498 Y38.498 Z-4.000 F420.000
G1 X-18.500 Y38.465 Z-4.000 F420.000
G1 X-18.500 Y34.254 Z-4.000 F420.000
G1 X-14.254 Y38.500 Z-4.000 F420.000
G1 X-11.159 Y38.500 Z-4.000 F420.000
G2 X-11.123 Y38.495 Z-4.000 I0.014 J-0.034 F420.000
G2 X-11.122 Y38.482 Z-4.000 I-0.007 J-0.007 F420.000
G3 X-11.488 Y37.274 Z-4.000 I1.210 J-1.026 F420.000
G1 X-11.473 Y37.039 Z-4.000 F420.000
G1 X-18.500 Y30.012 Z-4.000 F420.000
G1 X-18.500 Y25.769 Z-4.000 F420.000
G1 X-11.207 Y33.062 Z-4.000 F420.000
G1 X-10.942 Y29.084 Z-4.000 F420.000
G1 X-18.500 Y21.526 Z-4.000 F420.000
G1 X-18.500 Y17.284 Z-4.000 F420.000
G1 X-10.677 Y25.107 Z-4.000 F420.000
G1 X-10.412 Y21.129 Z-4.000 F420.000
G1 X-18.500 Y13.041 Z-4.000 F420.000
G1 X-18.500 Y8.798 Z-4.000 F420.000
G1 X-10.147 Y17.152 Z-4.000 F420.000
G1 X-9.882 Y13.174 Z-4.000 F420.000
G1 X-18.500 Y4.556 Z-4.000 F420.000
G1 X-18.500 Y0.313 Z-4.000 F420.000
G1 X-9.616 Y9.197 Z-4.000 F420.000
G1 X-9.351 Y5.219 Z-4.000 F420.000
G1 X-18.500 Y-3.929 Z-4.000 F420.000
G1 X-18.500 Y-8.172 Z-4.000 F420.000
G1 X-9.086 Y1.242 Z-4.000 F420.000
G1 X-9.011 Y0.114 Z-4.000 F420.000
G2 X-9.011 Y-0.114 Z-4.000 I-1.589 J-0.114 F420.000
G1 X-9.212 Y-3.127 Z-4.000 F420.000
G1 X-18.500 Y-12.415 Z-4.000 F420.000
G1 X-18.500 Y-16.657 Z-4.000 F420.000
G1 X-9.515 Y-7.672 Z-4.000 F420.000
G1 X-9.818 Y-12.218 Z-4.000 F420.000
G1 X-18.500 Y-20.900 Z-4.000 F420.000
G1 X-18.500 Y-25.143 Z-4.000 F420.000
G1 X-10.121 Y-16.764 Z-4.000 F420.000
G1 X-10.424 Y-21.309 Z-4.000 F420.000
G1 X-18.500 Y-29.385 Z-4.000 F420.000
G1 X-18.500 Y-33.628 Z-4.000 F420.000
G1 X-10.727 Y-25.855 Z-4.000 F420.000
G1 X-11.030 Y-30.401 Z-4.000 F420.000
G1 X-18.500 Y-37.871 Z-4.000 F420.000
G1 X-18.500 Y-38.465 Z-4.000 F420.000
G1 X-18.498 Y-38.498 Z-4.000 F420.000
G1 X-18.465 Y-38.500 Z-4.000 F420.000
G1 X-14.887 Y-38.500 Z-4.000 F420.000
G1 X-11.154 Y-38.500 Z-4.000 F420.000
G1 X-11.120 Y-38.498 Z-4.000 F420.000
G3 X-11.116 Y-38.493 Z-4.000 I-0.000 J0.004 F420.000
G2 X-11.411 Y-37.984 Z-4.000 I1.338 J1.115 F420.000
G2 X-11.489 Y-37.283 Z-4.000 I1.736 J0.548 F420.000
G1 X-11.333 Y-34.946 Z-4.000 F420.000
G1 X-14.887 Y-38.500 Z-4.000 F420.000
G1 X-14.887 Y-38.500 Z-7.000 F420.000
G1 X-18.465 Y-38.500 Z-7.000 F420.000
G1 X-18.498 Y-38.498 Z-7.000 F420.000
G1 X-18.500 Y-38.465 Z-7.000 F420.000
G1 X-18.500 Y38.465 Z-7.000 F420.000
G1 X-18.498 Y38.498 Z-7.000 F420.000
G1 X-18.465 Y38.500 Z-7.000 F420.000
G1 X-11.159 Y38.500 Z-7.000 F420.000
G1 X-11.130 Y38.498 Z-7.000 F420.000
G2 X-11.120 Y38.489 Z-7.000 I-0.001 J-0.010 F420.000
G3 X-11.488 Y37.274 Z-7.000 I1.225 J-1.034 F420.000
G1 X-9.011 Y0.114 Z-7.000 F420.000
G2 X-9.011 Y-0.114 Z-7.000 I-1.589 J-0.114 F420.000
G1 X-11.489 Y-37.283 Z-7.000 F420.000
G3 X-11.495 Y-37.459 Z-7.000 I1.966 J-0.158 F420.000
G3 X-11.117 Y-38.492 Z-7.000 I1.591 J-0.002 F420.000
G2 X-11.117 Y-38.497 Z-7.000 I-0.003 J-0.002 F420.000
G2 X-11.154 Y-38.500 Z-7.000 I-0.021 J0.035 F420.000
G1 X-14.887 Y-38.500 Z-7.000 F420.000
G1 X-14.887 Y-38.500 Z-7.000 F420.000
G1 X-11.333 Y-34.946 Z-7.000 F420.000
G1 X-11.489 Y-37.283 Z-7.000 F420.000
G3 X-11.411 Y-37.984 Z-7.000 I1.814 J-0.153 F420.000
G3 X-11.116 Y-38.493 Z-7.000 I1.633 J0.607 F420.000
G2 X-11.120 Y-38.498 Z-7.000 I-0.004 J-0.001 F420.000
G1 X-11.154 Y-38.500 Z-7.000 F420.000
G1 X-14.887 Y-38.500 Z-7.000 F420.000
G1 X-18.465 Y-38.500 Z-7.000 F420.000
G1 X-18.498 Y-38.498 Z-7.000 F420.000
G1 X-18.500 Y-38.465 Z-7.000 F420.000
G1 X-18.500 Y-37.871 Z-7.000 F420.000
G1 X-11.030 Y-30.401 Z-7.000 F420.000
G1 X-10.727 Y-25.855 Z-7.000 F420.000
G1 X-18.500 Y-33.628 Z-7.000 F420.000
G1 X-18.500 Y-29.385 Z-7.000 F420.000
G1 X-10.424 Y-21.309 Z-7.000 F420.000
G1 X-10.121 Y-16.764 Z-7.000 F420.000
G1 X-18.500 Y-25.143 Z-7.000 F420.000
G1 X-18.500 Y-20.900 Z-7.000 F420.000
G1 X-9.818 Y-12.218 Z-7.000 F420.000
G1 X-9.515 Y-7.672 Z-7.000 F420.000
G1 X-18.500 Y-16.657 Z-7.000 F420.000
G1 X-18.500 Y-12.415 Z-7.000 F420.000
G1 X-9.212 Y-3.127 Z-7.000 F420.000
G1 X-9.011 Y-0.114 Z-7.000 F420.000
G3 X-9.011 Y0.114 Z-7.000 I-1.589 J0.114 F420.000
G1 X-9.086 Y1.242 Z-7.000 F420.000
G1 X-18.500 Y-8.172 Z-7.000 F420.000
G1 X-18.500 Y-3.929 Z-7.000 F420.000
G1 X-9.351 Y5.219 Z-7.000 F420.000
G1 X-9.616 Y9.197 Z-7.000 F420.000
G1 X-18.500 Y0.313 Z-7.000 F420.000
G1 X-18.500 Y4.556 Z-7.000 F420.000
G1 X-9.882 Y13.174 Z-7.000 F420.000
G1 X-10.147 Y17.152 Z-7.000 F420.000
G1 X-18.500 Y8.798 Z-7.000 F420.000
G1 X-18.500 Y13.041 Z-7.000 F420.000
G1 X-10.412 Y21.129 Z-7.000 F420.000
G1 X-10.677 Y25.107 Z-7.000 F420.000
G1 X-18.500 Y17.284 Z-7.000 F420.000
G1 X-18.500 Y21.526 Z-7.000 F420.000
G1 X-10.942 Y29.084 Z-7.000 F420.000
G1 X-11.207 Y33.062 Z-7.000 F420.000
G1 X-18.500 Y25.769 Z-7.000 F420.000
G1 X-18.500 Y30.012 Z-7.000 F420.000
G1 X-11.473 Y37.039 Z-7.000 F420.000
G1 X-11.488 Y37.274 Z-7.000 F420.000
G2 X-11.122 Y38.482 Z-7.000 I1.576 J0.182 F420.000
G3 X-11.123 Y38.495 Z-7.000 I-0.008 J0.006 F420.000
G3 X-11.159 Y38.500 Z-7.000 I-0.022 J-0.030 F420.000
G1 X-14.254 Y38.500 Z-7.000 F420.000
G1 X-18.500 Y34.254 Z-7.000 F420.000
G1 X-18.500 Y38.465 Z-7.000 F420.000
G1 X-18.498 Y38.498 Z-7.000 F420.000
G1 X-18.498 Y38.498 Z-8.000 F420.000
G1 X-18.465 Y38.500 Z-8.000 F420.000
G1 X-11.159 Y38.500 Z-8.000 F420.000
G1 X-11.130 Y38.498 Z-8.000 F420.000
G2 X-11.120 Y38.489 Z-8.000 I-0.001 J-0.010 F420.000
G3 X-11.488 Y37.274 Z-8.000 I1.225 J-1.034 F420.000
G1 X-9.011 Y0.114 Z-8.000 F420.000
G2 X-9.011 Y-0.114 Z-8.000 I-1.589 J-0.114 F420.000
G1 X-11.489 Y-37.283 Z-8.000 F420.000
G3 X-11.495 Y-37.459 Z-8.000 I1.966 J-0.158 F420.000
G3 X-11.117 Y-38.492 Z-8.000 I1.591 J-0.002 F420.000
G2 X-11.117 Y-38.497 Z-8.000 I-0.003 J-0.002 F420.000
G2 X-11.154 Y-38.500 Z-8.000 I-0.021 J0.035 F420.000
G1 X-18.465 Y-38.500 Z-8.000 F420.000
G1 X-18.498 Y-38.498 Z-8.000 F420.000
G1 X-18.500 Y-38.465 Z-8.000 F420.000
G1 X-18.500 Y38.465 Z-8.000 F420.000
G1 X-18.498 Y38.498 Z-8.000 F420.000
G1 X-18.498 Y38.498 Z-8.000 F420.000
G1 X-18.500 Y38.465 Z-8.000 F420.000
G1 X-18.500 Y34.254 Z-8.000 F420.000
G1 X-14.254 Y38.500 Z-8.000 F420.000
G1 X-11.159 Y38.500 Z-8.000 F420.000
G2 X-11.123 Y38.495 Z-8.000 I0.014 J-0.034 F420.000
G2 X-11.122 Y38.482 Z-8.000 I-0.007 J-0.007 F420.000
G3 X-11.488 Y37.274 Z-8.000 I1.210 J-1.026 F420.000
G1 X-11.473 Y37.039 Z-8.000 F420.000
G1 X-18.500 Y30.012 Z-8.000 F420.000
G1 X-18.500 Y25.769 Z-8.000 F420.000
G1 X-11.207 Y33.062 Z-8.000 F420.000
G1 X-10.942 Y29.084 Z-8.000 F420.000
G1 X-18.500 Y21.526 Z-8.000 F420.000
G1 X-18.500 Y17.284 Z-8.000 F420.000
G1 X-10.677 Y25.107 Z-8.000 F420.000
G1 X-10.412 Y21.129 Z-8.000 F420.000
G1 X-18.500 Y13.041 Z-8.000 F420.000
G1 X-18.500 Y8.798 Z-8.000 F420.000
G1 X-10.147 Y17.152 Z-8.000 F420.000
G1 X-9.882 Y13.174 Z-8.000 F420.000
G1 X-18.500 Y4.556 Z-8.000 F420.000
G1 X-18.500 Y0.313 Z-8.000 F420.000
G1 X-9.616 Y9.197 Z-8.000 F420.000
G1 X-9.351 Y5.219 Z-8.000 F420.000
G1 X-18.500 Y-3.929 Z-8.000 F420.000
G1 X-18.500 Y-8.172 Z-8.000 F420.000
G1 X-9.086 Y1.242 Z-8.000 F420.000
G1 X-9.011 Y0.114 Z-8.000 F420.000
G2 X-9.011 Y-0.114 Z-8.000 I-1.589 J-0.114 F420.000
G1 X-9.212 Y-3.127 Z-8.000 F420.000
G1 X-18.500 Y-12.415 Z-8.000 F420.000
G1 X-18.500 Y-16.657 Z-8.000 F420.000
G1 X-9.515 Y-7.672 Z-8.000 F420.000
G1 X-9.818 Y-12.218 Z-8.000 F420.000
G1 X-18.500 Y-20.900 Z-8.000 F420.000
G1 X-18.500 Y-25.143 Z-8.000 F420.000
G1 X-10.121 Y-16.764 Z-8.000 F420.000
G1 X-10.424 Y-21.309 Z-8.000 F420.000
G1 X-18.500 Y-29.385 Z-8.000 F420.000
G1 X-18.500 Y-33.628 Z-8.000 F420.000
G1 X-10.727 Y-25.855 Z-8.000 F420.000
G1 X-11.030 Y-30.401 Z-8.000 F420.000
G1 X-18.500 Y-37.871 Z-8.000 F420.000
G1 X-18.500 Y-38.465 Z-8.000 F420.000
G1 X-18.498 Y-38.498 Z-8.000 F420.000
G1 X-18.465 Y-38.500 Z-8.000 F420.000
G1 X-14.887 Y-38.500 Z-8.000 F420.000
G1 X-11.154 Y-38.500 Z-8.000 F420.000
G1 X-11.120 Y-38.498 Z-8.000 F420.000
G3 X-11.116 Y-38.493 Z-8.000 I-0.000 J0.004 F420.000
G2 X-11.411 Y-37.984 Z-8.000 I1.338 J1.115 F420.000
G2 X-11.489 Y-37.283 Z-8.000 I1.736 J0.548 F420.000
G1 X-11.333 Y-34.946 Z-8.000 F420.000
G1 X-14.887 Y-38.500 Z-8.000 F420.000
G0 Z7.000
G0 X18.500 Y-34.812 Z7.000
G0 X18.500 Y-34.812 Z5.000
G1 X18.500 Y-34.812 Z-7.000 F420.000
G1 X18.500 Y-38.465 Z-7.000 F420.000
G1 X18.498 Y-38.498 Z-7.000 F420.000
G1 X18.465 Y-38.500 Z-7.000 F420.000
G1 X11.159 Y-38.500 Z-7.000 F420.000
G1 X11.129 Y-38.498 Z-7.000 F420.000
G2 X11.120 Y-38.490 Z-7.000 I0.001 J0.010 F420.000
G3 X11.488 Y-37.274 Z-7.000 I-1.225 J1.034 F420.000
G1 X9.011 Y-0.115 Z-7.000 F420.000
G2 X9.011 Y0.114 Z-7.000 I1.586 J0.114 F420.000
G1 X11.488 Y36.767 Z-7.000 F420.000
G3 X11.461 Y37.251 Z-7.000 I-1.631 J0.152 F420.000
G3 X10.124 Y38.488 Z-7.000 I-1.502 J-0.283 F420.000
G2 X10.033 Y38.499 Z-7.000 I0.004 J0.421 F420.000
G1 X10.055 Y38.500 Z-7.000 F420.000
G1 X18.465 Y38.500 Z-7.000 F420.000
G1 X18.465 Y38.500 Z-7.000 F420.000
G1 X18.498 Y38.498 Z-7.000 F420.000
G1 X18.500 Y38.465 Z-7.000 F420.000
G1 X18.500 Y-38.465 Z-7.000 F420.000
G1 X18.498 Y-38.498 Z-7.000 F420.000
G1 X18.465 Y-38.500 Z-7.000 F420.000
G1 X14.812 Y-38.500 Z-7.000 F420.000
G1 X18.500 Y-34.812 Z-7.000 F420.000
G1 X18.500 Y-30.569 Z-7.000 F420.000
G1 X11.494 Y-37.575 Z-7.000 F420.000
G3 X11.488 Y-37.274 Z-7.000 I-1.619 J0.121 F420.000
G1 X11.242 Y-33.584 Z-7.000 F420.000
G1 X18.500 Y-26.326 Z-7.000 F420.000
G1 X18.500 Y-22.084 Z-7.000 F420.000
G1 X10.977 Y-29.607 Z-7.000 F420.000
G1 X10.712 Y-25.629 Z-7.000 F420.000
G1 X18.500 Y-17.841 Z-7.000 F420.000
G1 X18.500 Y-13.599 Z-7.000 F420.000
G1 X10.447 Y-21.652 Z-7.000 F420.000
G1 X10.182 Y-17.674 Z-7.000 F420.000
G1 X18.500 Y-9.356 Z-7.000 F420.000
G1 X18.500 Y-5.113 Z-7.000 F420.000
G1 X9.917 Y-13.697 Z-7.000 F420.000
G1 X9.651 Y-9.719 Z-7.000 F420.000
G1 X18.500 Y-0.871 Z-7.000 F420.000
G1 X18.500 Y3.372 Z-7.000 F420.000
G1 X9.386 Y-5.742 Z-7.000 F420.000
G1 X9.121 Y-1.764 Z-7.000 F420.000
G1 X18.500 Y7.615 Z-7.000 F420.000
G1 X18.500 Y11.857 Z-7.000 F420.000
G1 X9.175 Y2.532 Z-7.000 F420.000
G1 X9.482 Y7.082 Z-7.000 F420.000
G1 X18.500 Y16.100 Z-7.000 F420.000
G1 X18.500 Y20.343 Z-7.000 F420.000
G1 X9.789 Y11.632 Z-7.000 F420.000
G1 X10.097 Y16.182 Z-7.000 F420.000
G1 X18.500 Y24.585 Z-7.000 F420.000
G1 X18.500 Y28.828 Z-7.000 F420.000
G1 X10.404 Y20.732 Z-7.000 F420.000
G1 X10.712 Y25.282 Z-7.000 F420.000
G1 X18.500 Y33.071 Z-7.000 F420.000
G1 X18.500 Y37.313 Z-7.000 F420.000
G1 X11.019 Y29.832 Z-7.000 F420.000
G1 X11.327 Y34.382 Z-7.000 F420.000
G1 X15.444 Y38.500 Z-7.000 F420.000
G1 X11.202 Y38.500 Z-7.000 F420.000
G1 X10.887 Y38.185 Z-7.000 F420.000
G3 X10.124 Y38.488 Z-7.000 I-0.909 J-1.176 F420.000
G2 X10.033 Y38.499 Z-7.000 I0.004 J0.421 F420.000
G1 X10.055 Y38.500 Z-7.000 F420.000
G1 X11.202 Y38.500 Z-7.000 F420.000
G1 X11.202 Y38.500 Z-8.000 F420.000
G1 X10.055 Y38.500 Z-8.000 F420.000
G1 X10.033 Y38.499 Z-8.000 F420.000
G3 X10.124 Y38.488 Z-8.000 I0.095 J0.410 F420.000
G2 X10.887 Y38.185 Z-8.000 I-0.146 J-1.479 F420.000
G1 X11.202 Y38.500 Z-8.000 F420.000
G1 X15.444 Y38.500 Z-8.000 F420.000
G1 X11.327 Y34.382 Z-8.000 F420.000
G1 X11.019 Y29.832 Z-8.000 F420.000
G1 X18.500 Y37.313 Z-8.000 F420.000
G1 X18.500 Y33.071 Z-8.000 F420.000
G1 X10.712 Y25.282 Z-8.000 F420.000
G1 X10.404 Y20.732 Z-8.000 F420.000
G1 X18.500 Y28.828 Z-8.000 F420.000
G1 X18.500 Y24.585 Z-8.000 F420.000
G1 X10.097 Y16.182 Z-8.000 F420.000
G1 X9.789 Y11.632 Z-8.000 F420.000
G1 X18.500 Y20.343 Z-8.000 F420.000
G1 X18.500 Y16.100 Z-8.000 F420.000
G1 X9.482 Y7.082 Z-8.000 F420.000
G1 X9.175 Y2.532 Z-8.000 F420.000
G1 X18.500 Y11.857 Z-8.000 F420.000
G1 X18.500 Y7.615 Z-8.000 F420.000
G1 X9.121 Y-1.764 Z-8.000 F420.000
G1 X9.386 Y-5.742 Z-8.000 F420.000
G1 X18.500 Y3.372 Z-8.000 F420.000
G1 X18.500 Y-0.871 Z-8.000 F420.000
G1 X9.651 Y-9.719 Z-8.000 F420.000
G1 X9.917 Y-13.697 Z-8.000 F420.000
G1 X18.500 Y-5.113 Z-8.000 F420.000
G1 X18.500 Y-9.356 Z-8.000 F420.000
G1 X10.182 Y-17.674 Z-8.000 F420.000
G1 X10.447 Y-21.652 Z-8.000 F420.000
G1 X18.500 Y-13.599 Z-8.000 F420.000
G1 X18.500 Y-17.841 Z-8.000 F420.000
G1 X10.712 Y-25.629 Z-8.000 F420.000
G1 X10.977 Y-29.607 Z-8.000 F420.000
G1 X18.500 Y-22.084 Z-8.000 F420.000
G1 X18.500 Y-26.326 Z-8.000 F420.000
G1 X11.242 Y-33.584 Z-8.000 F420.000
G1 X11.488 Y-37.274 Z-8.000 F420.000
G2 X11.494 Y-37.575 Z-8.000 I-1.613 J-0.180 F420.000
G1 X18.500 Y-30.569 Z-8.000 F420.000
G1 X18.500 Y-34.812 Z-8.000 F420.000
G1 X14.812 Y-38.500 Z-8.000 F420.000
G1 X18.465 Y-38.500 Z-8.000 F420.000
G1 X18.498 Y-38.498 Z-8.000 F420.000
G1 X18.500 Y-38.465 Z-8.000 F420.000
G1 X18.500 Y38.465 Z-8.000 F420.000
G1 X18.498 Y38.498 Z-8.000 F420.000
G1 X18.465 Y38.500 Z-8.000 F420.000
G1 X18.465 Y38.500 Z-8.000 F420.000
G1 X10.055 Y38.500 Z-8.000 F420.000
G1 X10.033 Y38.499 Z-8.000 F420.000
G3 X10.124 Y38.488 Z-8.000 I0.095 J0.410 F420.000
G2 X11.461 Y37.251 Z-8.000 I-0.165 J-1.520 F420.000
G2 X11.488 Y36.767 Z-8.000 I-1.604 J-0.332 F420.000
G1 X9.011 Y0.114 Z-8.000 F420.000
G3 X9.011 Y-0.115 Z-8.000 I1.586 J-0.115 F420.000
G1 X11.488 Y-37.274 Z-8.000 F420.000
G2 X11.120 Y-38.490 Z-8.000 I-1.593 J-0.181 F420.000
G3 X11.129 Y-38.498 Z-8.000 I0.010 J0.001 F420.000
G1 X11.159 Y-38.500 Z-8.000 F420.000
G1 X18.465 Y-38.500 Z-8.000 F420.000
G1 X18.498 Y-38.498 Z-8.000 F420.000
G1 X18.500 Y-38.465 Z-8.000 F420.000
G1 X18.500 Y-34.812 Z-8.000 F420.000
G0 Z7.000
G0 Z7.000
(finish operation: Pocket_Shape)
(begin operation: Profile001)
(machine: not set, mm/min)
(Profile001)
(Compensated Tool Path. Diameter: 3.0)
G0 Z7.000
G0 X0.000 Y0.000
G0 X21.500
G0 X21.500 Z5.000
G1 X21.500 Y0.000 Z-1.000 F420.000
G1 X21.500 Y-40.000 Z-1.000 F420.000
G2 X20.000 Y-41.500 Z-1.000 I-1.500 J0.000 F420.000
G1 X-20.000 Y-41.500 Z-1.000 F420.000
G2 X-21.500 Y-40.000 Z-1.000 I0.000 J1.500 F420.000
G1 X-21.500 Y40.000 Z-1.000 F420.000
G2 X-20.000 Y41.500 Z-1.000 I1.500 J-0.000 F420.000
G1 X20.000 Y41.500 Z-1.000 F420.000
G2 X21.500 Y40.000 Z-1.000 I-0.000 J-1.500 F420.000
G1 X21.500 Y0.000 Z-1.000 F420.000
G1 X21.500 Y0.000 Z-4.000 F420.000
G1 X21.500 Y-40.000 Z-4.000 F420.000
G2 X20.000 Y-41.500 Z-4.000 I-1.500 J0.000 F420.000
G1 X-20.000 Y-41.500 Z-4.000 F420.000
G2 X-21.500 Y-40.000 Z-4.000 I0.000 J1.500 F420.000
G1 X-21.500 Y40.000 Z-4.000 F420.000
G2 X-20.000 Y41.500 Z-4.000 I1.500 J-0.000 F420.000
G1 X20.000 Y41.500 Z-4.000 F420.000
G2 X21.500 Y40.000 Z-4.000 I-0.000 J-1.500 F420.000
G1 X21.500 Y0.000 Z-4.000 F420.000
G1 X21.500 Y0.000 Z-7.000 F420.000
G1 X21.500 Y-40.000 Z-7.000 F420.000
G2 X20.000 Y-41.500 Z-7.000 I-1.500 J0.000 F420.000
G1 X-20.000 Y-41.500 Z-7.000 F420.000
G2 X-21.500 Y-40.000 Z-7.000 I0.000 J1.500 F420.000
G1 X-21.500 Y40.000 Z-7.000 F420.000
G2 X-20.000 Y41.500 Z-7.000 I1.500 J-0.000 F420.000
G1 X20.000 Y41.500 Z-7.000 F420.000
G2 X21.500 Y40.000 Z-7.000 I-0.000 J-1.500 F420.000
G1 X21.500 Y0.000 Z-7.000 F420.000
G1 X21.500 Y0.000 Z-10.000 F420.000
G1 X21.500 Y-40.000 Z-10.000 F420.000
G2 X20.000 Y-41.500 Z-10.000 I-1.500 J0.000 F420.000
G1 X-20.000 Y-41.500 Z-10.000 F420.000
G2 X-21.500 Y-40.000 Z-10.000 I0.000 J1.500 F420.000
G1 X-21.500 Y40.000 Z-10.000 F420.000
G2 X-20.000 Y41.500 Z-10.000 I1.500 J-0.000 F420.000
G1 X20.000 Y41.500 Z-10.000 F420.000
G2 X21.500 Y40.000 Z-10.000 I-0.000 J-1.500 F420.000
G1 X21.500 Y0.000 Z-10.000 F420.000
G1 X21.500 Y0.000 Z-13.000 F420.000
G1 X21.500 Y-40.000 Z-13.000 F420.000
G2 X20.000 Y-41.500 Z-13.000 I-1.500 J0.000 F420.000
G1 X-20.000 Y-41.500 Z-13.000 F420.000
G2 X-21.500 Y-40.000 Z-13.000 I0.000 J1.500 F420.000
G1 X-21.500 Y40.000 Z-13.000 F420.000
G2 X-20.000 Y41.500 Z-13.000 I1.500 J-0.000 F420.000
G1 X20.000 Y41.500 Z-13.000 F420.000
G2 X21.500 Y40.000 Z-13.000 I-0.000 J-1.500 F420.000
G1 X21.500 Y0.000 Z-13.000 F420.000
G1 X21.500 Y0.000 Z-16.000 F420.000
G1 X21.500 Y-40.000 Z-16.000 F420.000
G2 X20.000 Y-41.500 Z-16.000 I-1.500 J0.000 F420.000
G1 X-20.000 Y-41.500 Z-16.000 F420.000
G2 X-21.500 Y-40.000 Z-16.000 I0.000 J1.500 F420.000
G1 X-21.500 Y40.000 Z-16.000 F420.000
G2 X-20.000 Y41.500 Z-16.000 I1.500 J-0.000 F420.000
G1 X20.000 Y41.500 Z-16.000 F420.000
G2 X21.500 Y40.000 Z-16.000 I-0.000 J-1.500 F420.000
G1 X21.500 Y0.000 Z-16.000 F420.000
G1 X21.500 Y0.000 Z-18.000 F420.000
G1 X21.500 Y-40.000 Z-18.000 F420.000
G2 X20.000 Y-41.500 Z-18.000 I-1.500 J0.000 F420.000
G1 X-20.000 Y-41.500 Z-18.000 F420.000
G2 X-21.500 Y-40.000 Z-18.000 I0.000 J1.500 F420.000
G1 X-21.500 Y40.000 Z-18.000 F420.000
G2 X-20.000 Y41.500 Z-18.000 I1.500 J-0.000 F420.000
G1 X20.000 Y41.500 Z-18.000 F420.000
G2 X21.500 Y40.000 Z-18.000 I-0.000 J-1.500 F420.000
G1 X21.500 Y0.000 Z-18.000 F420.000
G0 Z7.000
G0 Z7.000
(finish operation: Profile001)
(begin postamble)
M05 M09
G17 G90 G80 G40
M30
