(Exported by FreeCAD)
(Post Processor: script_module)
(Output Time:2026-02-13 16:55:31.353956)
(Begin preamble)
G17 G90
G21
(Begin operation: Fixture)
(Path: Fixture)
G54
(Finish operation: Fixture)
(Begin operation: 2_5mmEndMill008)
(Path: 2_5mmEndMill008)
(2_5mmEndMill008)
(Begin toolchange)
( M6 T2 )
M3 S10000
(Finish operation: 2_5mmEndMill008)
(Begin operation: Pocket_Shape001)
(Path: Pocket_Shape001)
(Pocket_Shape001)
G0 Z5.000
G0 X6.186 Y48.814
G0 Z3.000
G1 X6.186 Y48.814 Z-2.500 F240.000
G3 X8.651 Y53.750 Z-2.500 I-6.119 J6.139 K0.000 F240.000
G1 X7.587 Y53.750 Z-2.500 F240.000
G1 X0.092 Y46.255 Z-2.500 F240.000
G2 X-2.937 Y46.761 Z-2.500 I-0.126 J8.564 K0.000 F240.000
G1 X4.052 Y53.750 Z-2.500 F240.000
G1 X0.516 Y53.750 Z-2.500 F240.000
G1 X-5.234 Y47.999 Z-2.500 F240.000
G2 X-7.002 Y49.767 Z-2.500 I4.750 J6.516 K0.000 F240.000
G1 X-3.019 Y53.750 Z-2.500 F240.000
G1 X-6.555 Y53.750 Z-2.500 F240.000
G1 X-8.651 Y53.750 Z-2.500 F240.000
G3 X8.651 Y53.750 Z-2.500 I8.651 J1.241 K0.000 F240.000
G1 X-6.555 Y53.750 Z-2.500 F240.000
G1 X-8.239 Y52.066 Z-2.500 F240.000
G2 X-8.651 Y53.750 Z-2.500 I6.282 J2.429 K0.000 F240.000
G1 X-6.555 Y53.750 Z-2.500 F240.000
G1 X-6.555 Y53.750 Z-5.000 F240.000
G1 X-8.651 Y53.750 Z-5.000 F240.000
G3 X-8.239 Y52.066 Z-5.000 I6.694 J0.744 K0.000 F240.000
G1 X-6.555 Y53.750 Z-5.000 F240.000
G1 X8.651 Y53.750 Z-5.000 F240.000
G2 X-8.651 Y53.750 Z-5.000 I-8.651 J1.241 K0.000 F240.000
G1 X-6.555 Y53.750 Z-5.000 F240.000
G1 X-3.019 Y53.750 Z-5.000 F240.000
G1 X-7.002 Y49.767 Z-5.000 F240.000
G3 X-5.234 Y47.999 Z-5.000 I6.518 J4.748 K0.000 F240.000
G1 X0.516 Y53.750 Z-5.000 F240.000
G1 X4.052 Y53.750 Z-5.000 F240.000
G1 X-2.937 Y46.761 Z-5.000 F240.000
G3 X0.092 Y46.255 Z-5.000 I2.903 J8.058 K0.000 F240.000
G1 X7.587 Y53.750 Z-5.000 F240.000
G1 X8.651 Y53.750 Z-5.000 F240.000
G2 X6.186 Y48.814 Z-5.000 I-8.584 J1.203 K0.000 F240.000
G0 Z5.000
G0 Z5.000
(Finish operation: Pocket_Shape001)
(Begin operation: Profile004)
(Path: Profile004)
(Profile004)
(Compensated Tool Path. Diameter: 2.5)
G0 Z5.000
G0 X102.884 Y55.884
G0 Z3.000
G1 X102.884 Y55.884 Z-2.500 F240.000
G2 X103.250 Y55.000 Z-2.500 I-0.884 J-0.884 K0.000 F240.000
G1 X103.250 Y33.000 Z-2.500 F240.000
G2 X102.000 Y31.750 Z-2.500 I-1.250 J-0.000 K0.000 F240.000
G1 X89.250 Y31.750 Z-2.500 F240.000
G1 X89.250 Y12.250 Z-2.500 F240.000
G1 X102.000 Y12.250 Z-2.500 F240.000
G2 X103.250 Y11.000 Z-2.500 I0.000 J-1.250 K0.000 F240.000
G1 X103.250 Y-11.000 Z-2.500 F240.000
G2 X102.000 Y-12.250 Z-2.500 I-1.250 J-0.000 K0.000 F240.000
G1 X89.250 Y-12.250 Z-2.500 F240.000
G1 X89.250 Y-31.750 Z-2.500 F240.000
G1 X102.000 Y-31.750 Z-2.500 F240.000
G2 X103.250 Y-33.000 Z-2.500 I0.000 J-1.250 K0.000 F240.000
G1 X103.250 Y-55.000 Z-2.500 F240.000
G2 X102.000 Y-56.250 Z-2.500 I-1.250 J-0.000 K0.000 F240.000
G1 X-102.000 Y-56.250 Z-2.500 F240.000
G2 X-103.250 Y-55.000 Z-2.500 I-0.000 J1.250 K0.000 F240.000
G1 X-103.250 Y-33.000 Z-2.500 F240.000
G2 X-102.000 Y-31.750 Z-2.500 I1.250 J0.000 K0.000 F240.000
G1 X-89.250 Y-31.750 Z-2.500 F240.000
G1 X-89.250 Y-12.250 Z-2.500 F240.000
G1 X-102.000 Y-12.250 Z-2.500 F240.000
G2 X-103.250 Y-11.000 Z-2.500 I-0.000 J1.250 K0.000 F240.000
G1 X-103.250 Y11.000 Z-2.500 F240.000
G2 X-102.000 Y12.250 Z-2.500 I1.250 J0.000 K0.000 F240.000
G1 X-89.250 Y12.250 Z-2.500 F240.000
G1 X-89.250 Y31.750 Z-2.500 F240.000
G1 X-102.000 Y31.750 Z-2.500 F240.000
G2 X-103.250 Y33.000 Z-2.500 I-0.000 J1.250 K0.000 F240.000
G1 X-103.250 Y55.000 Z-2.500 F240.000
G2 X-102.000 Y56.250 Z-2.500 I1.250 J0.000 K0.000 F240.000
G1 X102.000 Y56.250 Z-2.500 F240.000
G2 X102.884 Y55.884 Z-2.500 I0.000 J-1.250 K0.000 F240.000
G1 X102.884 Y55.884 Z-5.000 F240.000
G2 X103.250 Y55.000 Z-5.000 I-0.884 J-0.884 K0.000 F240.000
G1 X103.250 Y33.000 Z-5.000 F240.000
G2 X102.000 Y31.750 Z-5.000 I-1.250 J-0.000 K0.000 F240.000
G1 X89.250 Y31.750 Z-5.000 F240.000
G1 X89.250 Y12.250 Z-5.000 F240.000
G1 X102.000 Y12.250 Z-5.000 F240.000
G2 X103.250 Y11.000 Z-5.000 I0.000 J-1.250 K0.000 F240.000
G1 X103.250 Y-11.000 Z-5.000 F240.000
G2 X102.000 Y-12.250 Z-5.000 I-1.250 J-0.000 K0.000 F240.000
G1 X89.250 Y-12.250 Z-5.000 F240.000
G1 X89.250 Y-31.750 Z-5.000 F240.000
G1 X102.000 Y-31.750 Z-5.000 F240.000
G2 X103.250 Y-33.000 Z-5.000 I0.000 J-1.250 K0.000 F240.000
G1 X103.250 Y-55.000 Z-5.000 F240.000
G2 X102.000 Y-56.250 Z-5.000 I-1.250 J-0.000 K0.000 F240.000
G1 X-102.000 Y-56.250 Z-5.000 F240.000
G2 X-103.250 Y-55.000 Z-5.000 I-0.000 J1.250 K0.000 F240.000
G1 X-103.250 Y-33.000 Z-5.000 F240.000
G2 X-102.000 Y-31.750 Z-5.000 I1.250 J0.000 K0.000 F240.000
G1 X-89.250 Y-31.750 Z-5.000 F240.000
G1 X-89.250 Y-12.250 Z-5.000 F240.000
G1 X-102.000 Y-12.250 Z-5.000 F240.000
G2 X-103.250 Y-11.000 Z-5.000 I-0.000 J1.250 K0.000 F240.000
G1 X-103.250 Y11.000 Z-5.000 F240.000
G2 X-102.000 Y12.250 Z-5.000 I1.250 J0.000 K0.000 F240.000
G1 X-89.250 Y12.250 Z-5.000 F240.000
G1 X-89.250 Y31.750 Z-5.000 F240.000
G1 X-102.000 Y31.750 Z-5.000 F240.000
G2 X-103.250 Y33.000 Z-5.000 I-0.000 J1.250 K0.000 F240.000
G1 X-103.250 Y55.000 Z-5.000 F240.000
G2 X-102.000 Y56.250 Z-5.000 I1.250 J0.000 K0.000 F240.000
G1 X102.000 Y56.250 Z-5.000 F240.000
G2 X102.884 Y55.884 Z-5.000 I0.000 J-1.250 K0.000 F240.000
G1 X102.884 Y55.884 Z-7.500 F240.000
G2 X103.250 Y55.000 Z-7.500 I-0.884 J-0.884 K0.000 F240.000
G1 X103.250 Y33.000 Z-7.500 F240.000
G2 X102.000 Y31.750 Z-7.500 I-1.250 J-0.000 K0.000 F240.000
G1 X89.250 Y31.750 Z-7.500 F240.000
G1 X89.250 Y12.250 Z-7.500 F240.000
G1 X102.000 Y12.250 Z-7.500 F240.000
G2 X103.250 Y11.000 Z-7.500 I0.000 J-1.250 K0.000 F240.000
G1 X103.250 Y-11.000 Z-7.500 F240.000
G2 X102.000 Y-12.250 Z-7.500 I-1.250 J-0.000 K0.000 F240.000
G1 X89.250 Y-12.250 Z-7.500 F240.000
G1 X89.250 Y-31.750 Z-7.500 F240.000
G1 X102.000 Y-31.750 Z-7.500 F240.000
G2 X103.250 Y-33.000 Z-7.500 I0.000 J-1.250 K0.000 F240.000
G1 X103.250 Y-55.000 Z-7.500 F240.000
G2 X102.000 Y-56.250 Z-7.500 I-1.250 J-0.000 K0.000 F240.000
G1 X-102.000 Y-56.250 Z-7.500 F240.000
G2 X-103.250 Y-55.000 Z-7.500 I-0.000 J1.250 K0.000 F240.000
G1 X-103.250 Y-33.000 Z-7.500 F240.000
G2 X-102.000 Y-31.750 Z-7.500 I1.250 J0.000 K0.000 F240.000
G1 X-89.250 Y-31.750 Z-7.500 F240.000
G1 X-89.250 Y-12.250 Z-7.500 F240.000
G1 X-102.000 Y-12.250 Z-7.500 F240.000
G2 X-103.250 Y-11.000 Z-7.500 I-0.000 J1.250 K0.000 F240.000
G1 X-103.250 Y11.000 Z-7.500 F240.000
G2 X-102.000 Y12.250 Z-7.500 I1.250 J0.000 K0.000 F240.000
G1 X-89.250 Y12.250 Z-7.500 F240.000
G1 X-89.250 Y31.750 Z-7.500 F240.000
G1 X-102.000 Y31.750 Z-7.500 F240.000
G2 X-103.250 Y33.000 Z-7.500 I-0.000 J1.250 K0.000 F240.000
G1 X-103.250 Y55.000 Z-7.500 F240.000
G2 X-102.000 Y56.250 Z-7.500 I1.250 J0.000 K0.000 F240.000
G1 X102.000 Y56.250 Z-7.500 F240.000
G2 X102.884 Y55.884 Z-7.500 I0.000 J-1.250 K0.000 F240.000
G1 X102.884 Y55.884 Z-10.000 F240.000
G2 X103.250 Y55.000 Z-10.000 I-0.884 J-0.884 K0.000 F240.000
G1 X103.250 Y33.000 Z-10.000 F240.000
G2 X102.000 Y31.750 Z-10.000 I-1.250 J-0.000 K0.000 F240.000
G1 X89.250 Y31.750 Z-10.000 F240.000
G1 X89.250 Y12.250 Z-10.000 F240.000
G1 X102.000 Y12.250 Z-10.000 F240.000
G2 X103.250 Y11.000 Z-10.000 I0.000 J-1.250 K0.000 F240.000
G1 X103.250 Y-11.000 Z-10.000 F240.000
G2 X102.000 Y-12.250 Z-10.000 I-1.250 J-0.000 K0.000 F240.000
G1 X89.250 Y-12.250 Z-10.000 F240.000
G1 X89.250 Y-31.750 Z-10.000 F240.000
G1 X102.000 Y-31.750 Z-10.000 F240.000
G2 X103.250 Y-33.000 Z-10.000 I0.000 J-1.250 K0.000 F240.000
G1 X103.250 Y-55.000 Z-10.000 F240.000
G2 X102.000 Y-56.250 Z-10.000 I-1.250 J-0.000 K0.000 F240.000
G1 X-102.000 Y-56.250 Z-10.000 F240.000
G2 X-103.250 Y-55.000 Z-10.000 I-0.000 J1.250 K0.000 F240.000
G1 X-103.250 Y-33.000 Z-10.000 F240.000
G2 X-102.000 Y-31.750 Z-10.000 I1.250 J0.000 K0.000 F240.000
G1 X-89.250 Y-31.750 Z-10.000 F240.000
G1 X-89.250 Y-12.250 Z-10.000 F240.000
G1 X-102.000 Y-12.250 Z-10.000 F240.000
G2 X-103.250 Y-11.000 Z-10.000 I-0.000 J1.250 K0.000 F240.000
G1 X-103.250 Y11.000 Z-10.000 F240.000
G2 X-102.000 Y12.250 Z-10.000 I1.250 J0.000 K0.000 F240.000
G1 X-89.250 Y12.250 Z-10.000 F240.000
G1 X-89.250 Y31.750 Z-10.000 F240.000
G1 X-102.000 Y31.750 Z-10.000 F240.000
G2 X-103.250 Y33.000 Z-10.000 I-0.000 J1.250 K0.000 F240.000
G1 X-103.250 Y55.000 Z-10.000 F240.000
G2 X-102.000 Y56.250 Z-10.000 I1.250 J0.000 K0.000 F240.000
G1 X102.000 Y56.250 Z-10.000 F240.000
G2 X102.884 Y55.884 Z-10.000 I0.000 J-1.250 K0.000 F240.000
G1 X102.884 Y55.884 Z-12.000 F240.000
G2 X103.250 Y55.000 Z-12.000 I-0.884 J-0.884 K0.000 F240.000
G1 X103.250 Y33.000 Z-12.000 F240.000
G2 X102.000 Y31.750 Z-12.000 I-1.250 J-0.000 K0.000 F240.000
G1 X89.250 Y31.750 Z-12.000 F240.000
G1 X89.250 Y12.250 Z-12.000 F240.000
G1 X102.000 Y12.250 Z-12.000 F240.000
G2 X103.250 Y11.000 Z-12.000 I0.000 J-1.250 K0.000 F240.000
G1 X103.250 Y-11.000 Z-12.000 F240.000
G2 X102.000 Y-12.250 Z-12.000 I-1.250 J-0.000 K0.000 F240.000
G1 X89.250 Y-12.250 Z-12.000 F240.000
G1 X89.250 Y-31.750 Z-12.000 F240.000
G1 X102.000 Y-31.750 Z-12.000 F240.000
G2 X103.250 Y-33.000 Z-12.000 I0.000 J-1.250 K0.000 F240.000
G1 X103.250 Y-55.000 Z-12.000 F240.000
G2 X102.000 Y-56.250 Z-12.000 I-1.250 J-0.000 K0.000 F240.000
G1 X-102.000 Y-56.250 Z-12.000 F240.000
G2 X-103.250 Y-55.000 Z-12.000 I-0.000 J1.250 K0.000 F240.000
G1 X-103.250 Y-33.000 Z-12.000 F240.000
G2 X-102.000 Y-31.750 Z-12.000 I1.250 J0.000 K0.000 F240.000
G1 X-89.250 Y-31.750 Z-12.000 F240.000
G1 X-89.250 Y-12.250 Z-12.000 F240.000
G1 X-102.000 Y-12.250 Z-12.000 F240.000
G2 X-103.250 Y-11.000 Z-12.000 I-0.000 J1.250 K0.000 F240.000
G1 X-103.250 Y11.000 Z-12.000 F240.000
G2 X-102.000 Y12.250 Z-12.000 I1.250 J0.000 K0.000 F240.000
G1 X-89.250 Y12.250 Z-12.000 F240.000
G1 X-89.250 Y31.750 Z-12.000 F240.000
G1 X-102.000 Y31.750 Z-12.000 F240.000
G2 X-103.250 Y33.000 Z-12.000 I-0.000 J1.250 K0.000 F240.000
G1 X-103.250 Y55.000 Z-12.000 F240.000
G2 X-102.000 Y56.250 Z-12.000 I1.250 J0.000 K0.000 F240.000
G1 X102.000 Y56.250 Z-12.000 F240.000
G2 X102.884 Y55.884 Z-12.000 I0.000 J-1.250 K0.000 F240.000
G0 Z5.000
G0 Z5.000
(Finish operation: Profile004)
(Begin postamble)
M5
G17 G90
M2
