(Exported by FreeCAD)
(Post Processor: script_module)
(Output Time:2026-02-14 10:02:14.931933)
(begin preamble)
%
G17 G21 G40 G49 G80 G90
M08
G21
(begin operation: Fixture)
(machine: not set, mm/min)
G54
(finish operation: Fixture)
(begin operation: 2_5mmEndMill010)
(machine: not set, mm/min)
(2_5mmEndMill010)
M05
M09M6 T2
M3 S10000
(finish operation: 2_5mmEndMill010)
(begin operation: Profile005)
(machine: not set, mm/min)
(Profile005)
(Compensated Tool Path. Diameter: 2.5)
G0 Z5.000
G0 X-1.997 Y48.004
G0 Z3.000
G1 X-1.997 Y48.004 Z-2.500 F360.000
G2 X-0.754 Y45.098 Z-2.500 I-3.008 J-3.006 F360.000
G1 X-0.750 Y-45.000 Z-2.500 F360.000
G2 X-4.902 Y-49.246 Z-2.500 I-4.252 J0.005 F360.000
G1 X-175.000 Y-49.250 Z-2.500 F360.000
G2 X-179.246 Y-45.098 Z-2.500 I0.005 J4.252 F360.000
G1 X-179.250 Y45.000 Z-2.500 F360.000
G2 X-175.098 Y49.246 Z-2.500 I4.252 J-0.005 F360.000
G1 X-5.000 Y49.250 Z-2.500 F360.000
G2 X-1.997 Y48.004 Z-2.500 I-0.005 J-4.252 F360.000
G1 X-1.997 Y48.004 Z-4.000 F360.000
G2 X-0.754 Y45.098 Z-4.000 I-3.008 J-3.006 F360.000
G1 X-0.750 Y-45.000 Z-4.000 F360.000
G2 X-4.902 Y-49.246 Z-4.000 I-4.252 J0.005 F360.000
G1 X-175.000 Y-49.250 Z-4.000 F360.000
G2 X-179.246 Y-45.098 Z-4.000 I0.005 J4.252 F360.000
G1 X-179.250 Y45.000 Z-4.000 F360.000
G2 X-175.098 Y49.246 Z-4.000 I4.252 J-0.005 F360.000
G1 X-5.000 Y49.250 Z-4.000 F360.000
G2 X-1.997 Y48.004 Z-4.000 I-0.005 J-4.252 F360.000
G0 Z5.000
G0 Z5.000
(finish operation: Profile005)
(begin operation: Pocket_Shape002)
(machine: not set, mm/min)
(Pocket_Shape002)
G0 Z5.000
G0 X-1.995 Y48.005
G0 Z3.000
G1 X-1.995 Y48.005 Z-2.500 F360.000
G3 X-5.000 Y49.250 Z-2.500 I-3.005 J-3.005 F360.000
G1 X-175.000 Y49.250 Z-2.500 F360.000
G3 X-179.250 Y45.000 Z-2.500 I0.000 J-4.250 F360.000
G1 X-179.250 Y-45.000 Z-2.500 F360.000
G3 X-175.000 Y-49.250 Z-2.500 I4.250 J0.000 F360.000
G1 X-5.000 Y-49.250 Z-2.500 F360.000
G3 X-0.750 Y-45.000 Z-2.500 I-0.000 J4.250 F360.000
G1 X-0.750 Y45.000 Z-2.500 F360.000
G3 X-1.995 Y48.005 Z-2.500 I-4.250 J-0.000 F360.000
G0 Z5.000
G0 X-6.499 Y-49.250 Z5.000
G0 X-6.499 Y-49.250 Z3.000
G1 X-6.499 Y-49.250 Z-2.500 F360.000
G1 X-15.999 Y-58.750 Z-2.500 F360.000
G1 X-19.534 Y-58.750 Z-2.500 F360.000
G1 X-10.034 Y-49.250 Z-2.500 F360.000
G1 X-13.570 Y-49.250 Z-2.500 F360.000
G1 X-23.070 Y-58.750 Z-2.500 F360.000
G1 X-26.605 Y-58.750 Z-2.500 F360.000
G1 X-17.105 Y-49.250 Z-2.500 F360.000
G1 X-20.641 Y-49.250 Z-2.500 F360.000
G1 X-30.141 Y-58.750 Z-2.500 F360.000
G1 X-33.676 Y-58.750 Z-2.500 F360.000
G1 X-24.176 Y-49.250 Z-2.500 F360.000
G1 X-27.712 Y-49.250 Z-2.500 F360.000
G1 X-37.212 Y-58.750 Z-2.500 F360.000
G1 X-40.747 Y-58.750 Z-2.500 F360.000
G1 X-31.247 Y-49.250 Z-2.500 F360.000
G1 X-34.783 Y-49.250 Z-2.500 F360.000
G1 X-44.283 Y-58.750 Z-2.500 F360.000
G1 X-47.819 Y-58.750 Z-2.500 F360.000
G1 X-38.319 Y-49.250 Z-2.500 F360.000
G1 X-41.854 Y-49.250 Z-2.500 F360.000
G1 X-51.354 Y-58.750 Z-2.500 F360.000
G1 X-54.890 Y-58.750 Z-2.500 F360.000
G1 X-45.390 Y-49.250 Z-2.500 F360.000
G1 X-48.925 Y-49.250 Z-2.500 F360.000
G1 X-58.425 Y-58.750 Z-2.500 F360.000
G1 X-61.961 Y-58.750 Z-2.500 F360.000
G1 X-52.461 Y-49.250 Z-2.500 F360.000
G1 X-55.996 Y-49.250 Z-2.500 F360.000
G1 X-65.496 Y-58.750 Z-2.500 F360.000
G1 X-69.032 Y-58.750 Z-2.500 F360.000
G1 X-59.532 Y-49.250 Z-2.500 F360.000
G1 X-63.067 Y-49.250 Z-2.500 F360.000
G1 X-72.567 Y-58.750 Z-2.500 F360.000
G1 X-76.103 Y-58.750 Z-2.500 F360.000
G1 X-66.603 Y-49.250 Z-2.500 F360.000
G1 X-70.138 Y-49.250 Z-2.500 F360.000
G1 X-79.638 Y-58.750 Z-2.500 F360.000
G1 X-83.174 Y-58.750 Z-2.500 F360.000
G1 X-73.674 Y-49.250 Z-2.500 F360.000
G1 X-77.209 Y-49.250 Z-2.500 F360.000
G1 X-86.709 Y-58.750 Z-2.500 F360.000
G1 X-90.245 Y-58.750 Z-2.500 F360.000
G1 X-80.745 Y-49.250 Z-2.500 F360.000
G1 X-84.280 Y-49.250 Z-2.500 F360.000
G1 X-93.780 Y-58.750 Z-2.500 F360.000
G1 X-97.316 Y-58.750 Z-2.500 F360.000
G1 X-87.816 Y-49.250 Z-2.500 F360.000
G1 X-91.352 Y-49.250 Z-2.500 F360.000
G1 X-100.852 Y-58.750 Z-2.500 F360.000
G1 X-104.387 Y-58.750 Z-2.500 F360.000
G1 X-94.887 Y-49.250 Z-2.500 F360.000
G1 X-98.423 Y-49.250 Z-2.500 F360.000
G1 X-107.923 Y-58.750 Z-2.500 F360.000
G1 X-111.458 Y-58.750 Z-2.500 F360.000
G1 X-101.958 Y-49.250 Z-2.500 F360.000
G1 X-105.494 Y-49.250 Z-2.500 F360.000
G1 X-114.994 Y-58.750 Z-2.500 F360.000
G1 X-118.529 Y-58.750 Z-2.500 F360.000
G1 X-109.029 Y-49.250 Z-2.500 F360.000
G1 X-112.565 Y-49.250 Z-2.500 F360.000
G1 X-122.065 Y-58.750 Z-2.500 F360.000
G1 X-125.600 Y-58.750 Z-2.500 F360.000
G1 X-116.100 Y-49.250 Z-2.500 F360.000
G1 X-119.636 Y-49.250 Z-2.500 F360.000
G1 X-129.136 Y-58.750 Z-2.500 F360.000
G1 X-132.671 Y-58.750 Z-2.500 F360.000
G1 X-123.171 Y-49.250 Z-2.500 F360.000
G1 X-126.707 Y-49.250 Z-2.500 F360.000
G1 X-136.207 Y-58.750 Z-2.500 F360.000
G1 X-139.742 Y-58.750 Z-2.500 F360.000
G1 X-130.242 Y-49.250 Z-2.500 F360.000
G1 X-133.778 Y-49.250 Z-2.500 F360.000
G1 X-143.278 Y-58.750 Z-2.500 F360.000
G1 X-146.813 Y-58.750 Z-2.500 F360.000
G1 X-137.313 Y-49.250 Z-2.500 F360.000
G1 X-140.849 Y-49.250 Z-2.500 F360.000
G1 X-150.349 Y-58.750 Z-2.500 F360.000
G1 X-153.885 Y-58.750 Z-2.500 F360.000
G1 X-144.385 Y-49.250 Z-2.500 F360.000
G1 X-147.920 Y-49.250 Z-2.500 F360.000
G1 X-157.420 Y-58.750 Z-2.500 F360.000
G1 X-160.956 Y-58.750 Z-2.500 F360.000
G1 X-151.456 Y-49.250 Z-2.500 F360.000
G1 X-154.991 Y-49.250 Z-2.500 F360.000
G1 X-164.491 Y-58.750 Z-2.500 F360.000
G1 X-168.027 Y-58.750 Z-2.500 F360.000
G1 X-158.527 Y-49.250 Z-2.500 F360.000
G1 X-162.062 Y-49.250 Z-2.500 F360.000
G1 X-171.562 Y-58.750 Z-2.500 F360.000
G1 X-175.098 Y-58.750 Z-2.500 F360.000
G1 X-165.598 Y-49.250 Z-2.500 F360.000
G1 X-169.133 Y-49.250 Z-2.500 F360.000
G1 X-178.633 Y-58.750 Z-2.500 F360.000
G1 X-182.169 Y-58.750 Z-2.500 F360.000
G1 X-172.669 Y-49.250 Z-2.500 F360.000
G2 X-175.074 Y-49.248 Z-2.500 I-1.175 J30.684 F360.000
G2 X-176.061 Y-49.107 Z-2.500 I0.002 J3.536 F360.000
G1 X-185.704 Y-58.750 Z-2.500 F360.000
G1 X-188.750 Y-58.750 Z-2.500 F360.000
G1 X-188.750 Y-58.260 Z-2.500 F360.000
G1 X-178.234 Y-47.744 Z-2.500 F360.000
G2 X-179.237 Y-45.212 Z-2.500 I3.136 J2.708 F360.000
G1 X-188.750 Y-54.725 Z-2.500 F360.000
G1 X-188.750 Y-51.189 Z-2.500 F360.000
G1 X-179.250 Y-41.689 Z-2.500 F360.000
G1 X-179.250 Y-38.153 Z-2.500 F360.000
G1 X-188.750 Y-47.653 Z-2.500 F360.000
G1 X-188.750 Y-44.118 Z-2.500 F360.000
G1 X-179.250 Y-34.618 Z-2.500 F360.000
G1 X-179.250 Y-31.082 Z-2.500 F360.000
G1 X-188.750 Y-40.582 Z-2.500 F360.000
G1 X-188.750 Y-37.047 Z-2.500 F360.000
G1 X-179.250 Y-27.547 Z-2.500 F360.000
G1 X-179.250 Y-24.011 Z-2.500 F360.000
G1 X-188.750 Y-33.511 Z-2.500 F360.000
G1 X-188.750 Y-29.976 Z-2.500 F360.000
G1 X-179.250 Y-20.476 Z-2.500 F360.000
G1 X-179.250 Y-16.940 Z-2.500 F360.000
G1 X-188.750 Y-26.440 Z-2.500 F360.000
G1 X-188.750 Y-22.905 Z-2.500 F360.000
G1 X-179.250 Y-13.405 Z-2.500 F360.000
G1 X-179.250 Y-9.869 Z-2.500 F360.000
G1 X-188.750 Y-19.369 Z-2.500 F360.000
G1 X-188.750 Y-15.834 Z-2.500 F360.000
G1 X-179.250 Y-6.334 Z-2.500 F360.000
G1 X-179.250 Y-2.798 Z-2.500 F360.000
G1 X-188.750 Y-12.298 Z-2.500 F360.000
G1 X-188.750 Y-8.763 Z-2.500 F360.000
G1 X-179.250 Y0.737 Z-2.500 F360.000
G1 X-179.250 Y4.273 Z-2.500 F360.000
G1 X-188.750 Y-5.227 Z-2.500 F360.000
G1 X-188.750 Y-1.692 Z-2.500 F360.000
G1 X-179.250 Y7.808 Z-2.500 F360.000
G1 X-179.250 Y11.344 Z-2.500 F360.000
G1 X-188.750 Y1.844 Z-2.500 F360.000
G1 X-188.750 Y5.380 Z-2.500 F360.000
G1 X-179.250 Y14.880 Z-2.500 F360.000
G1 X-179.250 Y18.415 Z-2.500 F360.000
G1 X-188.750 Y8.915 Z-2.500 F360.000
G1 X-188.750 Y12.451 Z-2.500 F360.000
G1 X-179.250 Y21.951 Z-2.500 F360.000
G1 X-179.250 Y25.486 Z-2.500 F360.000
G1 X-188.750 Y15.986 Z-2.500 F360.000
G1 X-188.750 Y19.522 Z-2.500 F360.000
G1 X-179.250 Y29.022 Z-2.500 F360.000
G1 X-179.250 Y32.557 Z-2.500 F360.000
G1 X-188.750 Y23.057 Z-2.500 F360.000
G1 X-188.750 Y26.593 Z-2.500 F360.000
G1 X-179.250 Y36.093 Z-2.500 F360.000
G1 X-179.250 Y39.628 Z-2.500 F360.000
G1 X-188.750 Y30.128 Z-2.500 F360.000
G1 X-188.750 Y33.664 Z-2.500 F360.000
G1 X-179.250 Y43.164 Z-2.500 F360.000
G2 X-179.248 Y45.074 Z-2.500 I24.386 J0.927 F360.000
G2 X-178.393 Y47.556 Z-2.500 I4.268 J-0.081 F360.000
G1 X-188.750 Y37.199 Z-2.500 F360.000
G1 X-188.750 Y-58.750 Z-2.500 F360.000
G1 X-188.750 Y-58.750 Z-2.500 F360.000
G1 X8.750 Y-58.750 Z-2.500 F360.000
G1 X8.750 Y58.750 Z-2.500 F360.000
G1 X-188.750 Y58.750 Z-2.500 F360.000
G1 X-188.750 Y37.199 Z-2.500 F360.000
G0 Z5.000
G0 X-188.413 Y58.750 Z5.000
G0 X-188.413 Y58.750 Z3.000
G1 X-188.413 Y58.750 Z-2.500 F360.000
G1 X-188.750 Y58.413 Z-2.500 F360.000
G1 X-188.750 Y58.750 Z-2.500 F360.000
G1 X-188.413 Y58.750 Z-2.500 F360.000
G1 X-184.877 Y58.750 Z-2.500 F360.000
G1 X-188.750 Y54.877 Z-2.500 F360.000
G1 X-188.750 Y51.341 Z-2.500 F360.000
G1 X-181.341 Y58.750 Z-2.500 F360.000
G1 X-177.806 Y58.750 Z-2.500 F360.000
G1 X-188.750 Y47.806 Z-2.500 F360.000
G1 X-188.750 Y44.270 Z-2.500 F360.000
G1 X-174.270 Y58.750 Z-2.500 F360.000
G1 X-170.735 Y58.750 Z-2.500 F360.000
G1 X-188.750 Y40.735 Z-2.500 F360.000
G1 X-188.750 Y37.199 Z-2.500 F360.000
G1 X-178.393 Y47.556 Z-2.500 F360.000
G2 X-177.556 Y48.393 Z-2.500 I3.270 J-2.433 F360.000
G1 X-167.199 Y58.750 Z-2.500 F360.000
G1 X-163.664 Y58.750 Z-2.500 F360.000
G1 X-173.164 Y49.250 Z-2.500 F360.000
G1 X-169.628 Y49.250 Z-2.500 F360.000
G1 X-160.128 Y58.750 Z-2.500 F360.000
G1 X-156.593 Y58.750 Z-2.500 F360.000
G1 X-166.093 Y49.250 Z-2.500 F360.000
G1 X-162.557 Y49.250 Z-2.500 F360.000
G1 X-153.057 Y58.750 Z-2.500 F360.000
G1 X-149.522 Y58.750 Z-2.500 F360.000
G1 X-159.022 Y49.250 Z-2.500 F360.000
G1 X-155.486 Y49.250 Z-2.500 F360.000
G1 X-145.986 Y58.750 Z-2.500 F360.000
G1 X-142.451 Y58.750 Z-2.500 F360.000
G1 X-151.951 Y49.250 Z-2.500 F360.000
G1 X-148.415 Y49.250 Z-2.500 F360.000
G1 X-138.915 Y58.750 Z-2.500 F360.000
G1 X-135.380 Y58.750 Z-2.500 F360.000
G1 X-144.880 Y49.250 Z-2.500 F360.000
G1 X-141.344 Y49.250 Z-2.500 F360.000
G1 X-131.844 Y58.750 Z-2.500 F360.000
G1 X-128.308 Y58.750 Z-2.500 F360.000
G1 X-137.808 Y49.250 Z-2.500 F360.000
G1 X-134.273 Y49.250 Z-2.500 F360.000
G1 X-124.773 Y58.750 Z-2.500 F360.000
G1 X-121.237 Y58.750 Z-2.500 F360.000
G1 X-130.737 Y49.250 Z-2.500 F360.000
G1 X-127.202 Y49.250 Z-2.500 F360.000
G1 X-117.702 Y58.750 Z-2.500 F360.000
G1 X-114.166 Y58.750 Z-2.500 F360.000
G1 X-123.666 Y49.250 Z-2.500 F360.000
G1 X-120.131 Y49.250 Z-2.500 F360.000
G1 X-110.631 Y58.750 Z-2.500 F360.000
G1 X-107.095 Y58.750 Z-2.500 F360.000
G1 X-116.595 Y49.250 Z-2.500 F360.000
G1 X-113.060 Y49.250 Z-2.500 F360.000
G1 X-103.560 Y58.750 Z-2.500 F360.000
G1 X-100.024 Y58.750 Z-2.500 F360.000
G1 X-109.524 Y49.250 Z-2.500 F360.000
G1 X-105.989 Y49.250 Z-2.500 F360.000
G1 X-96.489 Y58.750 Z-2.500 F360.000
G1 X-92.953 Y58.750 Z-2.500 F360.000
G1 X-102.453 Y49.250 Z-2.500 F360.000
G1 X-98.918 Y49.250 Z-2.500 F360.000
G1 X-89.418 Y58.750 Z-2.500 F360.000
G1 X-85.882 Y58.750 Z-2.500 F360.000
G1 X-95.382 Y49.250 Z-2.500 F360.000
G1 X-91.847 Y49.250 Z-2.500 F360.000
G1 X-82.347 Y58.750 Z-2.500 F360.000
G1 X-78.811 Y58.750 Z-2.500 F360.000
G1 X-88.311 Y49.250 Z-2.500 F360.000
G1 X-84.775 Y49.250 Z-2.500 F360.000
G1 X-75.275 Y58.750 Z-2.500 F360.000
G1 X-71.740 Y58.750 Z-2.500 F360.000
G1 X-81.240 Y49.250 Z-2.500 F360.000
G1 X-77.704 Y49.250 Z-2.500 F360.000
G1 X-68.204 Y58.750 Z-2.500 F360.000
G1 X-64.669 Y58.750 Z-2.500 F360.000
G1 X-74.169 Y49.250 Z-2.500 F360.000
G1 X-70.633 Y49.250 Z-2.500 F360.000
G1 X-61.133 Y58.750 Z-2.500 F360.000
G1 X-57.598 Y58.750 Z-2.500 F360.000
G1 X-67.098 Y49.250 Z-2.500 F360.000
G1 X-63.562 Y49.250 Z-2.500 F360.000
G1 X-54.062 Y58.750 Z-2.500 F360.000
G1 X-50.527 Y58.750 Z-2.500 F360.000
G1 X-60.027 Y49.250 Z-2.500 F360.000
G1 X-56.491 Y49.250 Z-2.500 F360.000
G1 X-46.991 Y58.750 Z-2.500 F360.000
G1 X-43.456 Y58.750 Z-2.500 F360.000
G1 X-52.956 Y49.250 Z-2.500 F360.000
G1 X-49.420 Y49.250 Z-2.500 F360.000
G1 X-39.920 Y58.750 Z-2.500 F360.000
G1 X-36.385 Y58.750 Z-2.500 F360.000
G1 X-45.885 Y49.250 Z-2.500 F360.000
G1 X-42.349 Y49.250 Z-2.500 F360.000
G1 X-32.849 Y58.750 Z-2.500 F360.000
G1 X-29.313 Y58.750 Z-2.500 F360.000
G1 X-38.813 Y49.250 Z-2.500 F360.000
G1 X-35.278 Y49.250 Z-2.500 F360.000
G1 X-25.778 Y58.750 Z-2.500 F360.000
G1 X-22.242 Y58.750 Z-2.500 F360.000
G1 X-31.742 Y49.250 Z-2.500 F360.000
G1 X-28.207 Y49.250 Z-2.500 F360.000
G1 X-18.707 Y58.750 Z-2.500 F360.000
G1 X-15.171 Y58.750 Z-2.500 F360.000
G1 X-24.671 Y49.250 Z-2.500 F360.000
G1 X-21.136 Y49.250 Z-2.500 F360.000
G1 X-11.636 Y58.750 Z-2.500 F360.000
G1 X-8.100 Y58.750 Z-2.500 F360.000
G1 X-17.600 Y49.250 Z-2.500 F360.000
G1 X-14.065 Y49.250 Z-2.500 F360.000
G1 X-4.565 Y58.750 Z-2.500 F360.000
G1 X-1.029 Y58.750 Z-2.500 F360.000
G1 X-10.529 Y49.250 Z-2.500 F360.000
G1 X-6.994 Y49.250 Z-2.500 F360.000
G1 X2.506 Y58.750 Z-2.500 F360.000
G1 X6.042 Y58.750 Z-2.500 F360.000
G1 X-3.671 Y49.037 Z-2.500 F360.000
G2 X-1.611 Y47.561 Z-2.500 I-1.325 J-4.027 F360.000
G1 X8.750 Y57.923 Z-2.500 F360.000
G1 X8.750 Y54.387 Z-2.500 F360.000
G1 X-0.750 Y44.887 Z-2.500 F360.000
G1 X-0.750 Y41.352 Z-2.500 F360.000
G1 X8.750 Y50.852 Z-2.500 F360.000
G1 X8.750 Y47.316 Z-2.500 F360.000
G1 X-0.750 Y37.816 Z-2.500 F360.000
G1 X-0.750 Y34.280 Z-2.500 F360.000
G1 X8.750 Y43.780 Z-2.500 F360.000
G1 X8.750 Y40.245 Z-2.500 F360.000
G1 X-0.750 Y30.745 Z-2.500 F360.000
G1 X-0.750 Y27.209 Z-2.500 F360.000
G1 X8.750 Y36.709 Z-2.500 F360.000
G1 X8.750 Y33.174 Z-2.500 F360.000
G1 X-0.750 Y23.674 Z-2.500 F360.000
G1 X-0.750 Y20.138 Z-2.500 F360.000
G1 X8.750 Y29.638 Z-2.500 F360.000
G1 X8.750 Y26.103 Z-2.500 F360.000
G1 X-0.750 Y16.603 Z-2.500 F360.000
G1 X-0.750 Y13.067 Z-2.500 F360.000
G1 X8.750 Y22.567 Z-2.500 F360.000
G1 X8.750 Y19.032 Z-2.500 F360.000
G1 X-0.750 Y9.532 Z-2.500 F360.000
G1 X-0.750 Y5.996 Z-2.500 F360.000
G1 X8.750 Y15.496 Z-2.500 F360.000
G1 X8.750 Y11.961 Z-2.500 F360.000
G1 X-0.750 Y2.461 Z-2.500 F360.000
G1 X-0.750 Y-1.075 Z-2.500 F360.000
G1 X8.750 Y8.425 Z-2.500 F360.000
G1 X8.750 Y4.890 Z-2.500 F360.000
G1 X-0.750 Y-4.610 Z-2.500 F360.000
G1 X-0.750 Y-8.146 Z-2.500 F360.000
G1 X8.750 Y1.354 Z-2.500 F360.000
G1 X8.750 Y-2.181 Z-2.500 F360.000
G1 X-0.750 Y-11.681 Z-2.500 F360.000
G1 X-0.750 Y-15.217 Z-2.500 F360.000
G1 X8.750 Y-5.717 Z-2.500 F360.000
G1 X8.750 Y-9.253 Z-2.500 F360.000
G1 X-0.750 Y-18.753 Z-2.500 F360.000
G1 X-0.750 Y-22.288 Z-2.500 F360.000
G1 X8.750 Y-12.788 Z-2.500 F360.000
G1 X8.750 Y-16.324 Z-2.500 F360.000
G1 X-0.750 Y-25.824 Z-2.500 F360.000
G1 X-0.750 Y-29.359 Z-2.500 F360.000
G1 X8.750 Y-19.859 Z-2.500 F360.000
G1 X8.750 Y-23.395 Z-2.500 F360.000
G1 X-0.750 Y-32.895 Z-2.500 F360.000
G1 X-0.750 Y-36.430 Z-2.500 F360.000
G1 X8.750 Y-26.930 Z-2.500 F360.000
G1 X8.750 Y-30.466 Z-2.500 F360.000
G1 X-0.750 Y-39.966 Z-2.500 F360.000
G1 X-0.750 Y-43.501 Z-2.500 F360.000
G1 X8.750 Y-34.001 Z-2.500 F360.000
G1 X8.750 Y-37.537 Z-2.500 F360.000
G1 X-12.463 Y-58.750 Z-2.500 F360.000
G1 X-8.928 Y-58.750 Z-2.500 F360.000
G1 X8.750 Y-41.072 Z-2.500 F360.000
G1 X8.750 Y-44.608 Z-2.500 F360.000
G1 X-5.392 Y-58.750 Z-2.500 F360.000
G1 X-1.857 Y-58.750 Z-2.500 F360.000
G1 X8.750 Y-48.143 Z-2.500 F360.000
G1 X8.750 Y-51.679 Z-2.500 F360.000
G1 X1.679 Y-58.750 Z-2.500 F360.000
G1 X5.214 Y-58.750 Z-2.500 F360.000
G1 X8.750 Y-55.214 Z-2.500 F360.000
G1 X8.750 Y-58.750 Z-2.500 F360.000
G1 X8.750 Y-58.750 Z-4.000 F360.000
G1 X8.750 Y-55.214 Z-4.000 F360.000
G1 X5.214 Y-58.750 Z-4.000 F360.000
G1 X1.679 Y-58.750 Z-4.000 F360.000
G1 X8.750 Y-51.679 Z-4.000 F360.000
G1 X8.750 Y-48.143 Z-4.000 F360.000
G1 X-1.857 Y-58.750 Z-4.000 F360.000
G1 X-5.392 Y-58.750 Z-4.000 F360.000
G1 X8.750 Y-44.608 Z-4.000 F360.000
G1 X8.750 Y-41.072 Z-4.000 F360.000
G1 X-8.928 Y-58.750 Z-4.000 F360.000
G1 X-12.463 Y-58.750 Z-4.000 F360.000
G1 X8.750 Y-37.537 Z-4.000 F360.000
G1 X8.750 Y-34.001 Z-4.000 F360.000
G1 X-0.750 Y-43.501 Z-4.000 F360.000
G1 X-0.750 Y-39.966 Z-4.000 F360.000
G1 X8.750 Y-30.466 Z-4.000 F360.000
G1 X8.750 Y-26.930 Z-4.000 F360.000
G1 X-0.750 Y-36.430 Z-4.000 F360.000
G1 X-0.750 Y-32.895 Z-4.000 F360.000
G1 X8.750 Y-23.395 Z-4.000 F360.000
G1 X8.750 Y-19.859 Z-4.000 F360.000
G1 X-0.750 Y-29.359 Z-4.000 F360.000
G1 X-0.750 Y-25.824 Z-4.000 F360.000
G1 X8.750 Y-16.324 Z-4.000 F360.000
G1 X8.750 Y-12.788 Z-4.000 F360.000
G1 X-0.750 Y-22.288 Z-4.000 F360.000
G1 X-0.750 Y-18.753 Z-4.000 F360.000
G1 X8.750 Y-9.253 Z-4.000 F360.000
G1 X8.750 Y-5.717 Z-4.000 F360.000
G1 X-0.750 Y-15.217 Z-4.000 F360.000
G1 X-0.750 Y-11.681 Z-4.000 F360.000
G1 X8.750 Y-2.181 Z-4.000 F360.000
G1 X8.750 Y1.354 Z-4.000 F360.000
G1 X-0.750 Y-8.146 Z-4.000 F360.000
G1 X-0.750 Y-4.610 Z-4.000 F360.000
G1 X8.750 Y4.890 Z-4.000 F360.000
G1 X8.750 Y8.425 Z-4.000 F360.000
G1 X-0.750 Y-1.075 Z-4.000 F360.000
G1 X-0.750 Y2.461 Z-4.000 F360.000
G1 X8.750 Y11.961 Z-4.000 F360.000
G1 X8.750 Y15.496 Z-4.000 F360.000
G1 X-0.750 Y5.996 Z-4.000 F360.000
G1 X-0.750 Y9.532 Z-4.000 F360.000
G1 X8.750 Y19.032 Z-4.000 F360.000
G1 X8.750 Y22.567 Z-4.000 F360.000
G1 X-0.750 Y13.067 Z-4.000 F360.000
G1 X-0.750 Y16.603 Z-4.000 F360.000
G1 X8.750 Y26.103 Z-4.000 F360.000
G1 X8.750 Y29.638 Z-4.000 F360.000
G1 X-0.750 Y20.138 Z-4.000 F360.000
G1 X-0.750 Y23.674 Z-4.000 F360.000
G1 X8.750 Y33.174 Z-4.000 F360.000
G1 X8.750 Y36.709 Z-4.000 F360.000
G1 X-0.750 Y27.209 Z-4.000 F360.000
G1 X-0.750 Y30.745 Z-4.000 F360.000
G1 X8.750 Y40.245 Z-4.000 F360.000
G1 X8.750 Y43.780 Z-4.000 F360.000
G1 X-0.750 Y34.280 Z-4.000 F360.000
G1 X-0.750 Y37.816 Z-4.000 F360.000
G1 X8.750 Y47.316 Z-4.000 F360.000
G1 X8.750 Y50.852 Z-4.000 F360.000
G1 X-0.750 Y41.352 Z-4.000 F360.000
G1 X-0.750 Y44.887 Z-4.000 F360.000
G1 X8.750 Y54.387 Z-4.000 F360.000
G1 X8.750 Y57.923 Z-4.000 F360.000
G1 X-1.611 Y47.561 Z-4.000 F360.000
G3 X-3.671 Y49.037 Z-4.000 I-3.385 J-2.551 F360.000
G1 X6.042 Y58.750 Z-4.000 F360.000
G1 X2.506 Y58.750 Z-4.000 F360.000
G1 X-6.994 Y49.250 Z-4.000 F360.000
G1 X-10.529 Y49.250 Z-4.000 F360.000
G1 X-1.029 Y58.750 Z-4.000 F360.000
G1 X-4.565 Y58.750 Z-4.000 F360.000
G1 X-14.065 Y49.250 Z-4.000 F360.000
G1 X-17.600 Y49.250 Z-4.000 F360.000
G1 X-8.100 Y58.750 Z-4.000 F360.000
G1 X-11.636 Y58.750 Z-4.000 F360.000
G1 X-21.136 Y49.250 Z-4.000 F360.000
G1 X-24.671 Y49.250 Z-4.000 F360.000
G1 X-15.171 Y58.750 Z-4.000 F360.000
G1 X-18.707 Y58.750 Z-4.000 F360.000
G1 X-28.207 Y49.250 Z-4.000 F360.000
G1 X-31.742 Y49.250 Z-4.000 F360.000
G1 X-22.242 Y58.750 Z-4.000 F360.000
G1 X-25.778 Y58.750 Z-4.000 F360.000
G1 X-35.278 Y49.250 Z-4.000 F360.000
G1 X-38.813 Y49.250 Z-4.000 F360.000
G1 X-29.313 Y58.750 Z-4.000 F360.000
G1 X-32.849 Y58.750 Z-4.000 F360.000
G1 X-42.349 Y49.250 Z-4.000 F360.000
G1 X-45.885 Y49.250 Z-4.000 F360.000
G1 X-36.385 Y58.750 Z-4.000 F360.000
G1 X-39.920 Y58.750 Z-4.000 F360.000
G1 X-49.420 Y49.250 Z-4.000 F360.000
G1 X-52.956 Y49.250 Z-4.000 F360.000
G1 X-43.456 Y58.750 Z-4.000 F360.000
G1 X-46.991 Y58.750 Z-4.000 F360.000
G1 X-56.491 Y49.250 Z-4.000 F360.000
G1 X-60.027 Y49.250 Z-4.000 F360.000
G1 X-50.527 Y58.750 Z-4.000 F360.000
G1 X-54.062 Y58.750 Z-4.000 F360.000
G1 X-63.562 Y49.250 Z-4.000 F360.000
G1 X-67.098 Y49.250 Z-4.000 F360.000
G1 X-57.598 Y58.750 Z-4.000 F360.000
G1 X-61.133 Y58.750 Z-4.000 F360.000
G1 X-70.633 Y49.250 Z-4.000 F360.000
G1 X-74.169 Y49.250 Z-4.000 F360.000
G1 X-64.669 Y58.750 Z-4.000 F360.000
G1 X-68.204 Y58.750 Z-4.000 F360.000
G1 X-77.704 Y49.250 Z-4.000 F360.000
G1 X-81.240 Y49.250 Z-4.000 F360.000
G1 X-71.740 Y58.750 Z-4.000 F360.000
G1 X-75.275 Y58.750 Z-4.000 F360.000
G1 X-84.775 Y49.250 Z-4.000 F360.000
G1 X-88.311 Y49.250 Z-4.000 F360.000
G1 X-78.811 Y58.750 Z-4.000 F360.000
G1 X-82.347 Y58.750 Z-4.000 F360.000
G1 X-91.847 Y49.250 Z-4.000 F360.000
G1 X-95.382 Y49.250 Z-4.000 F360.000
G1 X-85.882 Y58.750 Z-4.000 F360.000
G1 X-89.418 Y58.750 Z-4.000 F360.000
G1 X-98.918 Y49.250 Z-4.000 F360.000
G1 X-102.453 Y49.250 Z-4.000 F360.000
G1 X-92.953 Y58.750 Z-4.000 F360.000
G1 X-96.489 Y58.750 Z-4.000 F360.000
G1 X-105.989 Y49.250 Z-4.000 F360.000
G1 X-109.524 Y49.250 Z-4.000 F360.000
G1 X-100.024 Y58.750 Z-4.000 F360.000
G1 X-103.560 Y58.750 Z-4.000 F360.000
G1 X-113.060 Y49.250 Z-4.000 F360.000
G1 X-116.595 Y49.250 Z-4.000 F360.000
G1 X-107.095 Y58.750 Z-4.000 F360.000
G1 X-110.631 Y58.750 Z-4.000 F360.000
G1 X-120.131 Y49.250 Z-4.000 F360.000
G1 X-123.666 Y49.250 Z-4.000 F360.000
G1 X-114.166 Y58.750 Z-4.000 F360.000
G1 X-117.702 Y58.750 Z-4.000 F360.000
G1 X-127.202 Y49.250 Z-4.000 F360.000
G1 X-130.737 Y49.250 Z-4.000 F360.000
G1 X-121.237 Y58.750 Z-4.000 F360.000
G1 X-124.773 Y58.750 Z-4.000 F360.000
G1 X-134.273 Y49.250 Z-4.000 F360.000
G1 X-137.808 Y49.250 Z-4.000 F360.000
G1 X-128.308 Y58.750 Z-4.000 F360.000
G1 X-131.844 Y58.750 Z-4.000 F360.000
G1 X-141.344 Y49.250 Z-4.000 F360.000
G1 X-144.880 Y49.250 Z-4.000 F360.000
G1 X-135.380 Y58.750 Z-4.000 F360.000
G1 X-138.915 Y58.750 Z-4.000 F360.000
G1 X-148.415 Y49.250 Z-4.000 F360.000
G1 X-151.951 Y49.250 Z-4.000 F360.000
G1 X-142.451 Y58.750 Z-4.000 F360.000
G1 X-145.986 Y58.750 Z-4.000 F360.000
G1 X-155.486 Y49.250 Z-4.000 F360.000
G1 X-159.022 Y49.250 Z-4.000 F360.000
G1 X-149.522 Y58.750 Z-4.000 F360.000
G1 X-153.057 Y58.750 Z-4.000 F360.000
G1 X-162.557 Y49.250 Z-4.000 F360.000
G1 X-166.093 Y49.250 Z-4.000 F360.000
G1 X-156.593 Y58.750 Z-4.000 F360.000
G1 X-160.128 Y58.750 Z-4.000 F360.000
G1 X-169.628 Y49.250 Z-4.000 F360.000
G1 X-173.164 Y49.250 Z-4.000 F360.000
G1 X-163.664 Y58.750 Z-4.000 F360.000
G1 X-167.199 Y58.750 Z-4.000 F360.000
G1 X-177.556 Y48.393 Z-4.000 F360.000
G3 X-178.393 Y47.556 Z-4.000 I2.433 J-3.270 F360.000
G1 X-188.750 Y37.199 Z-4.000 F360.000
G1 X-188.750 Y40.735 Z-4.000 F360.000
G1 X-170.735 Y58.750 Z-4.000 F360.000
G1 X-174.270 Y58.750 Z-4.000 F360.000
G1 X-188.750 Y44.270 Z-4.000 F360.000
G1 X-188.750 Y47.806 Z-4.000 F360.000
G1 X-177.806 Y58.750 Z-4.000 F360.000
G1 X-181.341 Y58.750 Z-4.000 F360.000
G1 X-188.750 Y51.341 Z-4.000 F360.000
G1 X-188.750 Y54.877 Z-4.000 F360.000
G1 X-184.877 Y58.750 Z-4.000 F360.000
G1 X-188.413 Y58.750 Z-4.000 F360.000
G1 X-188.750 Y58.750 Z-4.000 F360.000
G1 X-188.750 Y58.413 Z-4.000 F360.000
G1 X-188.413 Y58.750 Z-4.000 F360.000
G0 Z5.000
G0 X-177.968 Y48.042 Z5.000
G0 X-177.968 Y48.042 Z3.000
G1 X-177.968 Y48.042 Z-4.000 F360.000
G3 X-179.250 Y45.000 Z-4.000 I2.968 J-3.042 F360.000
G1 X-179.250 Y-45.000 Z-4.000 F360.000
G3 X-175.000 Y-49.250 Z-4.000 I4.250 J0.000 F360.000
G1 X-5.000 Y-49.250 Z-4.000 F360.000
G3 X-0.750 Y-45.000 Z-4.000 I-0.000 J4.250 F360.000
G1 X-0.750 Y45.000 Z-4.000 F360.000
G3 X-5.000 Y49.250 Z-4.000 I-4.250 J-0.000 F360.000
G1 X-175.000 Y49.250 Z-4.000 F360.000
G3 X-177.968 Y48.042 Z-4.000 I0.000 J-4.250 F360.000
G0 Z5.000
G0 X-188.750 Y37.199 Z5.000
G0 X-188.750 Y37.199 Z3.000
G1 X-188.750 Y37.199 Z-4.000 F360.000
G1 X-188.750 Y58.750 Z-4.000 F360.000
G1 X8.750 Y58.750 Z-4.000 F360.000
G1 X8.750 Y-58.750 Z-4.000 F360.000
G1 X-188.750 Y-58.750 Z-4.000 F360.000
G1 X-188.750 Y-58.750 Z-4.000 F360.000
G1 X-188.750 Y37.199 Z-4.000 F360.000
G1 X-178.393 Y47.556 Z-4.000 F360.000
G3 X-179.248 Y45.074 Z-4.000 I3.414 J-2.564 F360.000
G3 X-179.250 Y43.164 Z-4.000 I24.384 J-0.983 F360.000
G1 X-188.750 Y33.664 Z-4.000 F360.000
G1 X-188.750 Y30.128 Z-4.000 F360.000
G1 X-179.250 Y39.628 Z-4.000 F360.000
G1 X-179.250 Y36.093 Z-4.000 F360.000
G1 X-188.750 Y26.593 Z-4.000 F360.000
G1 X-188.750 Y23.057 Z-4.000 F360.000
G1 X-179.250 Y32.557 Z-4.000 F360.000
G1 X-179.250 Y29.022 Z-4.000 F360.000
G1 X-188.750 Y19.522 Z-4.000 F360.000
G1 X-188.750 Y15.986 Z-4.000 F360.000
G1 X-179.250 Y25.486 Z-4.000 F360.000
G1 X-179.250 Y21.951 Z-4.000 F360.000
G1 X-188.750 Y12.451 Z-4.000 F360.000
G1 X-188.750 Y8.915 Z-4.000 F360.000
G1 X-179.250 Y18.415 Z-4.000 F360.000
G1 X-179.250 Y14.880 Z-4.000 F360.000
G1 X-188.750 Y5.380 Z-4.000 F360.000
G1 X-188.750 Y1.844 Z-4.000 F360.000
G1 X-179.250 Y11.344 Z-4.000 F360.000
G1 X-179.250 Y7.808 Z-4.000 F360.000
G1 X-188.750 Y-1.692 Z-4.000 F360.000
G1 X-188.750 Y-5.227 Z-4.000 F360.000
G1 X-179.250 Y4.273 Z-4.000 F360.000
G1 X-179.250 Y0.737 Z-4.000 F360.000
G1 X-188.750 Y-8.763 Z-4.000 F360.000
G1 X-188.750 Y-12.298 Z-4.000 F360.000
G1 X-179.250 Y-2.798 Z-4.000 F360.000
G1 X-179.250 Y-6.334 Z-4.000 F360.000
G1 X-188.750 Y-15.834 Z-4.000 F360.000
G1 X-188.750 Y-19.369 Z-4.000 F360.000
G1 X-179.250 Y-9.869 Z-4.000 F360.000
G1 X-179.250 Y-13.405 Z-4.000 F360.000
G1 X-188.750 Y-22.905 Z-4.000 F360.000
G1 X-188.750 Y-26.440 Z-4.000 F360.000
G1 X-179.250 Y-16.940 Z-4.000 F360.000
G1 X-179.250 Y-20.476 Z-4.000 F360.000
G1 X-188.750 Y-29.976 Z-4.000 F360.000
G1 X-188.750 Y-33.511 Z-4.000 F360.000
G1 X-179.250 Y-24.011 Z-4.000 F360.000
G1 X-179.250 Y-27.547 Z-4.000 F360.000
G1 X-188.750 Y-37.047 Z-4.000 F360.000
G1 X-188.750 Y-40.582 Z-4.000 F360.000
G1 X-179.250 Y-31.082 Z-4.000 F360.000
G1 X-179.250 Y-34.618 Z-4.000 F360.000
G1 X-188.750 Y-44.118 Z-4.000 F360.000
G1 X-188.750 Y-47.653 Z-4.000 F360.000
G1 X-179.250 Y-38.153 Z-4.000 F360.000
G1 X-179.250 Y-41.689 Z-4.000 F360.000
G1 X-188.750 Y-51.189 Z-4.000 F360.000
G1 X-188.750 Y-54.725 Z-4.000 F360.000
G1 X-179.237 Y-45.212 Z-4.000 F360.000
G3 X-178.234 Y-47.744 Z-4.000 I4.140 J0.176 F360.000
G1 X-188.750 Y-58.260 Z-4.000 F360.000
G1 X-188.750 Y-58.750 Z-4.000 F360.000
G1 X-185.704 Y-58.750 Z-4.000 F360.000
G1 X-176.061 Y-49.107 Z-4.000 F360.000
G3 X-175.074 Y-49.248 Z-4.000 I0.990 J3.395 F360.000
G3 X-172.669 Y-49.250 Z-4.000 I1.230 J30.682 F360.000
G1 X-182.169 Y-58.750 Z-4.000 F360.000
G1 X-178.633 Y-58.750 Z-4.000 F360.000
G1 X-169.133 Y-49.250 Z-4.000 F360.000
G1 X-165.598 Y-49.250 Z-4.000 F360.000
G1 X-175.098 Y-58.750 Z-4.000 F360.000
G1 X-171.562 Y-58.750 Z-4.000 F360.000
G1 X-162.062 Y-49.250 Z-4.000 F360.000
G1 X-158.527 Y-49.250 Z-4.000 F360.000
G1 X-168.027 Y-58.750 Z-4.000 F360.000
G1 X-164.491 Y-58.750 Z-4.000 F360.000
G1 X-154.991 Y-49.250 Z-4.000 F360.000
G1 X-151.456 Y-49.250 Z-4.000 F360.000
G1 X-160.956 Y-58.750 Z-4.000 F360.000
G1 X-157.420 Y-58.750 Z-4.000 F360.000
G1 X-147.920 Y-49.250 Z-4.000 F360.000
G1 X-144.385 Y-49.250 Z-4.000 F360.000
G1 X-153.885 Y-58.750 Z-4.000 F360.000
G1 X-150.349 Y-58.750 Z-4.000 F360.000
G1 X-140.849 Y-49.250 Z-4.000 F360.000
G1 X-137.313 Y-49.250 Z-4.000 F360.000
G1 X-146.813 Y-58.750 Z-4.000 F360.000
G1 X-143.278 Y-58.750 Z-4.000 F360.000
G1 X-133.778 Y-49.250 Z-4.000 F360.000
G1 X-130.242 Y-49.250 Z-4.000 F360.000
G1 X-139.742 Y-58.750 Z-4.000 F360.000
G1 X-136.207 Y-58.750 Z-4.000 F360.000
G1 X-126.707 Y-49.250 Z-4.000 F360.000
G1 X-123.171 Y-49.250 Z-4.000 F360.000
G1 X-132.671 Y-58.750 Z-4.000 F360.000
G1 X-129.136 Y-58.750 Z-4.000 F360.000
G1 X-119.636 Y-49.250 Z-4.000 F360.000
G1 X-116.100 Y-49.250 Z-4.000 F360.000
G1 X-125.600 Y-58.750 Z-4.000 F360.000
G1 X-122.065 Y-58.750 Z-4.000 F360.000
G1 X-112.565 Y-49.250 Z-4.000 F360.000
G1 X-109.029 Y-49.250 Z-4.000 F360.000
G1 X-118.529 Y-58.750 Z-4.000 F360.000
G1 X-114.994 Y-58.750 Z-4.000 F360.000
G1 X-105.494 Y-49.250 Z-4.000 F360.000
G1 X-101.958 Y-49.250 Z-4.000 F360.000
G1 X-111.458 Y-58.750 Z-4.000 F360.000
G1 X-107.923 Y-58.750 Z-4.000 F360.000
G1 X-98.423 Y-49.250 Z-4.000 F360.000
G1 X-94.887 Y-49.250 Z-4.000 F360.000
G1 X-104.387 Y-58.750 Z-4.000 F360.000
G1 X-100.852 Y-58.750 Z-4.000 F360.000
G1 X-91.352 Y-49.250 Z-4.000 F360.000
G1 X-87.816 Y-49.250 Z-4.000 F360.000
G1 X-97.316 Y-58.750 Z-4.000 F360.000
G1 X-93.780 Y-58.750 Z-4.000 F360.000
G1 X-84.280 Y-49.250 Z-4.000 F360.000
G1 X-80.745 Y-49.250 Z-4.000 F360.000
G1 X-90.245 Y-58.750 Z-4.000 F360.000
G1 X-86.709 Y-58.750 Z-4.000 F360.000
G1 X-77.209 Y-49.250 Z-4.000 F360.000
G1 X-73.674 Y-49.250 Z-4.000 F360.000
G1 X-83.174 Y-58.750 Z-4.000 F360.000
G1 X-79.638 Y-58.750 Z-4.000 F360.000
G1 X-70.138 Y-49.250 Z-4.000 F360.000
G1 X-66.603 Y-49.250 Z-4.000 F360.000
G1 X-76.103 Y-58.750 Z-4.000 F360.000
G1 X-72.567 Y-58.750 Z-4.000 F360.000
G1 X-63.067 Y-49.250 Z-4.000 F360.000
G1 X-59.532 Y-49.250 Z-4.000 F360.000
G1 X-69.032 Y-58.750 Z-4.000 F360.000
G1 X-65.496 Y-58.750 Z-4.000 F360.000
G1 X-55.996 Y-49.250 Z-4.000 F360.000
G1 X-52.461 Y-49.250 Z-4.000 F360.000
G1 X-61.961 Y-58.750 Z-4.000 F360.000
G1 X-58.425 Y-58.750 Z-4.000 F360.000
G1 X-48.925 Y-49.250 Z-4.000 F360.000
G1 X-45.390 Y-49.250 Z-4.000 F360.000
G1 X-54.890 Y-58.750 Z-4.000 F360.000
G1 X-51.354 Y-58.750 Z-4.000 F360.000
G1 X-41.854 Y-49.250 Z-4.000 F360.000
G1 X-38.319 Y-49.250 Z-4.000 F360.000
G1 X-47.819 Y-58.750 Z-4.000 F360.000
G1 X-44.283 Y-58.750 Z-4.000 F360.000
G1 X-34.783 Y-49.250 Z-4.000 F360.000
G1 X-31.247 Y-49.250 Z-4.000 F360.000
G1 X-40.747 Y-58.750 Z-4.000 F360.000
G1 X-37.212 Y-58.750 Z-4.000 F360.000
G1 X-27.712 Y-49.250 Z-4.000 F360.000
G1 X-24.176 Y-49.250 Z-4.000 F360.000
G1 X-33.676 Y-58.750 Z-4.000 F360.000
G1 X-30.141 Y-58.750 Z-4.000 F360.000
G1 X-20.641 Y-49.250 Z-4.000 F360.000
G1 X-17.105 Y-49.250 Z-4.000 F360.000
G1 X-26.605 Y-58.750 Z-4.000 F360.000
G1 X-23.070 Y-58.750 Z-4.000 F360.000
G1 X-13.570 Y-49.250 Z-4.000 F360.000
G1 X-10.034 Y-49.250 Z-4.000 F360.000
G1 X-19.534 Y-58.750 Z-4.000 F360.000
G1 X-15.999 Y-58.750 Z-4.000 F360.000
G1 X-6.499 Y-49.250 Z-4.000 F360.000
G0 Z5.000
G0 Z5.000
(finish operation: Pocket_Shape002)
(begin operation: Profile006)
(machine: not set, mm/min)
(Profile006)
(Compensated Tool Path. Diameter: 2.5)
G0 Z5.000
G0 X10.884 Y60.884
G0 Z3.000
G1 X10.884 Y60.884 Z-2.500 F360.000
G2 X11.250 Y60.000 Z-2.500 I-0.884 J-0.884 F360.000
G1 X11.250 Y-60.000 Z-2.500 F360.000
G2 X10.000 Y-61.250 Z-2.500 I-1.250 J-0.000 F360.000
G1 X-190.000 Y-61.250 Z-2.500 F360.000
G2 X-191.250 Y-60.000 Z-2.500 I-0.000 J1.250 F360.000
G1 X-191.250 Y60.000 Z-2.500 F360.000
G2 X-190.000 Y61.250 Z-2.500 I1.250 J0.000 F360.000
G1 X10.000 Y61.250 Z-2.500 F360.000
G2 X10.884 Y60.884 Z-2.500 I0.000 J-1.250 F360.000
G1 X10.884 Y60.884 Z-5.000 F360.000
G2 X11.250 Y60.000 Z-5.000 I-0.884 J-0.884 F360.000
G1 X11.250 Y-60.000 Z-5.000 F360.000
G2 X10.000 Y-61.250 Z-5.000 I-1.250 J-0.000 F360.000
G1 X-190.000 Y-61.250 Z-5.000 F360.000
G2 X-191.250 Y-60.000 Z-5.000 I-0.000 J1.250 F360.000
G1 X-191.250 Y60.000 Z-5.000 F360.000
G2 X-190.000 Y61.250 Z-5.000 I1.250 J0.000 F360.000
G1 X10.000 Y61.250 Z-5.000 F360.000
G2 X10.884 Y60.884 Z-5.000 I0.000 J-1.250 F360.000
G1 X10.884 Y60.884 Z-7.500 F360.000
G2 X11.250 Y60.000 Z-7.500 I-0.884 J-0.884 F360.000
G1 X11.250 Y-60.000 Z-7.500 F360.000
G2 X10.000 Y-61.250 Z-7.500 I-1.250 J-0.000 F360.000
G1 X-190.000 Y-61.250 Z-7.500 F360.000
G2 X-191.250 Y-60.000 Z-7.500 I-0.000 J1.250 F360.000
G1 X-191.250 Y60.000 Z-7.500 F360.000
G2 X-190.000 Y61.250 Z-7.500 I1.250 J0.000 F360.000
G1 X10.000 Y61.250 Z-7.500 F360.000
G2 X10.884 Y60.884 Z-7.500 I0.000 J-1.250 F360.000
G1 X10.884 Y60.884 Z-10.000 F360.000
G2 X11.250 Y60.000 Z-10.000 I-0.884 J-0.884 F360.000
G1 X11.250 Y-60.000 Z-10.000 F360.000
G2 X10.000 Y-61.250 Z-10.000 I-1.250 J-0.000 F360.000
G1 X-190.000 Y-61.250 Z-10.000 F360.000
G2 X-191.250 Y-60.000 Z-10.000 I-0.000 J1.250 F360.000
G1 X-191.250 Y60.000 Z-10.000 F360.000
G2 X-190.000 Y61.250 Z-10.000 I1.250 J0.000 F360.000
G1 X10.000 Y61.250 Z-10.000 F360.000
G2 X10.884 Y60.884 Z-10.000 I0.000 J-1.250 F360.000
G1 X10.884 Y60.884 Z-12.000 F360.000
G2 X11.250 Y60.000 Z-12.000 I-0.884 J-0.884 F360.000
G1 X11.250 Y-60.000 Z-12.000 F360.000
G2 X10.000 Y-61.250 Z-12.000 I-1.250 J-0.000 F360.000
G1 X-190.000 Y-61.250 Z-12.000 F360.000
G2 X-191.250 Y-60.000 Z-12.000 I-0.000 J1.250 F360.000
G1 X-191.250 Y60.000 Z-12.000 F360.000
G2 X-190.000 Y61.250 Z-12.000 I1.250 J0.000 F360.000
G1 X10.000 Y61.250 Z-12.000 F360.000
G2 X10.884 Y60.884 Z-12.000 I0.000 J-1.250 F360.000
G0 Z5.000
G0 Z5.000
(finish operation: Profile006)
(begin postamble)
M05 M09
G17 G90 G80 G40
M30
