(Exported by FreeCAD)
(Post Processor: script_module)
(Output Time:2026-02-13 15:28:42.617696)
(Begin preamble)
G17 G90
G21
(Begin operation: Fixture)
(Path: Fixture)
G54
(Finish operation: Fixture)
(Begin operation: 2_5mmEndMill002)
(Path: 2_5mmEndMill002)
(2_5mmEndMill002)
(Begin toolchange)
( M6 T2 )
M3 S10000
(Finish operation: 2_5mmEndMill002)
(Begin operation: Profile)
(Path: Profile)
(Profile)
(Compensated Tool Path. Diameter: 2.5)
G0 Z5.000
G0 X-15.754 Y55.102
G0 Z3.000
G1 X-15.754 Y55.102 Z-2.000 F240.000
G2 X-15.750 Y55.000 Z-2.000 I-1.246 J-0.102 K0.000 F240.000
G1 X-15.750 Y34.250 Z-2.000 F240.000
G1 X-3.000 Y34.250 Z-2.000 F240.000
G2 X-1.750 Y33.000 Z-2.000 I0.000 J-1.250 K0.000 F240.000
G1 X-1.750 Y11.000 Z-2.000 F240.000
G2 X-3.000 Y9.750 Z-2.000 I-1.250 J-0.000 K0.000 F240.000
G1 X-15.750 Y9.750 Z-2.000 F240.000
G1 X-15.750 Y-9.750 Z-2.000 F240.000
G1 X-3.000 Y-9.750 Z-2.000 F240.000
G2 X-1.750 Y-11.000 Z-2.000 I0.000 J-1.250 K0.000 F240.000
G1 X-1.750 Y-33.000 Z-2.000 F240.000
G2 X-3.000 Y-34.250 Z-2.000 I-1.250 J-0.000 K0.000 F240.000
G1 X-15.750 Y-34.250 Z-2.000 F240.000
G1 X-15.750 Y-55.000 Z-2.000 F240.000
G2 X-17.000 Y-56.250 Z-2.000 I-1.250 J-0.000 K0.000 F240.000
G1 X-113.000 Y-56.250 Z-2.000 F240.000
G2 X-114.250 Y-55.000 Z-2.000 I-0.000 J1.250 K0.000 F240.000
G1 X-114.250 Y-34.250 Z-2.000 F240.000
G1 X-127.000 Y-34.250 Z-2.000 F240.000
G2 X-128.250 Y-33.000 Z-2.000 I-0.000 J1.250 K0.000 F240.000
G1 X-128.250 Y-11.000 Z-2.000 F240.000
G2 X-127.000 Y-9.750 Z-2.000 I1.250 J0.000 K0.000 F240.000
G1 X-114.250 Y-9.750 Z-2.000 F240.000
G1 X-114.250 Y9.750 Z-2.000 F240.000
G1 X-127.000 Y9.750 Z-2.000 F240.000
G2 X-128.250 Y11.000 Z-2.000 I-0.000 J1.250 K0.000 F240.000
G1 X-128.250 Y33.000 Z-2.000 F240.000
G2 X-127.000 Y34.250 Z-2.000 I1.250 J0.000 K0.000 F240.000
G1 X-114.250 Y34.250 Z-2.000 F240.000
G1 X-114.250 Y55.000 Z-2.000 F240.000
G2 X-113.000 Y56.250 Z-2.000 I1.250 J0.000 K0.000 F240.000
G1 X-17.000 Y56.250 Z-2.000 F240.000
G2 X-15.754 Y55.102 Z-2.000 I0.000 J-1.250 K0.000 F240.000
G1 X-15.754 Y55.102 Z-4.000 F240.000
G2 X-15.750 Y55.000 Z-4.000 I-1.246 J-0.102 K0.000 F240.000
G1 X-15.750 Y34.250 Z-4.000 F240.000
G1 X-3.000 Y34.250 Z-4.000 F240.000
G2 X-1.750 Y33.000 Z-4.000 I0.000 J-1.250 K0.000 F240.000
G1 X-1.750 Y11.000 Z-4.000 F240.000
G2 X-3.000 Y9.750 Z-4.000 I-1.250 J-0.000 K0.000 F240.000
G1 X-15.750 Y9.750 Z-4.000 F240.000
G1 X-15.750 Y-9.750 Z-4.000 F240.000
G1 X-3.000 Y-9.750 Z-4.000 F240.000
G2 X-1.750 Y-11.000 Z-4.000 I0.000 J-1.250 K0.000 F240.000
G1 X-1.750 Y-33.000 Z-4.000 F240.000
G2 X-3.000 Y-34.250 Z-4.000 I-1.250 J-0.000 K0.000 F240.000
G1 X-15.750 Y-34.250 Z-4.000 F240.000
G1 X-15.750 Y-55.000 Z-4.000 F240.000
G2 X-17.000 Y-56.250 Z-4.000 I-1.250 J-0.000 K0.000 F240.000
G1 X-113.000 Y-56.250 Z-4.000 F240.000
G2 X-114.250 Y-55.000 Z-4.000 I-0.000 J1.250 K0.000 F240.000
G1 X-114.250 Y-34.250 Z-4.000 F240.000
G1 X-127.000 Y-34.250 Z-4.000 F240.000
G2 X-128.250 Y-33.000 Z-4.000 I-0.000 J1.250 K0.000 F240.000
G1 X-128.250 Y-11.000 Z-4.000 F240.000
G2 X-127.000 Y-9.750 Z-4.000 I1.250 J0.000 K0.000 F240.000
G1 X-114.250 Y-9.750 Z-4.000 F240.000
G1 X-114.250 Y9.750 Z-4.000 F240.000
G1 X-127.000 Y9.750 Z-4.000 F240.000
G2 X-128.250 Y11.000 Z-4.000 I-0.000 J1.250 K0.000 F240.000
G1 X-128.250 Y33.000 Z-4.000 F240.000
G2 X-127.000 Y34.250 Z-4.000 I1.250 J0.000 K0.000 F240.000
G1 X-114.250 Y34.250 Z-4.000 F240.000
G1 X-114.250 Y55.000 Z-4.000 F240.000
G2 X-113.000 Y56.250 Z-4.000 I1.250 J0.000 K0.000 F240.000
G1 X-17.000 Y56.250 Z-4.000 F240.000
G2 X-15.754 Y55.102 Z-4.000 I0.000 J-1.250 K0.000 F240.000
G1 X-15.754 Y55.102 Z-6.000 F240.000
G2 X-15.750 Y55.000 Z-6.000 I-1.246 J-0.102 K0.000 F240.000
G1 X-15.750 Y34.250 Z-6.000 F240.000
G1 X-3.000 Y34.250 Z-6.000 F240.000
G2 X-1.750 Y33.000 Z-6.000 I0.000 J-1.250 K0.000 F240.000
G1 X-1.750 Y11.000 Z-6.000 F240.000
G2 X-3.000 Y9.750 Z-6.000 I-1.250 J-0.000 K0.000 F240.000
G1 X-15.750 Y9.750 Z-6.000 F240.000
G1 X-15.750 Y-9.750 Z-6.000 F240.000
G1 X-3.000 Y-9.750 Z-6.000 F240.000
G2 X-1.750 Y-11.000 Z-6.000 I0.000 J-1.250 K0.000 F240.000
G1 X-1.750 Y-33.000 Z-6.000 F240.000
G2 X-3.000 Y-34.250 Z-6.000 I-1.250 J-0.000 K0.000 F240.000
G1 X-15.750 Y-34.250 Z-6.000 F240.000
G1 X-15.750 Y-55.000 Z-6.000 F240.000
G2 X-17.000 Y-56.250 Z-6.000 I-1.250 J-0.000 K0.000 F240.000
G1 X-113.000 Y-56.250 Z-6.000 F240.000
G2 X-114.250 Y-55.000 Z-6.000 I-0.000 J1.250 K0.000 F240.000
G1 X-114.250 Y-34.250 Z-6.000 F240.000
G1 X-127.000 Y-34.250 Z-6.000 F240.000
G2 X-128.250 Y-33.000 Z-6.000 I-0.000 J1.250 K0.000 F240.000
G1 X-128.250 Y-11.000 Z-6.000 F240.000
G2 X-127.000 Y-9.750 Z-6.000 I1.250 J0.000 K0.000 F240.000
G1 X-114.250 Y-9.750 Z-6.000 F240.000
G1 X-114.250 Y9.750 Z-6.000 F240.000
G1 X-127.000 Y9.750 Z-6.000 F240.000
G2 X-128.250 Y11.000 Z-6.000 I-0.000 J1.250 K0.000 F240.000
G1 X-128.250 Y33.000 Z-6.000 F240.000
G2 X-127.000 Y34.250 Z-6.000 I1.250 J0.000 K0.000 F240.000
G1 X-114.250 Y34.250 Z-6.000 F240.000
G1 X-114.250 Y55.000 Z-6.000 F240.000
G2 X-113.000 Y56.250 Z-6.000 I1.250 J0.000 K0.000 F240.000
G1 X-17.000 Y56.250 Z-6.000 F240.000
G2 X-15.754 Y55.102 Z-6.000 I0.000 J-1.250 K0.000 F240.000
G1 X-15.754 Y55.102 Z-8.000 F240.000
G2 X-15.750 Y55.000 Z-8.000 I-1.246 J-0.102 K0.000 F240.000
G1 X-15.750 Y34.250 Z-8.000 F240.000
G1 X-3.000 Y34.250 Z-8.000 F240.000
G2 X-1.750 Y33.000 Z-8.000 I0.000 J-1.250 K0.000 F240.000
G1 X-1.750 Y11.000 Z-8.000 F240.000
G2 X-3.000 Y9.750 Z-8.000 I-1.250 J-0.000 K0.000 F240.000
G1 X-15.750 Y9.750 Z-8.000 F240.000
G1 X-15.750 Y-9.750 Z-8.000 F240.000
G1 X-3.000 Y-9.750 Z-8.000 F240.000
G2 X-1.750 Y-11.000 Z-8.000 I0.000 J-1.250 K0.000 F240.000
G1 X-1.750 Y-33.000 Z-8.000 F240.000
G2 X-3.000 Y-34.250 Z-8.000 I-1.250 J-0.000 K0.000 F240.000
G1 X-15.750 Y-34.250 Z-8.000 F240.000
G1 X-15.750 Y-55.000 Z-8.000 F240.000
G2 X-17.000 Y-56.250 Z-8.000 I-1.250 J-0.000 K0.000 F240.000
G1 X-113.000 Y-56.250 Z-8.000 F240.000
G2 X-114.250 Y-55.000 Z-8.000 I-0.000 J1.250 K0.000 F240.000
G1 X-114.250 Y-34.250 Z-8.000 F240.000
G1 X-127.000 Y-34.250 Z-8.000 F240.000
G2 X-128.250 Y-33.000 Z-8.000 I-0.000 J1.250 K0.000 F240.000
G1 X-128.250 Y-11.000 Z-8.000 F240.000
G2 X-127.000 Y-9.750 Z-8.000 I1.250 J0.000 K0.000 F240.000
G1 X-114.250 Y-9.750 Z-8.000 F240.000
G1 X-114.250 Y9.750 Z-8.000 F240.000
G1 X-127.000 Y9.750 Z-8.000 F240.000
G2 X-128.250 Y11.000 Z-8.000 I-0.000 J1.250 K0.000 F240.000
G1 X-128.250 Y33.000 Z-8.000 F240.000
G2 X-127.000 Y34.250 Z-8.000 I1.250 J0.000 K0.000 F240.000
G1 X-114.250 Y34.250 Z-8.000 F240.000
G1 X-114.250 Y55.000 Z-8.000 F240.000
G2 X-113.000 Y56.250 Z-8.000 I1.250 J0.000 K0.000 F240.000
G1 X-17.000 Y56.250 Z-8.000 F240.000
G2 X-15.754 Y55.102 Z-8.000 I0.000 J-1.250 K0.000 F240.000
G1 X-15.754 Y55.102 Z-10.000 F240.000
G2 X-15.750 Y55.000 Z-10.000 I-1.246 J-0.102 K0.000 F240.000
G1 X-15.750 Y34.250 Z-10.000 F240.000
G1 X-3.000 Y34.250 Z-10.000 F240.000
G2 X-1.750 Y33.000 Z-10.000 I0.000 J-1.250 K0.000 F240.000
G1 X-1.750 Y11.000 Z-10.000 F240.000
G2 X-3.000 Y9.750 Z-10.000 I-1.250 J-0.000 K0.000 F240.000
G1 X-15.750 Y9.750 Z-10.000 F240.000
G1 X-15.750 Y-9.750 Z-10.000 F240.000
G1 X-3.000 Y-9.750 Z-10.000 F240.000
G2 X-1.750 Y-11.000 Z-10.000 I0.000 J-1.250 K0.000 F240.000
G1 X-1.750 Y-33.000 Z-10.000 F240.000
G2 X-3.000 Y-34.250 Z-10.000 I-1.250 J-0.000 K0.000 F240.000
G1 X-15.750 Y-34.250 Z-10.000 F240.000
G1 X-15.750 Y-55.000 Z-10.000 F240.000
G2 X-17.000 Y-56.250 Z-10.000 I-1.250 J-0.000 K0.000 F240.000
G1 X-113.000 Y-56.250 Z-10.000 F240.000
G2 X-114.250 Y-55.000 Z-10.000 I-0.000 J1.250 K0.000 F240.000
G1 X-114.250 Y-34.250 Z-10.000 F240.000
G1 X-127.000 Y-34.250 Z-10.000 F240.000
G2 X-128.250 Y-33.000 Z-10.000 I-0.000 J1.250 K0.000 F240.000
G1 X-128.250 Y-11.000 Z-10.000 F240.000
G2 X-127.000 Y-9.750 Z-10.000 I1.250 J0.000 K0.000 F240.000
G1 X-114.250 Y-9.750 Z-10.000 F240.000
G1 X-114.250 Y9.750 Z-10.000 F240.000
G1 X-127.000 Y9.750 Z-10.000 F240.000
G2 X-128.250 Y11.000 Z-10.000 I-0.000 J1.250 K0.000 F240.000
G1 X-128.250 Y33.000 Z-10.000 F240.000
G2 X-127.000 Y34.250 Z-10.000 I1.250 J0.000 K0.000 F240.000
G1 X-114.250 Y34.250 Z-10.000 F240.000
G1 X-114.250 Y55.000 Z-10.000 F240.000
G2 X-113.000 Y56.250 Z-10.000 I1.250 J0.000 K0.000 F240.000
G1 X-17.000 Y56.250 Z-10.000 F240.000
G2 X-15.754 Y55.102 Z-10.000 I0.000 J-1.250 K0.000 F240.000
G1 X-15.754 Y55.102 Z-12.000 F240.000
G2 X-15.750 Y55.000 Z-12.000 I-1.246 J-0.102 K0.000 F240.000
G1 X-15.750 Y34.250 Z-12.000 F240.000
G1 X-3.000 Y34.250 Z-12.000 F240.000
G2 X-1.750 Y33.000 Z-12.000 I0.000 J-1.250 K0.000 F240.000
G1 X-1.750 Y11.000 Z-12.000 F240.000
G2 X-3.000 Y9.750 Z-12.000 I-1.250 J-0.000 K0.000 F240.000
G1 X-15.750 Y9.750 Z-12.000 F240.000
G1 X-15.750 Y-9.750 Z-12.000 F240.000
G1 X-3.000 Y-9.750 Z-12.000 F240.000
G2 X-1.750 Y-11.000 Z-12.000 I0.000 J-1.250 K0.000 F240.000
G1 X-1.750 Y-33.000 Z-12.000 F240.000
G2 X-3.000 Y-34.250 Z-12.000 I-1.250 J-0.000 K0.000 F240.000
G1 X-15.750 Y-34.250 Z-12.000 F240.000
G1 X-15.750 Y-55.000 Z-12.000 F240.000
G2 X-17.000 Y-56.250 Z-12.000 I-1.250 J-0.000 K0.000 F240.000
G1 X-113.000 Y-56.250 Z-12.000 F240.000
G2 X-114.250 Y-55.000 Z-12.000 I-0.000 J1.250 K0.000 F240.000
G1 X-114.250 Y-34.250 Z-12.000 F240.000
G1 X-127.000 Y-34.250 Z-12.000 F240.000
G2 X-128.250 Y-33.000 Z-12.000 I-0.000 J1.250 K0.000 F240.000
G1 X-128.250 Y-11.000 Z-12.000 F240.000
G2 X-127.000 Y-9.750 Z-12.000 I1.250 J0.000 K0.000 F240.000
G1 X-114.250 Y-9.750 Z-12.000 F240.000
G1 X-114.250 Y9.750 Z-12.000 F240.000
G1 X-127.000 Y9.750 Z-12.000 F240.000
G2 X-128.250 Y11.000 Z-12.000 I-0.000 J1.250 K0.000 F240.000
G1 X-128.250 Y33.000 Z-12.000 F240.000
G2 X-127.000 Y34.250 Z-12.000 I1.250 J0.000 K0.000 F240.000
G1 X-114.250 Y34.250 Z-12.000 F240.000
G1 X-114.250 Y55.000 Z-12.000 F240.000
G2 X-113.000 Y56.250 Z-12.000 I1.250 J0.000 K0.000 F240.000
G1 X-17.000 Y56.250 Z-12.000 F240.000
G2 X-15.754 Y55.102 Z-12.000 I0.000 J-1.250 K0.000 F240.000
G0 Z5.000
G0 Z5.000
(Finish operation: Profile)
(Begin operation: Profile001)
(Path: Profile001)
(Profile001)
(Compensated Tool Path. Diameter: 2.5)
G0 Z5.000
G0 X114.246 Y55.102
G0 Z3.000
G1 X114.246 Y55.102 Z-2.000 F240.000
G2 X114.250 Y55.000 Z-2.000 I-1.246 J-0.102 K0.000 F240.000
G1 X114.250 Y34.250 Z-2.000 F240.000
G1 X127.000 Y34.250 Z-2.000 F240.000
G2 X128.250 Y33.000 Z-2.000 I0.000 J-1.250 K0.000 F240.000
G1 X128.250 Y11.000 Z-2.000 F240.000
G2 X127.000 Y9.750 Z-2.000 I-1.250 J-0.000 K0.000 F240.000
G1 X114.250 Y9.750 Z-2.000 F240.000
G1 X114.250 Y-9.750 Z-2.000 F240.000
G1 X127.000 Y-9.750 Z-2.000 F240.000
G2 X128.250 Y-11.000 Z-2.000 I0.000 J-1.250 K0.000 F240.000
G1 X128.250 Y-33.000 Z-2.000 F240.000
G2 X127.000 Y-34.250 Z-2.000 I-1.250 J-0.000 K0.000 F240.000
G1 X114.250 Y-34.250 Z-2.000 F240.000
G1 X114.250 Y-55.000 Z-2.000 F240.000
G2 X113.000 Y-56.250 Z-2.000 I-1.250 J-0.000 K0.000 F240.000
G1 X17.000 Y-56.250 Z-2.000 F240.000
G2 X15.750 Y-55.000 Z-2.000 I-0.000 J1.250 K0.000 F240.000
G1 X15.750 Y-34.250 Z-2.000 F240.000
G1 X3.000 Y-34.250 Z-2.000 F240.000
G2 X1.750 Y-33.000 Z-2.000 I-0.000 J1.250 K0.000 F240.000
G1 X1.750 Y-11.000 Z-2.000 F240.000
G2 X3.000 Y-9.750 Z-2.000 I1.250 J0.000 K0.000 F240.000
G1 X15.750 Y-9.750 Z-2.000 F240.000
G1 X15.750 Y9.750 Z-2.000 F240.000
G1 X3.000 Y9.750 Z-2.000 F240.000
G2 X1.750 Y11.000 Z-2.000 I-0.000 J1.250 K0.000 F240.000
G1 X1.750 Y33.000 Z-2.000 F240.000
G2 X3.000 Y34.250 Z-2.000 I1.250 J0.000 K0.000 F240.000
G1 X15.750 Y34.250 Z-2.000 F240.000
G1 X15.750 Y55.000 Z-2.000 F240.000
G2 X17.000 Y56.250 Z-2.000 I1.250 J0.000 K0.000 F240.000
G1 X113.000 Y56.250 Z-2.000 F240.000
G2 X114.246 Y55.102 Z-2.000 I0.000 J-1.250 K0.000 F240.000
G1 X114.246 Y55.102 Z-4.000 F240.000
G2 X114.250 Y55.000 Z-4.000 I-1.246 J-0.102 K0.000 F240.000
G1 X114.250 Y34.250 Z-4.000 F240.000
G1 X127.000 Y34.250 Z-4.000 F240.000
G2 X128.250 Y33.000 Z-4.000 I0.000 J-1.250 K0.000 F240.000
G1 X128.250 Y11.000 Z-4.000 F240.000
G2 X127.000 Y9.750 Z-4.000 I-1.250 J-0.000 K0.000 F240.000
G1 X114.250 Y9.750 Z-4.000 F240.000
G1 X114.250 Y-9.750 Z-4.000 F240.000
G1 X127.000 Y-9.750 Z-4.000 F240.000
G2 X128.250 Y-11.000 Z-4.000 I0.000 J-1.250 K0.000 F240.000
G1 X128.250 Y-33.000 Z-4.000 F240.000
G2 X127.000 Y-34.250 Z-4.000 I-1.250 J-0.000 K0.000 F240.000
G1 X114.250 Y-34.250 Z-4.000 F240.000
G1 X114.250 Y-55.000 Z-4.000 F240.000
G2 X113.000 Y-56.250 Z-4.000 I-1.250 J-0.000 K0.000 F240.000
G1 X17.000 Y-56.250 Z-4.000 F240.000
G2 X15.750 Y-55.000 Z-4.000 I-0.000 J1.250 K0.000 F240.000
G1 X15.750 Y-34.250 Z-4.000 F240.000
G1 X3.000 Y-34.250 Z-4.000 F240.000
G2 X1.750 Y-33.000 Z-4.000 I-0.000 J1.250 K0.000 F240.000
G1 X1.750 Y-11.000 Z-4.000 F240.000
G2 X3.000 Y-9.750 Z-4.000 I1.250 J0.000 K0.000 F240.000
G1 X15.750 Y-9.750 Z-4.000 F240.000
G1 X15.750 Y9.750 Z-4.000 F240.000
G1 X3.000 Y9.750 Z-4.000 F240.000
G2 X1.750 Y11.000 Z-4.000 I-0.000 J1.250 K0.000 F240.000
G1 X1.750 Y33.000 Z-4.000 F240.000
G2 X3.000 Y34.250 Z-4.000 I1.250 J0.000 K0.000 F240.000
G1 X15.750 Y34.250 Z-4.000 F240.000
G1 X15.750 Y55.000 Z-4.000 F240.000
G2 X17.000 Y56.250 Z-4.000 I1.250 J0.000 K0.000 F240.000
G1 X113.000 Y56.250 Z-4.000 F240.000
G2 X114.246 Y55.102 Z-4.000 I0.000 J-1.250 K0.000 F240.000
G1 X114.246 Y55.102 Z-6.000 F240.000
G2 X114.250 Y55.000 Z-6.000 I-1.246 J-0.102 K0.000 F240.000
G1 X114.250 Y34.250 Z-6.000 F240.000
G1 X127.000 Y34.250 Z-6.000 F240.000
G2 X128.250 Y33.000 Z-6.000 I0.000 J-1.250 K0.000 F240.000
G1 X128.250 Y11.000 Z-6.000 F240.000
G2 X127.000 Y9.750 Z-6.000 I-1.250 J-0.000 K0.000 F240.000
G1 X114.250 Y9.750 Z-6.000 F240.000
G1 X114.250 Y-9.750 Z-6.000 F240.000
G1 X127.000 Y-9.750 Z-6.000 F240.000
G2 X128.250 Y-11.000 Z-6.000 I0.000 J-1.250 K0.000 F240.000
G1 X128.250 Y-33.000 Z-6.000 F240.000
G2 X127.000 Y-34.250 Z-6.000 I-1.250 J-0.000 K0.000 F240.000
G1 X114.250 Y-34.250 Z-6.000 F240.000
G1 X114.250 Y-55.000 Z-6.000 F240.000
G2 X113.000 Y-56.250 Z-6.000 I-1.250 J-0.000 K0.000 F240.000
G1 X17.000 Y-56.250 Z-6.000 F240.000
G2 X15.750 Y-55.000 Z-6.000 I-0.000 J1.250 K0.000 F240.000
G1 X15.750 Y-34.250 Z-6.000 F240.000
G1 X3.000 Y-34.250 Z-6.000 F240.000
G2 X1.750 Y-33.000 Z-6.000 I-0.000 J1.250 K0.000 F240.000
G1 X1.750 Y-11.000 Z-6.000 F240.000
G2 X3.000 Y-9.750 Z-6.000 I1.250 J0.000 K0.000 F240.000
G1 X15.750 Y-9.750 Z-6.000 F240.000
G1 X15.750 Y9.750 Z-6.000 F240.000
G1 X3.000 Y9.750 Z-6.000 F240.000
G2 X1.750 Y11.000 Z-6.000 I-0.000 J1.250 K0.000 F240.000
G1 X1.750 Y33.000 Z-6.000 F240.000
G2 X3.000 Y34.250 Z-6.000 I1.250 J0.000 K0.000 F240.000
G1 X15.750 Y34.250 Z-6.000 F240.000
G1 X15.750 Y55.000 Z-6.000 F240.000
G2 X17.000 Y56.250 Z-6.000 I1.250 J0.000 K0.000 F240.000
G1 X113.000 Y56.250 Z-6.000 F240.000
G2 X114.246 Y55.102 Z-6.000 I0.000 J-1.250 K0.000 F240.000
G1 X114.246 Y55.102 Z-8.000 F240.000
G2 X114.250 Y55.000 Z-8.000 I-1.246 J-0.102 K0.000 F240.000
G1 X114.250 Y34.250 Z-8.000 F240.000
G1 X127.000 Y34.250 Z-8.000 F240.000
G2 X128.250 Y33.000 Z-8.000 I0.000 J-1.250 K0.000 F240.000
G1 X128.250 Y11.000 Z-8.000 F240.000
G2 X127.000 Y9.750 Z-8.000 I-1.250 J-0.000 K0.000 F240.000
G1 X114.250 Y9.750 Z-8.000 F240.000
G1 X114.250 Y-9.750 Z-8.000 F240.000
G1 X127.000 Y-9.750 Z-8.000 F240.000
G2 X128.250 Y-11.000 Z-8.000 I0.000 J-1.250 K0.000 F240.000
G1 X128.250 Y-33.000 Z-8.000 F240.000
G2 X127.000 Y-34.250 Z-8.000 I-1.250 J-0.000 K0.000 F240.000
G1 X114.250 Y-34.250 Z-8.000 F240.000
G1 X114.250 Y-55.000 Z-8.000 F240.000
G2 X113.000 Y-56.250 Z-8.000 I-1.250 J-0.000 K0.000 F240.000
G1 X17.000 Y-56.250 Z-8.000 F240.000
G2 X15.750 Y-55.000 Z-8.000 I-0.000 J1.250 K0.000 F240.000
G1 X15.750 Y-34.250 Z-8.000 F240.000
G1 X3.000 Y-34.250 Z-8.000 F240.000
G2 X1.750 Y-33.000 Z-8.000 I-0.000 J1.250 K0.000 F240.000
G1 X1.750 Y-11.000 Z-8.000 F240.000
G2 X3.000 Y-9.750 Z-8.000 I1.250 J0.000 K0.000 F240.000
G1 X15.750 Y-9.750 Z-8.000 F240.000
G1 X15.750 Y9.750 Z-8.000 F240.000
G1 X3.000 Y9.750 Z-8.000 F240.000
G2 X1.750 Y11.000 Z-8.000 I-0.000 J1.250 K0.000 F240.000
G1 X1.750 Y33.000 Z-8.000 F240.000
G2 X3.000 Y34.250 Z-8.000 I1.250 J0.000 K0.000 F240.000
G1 X15.750 Y34.250 Z-8.000 F240.000
G1 X15.750 Y55.000 Z-8.000 F240.000
G2 X17.000 Y56.250 Z-8.000 I1.250 J0.000 K0.000 F240.000
G1 X113.000 Y56.250 Z-8.000 F240.000
G2 X114.246 Y55.102 Z-8.000 I0.000 J-1.250 K0.000 F240.000
G1 X114.246 Y55.102 Z-10.000 F240.000
G2 X114.250 Y55.000 Z-10.000 I-1.246 J-0.102 K0.000 F240.000
G1 X114.250 Y34.250 Z-10.000 F240.000
G1 X127.000 Y34.250 Z-10.000 F240.000
G2 X128.250 Y33.000 Z-10.000 I0.000 J-1.250 K0.000 F240.000
G1 X128.250 Y11.000 Z-10.000 F240.000
G2 X127.000 Y9.750 Z-10.000 I-1.250 J-0.000 K0.000 F240.000
G1 X114.250 Y9.750 Z-10.000 F240.000
G1 X114.250 Y-9.750 Z-10.000 F240.000
G1 X127.000 Y-9.750 Z-10.000 F240.000
G2 X128.250 Y-11.000 Z-10.000 I0.000 J-1.250 K0.000 F240.000
G1 X128.250 Y-33.000 Z-10.000 F240.000
G2 X127.000 Y-34.250 Z-10.000 I-1.250 J-0.000 K0.000 F240.000
G1 X114.250 Y-34.250 Z-10.000 F240.000
G1 X114.250 Y-55.000 Z-10.000 F240.000
G2 X113.000 Y-56.250 Z-10.000 I-1.250 J-0.000 K0.000 F240.000
G1 X17.000 Y-56.250 Z-10.000 F240.000
G2 X15.750 Y-55.000 Z-10.000 I-0.000 J1.250 K0.000 F240.000
G1 X15.750 Y-34.250 Z-10.000 F240.000
G1 X3.000 Y-34.250 Z-10.000 F240.000
G2 X1.750 Y-33.000 Z-10.000 I-0.000 J1.250 K0.000 F240.000
G1 X1.750 Y-11.000 Z-10.000 F240.000
G2 X3.000 Y-9.750 Z-10.000 I1.250 J0.000 K0.000 F240.000
G1 X15.750 Y-9.750 Z-10.000 F240.000
G1 X15.750 Y9.750 Z-10.000 F240.000
G1 X3.000 Y9.750 Z-10.000 F240.000
G2 X1.750 Y11.000 Z-10.000 I-0.000 J1.250 K0.000 F240.000
G1 X1.750 Y33.000 Z-10.000 F240.000
G2 X3.000 Y34.250 Z-10.000 I1.250 J0.000 K0.000 F240.000
G1 X15.750 Y34.250 Z-10.000 F240.000
G1 X15.750 Y55.000 Z-10.000 F240.000
G2 X17.000 Y56.250 Z-10.000 I1.250 J0.000 K0.000 F240.000
G1 X113.000 Y56.250 Z-10.000 F240.000
G2 X114.246 Y55.102 Z-10.000 I0.000 J-1.250 K0.000 F240.000
G1 X114.246 Y55.102 Z-12.000 F240.000
G2 X114.250 Y55.000 Z-12.000 I-1.246 J-0.102 K0.000 F240.000
G1 X114.250 Y34.250 Z-12.000 F240.000
G1 X127.000 Y34.250 Z-12.000 F240.000
G2 X128.250 Y33.000 Z-12.000 I0.000 J-1.250 K0.000 F240.000
G1 X128.250 Y11.000 Z-12.000 F240.000
G2 X127.000 Y9.750 Z-12.000 I-1.250 J-0.000 K0.000 F240.000
G1 X114.250 Y9.750 Z-12.000 F240.000
G1 X114.250 Y-9.750 Z-12.000 F240.000
G1 X127.000 Y-9.750 Z-12.000 F240.000
G2 X128.250 Y-11.000 Z-12.000 I0.000 J-1.250 K0.000 F240.000
G1 X128.250 Y-33.000 Z-12.000 F240.000
G2 X127.000 Y-34.250 Z-12.000 I-1.250 J-0.000 K0.000 F240.000
G1 X114.250 Y-34.250 Z-12.000 F240.000
G1 X114.250 Y-55.000 Z-12.000 F240.000
G2 X113.000 Y-56.250 Z-12.000 I-1.250 J-0.000 K0.000 F240.000
G1 X17.000 Y-56.250 Z-12.000 F240.000
G2 X15.750 Y-55.000 Z-12.000 I-0.000 J1.250 K0.000 F240.000
G1 X15.750 Y-34.250 Z-12.000 F240.000
G1 X3.000 Y-34.250 Z-12.000 F240.000
G2 X1.750 Y-33.000 Z-12.000 I-0.000 J1.250 K0.000 F240.000
G1 X1.750 Y-11.000 Z-12.000 F240.000
G2 X3.000 Y-9.750 Z-12.000 I1.250 J0.000 K0.000 F240.000
G1 X15.750 Y-9.750 Z-12.000 F240.000
G1 X15.750 Y9.750 Z-12.000 F240.000
G1 X3.000 Y9.750 Z-12.000 F240.000
G2 X1.750 Y11.000 Z-12.000 I-0.000 J1.250 K0.000 F240.000
G1 X1.750 Y33.000 Z-12.000 F240.000
G2 X3.000 Y34.250 Z-12.000 I1.250 J0.000 K0.000 F240.000
G1 X15.750 Y34.250 Z-12.000 F240.000
G1 X15.750 Y55.000 Z-12.000 F240.000
G2 X17.000 Y56.250 Z-12.000 I1.250 J0.000 K0.000 F240.000
G1 X113.000 Y56.250 Z-12.000 F240.000
G2 X114.246 Y55.102 Z-12.000 I0.000 J-1.250 K0.000 F240.000
G0 Z5.000
G0 Z5.000
(Finish operation: Profile001)
(Begin postamble)
M5
G17 G90
M2
