(Exported by FreeCAD)
(Post Processor: script_module)
(Output Time:2026-02-13 16:10:16.376534)
(Begin preamble)
G17 G90
G21
(Begin operation: Fixture)
(Path: Fixture)
G54
(Finish operation: Fixture)
(Begin operation: 2_5mmEndMill006)
(Path: 2_5mmEndMill006)
(2_5mmEndMill006)
(Begin toolchange)
( M6 T2 )
M3 S10000
(Finish operation: 2_5mmEndMill006)
(Begin operation: Pocket_Shape)
(Path: Pocket_Shape)
(Pocket_Shape)
G0 Z17.000
G0 X88.884 Y48.884
G0 Z15.000
G1 X88.884 Y48.884 Z-2.000 F240.000
G3 X88.000 Y49.250 Z-2.000 I-0.884 J-0.884 K0.000 F240.000
G1 X-88.000 Y49.250 Z-2.000 F240.000
G3 X-89.250 Y48.000 Z-2.000 I0.000 J-1.250 K0.000 F240.000
G1 X-89.250 Y-48.000 Z-2.000 F240.000
G3 X-88.000 Y-49.250 Z-2.000 I1.250 J0.000 K0.000 F240.000
G1 X88.000 Y-49.250 Z-2.000 F240.000
G3 X89.250 Y-48.000 Z-2.000 I-0.000 J1.250 K0.000 F240.000
G1 X89.250 Y48.000 Z-2.000 F240.000
G3 X88.884 Y48.884 Z-2.000 I-1.250 J-0.000 K0.000 F240.000
G0 Z17.000
G0 X89.250 Y-47.037 Z17.000
G0 X89.250 Y-47.037 Z15.000
G1 X89.250 Y-47.037 Z-2.000 F240.000
G1 X98.750 Y-37.537 Z-2.000 F240.000
G1 X98.750 Y-34.001 Z-2.000 F240.000
G1 X89.250 Y-43.501 Z-2.000 F240.000
G1 X89.250 Y-39.966 Z-2.000 F240.000
G1 X98.750 Y-30.466 Z-2.000 F240.000
G1 X98.750 Y-26.930 Z-2.000 F240.000
G1 X89.250 Y-36.430 Z-2.000 F240.000
G1 X89.250 Y-32.895 Z-2.000 F240.000
G1 X98.750 Y-23.395 Z-2.000 F240.000
G1 X98.750 Y-19.859 Z-2.000 F240.000
G1 X89.250 Y-29.359 Z-2.000 F240.000
G1 X89.250 Y-25.824 Z-2.000 F240.000
G1 X98.750 Y-16.324 Z-2.000 F240.000
G1 X98.750 Y-12.788 Z-2.000 F240.000
G1 X89.250 Y-22.288 Z-2.000 F240.000
G1 X89.250 Y-18.753 Z-2.000 F240.000
G1 X98.750 Y-9.253 Z-2.000 F240.000
G1 X98.750 Y-5.717 Z-2.000 F240.000
G1 X89.250 Y-15.217 Z-2.000 F240.000
G1 X89.250 Y-11.681 Z-2.000 F240.000
G1 X98.750 Y-2.181 Z-2.000 F240.000
G1 X98.750 Y1.354 Z-2.000 F240.000
G1 X89.250 Y-8.146 Z-2.000 F240.000
G1 X89.250 Y-4.610 Z-2.000 F240.000
G1 X98.750 Y4.890 Z-2.000 F240.000
G1 X98.750 Y8.425 Z-2.000 F240.000
G1 X89.250 Y-1.075 Z-2.000 F240.000
G1 X89.250 Y2.461 Z-2.000 F240.000
G1 X98.750 Y11.961 Z-2.000 F240.000
G1 X98.750 Y15.496 Z-2.000 F240.000
G1 X89.250 Y5.996 Z-2.000 F240.000
G1 X89.250 Y9.532 Z-2.000 F240.000
G1 X98.750 Y19.032 Z-2.000 F240.000
G1 X98.750 Y22.567 Z-2.000 F240.000
G1 X89.250 Y13.067 Z-2.000 F240.000
G1 X89.250 Y16.603 Z-2.000 F240.000
G1 X98.750 Y26.103 Z-2.000 F240.000
G1 X98.750 Y29.638 Z-2.000 F240.000
G1 X89.250 Y20.138 Z-2.000 F240.000
G1 X89.250 Y23.674 Z-2.000 F240.000
G1 X98.750 Y33.174 Z-2.000 F240.000
G1 X98.750 Y36.709 Z-2.000 F240.000
G1 X89.250 Y27.209 Z-2.000 F240.000
G1 X89.250 Y30.745 Z-2.000 F240.000
G1 X98.750 Y40.245 Z-2.000 F240.000
G1 X98.750 Y43.780 Z-2.000 F240.000
G1 X89.250 Y34.280 Z-2.000 F240.000
G1 X89.250 Y37.816 Z-2.000 F240.000
G1 X98.750 Y47.316 Z-2.000 F240.000
G1 X98.750 Y50.852 Z-2.000 F240.000
G1 X89.250 Y41.352 Z-2.000 F240.000
G1 X89.250 Y44.887 Z-2.000 F240.000
G1 X98.750 Y54.387 Z-2.000 F240.000
G1 X98.750 Y57.923 Z-2.000 F240.000
G1 X89.189 Y48.362 Z-2.000 F240.000
G3 X88.000 Y49.250 Z-2.000 I-1.183 J-0.344 K0.000 F240.000
G1 X86.542 Y49.250 Z-2.000 F240.000
G1 X96.042 Y58.750 Z-2.000 F240.000
G1 X92.506 Y58.750 Z-2.000 F240.000
G1 X83.006 Y49.250 Z-2.000 F240.000
G1 X79.471 Y49.250 Z-2.000 F240.000
G1 X88.971 Y58.750 Z-2.000 F240.000
G1 X85.435 Y58.750 Z-2.000 F240.000
G1 X75.935 Y49.250 Z-2.000 F240.000
G1 X72.400 Y49.250 Z-2.000 F240.000
G1 X81.900 Y58.750 Z-2.000 F240.000
G1 X78.364 Y58.750 Z-2.000 F240.000
G1 X68.864 Y49.250 Z-2.000 F240.000
G1 X65.329 Y49.250 Z-2.000 F240.000
G1 X74.829 Y58.750 Z-2.000 F240.000
G1 X71.293 Y58.750 Z-2.000 F240.000
G1 X61.793 Y49.250 Z-2.000 F240.000
G1 X58.258 Y49.250 Z-2.000 F240.000
G1 X67.758 Y58.750 Z-2.000 F240.000
G1 X64.222 Y58.750 Z-2.000 F240.000
G1 X54.722 Y49.250 Z-2.000 F240.000
G1 X51.187 Y49.250 Z-2.000 F240.000
G1 X60.687 Y58.750 Z-2.000 F240.000
G1 X57.151 Y58.750 Z-2.000 F240.000
G1 X47.651 Y49.250 Z-2.000 F240.000
G1 X44.115 Y49.250 Z-2.000 F240.000
G1 X53.615 Y58.750 Z-2.000 F240.000
G1 X50.080 Y58.750 Z-2.000 F240.000
G1 X40.580 Y49.250 Z-2.000 F240.000
G1 X37.044 Y49.250 Z-2.000 F240.000
G1 X46.544 Y58.750 Z-2.000 F240.000
G1 X43.009 Y58.750 Z-2.000 F240.000
G1 X33.509 Y49.250 Z-2.000 F240.000
G1 X29.973 Y49.250 Z-2.000 F240.000
G1 X39.473 Y58.750 Z-2.000 F240.000
G1 X35.938 Y58.750 Z-2.000 F240.000
G1 X26.438 Y49.250 Z-2.000 F240.000
G1 X22.902 Y49.250 Z-2.000 F240.000
G1 X32.402 Y58.750 Z-2.000 F240.000
G1 X28.867 Y58.750 Z-2.000 F240.000
G1 X19.367 Y49.250 Z-2.000 F240.000
G1 X15.831 Y49.250 Z-2.000 F240.000
G1 X25.331 Y58.750 Z-2.000 F240.000
G1 X21.796 Y58.750 Z-2.000 F240.000
G1 X12.296 Y49.250 Z-2.000 F240.000
G1 X8.760 Y49.250 Z-2.000 F240.000
G1 X18.260 Y58.750 Z-2.000 F240.000
G1 X14.725 Y58.750 Z-2.000 F240.000
G1 X5.225 Y49.250 Z-2.000 F240.000
G1 X1.689 Y49.250 Z-2.000 F240.000
G1 X11.189 Y58.750 Z-2.000 F240.000
G1 X7.653 Y58.750 Z-2.000 F240.000
G1 X-1.847 Y49.250 Z-2.000 F240.000
G1 X-5.382 Y49.250 Z-2.000 F240.000
G1 X4.118 Y58.750 Z-2.000 F240.000
G1 X0.582 Y58.750 Z-2.000 F240.000
G1 X-8.918 Y49.250 Z-2.000 F240.000
G1 X-12.453 Y49.250 Z-2.000 F240.000
G1 X-2.953 Y58.750 Z-2.000 F240.000
G1 X-6.489 Y58.750 Z-2.000 F240.000
G1 X-15.989 Y49.250 Z-2.000 F240.000
G1 X-19.524 Y49.250 Z-2.000 F240.000
G1 X-10.024 Y58.750 Z-2.000 F240.000
G1 X-13.560 Y58.750 Z-2.000 F240.000
G1 X-23.060 Y49.250 Z-2.000 F240.000
G1 X-26.595 Y49.250 Z-2.000 F240.000
G1 X-17.095 Y58.750 Z-2.000 F240.000
G1 X-20.631 Y58.750 Z-2.000 F240.000
G1 X-30.131 Y49.250 Z-2.000 F240.000
G1 X-33.666 Y49.250 Z-2.000 F240.000
G1 X-24.166 Y58.750 Z-2.000 F240.000
G1 X-27.702 Y58.750 Z-2.000 F240.000
G1 X-37.202 Y49.250 Z-2.000 F240.000
G1 X-40.737 Y49.250 Z-2.000 F240.000
G1 X-31.237 Y58.750 Z-2.000 F240.000
G1 X-34.773 Y58.750 Z-2.000 F240.000
G1 X-44.273 Y49.250 Z-2.000 F240.000
G1 X-47.808 Y49.250 Z-2.000 F240.000
G1 X-38.308 Y58.750 Z-2.000 F240.000
G1 X-41.844 Y58.750 Z-2.000 F240.000
G1 X-51.344 Y49.250 Z-2.000 F240.000
G1 X-54.880 Y49.250 Z-2.000 F240.000
G1 X-45.380 Y58.750 Z-2.000 F240.000
G1 X-48.915 Y58.750 Z-2.000 F240.000
G1 X-58.415 Y49.250 Z-2.000 F240.000
G1 X-61.951 Y49.250 Z-2.000 F240.000
G1 X-52.451 Y58.750 Z-2.000 F240.000
G1 X-55.986 Y58.750 Z-2.000 F240.000
G1 X-65.486 Y49.250 Z-2.000 F240.000
G1 X-69.022 Y49.250 Z-2.000 F240.000
G1 X-59.522 Y58.750 Z-2.000 F240.000
G1 X-63.057 Y58.750 Z-2.000 F240.000
G1 X-72.557 Y49.250 Z-2.000 F240.000
G1 X-76.093 Y49.250 Z-2.000 F240.000
G1 X-66.593 Y58.750 Z-2.000 F240.000
G1 X-70.128 Y58.750 Z-2.000 F240.000
G1 X-79.628 Y49.250 Z-2.000 F240.000
G1 X-83.164 Y49.250 Z-2.000 F240.000
G1 X-73.664 Y58.750 Z-2.000 F240.000
G1 X-77.199 Y58.750 Z-2.000 F240.000
G1 X-86.699 Y49.250 Z-2.000 F240.000
G1 X-88.000 Y49.250 Z-2.000 F240.000
G3 X-89.250 Y48.000 Z-2.000 I0.000 J-1.250 K0.000 F240.000
G1 X-89.250 Y46.699 Z-2.000 F240.000
G1 X-98.750 Y37.199 Z-2.000 F240.000
G1 X-98.750 Y40.735 Z-2.000 F240.000
G1 X-80.735 Y58.750 Z-2.000 F240.000
G1 X-84.270 Y58.750 Z-2.000 F240.000
G1 X-98.750 Y44.270 Z-2.000 F240.000
G1 X-98.750 Y47.806 Z-2.000 F240.000
G1 X-87.806 Y58.750 Z-2.000 F240.000
G1 X-91.341 Y58.750 Z-2.000 F240.000
G1 X-98.750 Y51.341 Z-2.000 F240.000
G1 X-98.750 Y54.877 Z-2.000 F240.000
G1 X-94.877 Y58.750 Z-2.000 F240.000
G1 X-98.413 Y58.750 Z-2.000 F240.000
G1 X-98.750 Y58.750 Z-2.000 F240.000
G1 X-98.750 Y-58.750 Z-2.000 F240.000
G1 X-98.750 Y-58.750 Z-2.000 F240.000
G1 X98.750 Y-58.750 Z-2.000 F240.000
G1 X98.750 Y58.750 Z-2.000 F240.000
G1 X-98.413 Y58.750 Z-2.000 F240.000
G1 X-98.413 Y58.750 Z-2.000 F240.000
G1 X-98.750 Y58.750 Z-2.000 F240.000
G1 X-98.750 Y58.413 Z-2.000 F240.000
G1 X-98.413 Y58.750 Z-2.000 F240.000
G0 Z17.000
G0 X-98.750 Y37.199 Z17.000
G0 X-98.750 Y37.199 Z15.000
G1 X-98.750 Y37.199 Z-2.000 F240.000
G1 X-89.250 Y46.699 Z-2.000 F240.000
G1 X-89.250 Y43.164 Z-2.000 F240.000
G1 X-98.750 Y33.664 Z-2.000 F240.000
G1 X-98.750 Y30.128 Z-2.000 F240.000
G1 X-89.250 Y39.628 Z-2.000 F240.000
G1 X-89.250 Y36.093 Z-2.000 F240.000
G1 X-98.750 Y26.593 Z-2.000 F240.000
G1 X-98.750 Y23.057 Z-2.000 F240.000
G1 X-89.250 Y32.557 Z-2.000 F240.000
G1 X-89.250 Y29.022 Z-2.000 F240.000
G1 X-98.750 Y19.522 Z-2.000 F240.000
G1 X-98.750 Y15.986 Z-2.000 F240.000
G1 X-89.250 Y25.486 Z-2.000 F240.000
G1 X-89.250 Y21.951 Z-2.000 F240.000
G1 X-98.750 Y12.451 Z-2.000 F240.000
G1 X-98.750 Y8.915 Z-2.000 F240.000
G1 X-89.250 Y18.415 Z-2.000 F240.000
G1 X-89.250 Y14.880 Z-2.000 F240.000
G1 X-98.750 Y5.380 Z-2.000 F240.000
G1 X-98.750 Y1.844 Z-2.000 F240.000
G1 X-89.250 Y11.344 Z-2.000 F240.000
G1 X-89.250 Y7.808 Z-2.000 F240.000
G1 X-98.750 Y-1.692 Z-2.000 F240.000
G1 X-98.750 Y-5.227 Z-2.000 F240.000
G1 X-89.250 Y4.273 Z-2.000 F240.000
G1 X-89.250 Y0.737 Z-2.000 F240.000
G1 X-98.750 Y-8.763 Z-2.000 F240.000
G1 X-98.750 Y-12.298 Z-2.000 F240.000
G1 X-89.250 Y-2.798 Z-2.000 F240.000
G1 X-89.250 Y-6.334 Z-2.000 F240.000
G1 X-98.750 Y-15.834 Z-2.000 F240.000
G1 X-98.750 Y-19.369 Z-2.000 F240.000
G1 X-89.250 Y-9.869 Z-2.000 F240.000
G1 X-89.250 Y-13.405 Z-2.000 F240.000
G1 X-98.750 Y-22.905 Z-2.000 F240.000
G1 X-98.750 Y-26.440 Z-2.000 F240.000
G1 X-89.250 Y-16.940 Z-2.000 F240.000
G1 X-89.250 Y-20.476 Z-2.000 F240.000
G1 X-98.750 Y-29.976 Z-2.000 F240.000
G1 X-98.750 Y-33.511 Z-2.000 F240.000
G1 X-89.250 Y-24.011 Z-2.000 F240.000
G1 X-89.250 Y-27.547 Z-2.000 F240.000
G1 X-98.750 Y-37.047 Z-2.000 F240.000
G1 X-98.750 Y-40.582 Z-2.000 F240.000
G1 X-89.250 Y-31.082 Z-2.000 F240.000
G1 X-89.250 Y-34.618 Z-2.000 F240.000
G1 X-98.750 Y-44.118 Z-2.000 F240.000
G1 X-98.750 Y-47.653 Z-2.000 F240.000
G1 X-89.250 Y-38.153 Z-2.000 F240.000
G1 X-89.250 Y-41.689 Z-2.000 F240.000
G1 X-98.750 Y-51.189 Z-2.000 F240.000
G1 X-98.750 Y-54.725 Z-2.000 F240.000
G1 X-89.250 Y-45.225 Z-2.000 F240.000
G1 X-89.250 Y-48.000 Z-2.000 F240.000
G3 X-89.090 Y-48.600 Z-2.000 I1.172 J-0.009 K0.000 F240.000
G1 X-98.750 Y-58.260 Z-2.000 F240.000
G1 X-98.750 Y-58.750 Z-2.000 F240.000
G1 X-95.704 Y-58.750 Z-2.000 F240.000
G1 X-86.204 Y-49.250 Z-2.000 F240.000
G1 X-82.669 Y-49.250 Z-2.000 F240.000
G1 X-92.169 Y-58.750 Z-2.000 F240.000
G1 X-88.633 Y-58.750 Z-2.000 F240.000
G1 X-79.133 Y-49.250 Z-2.000 F240.000
G1 X-75.598 Y-49.250 Z-2.000 F240.000
G1 X-85.098 Y-58.750 Z-2.000 F240.000
G1 X-81.562 Y-58.750 Z-2.000 F240.000
G1 X-72.062 Y-49.250 Z-2.000 F240.000
G1 X-68.527 Y-49.250 Z-2.000 F240.000
G1 X-78.027 Y-58.750 Z-2.000 F240.000
G1 X-74.491 Y-58.750 Z-2.000 F240.000
G1 X-64.991 Y-49.250 Z-2.000 F240.000
G1 X-61.456 Y-49.250 Z-2.000 F240.000
G1 X-70.956 Y-58.750 Z-2.000 F240.000
G1 X-67.420 Y-58.750 Z-2.000 F240.000
G1 X-57.920 Y-49.250 Z-2.000 F240.000
G1 X-54.385 Y-49.250 Z-2.000 F240.000
G1 X-63.885 Y-58.750 Z-2.000 F240.000
G1 X-60.349 Y-58.750 Z-2.000 F240.000
G1 X-50.849 Y-49.250 Z-2.000 F240.000
G1 X-47.313 Y-49.250 Z-2.000 F240.000
G1 X-56.813 Y-58.750 Z-2.000 F240.000
G1 X-53.278 Y-58.750 Z-2.000 F240.000
G1 X-43.778 Y-49.250 Z-2.000 F240.000
G1 X-40.242 Y-49.250 Z-2.000 F240.000
G1 X-49.742 Y-58.750 Z-2.000 F240.000
G1 X-46.207 Y-58.750 Z-2.000 F240.000
G1 X-36.707 Y-49.250 Z-2.000 F240.000
G1 X-33.171 Y-49.250 Z-2.000 F240.000
G1 X-42.671 Y-58.750 Z-2.000 F240.000
G1 X-39.136 Y-58.750 Z-2.000 F240.000
G1 X-29.636 Y-49.250 Z-2.000 F240.000
G1 X-26.100 Y-49.250 Z-2.000 F240.000
G1 X-35.600 Y-58.750 Z-2.000 F240.000
G1 X-32.065 Y-58.750 Z-2.000 F240.000
G1 X-22.565 Y-49.250 Z-2.000 F240.000
G1 X-19.029 Y-49.250 Z-2.000 F240.000
G1 X-28.529 Y-58.750 Z-2.000 F240.000
G1 X-24.994 Y-58.750 Z-2.000 F240.000
G1 X-15.494 Y-49.250 Z-2.000 F240.000
G1 X-11.958 Y-49.250 Z-2.000 F240.000
G1 X-21.458 Y-58.750 Z-2.000 F240.000
G1 X-17.923 Y-58.750 Z-2.000 F240.000
G1 X-8.423 Y-49.250 Z-2.000 F240.000
G1 X-4.887 Y-49.250 Z-2.000 F240.000
G1 X-14.387 Y-58.750 Z-2.000 F240.000
G1 X-10.852 Y-58.750 Z-2.000 F240.000
G1 X-1.352 Y-49.250 Z-2.000 F240.000
G1 X2.184 Y-49.250 Z-2.000 F240.000
G1 X-7.316 Y-58.750 Z-2.000 F240.000
G1 X-3.780 Y-58.750 Z-2.000 F240.000
G1 X5.720 Y-49.250 Z-2.000 F240.000
G1 X9.255 Y-49.250 Z-2.000 F240.000
G1 X-0.245 Y-58.750 Z-2.000 F240.000
G1 X3.291 Y-58.750 Z-2.000 F240.000
G1 X12.791 Y-49.250 Z-2.000 F240.000
G1 X16.326 Y-49.250 Z-2.000 F240.000
G1 X6.826 Y-58.750 Z-2.000 F240.000
G1 X10.362 Y-58.750 Z-2.000 F240.000
G1 X19.862 Y-49.250 Z-2.000 F240.000
G1 X23.397 Y-49.250 Z-2.000 F240.000
G1 X13.897 Y-58.750 Z-2.000 F240.000
G1 X17.433 Y-58.750 Z-2.000 F240.000
G1 X26.933 Y-49.250 Z-2.000 F240.000
G1 X30.468 Y-49.250 Z-2.000 F240.000
G1 X20.968 Y-58.750 Z-2.000 F240.000
G1 X24.504 Y-58.750 Z-2.000 F240.000
G1 X34.004 Y-49.250 Z-2.000 F240.000
G1 X37.539 Y-49.250 Z-2.000 F240.000
G1 X28.039 Y-58.750 Z-2.000 F240.000
G1 X31.575 Y-58.750 Z-2.000 F240.000
G1 X41.075 Y-49.250 Z-2.000 F240.000
G1 X44.610 Y-49.250 Z-2.000 F240.000
G1 X35.110 Y-58.750 Z-2.000 F240.000
G1 X38.646 Y-58.750 Z-2.000 F240.000
G1 X48.146 Y-49.250 Z-2.000 F240.000
G1 X51.681 Y-49.250 Z-2.000 F240.000
G1 X42.181 Y-58.750 Z-2.000 F240.000
G1 X45.717 Y-58.750 Z-2.000 F240.000
G1 X55.217 Y-49.250 Z-2.000 F240.000
G1 X58.753 Y-49.250 Z-2.000 F240.000
G1 X49.253 Y-58.750 Z-2.000 F240.000
G1 X52.788 Y-58.750 Z-2.000 F240.000
G1 X62.288 Y-49.250 Z-2.000 F240.000
G1 X65.824 Y-49.250 Z-2.000 F240.000
G1 X56.324 Y-58.750 Z-2.000 F240.000
G1 X59.859 Y-58.750 Z-2.000 F240.000
G1 X69.359 Y-49.250 Z-2.000 F240.000
G1 X72.895 Y-49.250 Z-2.000 F240.000
G1 X63.395 Y-58.750 Z-2.000 F240.000
G1 X66.930 Y-58.750 Z-2.000 F240.000
G1 X76.430 Y-49.250 Z-2.000 F240.000
G1 X79.966 Y-49.250 Z-2.000 F240.000
G1 X70.466 Y-58.750 Z-2.000 F240.000
G1 X74.001 Y-58.750 Z-2.000 F240.000
G1 X83.501 Y-49.250 Z-2.000 F240.000
G1 X87.037 Y-49.250 Z-2.000 F240.000
G1 X77.537 Y-58.750 Z-2.000 F240.000
G1 X81.072 Y-58.750 Z-2.000 F240.000
G1 X98.750 Y-41.072 Z-2.000 F240.000
G1 X98.750 Y-44.608 Z-2.000 F240.000
G1 X84.608 Y-58.750 Z-2.000 F240.000
G1 X88.143 Y-58.750 Z-2.000 F240.000
G1 X98.750 Y-48.143 Z-2.000 F240.000
G1 X98.750 Y-51.679 Z-2.000 F240.000
G1 X91.679 Y-58.750 Z-2.000 F240.000
G1 X95.214 Y-58.750 Z-2.000 F240.000
G1 X98.750 Y-55.214 Z-2.000 F240.000
G1 X98.750 Y-58.750 Z-2.000 F240.000
G1 X98.750 Y-58.750 Z-4.000 F240.000
G1 X98.750 Y-55.214 Z-4.000 F240.000
G1 X95.214 Y-58.750 Z-4.000 F240.000
G1 X91.679 Y-58.750 Z-4.000 F240.000
G1 X98.750 Y-51.679 Z-4.000 F240.000
G1 X98.750 Y-48.143 Z-4.000 F240.000
G1 X88.143 Y-58.750 Z-4.000 F240.000
G1 X84.608 Y-58.750 Z-4.000 F240.000
G1 X98.750 Y-44.608 Z-4.000 F240.000
G1 X98.750 Y-41.072 Z-4.000 F240.000
G1 X81.072 Y-58.750 Z-4.000 F240.000
G1 X77.537 Y-58.750 Z-4.000 F240.000
G1 X87.037 Y-49.250 Z-4.000 F240.000
G1 X83.501 Y-49.250 Z-4.000 F240.000
G1 X74.001 Y-58.750 Z-4.000 F240.000
G1 X70.466 Y-58.750 Z-4.000 F240.000
G1 X79.966 Y-49.250 Z-4.000 F240.000
G1 X76.430 Y-49.250 Z-4.000 F240.000
G1 X66.930 Y-58.750 Z-4.000 F240.000
G1 X63.395 Y-58.750 Z-4.000 F240.000
G1 X72.895 Y-49.250 Z-4.000 F240.000
G1 X69.359 Y-49.250 Z-4.000 F240.000
G1 X59.859 Y-58.750 Z-4.000 F240.000
G1 X56.324 Y-58.750 Z-4.000 F240.000
G1 X65.824 Y-49.250 Z-4.000 F240.000
G1 X62.288 Y-49.250 Z-4.000 F240.000
G1 X52.788 Y-58.750 Z-4.000 F240.000
G1 X49.253 Y-58.750 Z-4.000 F240.000
G1 X58.753 Y-49.250 Z-4.000 F240.000
G1 X55.217 Y-49.250 Z-4.000 F240.000
G1 X45.717 Y-58.750 Z-4.000 F240.000
G1 X42.181 Y-58.750 Z-4.000 F240.000
G1 X51.681 Y-49.250 Z-4.000 F240.000
G1 X48.146 Y-49.250 Z-4.000 F240.000
G1 X38.646 Y-58.750 Z-4.000 F240.000
G1 X35.110 Y-58.750 Z-4.000 F240.000
G1 X44.610 Y-49.250 Z-4.000 F240.000
G1 X41.075 Y-49.250 Z-4.000 F240.000
G1 X31.575 Y-58.750 Z-4.000 F240.000
G1 X28.039 Y-58.750 Z-4.000 F240.000
G1 X37.539 Y-49.250 Z-4.000 F240.000
G1 X34.004 Y-49.250 Z-4.000 F240.000
G1 X24.504 Y-58.750 Z-4.000 F240.000
G1 X20.968 Y-58.750 Z-4.000 F240.000
G1 X30.468 Y-49.250 Z-4.000 F240.000
G1 X26.933 Y-49.250 Z-4.000 F240.000
G1 X17.433 Y-58.750 Z-4.000 F240.000
G1 X13.897 Y-58.750 Z-4.000 F240.000
G1 X23.397 Y-49.250 Z-4.000 F240.000
G1 X19.862 Y-49.250 Z-4.000 F240.000
G1 X10.362 Y-58.750 Z-4.000 F240.000
G1 X6.826 Y-58.750 Z-4.000 F240.000
G1 X16.326 Y-49.250 Z-4.000 F240.000
G1 X12.791 Y-49.250 Z-4.000 F240.000
G1 X3.291 Y-58.750 Z-4.000 F240.000
G1 X-0.245 Y-58.750 Z-4.000 F240.000
G1 X9.255 Y-49.250 Z-4.000 F240.000
G1 X5.720 Y-49.250 Z-4.000 F240.000
G1 X-3.780 Y-58.750 Z-4.000 F240.000
G1 X-7.316 Y-58.750 Z-4.000 F240.000
G1 X2.184 Y-49.250 Z-4.000 F240.000
G1 X-1.352 Y-49.250 Z-4.000 F240.000
G1 X-10.852 Y-58.750 Z-4.000 F240.000
G1 X-14.387 Y-58.750 Z-4.000 F240.000
G1 X-4.887 Y-49.250 Z-4.000 F240.000
G1 X-8.423 Y-49.250 Z-4.000 F240.000
G1 X-17.923 Y-58.750 Z-4.000 F240.000
G1 X-21.458 Y-58.750 Z-4.000 F240.000
G1 X-11.958 Y-49.250 Z-4.000 F240.000
G1 X-15.494 Y-49.250 Z-4.000 F240.000
G1 X-24.994 Y-58.750 Z-4.000 F240.000
G1 X-28.529 Y-58.750 Z-4.000 F240.000
G1 X-19.029 Y-49.250 Z-4.000 F240.000
G1 X-22.565 Y-49.250 Z-4.000 F240.000
G1 X-32.065 Y-58.750 Z-4.000 F240.000
G1 X-35.600 Y-58.750 Z-4.000 F240.000
G1 X-26.100 Y-49.250 Z-4.000 F240.000
G1 X-29.636 Y-49.250 Z-4.000 F240.000
G1 X-39.136 Y-58.750 Z-4.000 F240.000
G1 X-42.671 Y-58.750 Z-4.000 F240.000
G1 X-33.171 Y-49.250 Z-4.000 F240.000
G1 X-36.707 Y-49.250 Z-4.000 F240.000
G1 X-46.207 Y-58.750 Z-4.000 F240.000
G1 X-49.742 Y-58.750 Z-4.000 F240.000
G1 X-40.242 Y-49.250 Z-4.000 F240.000
G1 X-43.778 Y-49.250 Z-4.000 F240.000
G1 X-53.278 Y-58.750 Z-4.000 F240.000
G1 X-56.813 Y-58.750 Z-4.000 F240.000
G1 X-47.313 Y-49.250 Z-4.000 F240.000
G1 X-50.849 Y-49.250 Z-4.000 F240.000
G1 X-60.349 Y-58.750 Z-4.000 F240.000
G1 X-63.885 Y-58.750 Z-4.000 F240.000
G1 X-54.385 Y-49.250 Z-4.000 F240.000
G1 X-57.920 Y-49.250 Z-4.000 F240.000
G1 X-67.420 Y-58.750 Z-4.000 F240.000
G1 X-70.956 Y-58.750 Z-4.000 F240.000
G1 X-61.456 Y-49.250 Z-4.000 F240.000
G1 X-64.991 Y-49.250 Z-4.000 F240.000
G1 X-74.491 Y-58.750 Z-4.000 F240.000
G1 X-78.027 Y-58.750 Z-4.000 F240.000
G1 X-68.527 Y-49.250 Z-4.000 F240.000
G1 X-72.062 Y-49.250 Z-4.000 F240.000
G1 X-81.562 Y-58.750 Z-4.000 F240.000
G1 X-85.098 Y-58.750 Z-4.000 F240.000
G1 X-75.598 Y-49.250 Z-4.000 F240.000
G1 X-79.133 Y-49.250 Z-4.000 F240.000
G1 X-88.633 Y-58.750 Z-4.000 F240.000
G1 X-92.169 Y-58.750 Z-4.000 F240.000
G1 X-82.669 Y-49.250 Z-4.000 F240.000
G1 X-86.204 Y-49.250 Z-4.000 F240.000
G1 X-95.704 Y-58.750 Z-4.000 F240.000
G1 X-98.750 Y-58.750 Z-4.000 F240.000
G1 X-98.750 Y-58.260 Z-4.000 F240.000
G1 X-89.090 Y-48.600 Z-4.000 F240.000
G2 X-89.250 Y-48.000 Z-4.000 I1.012 J0.591 K0.000 F240.000
G1 X-89.250 Y-45.225 Z-4.000 F240.000
G1 X-98.750 Y-54.725 Z-4.000 F240.000
G1 X-98.750 Y-51.189 Z-4.000 F240.000
G1 X-89.250 Y-41.689 Z-4.000 F240.000
G1 X-89.250 Y-38.153 Z-4.000 F240.000
G1 X-98.750 Y-47.653 Z-4.000 F240.000
G1 X-98.750 Y-44.118 Z-4.000 F240.000
G1 X-89.250 Y-34.618 Z-4.000 F240.000
G1 X-89.250 Y-31.082 Z-4.000 F240.000
G1 X-98.750 Y-40.582 Z-4.000 F240.000
G1 X-98.750 Y-37.047 Z-4.000 F240.000
G1 X-89.250 Y-27.547 Z-4.000 F240.000
G1 X-89.250 Y-24.011 Z-4.000 F240.000
G1 X-98.750 Y-33.511 Z-4.000 F240.000
G1 X-98.750 Y-29.976 Z-4.000 F240.000
G1 X-89.250 Y-20.476 Z-4.000 F240.000
G1 X-89.250 Y-16.940 Z-4.000 F240.000
G1 X-98.750 Y-26.440 Z-4.000 F240.000
G1 X-98.750 Y-22.905 Z-4.000 F240.000
G1 X-89.250 Y-13.405 Z-4.000 F240.000
G1 X-89.250 Y-9.869 Z-4.000 F240.000
G1 X-98.750 Y-19.369 Z-4.000 F240.000
G1 X-98.750 Y-15.834 Z-4.000 F240.000
G1 X-89.250 Y-6.334 Z-4.000 F240.000
G1 X-89.250 Y-2.798 Z-4.000 F240.000
G1 X-98.750 Y-12.298 Z-4.000 F240.000
G1 X-98.750 Y-8.763 Z-4.000 F240.000
G1 X-89.250 Y0.737 Z-4.000 F240.000
G1 X-89.250 Y4.273 Z-4.000 F240.000
G1 X-98.750 Y-5.227 Z-4.000 F240.000
G1 X-98.750 Y-1.692 Z-4.000 F240.000
G1 X-89.250 Y7.808 Z-4.000 F240.000
G1 X-89.250 Y11.344 Z-4.000 F240.000
G1 X-98.750 Y1.844 Z-4.000 F240.000
G1 X-98.750 Y5.380 Z-4.000 F240.000
G1 X-89.250 Y14.880 Z-4.000 F240.000
G1 X-89.250 Y18.415 Z-4.000 F240.000
G1 X-98.750 Y8.915 Z-4.000 F240.000
G1 X-98.750 Y12.451 Z-4.000 F240.000
G1 X-89.250 Y21.951 Z-4.000 F240.000
G1 X-89.250 Y25.486 Z-4.000 F240.000
G1 X-98.750 Y15.986 Z-4.000 F240.000
G1 X-98.750 Y19.522 Z-4.000 F240.000
G1 X-89.250 Y29.022 Z-4.000 F240.000
G1 X-89.250 Y32.557 Z-4.000 F240.000
G1 X-98.750 Y23.057 Z-4.000 F240.000
G1 X-98.750 Y26.593 Z-4.000 F240.000
G1 X-89.250 Y36.093 Z-4.000 F240.000
G1 X-89.250 Y39.628 Z-4.000 F240.000
G1 X-98.750 Y30.128 Z-4.000 F240.000
G1 X-98.750 Y33.664 Z-4.000 F240.000
G1 X-89.250 Y43.164 Z-4.000 F240.000
G1 X-89.250 Y46.699 Z-4.000 F240.000
G1 X-98.750 Y37.199 Z-4.000 F240.000
G0 Z17.000
G0 X-89.250 Z17.000
G0 X-89.250 Z15.000
G1 X-89.250 Y37.199 Z-4.000 F240.000
G1 X-89.250 Y-48.000 Z-4.000 F240.000
G3 X-88.000 Y-49.250 Z-4.000 I1.250 J0.000 K0.000 F240.000
G1 X88.000 Y-49.250 Z-4.000 F240.000
G3 X89.250 Y-48.000 Z-4.000 I-0.000 J1.250 K0.000 F240.000
G1 X89.250 Y48.000 Z-4.000 F240.000
G3 X88.000 Y49.250 Z-4.000 I-1.250 J-0.000 K0.000 F240.000
G1 X-88.000 Y49.250 Z-4.000 F240.000
G3 X-89.250 Y48.000 Z-4.000 I0.000 J-1.250 K0.000 F240.000
G1 X-89.250 Y37.199 Z-4.000 F240.000
G0 Z17.000
G0 X-98.750 Y58.413 Z17.000
G0 X-98.750 Y58.413 Z15.000
G1 X-98.750 Y58.413 Z-4.000 F240.000
G1 X-98.413 Y58.750 Z-4.000 F240.000
G1 X-98.750 Y58.750 Z-4.000 F240.000
G1 X-98.750 Y58.413 Z-4.000 F240.000
G0 Z17.000
G0 X-98.413 Y58.750 Z17.000
G0 X-98.413 Y58.750 Z15.000
G1 X-98.413 Y58.750 Z-4.000 F240.000
G1 X98.750 Y58.750 Z-4.000 F240.000
G1 X98.750 Y-58.750 Z-4.000 F240.000
G1 X-98.750 Y-58.750 Z-4.000 F240.000
G1 X-98.750 Y-58.750 Z-4.000 F240.000
G1 X-98.750 Y58.750 Z-4.000 F240.000
G1 X-98.413 Y58.750 Z-4.000 F240.000
G1 X-94.877 Y58.750 Z-4.000 F240.000
G1 X-98.750 Y54.877 Z-4.000 F240.000
G1 X-98.750 Y51.341 Z-4.000 F240.000
G1 X-91.341 Y58.750 Z-4.000 F240.000
G1 X-87.806 Y58.750 Z-4.000 F240.000
G1 X-98.750 Y47.806 Z-4.000 F240.000
G1 X-98.750 Y44.270 Z-4.000 F240.000
G1 X-84.270 Y58.750 Z-4.000 F240.000
G1 X-80.735 Y58.750 Z-4.000 F240.000
G1 X-98.750 Y40.735 Z-4.000 F240.000
G1 X-98.750 Y37.199 Z-4.000 F240.000
G1 X-89.250 Y46.699 Z-4.000 F240.000
G1 X-89.250 Y48.000 Z-4.000 F240.000
G2 X-88.000 Y49.250 Z-4.000 I1.250 J-0.000 K0.000 F240.000
G1 X-86.699 Y49.250 Z-4.000 F240.000
G1 X-77.199 Y58.750 Z-4.000 F240.000
G1 X-73.664 Y58.750 Z-4.000 F240.000
G1 X-83.164 Y49.250 Z-4.000 F240.000
G1 X-79.628 Y49.250 Z-4.000 F240.000
G1 X-70.128 Y58.750 Z-4.000 F240.000
G1 X-66.593 Y58.750 Z-4.000 F240.000
G1 X-76.093 Y49.250 Z-4.000 F240.000
G1 X-72.557 Y49.250 Z-4.000 F240.000
G1 X-63.057 Y58.750 Z-4.000 F240.000
G1 X-59.522 Y58.750 Z-4.000 F240.000
G1 X-69.022 Y49.250 Z-4.000 F240.000
G1 X-65.486 Y49.250 Z-4.000 F240.000
G1 X-55.986 Y58.750 Z-4.000 F240.000
G1 X-52.451 Y58.750 Z-4.000 F240.000
G1 X-61.951 Y49.250 Z-4.000 F240.000
G1 X-58.415 Y49.250 Z-4.000 F240.000
G1 X-48.915 Y58.750 Z-4.000 F240.000
G1 X-45.380 Y58.750 Z-4.000 F240.000
G1 X-54.880 Y49.250 Z-4.000 F240.000
G1 X-51.344 Y49.250 Z-4.000 F240.000
G1 X-41.844 Y58.750 Z-4.000 F240.000
G1 X-38.308 Y58.750 Z-4.000 F240.000
G1 X-47.808 Y49.250 Z-4.000 F240.000
G1 X-44.273 Y49.250 Z-4.000 F240.000
G1 X-34.773 Y58.750 Z-4.000 F240.000
G1 X-31.237 Y58.750 Z-4.000 F240.000
G1 X-40.737 Y49.250 Z-4.000 F240.000
G1 X-37.202 Y49.250 Z-4.000 F240.000
G1 X-27.702 Y58.750 Z-4.000 F240.000
G1 X-24.166 Y58.750 Z-4.000 F240.000
G1 X-33.666 Y49.250 Z-4.000 F240.000
G1 X-30.131 Y49.250 Z-4.000 F240.000
G1 X-20.631 Y58.750 Z-4.000 F240.000
G1 X-17.095 Y58.750 Z-4.000 F240.000
G1 X-26.595 Y49.250 Z-4.000 F240.000
G1 X-23.060 Y49.250 Z-4.000 F240.000
G1 X-13.560 Y58.750 Z-4.000 F240.000
G1 X-10.024 Y58.750 Z-4.000 F240.000
G1 X-19.524 Y49.250 Z-4.000 F240.000
G1 X-15.989 Y49.250 Z-4.000 F240.000
G1 X-6.489 Y58.750 Z-4.000 F240.000
G1 X-2.953 Y58.750 Z-4.000 F240.000
G1 X-12.453 Y49.250 Z-4.000 F240.000
G1 X-8.918 Y49.250 Z-4.000 F240.000
G1 X0.582 Y58.750 Z-4.000 F240.000
G1 X4.118 Y58.750 Z-4.000 F240.000
G1 X-5.382 Y49.250 Z-4.000 F240.000
G1 X-1.847 Y49.250 Z-4.000 F240.000
G1 X7.653 Y58.750 Z-4.000 F240.000
G1 X11.189 Y58.750 Z-4.000 F240.000
G1 X1.689 Y49.250 Z-4.000 F240.000
G1 X5.225 Y49.250 Z-4.000 F240.000
G1 X14.725 Y58.750 Z-4.000 F240.000
G1 X18.260 Y58.750 Z-4.000 F240.000
G1 X8.760 Y49.250 Z-4.000 F240.000
G1 X12.296 Y49.250 Z-4.000 F240.000
G1 X21.796 Y58.750 Z-4.000 F240.000
G1 X25.331 Y58.750 Z-4.000 F240.000
G1 X15.831 Y49.250 Z-4.000 F240.000
G1 X19.367 Y49.250 Z-4.000 F240.000
G1 X28.867 Y58.750 Z-4.000 F240.000
G1 X32.402 Y58.750 Z-4.000 F240.000
G1 X22.902 Y49.250 Z-4.000 F240.000
G1 X26.438 Y49.250 Z-4.000 F240.000
G1 X35.938 Y58.750 Z-4.000 F240.000
G1 X39.473 Y58.750 Z-4.000 F240.000
G1 X29.973 Y49.250 Z-4.000 F240.000
G1 X33.509 Y49.250 Z-4.000 F240.000
G1 X43.009 Y58.750 Z-4.000 F240.000
G1 X46.544 Y58.750 Z-4.000 F240.000
G1 X37.044 Y49.250 Z-4.000 F240.000
G1 X40.580 Y49.250 Z-4.000 F240.000
G1 X50.080 Y58.750 Z-4.000 F240.000
G1 X53.615 Y58.750 Z-4.000 F240.000
G1 X44.115 Y49.250 Z-4.000 F240.000
G1 X47.651 Y49.250 Z-4.000 F240.000
G1 X57.151 Y58.750 Z-4.000 F240.000
G1 X60.687 Y58.750 Z-4.000 F240.000
G1 X51.187 Y49.250 Z-4.000 F240.000
G1 X54.722 Y49.250 Z-4.000 F240.000
G1 X64.222 Y58.750 Z-4.000 F240.000
G1 X67.758 Y58.750 Z-4.000 F240.000
G1 X58.258 Y49.250 Z-4.000 F240.000
G1 X61.793 Y49.250 Z-4.000 F240.000
G1 X71.293 Y58.750 Z-4.000 F240.000
G1 X74.829 Y58.750 Z-4.000 F240.000
G1 X65.329 Y49.250 Z-4.000 F240.000
G1 X68.864 Y49.250 Z-4.000 F240.000
G1 X78.364 Y58.750 Z-4.000 F240.000
G1 X81.900 Y58.750 Z-4.000 F240.000
G1 X72.400 Y49.250 Z-4.000 F240.000
G1 X75.935 Y49.250 Z-4.000 F240.000
G1 X85.435 Y58.750 Z-4.000 F240.000
G1 X88.971 Y58.750 Z-4.000 F240.000
G1 X79.471 Y49.250 Z-4.000 F240.000
G1 X83.006 Y49.250 Z-4.000 F240.000
G1 X92.506 Y58.750 Z-4.000 F240.000
G1 X96.042 Y58.750 Z-4.000 F240.000
G1 X86.542 Y49.250 Z-4.000 F240.000
G1 X88.000 Y49.250 Z-4.000 F240.000
G2 X89.189 Y48.362 Z-4.000 I0.006 J-1.232 K0.000 F240.000
G1 X98.750 Y57.923 Z-4.000 F240.000
G1 X98.750 Y54.387 Z-4.000 F240.000
G1 X89.250 Y44.887 Z-4.000 F240.000
G1 X89.250 Y41.352 Z-4.000 F240.000
G1 X98.750 Y50.852 Z-4.000 F240.000
G1 X98.750 Y47.316 Z-4.000 F240.000
G1 X89.250 Y37.816 Z-4.000 F240.000
G1 X89.250 Y34.280 Z-4.000 F240.000
G1 X98.750 Y43.780 Z-4.000 F240.000
G1 X98.750 Y40.245 Z-4.000 F240.000
G1 X89.250 Y30.745 Z-4.000 F240.000
G1 X89.250 Y27.209 Z-4.000 F240.000
G1 X98.750 Y36.709 Z-4.000 F240.000
G1 X98.750 Y33.174 Z-4.000 F240.000
G1 X89.250 Y23.674 Z-4.000 F240.000
G1 X89.250 Y20.138 Z-4.000 F240.000
G1 X98.750 Y29.638 Z-4.000 F240.000
G1 X98.750 Y26.103 Z-4.000 F240.000
G1 X89.250 Y16.603 Z-4.000 F240.000
G1 X89.250 Y13.067 Z-4.000 F240.000
G1 X98.750 Y22.567 Z-4.000 F240.000
G1 X98.750 Y19.032 Z-4.000 F240.000
G1 X89.250 Y9.532 Z-4.000 F240.000
G1 X89.250 Y5.996 Z-4.000 F240.000
G1 X98.750 Y15.496 Z-4.000 F240.000
G1 X98.750 Y11.961 Z-4.000 F240.000
G1 X89.250 Y2.461 Z-4.000 F240.000
G1 X89.250 Y-1.075 Z-4.000 F240.000
G1 X98.750 Y8.425 Z-4.000 F240.000
G1 X98.750 Y4.890 Z-4.000 F240.000
G1 X89.250 Y-4.610 Z-4.000 F240.000
G1 X89.250 Y-8.146 Z-4.000 F240.000
G1 X98.750 Y1.354 Z-4.000 F240.000
G1 X98.750 Y-2.181 Z-4.000 F240.000
G1 X89.250 Y-11.681 Z-4.000 F240.000
G1 X89.250 Y-15.217 Z-4.000 F240.000
G1 X98.750 Y-5.717 Z-4.000 F240.000
G1 X98.750 Y-9.253 Z-4.000 F240.000
G1 X89.250 Y-18.753 Z-4.000 F240.000
G1 X89.250 Y-22.288 Z-4.000 F240.000
G1 X98.750 Y-12.788 Z-4.000 F240.000
G1 X98.750 Y-16.324 Z-4.000 F240.000
G1 X89.250 Y-25.824 Z-4.000 F240.000
G1 X89.250 Y-29.359 Z-4.000 F240.000
G1 X98.750 Y-19.859 Z-4.000 F240.000
G1 X98.750 Y-23.395 Z-4.000 F240.000
G1 X89.250 Y-32.895 Z-4.000 F240.000
G1 X89.250 Y-36.430 Z-4.000 F240.000
G1 X98.750 Y-26.930 Z-4.000 F240.000
G1 X98.750 Y-30.466 Z-4.000 F240.000
G1 X89.250 Y-39.966 Z-4.000 F240.000
G1 X89.250 Y-43.501 Z-4.000 F240.000
G1 X98.750 Y-34.001 Z-4.000 F240.000
G1 X98.750 Y-37.537 Z-4.000 F240.000
G1 X89.250 Y-47.037 Z-4.000 F240.000
G1 X89.250 Y-47.037 Z-6.000 F240.000
G1 X89.250 Y48.000 Z-6.000 F240.000
G3 X88.000 Y49.250 Z-6.000 I-1.250 J-0.000 K0.000 F240.000
G1 X-88.000 Y49.250 Z-6.000 F240.000
G3 X-89.250 Y48.000 Z-6.000 I0.000 J-1.250 K0.000 F240.000
G1 X-89.250 Y-48.000 Z-6.000 F240.000
G3 X-88.000 Y-49.250 Z-6.000 I1.250 J0.000 K0.000 F240.000
G1 X88.000 Y-49.250 Z-6.000 F240.000
G3 X89.250 Y-48.000 Z-6.000 I-0.000 J1.250 K0.000 F240.000
G1 X89.250 Y-47.037 Z-6.000 F240.000
G1 X89.250 Y-47.037 Z-6.000 F240.000
G1 X98.750 Y-37.537 Z-6.000 F240.000
G1 X98.750 Y-34.001 Z-6.000 F240.000
G1 X89.250 Y-43.501 Z-6.000 F240.000
G1 X89.250 Y-39.966 Z-6.000 F240.000
G1 X98.750 Y-30.466 Z-6.000 F240.000
G1 X98.750 Y-26.930 Z-6.000 F240.000
G1 X89.250 Y-36.430 Z-6.000 F240.000
G1 X89.250 Y-32.895 Z-6.000 F240.000
G1 X98.750 Y-23.395 Z-6.000 F240.000
G1 X98.750 Y-19.859 Z-6.000 F240.000
G1 X89.250 Y-29.359 Z-6.000 F240.000
G1 X89.250 Y-25.824 Z-6.000 F240.000
G1 X98.750 Y-16.324 Z-6.000 F240.000
G1 X98.750 Y-12.788 Z-6.000 F240.000
G1 X89.250 Y-22.288 Z-6.000 F240.000
G1 X89.250 Y-18.753 Z-6.000 F240.000
G1 X98.750 Y-9.253 Z-6.000 F240.000
G1 X98.750 Y-5.717 Z-6.000 F240.000
G1 X89.250 Y-15.217 Z-6.000 F240.000
G1 X89.250 Y-11.681 Z-6.000 F240.000
G1 X98.750 Y-2.181 Z-6.000 F240.000
G1 X98.750 Y1.354 Z-6.000 F240.000
G1 X89.250 Y-8.146 Z-6.000 F240.000
G1 X89.250 Y-4.610 Z-6.000 F240.000
G1 X98.750 Y4.890 Z-6.000 F240.000
G1 X98.750 Y8.425 Z-6.000 F240.000
G1 X89.250 Y-1.075 Z-6.000 F240.000
G1 X89.250 Y2.461 Z-6.000 F240.000
G1 X98.750 Y11.961 Z-6.000 F240.000
G1 X98.750 Y15.496 Z-6.000 F240.000
G1 X89.250 Y5.996 Z-6.000 F240.000
G1 X89.250 Y9.532 Z-6.000 F240.000
G1 X98.750 Y19.032 Z-6.000 F240.000
G1 X98.750 Y22.567 Z-6.000 F240.000
G1 X89.250 Y13.067 Z-6.000 F240.000
G1 X89.250 Y16.603 Z-6.000 F240.000
G1 X98.750 Y26.103 Z-6.000 F240.000
G1 X98.750 Y29.638 Z-6.000 F240.000
G1 X89.250 Y20.138 Z-6.000 F240.000
G1 X89.250 Y23.674 Z-6.000 F240.000
G1 X98.750 Y33.174 Z-6.000 F240.000
G1 X98.750 Y36.709 Z-6.000 F240.000
G1 X89.250 Y27.209 Z-6.000 F240.000
G1 X89.250 Y30.745 Z-6.000 F240.000
G1 X98.750 Y40.245 Z-6.000 F240.000
G1 X98.750 Y43.780 Z-6.000 F240.000
G1 X89.250 Y34.280 Z-6.000 F240.000
G1 X89.250 Y37.816 Z-6.000 F240.000
G1 X98.750 Y47.316 Z-6.000 F240.000
G1 X98.750 Y50.852 Z-6.000 F240.000
G1 X89.250 Y41.352 Z-6.000 F240.000
G1 X89.250 Y44.887 Z-6.000 F240.000
G1 X98.750 Y54.387 Z-6.000 F240.000
G1 X98.750 Y57.923 Z-6.000 F240.000
G1 X89.189 Y48.362 Z-6.000 F240.000
G3 X88.000 Y49.250 Z-6.000 I-1.183 J-0.344 K0.000 F240.000
G1 X86.542 Y49.250 Z-6.000 F240.000
G1 X96.042 Y58.750 Z-6.000 F240.000
G1 X92.506 Y58.750 Z-6.000 F240.000
G1 X83.006 Y49.250 Z-6.000 F240.000
G1 X79.471 Y49.250 Z-6.000 F240.000
G1 X88.971 Y58.750 Z-6.000 F240.000
G1 X85.435 Y58.750 Z-6.000 F240.000
G1 X75.935 Y49.250 Z-6.000 F240.000
G1 X72.400 Y49.250 Z-6.000 F240.000
G1 X81.900 Y58.750 Z-6.000 F240.000
G1 X78.364 Y58.750 Z-6.000 F240.000
G1 X68.864 Y49.250 Z-6.000 F240.000
G1 X65.329 Y49.250 Z-6.000 F240.000
G1 X74.829 Y58.750 Z-6.000 F240.000
G1 X71.293 Y58.750 Z-6.000 F240.000
G1 X61.793 Y49.250 Z-6.000 F240.000
G1 X58.258 Y49.250 Z-6.000 F240.000
G1 X67.758 Y58.750 Z-6.000 F240.000
G1 X64.222 Y58.750 Z-6.000 F240.000
G1 X54.722 Y49.250 Z-6.000 F240.000
G1 X51.187 Y49.250 Z-6.000 F240.000
G1 X60.687 Y58.750 Z-6.000 F240.000
G1 X57.151 Y58.750 Z-6.000 F240.000
G1 X47.651 Y49.250 Z-6.000 F240.000
G1 X44.115 Y49.250 Z-6.000 F240.000
G1 X53.615 Y58.750 Z-6.000 F240.000
G1 X50.080 Y58.750 Z-6.000 F240.000
G1 X40.580 Y49.250 Z-6.000 F240.000
G1 X37.044 Y49.250 Z-6.000 F240.000
G1 X46.544 Y58.750 Z-6.000 F240.000
G1 X43.009 Y58.750 Z-6.000 F240.000
G1 X33.509 Y49.250 Z-6.000 F240.000
G1 X29.973 Y49.250 Z-6.000 F240.000
G1 X39.473 Y58.750 Z-6.000 F240.000
G1 X35.938 Y58.750 Z-6.000 F240.000
G1 X26.438 Y49.250 Z-6.000 F240.000
G1 X22.902 Y49.250 Z-6.000 F240.000
G1 X32.402 Y58.750 Z-6.000 F240.000
G1 X28.867 Y58.750 Z-6.000 F240.000
G1 X19.367 Y49.250 Z-6.000 F240.000
G1 X15.831 Y49.250 Z-6.000 F240.000
G1 X25.331 Y58.750 Z-6.000 F240.000
G1 X21.796 Y58.750 Z-6.000 F240.000
G1 X12.296 Y49.250 Z-6.000 F240.000
G1 X8.760 Y49.250 Z-6.000 F240.000
G1 X18.260 Y58.750 Z-6.000 F240.000
G1 X14.725 Y58.750 Z-6.000 F240.000
G1 X5.225 Y49.250 Z-6.000 F240.000
G1 X1.689 Y49.250 Z-6.000 F240.000
G1 X11.189 Y58.750 Z-6.000 F240.000
G1 X7.653 Y58.750 Z-6.000 F240.000
G1 X-1.847 Y49.250 Z-6.000 F240.000
G1 X-5.382 Y49.250 Z-6.000 F240.000
G1 X4.118 Y58.750 Z-6.000 F240.000
G1 X0.582 Y58.750 Z-6.000 F240.000
G1 X-8.918 Y49.250 Z-6.000 F240.000
G1 X-12.453 Y49.250 Z-6.000 F240.000
G1 X-2.953 Y58.750 Z-6.000 F240.000
G1 X-6.489 Y58.750 Z-6.000 F240.000
G1 X-15.989 Y49.250 Z-6.000 F240.000
G1 X-19.524 Y49.250 Z-6.000 F240.000
G1 X-10.024 Y58.750 Z-6.000 F240.000
G1 X-13.560 Y58.750 Z-6.000 F240.000
G1 X-23.060 Y49.250 Z-6.000 F240.000
G1 X-26.595 Y49.250 Z-6.000 F240.000
G1 X-17.095 Y58.750 Z-6.000 F240.000
G1 X-20.631 Y58.750 Z-6.000 F240.000
G1 X-30.131 Y49.250 Z-6.000 F240.000
G1 X-33.666 Y49.250 Z-6.000 F240.000
G1 X-24.166 Y58.750 Z-6.000 F240.000
G1 X-27.702 Y58.750 Z-6.000 F240.000
G1 X-37.202 Y49.250 Z-6.000 F240.000
G1 X-40.737 Y49.250 Z-6.000 F240.000
G1 X-31.237 Y58.750 Z-6.000 F240.000
G1 X-34.773 Y58.750 Z-6.000 F240.000
G1 X-44.273 Y49.250 Z-6.000 F240.000
G1 X-47.808 Y49.250 Z-6.000 F240.000
G1 X-38.308 Y58.750 Z-6.000 F240.000
G1 X-41.844 Y58.750 Z-6.000 F240.000
G1 X-51.344 Y49.250 Z-6.000 F240.000
G1 X-54.880 Y49.250 Z-6.000 F240.000
G1 X-45.380 Y58.750 Z-6.000 F240.000
G1 X-48.915 Y58.750 Z-6.000 F240.000
G1 X-58.415 Y49.250 Z-6.000 F240.000
G1 X-61.951 Y49.250 Z-6.000 F240.000
G1 X-52.451 Y58.750 Z-6.000 F240.000
G1 X-55.986 Y58.750 Z-6.000 F240.000
G1 X-65.486 Y49.250 Z-6.000 F240.000
G1 X-69.022 Y49.250 Z-6.000 F240.000
G1 X-59.522 Y58.750 Z-6.000 F240.000
G1 X-63.057 Y58.750 Z-6.000 F240.000
G1 X-72.557 Y49.250 Z-6.000 F240.000
G1 X-76.093 Y49.250 Z-6.000 F240.000
G1 X-66.593 Y58.750 Z-6.000 F240.000
G1 X-70.128 Y58.750 Z-6.000 F240.000
G1 X-79.628 Y49.250 Z-6.000 F240.000
G1 X-83.164 Y49.250 Z-6.000 F240.000
G1 X-73.664 Y58.750 Z-6.000 F240.000
G1 X-77.199 Y58.750 Z-6.000 F240.000
G1 X-86.699 Y49.250 Z-6.000 F240.000
G1 X-88.000 Y49.250 Z-6.000 F240.000
G3 X-89.250 Y48.000 Z-6.000 I0.000 J-1.250 K0.000 F240.000
G1 X-89.250 Y46.699 Z-6.000 F240.000
G1 X-98.750 Y37.199 Z-6.000 F240.000
G1 X-98.750 Y40.735 Z-6.000 F240.000
G1 X-80.735 Y58.750 Z-6.000 F240.000
G1 X-84.270 Y58.750 Z-6.000 F240.000
G1 X-98.750 Y44.270 Z-6.000 F240.000
G1 X-98.750 Y47.806 Z-6.000 F240.000
G1 X-87.806 Y58.750 Z-6.000 F240.000
G1 X-91.341 Y58.750 Z-6.000 F240.000
G1 X-98.750 Y51.341 Z-6.000 F240.000
G1 X-98.750 Y54.877 Z-6.000 F240.000
G1 X-94.877 Y58.750 Z-6.000 F240.000
G1 X-98.413 Y58.750 Z-6.000 F240.000
G1 X-98.750 Y58.750 Z-6.000 F240.000
G1 X-98.750 Y-58.750 Z-6.000 F240.000
G1 X-98.750 Y-58.750 Z-6.000 F240.000
G1 X98.750 Y-58.750 Z-6.000 F240.000
G1 X98.750 Y58.750 Z-6.000 F240.000
G1 X-98.413 Y58.750 Z-6.000 F240.000
G1 X-98.413 Y58.750 Z-6.000 F240.000
G1 X-98.750 Y58.750 Z-6.000 F240.000
G1 X-98.750 Y58.413 Z-6.000 F240.000
G1 X-98.413 Y58.750 Z-6.000 F240.000
G0 Z17.000
G0 X-98.750 Y37.199 Z17.000
G0 X-98.750 Y37.199 Z15.000
G1 X-98.750 Y37.199 Z-6.000 F240.000
G1 X-89.250 Y46.699 Z-6.000 F240.000
G1 X-89.250 Y43.164 Z-6.000 F240.000
G1 X-98.750 Y33.664 Z-6.000 F240.000
G1 X-98.750 Y30.128 Z-6.000 F240.000
G1 X-89.250 Y39.628 Z-6.000 F240.000
G1 X-89.250 Y36.093 Z-6.000 F240.000
G1 X-98.750 Y26.593 Z-6.000 F240.000
G1 X-98.750 Y23.057 Z-6.000 F240.000
G1 X-89.250 Y32.557 Z-6.000 F240.000
G1 X-89.250 Y29.022 Z-6.000 F240.000
G1 X-98.750 Y19.522 Z-6.000 F240.000
G1 X-98.750 Y15.986 Z-6.000 F240.000
G1 X-89.250 Y25.486 Z-6.000 F240.000
G1 X-89.250 Y21.951 Z-6.000 F240.000
G1 X-98.750 Y12.451 Z-6.000 F240.000
G1 X-98.750 Y8.915 Z-6.000 F240.000
G1 X-89.250 Y18.415 Z-6.000 F240.000
G1 X-89.250 Y14.880 Z-6.000 F240.000
G1 X-98.750 Y5.380 Z-6.000 F240.000
G1 X-98.750 Y1.844 Z-6.000 F240.000
G1 X-89.250 Y11.344 Z-6.000 F240.000
G1 X-89.250 Y7.808 Z-6.000 F240.000
G1 X-98.750 Y-1.692 Z-6.000 F240.000
G1 X-98.750 Y-5.227 Z-6.000 F240.000
G1 X-89.250 Y4.273 Z-6.000 F240.000
G1 X-89.250 Y0.737 Z-6.000 F240.000
G1 X-98.750 Y-8.763 Z-6.000 F240.000
G1 X-98.750 Y-12.298 Z-6.000 F240.000
G1 X-89.250 Y-2.798 Z-6.000 F240.000
G1 X-89.250 Y-6.334 Z-6.000 F240.000
G1 X-98.750 Y-15.834 Z-6.000 F240.000
G1 X-98.750 Y-19.369 Z-6.000 F240.000
G1 X-89.250 Y-9.869 Z-6.000 F240.000
G1 X-89.250 Y-13.405 Z-6.000 F240.000
G1 X-98.750 Y-22.905 Z-6.000 F240.000
G1 X-98.750 Y-26.440 Z-6.000 F240.000
G1 X-89.250 Y-16.940 Z-6.000 F240.000
G1 X-89.250 Y-20.476 Z-6.000 F240.000
G1 X-98.750 Y-29.976 Z-6.000 F240.000
G1 X-98.750 Y-33.511 Z-6.000 F240.000
G1 X-89.250 Y-24.011 Z-6.000 F240.000
G1 X-89.250 Y-27.547 Z-6.000 F240.000
G1 X-98.750 Y-37.047 Z-6.000 F240.000
G1 X-98.750 Y-40.582 Z-6.000 F240.000
G1 X-89.250 Y-31.082 Z-6.000 F240.000
G1 X-89.250 Y-34.618 Z-6.000 F240.000
G1 X-98.750 Y-44.118 Z-6.000 F240.000
G1 X-98.750 Y-47.653 Z-6.000 F240.000
G1 X-89.250 Y-38.153 Z-6.000 F240.000
G1 X-89.250 Y-41.689 Z-6.000 F240.000
G1 X-98.750 Y-51.189 Z-6.000 F240.000
G1 X-98.750 Y-54.725 Z-6.000 F240.000
G1 X-89.250 Y-45.225 Z-6.000 F240.000
G1 X-89.250 Y-48.000 Z-6.000 F240.000
G3 X-89.090 Y-48.600 Z-6.000 I1.172 J-0.009 K0.000 F240.000
G1 X-98.750 Y-58.260 Z-6.000 F240.000
G1 X-98.750 Y-58.750 Z-6.000 F240.000
G1 X-95.704 Y-58.750 Z-6.000 F240.000
G1 X-86.204 Y-49.250 Z-6.000 F240.000
G1 X-82.669 Y-49.250 Z-6.000 F240.000
G1 X-92.169 Y-58.750 Z-6.000 F240.000
G1 X-88.633 Y-58.750 Z-6.000 F240.000
G1 X-79.133 Y-49.250 Z-6.000 F240.000
G1 X-75.598 Y-49.250 Z-6.000 F240.000
G1 X-85.098 Y-58.750 Z-6.000 F240.000
G1 X-81.562 Y-58.750 Z-6.000 F240.000
G1 X-72.062 Y-49.250 Z-6.000 F240.000
G1 X-68.527 Y-49.250 Z-6.000 F240.000
G1 X-78.027 Y-58.750 Z-6.000 F240.000
G1 X-74.491 Y-58.750 Z-6.000 F240.000
G1 X-64.991 Y-49.250 Z-6.000 F240.000
G1 X-61.456 Y-49.250 Z-6.000 F240.000
G1 X-70.956 Y-58.750 Z-6.000 F240.000
G1 X-67.420 Y-58.750 Z-6.000 F240.000
G1 X-57.920 Y-49.250 Z-6.000 F240.000
G1 X-54.385 Y-49.250 Z-6.000 F240.000
G1 X-63.885 Y-58.750 Z-6.000 F240.000
G1 X-60.349 Y-58.750 Z-6.000 F240.000
G1 X-50.849 Y-49.250 Z-6.000 F240.000
G1 X-47.313 Y-49.250 Z-6.000 F240.000
G1 X-56.813 Y-58.750 Z-6.000 F240.000
G1 X-53.278 Y-58.750 Z-6.000 F240.000
G1 X-43.778 Y-49.250 Z-6.000 F240.000
G1 X-40.242 Y-49.250 Z-6.000 F240.000
G1 X-49.742 Y-58.750 Z-6.000 F240.000
G1 X-46.207 Y-58.750 Z-6.000 F240.000
G1 X-36.707 Y-49.250 Z-6.000 F240.000
G1 X-33.171 Y-49.250 Z-6.000 F240.000
G1 X-42.671 Y-58.750 Z-6.000 F240.000
G1 X-39.136 Y-58.750 Z-6.000 F240.000
G1 X-29.636 Y-49.250 Z-6.000 F240.000
G1 X-26.100 Y-49.250 Z-6.000 F240.000
G1 X-35.600 Y-58.750 Z-6.000 F240.000
G1 X-32.065 Y-58.750 Z-6.000 F240.000
G1 X-22.565 Y-49.250 Z-6.000 F240.000
G1 X-19.029 Y-49.250 Z-6.000 F240.000
G1 X-28.529 Y-58.750 Z-6.000 F240.000
G1 X-24.994 Y-58.750 Z-6.000 F240.000
G1 X-15.494 Y-49.250 Z-6.000 F240.000
G1 X-11.958 Y-49.250 Z-6.000 F240.000
G1 X-21.458 Y-58.750 Z-6.000 F240.000
G1 X-17.923 Y-58.750 Z-6.000 F240.000
G1 X-8.423 Y-49.250 Z-6.000 F240.000
G1 X-4.887 Y-49.250 Z-6.000 F240.000
G1 X-14.387 Y-58.750 Z-6.000 F240.000
G1 X-10.852 Y-58.750 Z-6.000 F240.000
G1 X-1.352 Y-49.250 Z-6.000 F240.000
G1 X2.184 Y-49.250 Z-6.000 F240.000
G1 X-7.316 Y-58.750 Z-6.000 F240.000
G1 X-3.780 Y-58.750 Z-6.000 F240.000
G1 X5.720 Y-49.250 Z-6.000 F240.000
G1 X9.255 Y-49.250 Z-6.000 F240.000
G1 X-0.245 Y-58.750 Z-6.000 F240.000
G1 X3.291 Y-58.750 Z-6.000 F240.000
G1 X12.791 Y-49.250 Z-6.000 F240.000
G1 X16.326 Y-49.250 Z-6.000 F240.000
G1 X6.826 Y-58.750 Z-6.000 F240.000
G1 X10.362 Y-58.750 Z-6.000 F240.000
G1 X19.862 Y-49.250 Z-6.000 F240.000
G1 X23.397 Y-49.250 Z-6.000 F240.000
G1 X13.897 Y-58.750 Z-6.000 F240.000
G1 X17.433 Y-58.750 Z-6.000 F240.000
G1 X26.933 Y-49.250 Z-6.000 F240.000
G1 X30.468 Y-49.250 Z-6.000 F240.000
G1 X20.968 Y-58.750 Z-6.000 F240.000
G1 X24.504 Y-58.750 Z-6.000 F240.000
G1 X34.004 Y-49.250 Z-6.000 F240.000
G1 X37.539 Y-49.250 Z-6.000 F240.000
G1 X28.039 Y-58.750 Z-6.000 F240.000
G1 X31.575 Y-58.750 Z-6.000 F240.000
G1 X41.075 Y-49.250 Z-6.000 F240.000
G1 X44.610 Y-49.250 Z-6.000 F240.000
G1 X35.110 Y-58.750 Z-6.000 F240.000
G1 X38.646 Y-58.750 Z-6.000 F240.000
G1 X48.146 Y-49.250 Z-6.000 F240.000
G1 X51.681 Y-49.250 Z-6.000 F240.000
G1 X42.181 Y-58.750 Z-6.000 F240.000
G1 X45.717 Y-58.750 Z-6.000 F240.000
G1 X55.217 Y-49.250 Z-6.000 F240.000
G1 X58.753 Y-49.250 Z-6.000 F240.000
G1 X49.253 Y-58.750 Z-6.000 F240.000
G1 X52.788 Y-58.750 Z-6.000 F240.000
G1 X62.288 Y-49.250 Z-6.000 F240.000
G1 X65.824 Y-49.250 Z-6.000 F240.000
G1 X56.324 Y-58.750 Z-6.000 F240.000
G1 X59.859 Y-58.750 Z-6.000 F240.000
G1 X69.359 Y-49.250 Z-6.000 F240.000
G1 X72.895 Y-49.250 Z-6.000 F240.000
G1 X63.395 Y-58.750 Z-6.000 F240.000
G1 X66.930 Y-58.750 Z-6.000 F240.000
G1 X76.430 Y-49.250 Z-6.000 F240.000
G1 X79.966 Y-49.250 Z-6.000 F240.000
G1 X70.466 Y-58.750 Z-6.000 F240.000
G1 X74.001 Y-58.750 Z-6.000 F240.000
G1 X83.501 Y-49.250 Z-6.000 F240.000
G1 X87.037 Y-49.250 Z-6.000 F240.000
G1 X77.537 Y-58.750 Z-6.000 F240.000
G1 X81.072 Y-58.750 Z-6.000 F240.000
G1 X98.750 Y-41.072 Z-6.000 F240.000
G1 X98.750 Y-44.608 Z-6.000 F240.000
G1 X84.608 Y-58.750 Z-6.000 F240.000
G1 X88.143 Y-58.750 Z-6.000 F240.000
G1 X98.750 Y-48.143 Z-6.000 F240.000
G1 X98.750 Y-51.679 Z-6.000 F240.000
G1 X91.679 Y-58.750 Z-6.000 F240.000
G1 X95.214 Y-58.750 Z-6.000 F240.000
G1 X98.750 Y-55.214 Z-6.000 F240.000
G1 X98.750 Y-58.750 Z-6.000 F240.000
G1 X98.750 Y-58.750 Z-7.000 F240.000
G1 X98.750 Y-55.214 Z-7.000 F240.000
G1 X95.214 Y-58.750 Z-7.000 F240.000
G1 X91.679 Y-58.750 Z-7.000 F240.000
G1 X98.750 Y-51.679 Z-7.000 F240.000
G1 X98.750 Y-48.143 Z-7.000 F240.000
G1 X88.143 Y-58.750 Z-7.000 F240.000
G1 X84.608 Y-58.750 Z-7.000 F240.000
G1 X98.750 Y-44.608 Z-7.000 F240.000
G1 X98.750 Y-41.072 Z-7.000 F240.000
G1 X81.072 Y-58.750 Z-7.000 F240.000
G1 X77.537 Y-58.750 Z-7.000 F240.000
G1 X87.037 Y-49.250 Z-7.000 F240.000
G1 X83.501 Y-49.250 Z-7.000 F240.000
G1 X74.001 Y-58.750 Z-7.000 F240.000
G1 X70.466 Y-58.750 Z-7.000 F240.000
G1 X79.966 Y-49.250 Z-7.000 F240.000
G1 X76.430 Y-49.250 Z-7.000 F240.000
G1 X66.930 Y-58.750 Z-7.000 F240.000
G1 X63.395 Y-58.750 Z-7.000 F240.000
G1 X72.895 Y-49.250 Z-7.000 F240.000
G1 X69.359 Y-49.250 Z-7.000 F240.000
G1 X59.859 Y-58.750 Z-7.000 F240.000
G1 X56.324 Y-58.750 Z-7.000 F240.000
G1 X65.824 Y-49.250 Z-7.000 F240.000
G1 X62.288 Y-49.250 Z-7.000 F240.000
G1 X52.788 Y-58.750 Z-7.000 F240.000
G1 X49.253 Y-58.750 Z-7.000 F240.000
G1 X58.753 Y-49.250 Z-7.000 F240.000
G1 X55.217 Y-49.250 Z-7.000 F240.000
G1 X45.717 Y-58.750 Z-7.000 F240.000
G1 X42.181 Y-58.750 Z-7.000 F240.000
G1 X51.681 Y-49.250 Z-7.000 F240.000
G1 X48.146 Y-49.250 Z-7.000 F240.000
G1 X38.646 Y-58.750 Z-7.000 F240.000
G1 X35.110 Y-58.750 Z-7.000 F240.000
G1 X44.610 Y-49.250 Z-7.000 F240.000
G1 X41.075 Y-49.250 Z-7.000 F240.000
G1 X31.575 Y-58.750 Z-7.000 F240.000
G1 X28.039 Y-58.750 Z-7.000 F240.000
G1 X37.539 Y-49.250 Z-7.000 F240.000
G1 X34.004 Y-49.250 Z-7.000 F240.000
G1 X24.504 Y-58.750 Z-7.000 F240.000
G1 X20.968 Y-58.750 Z-7.000 F240.000
G1 X30.468 Y-49.250 Z-7.000 F240.000
G1 X26.933 Y-49.250 Z-7.000 F240.000
G1 X17.433 Y-58.750 Z-7.000 F240.000
G1 X13.897 Y-58.750 Z-7.000 F240.000
G1 X23.397 Y-49.250 Z-7.000 F240.000
G1 X19.862 Y-49.250 Z-7.000 F240.000
G1 X10.362 Y-58.750 Z-7.000 F240.000
G1 X6.826 Y-58.750 Z-7.000 F240.000
G1 X16.326 Y-49.250 Z-7.000 F240.000
G1 X12.791 Y-49.250 Z-7.000 F240.000
G1 X3.291 Y-58.750 Z-7.000 F240.000
G1 X-0.245 Y-58.750 Z-7.000 F240.000
G1 X9.255 Y-49.250 Z-7.000 F240.000
G1 X5.720 Y-49.250 Z-7.000 F240.000
G1 X-3.780 Y-58.750 Z-7.000 F240.000
G1 X-7.316 Y-58.750 Z-7.000 F240.000
G1 X2.184 Y-49.250 Z-7.000 F240.000
G1 X-1.352 Y-49.250 Z-7.000 F240.000
G1 X-10.852 Y-58.750 Z-7.000 F240.000
G1 X-14.387 Y-58.750 Z-7.000 F240.000
G1 X-4.887 Y-49.250 Z-7.000 F240.000
G1 X-8.423 Y-49.250 Z-7.000 F240.000
G1 X-17.923 Y-58.750 Z-7.000 F240.000
G1 X-21.458 Y-58.750 Z-7.000 F240.000
G1 X-11.958 Y-49.250 Z-7.000 F240.000
G1 X-15.494 Y-49.250 Z-7.000 F240.000
G1 X-24.994 Y-58.750 Z-7.000 F240.000
G1 X-28.529 Y-58.750 Z-7.000 F240.000
G1 X-19.029 Y-49.250 Z-7.000 F240.000
G1 X-22.565 Y-49.250 Z-7.000 F240.000
G1 X-32.065 Y-58.750 Z-7.000 F240.000
G1 X-35.600 Y-58.750 Z-7.000 F240.000
G1 X-26.100 Y-49.250 Z-7.000 F240.000
G1 X-29.636 Y-49.250 Z-7.000 F240.000
G1 X-39.136 Y-58.750 Z-7.000 F240.000
G1 X-42.671 Y-58.750 Z-7.000 F240.000
G1 X-33.171 Y-49.250 Z-7.000 F240.000
G1 X-36.707 Y-49.250 Z-7.000 F240.000
G1 X-46.207 Y-58.750 Z-7.000 F240.000
G1 X-49.742 Y-58.750 Z-7.000 F240.000
G1 X-40.242 Y-49.250 Z-7.000 F240.000
G1 X-43.778 Y-49.250 Z-7.000 F240.000
G1 X-53.278 Y-58.750 Z-7.000 F240.000
G1 X-56.813 Y-58.750 Z-7.000 F240.000
G1 X-47.313 Y-49.250 Z-7.000 F240.000
G1 X-50.849 Y-49.250 Z-7.000 F240.000
G1 X-60.349 Y-58.750 Z-7.000 F240.000
G1 X-63.885 Y-58.750 Z-7.000 F240.000
G1 X-54.385 Y-49.250 Z-7.000 F240.000
G1 X-57.920 Y-49.250 Z-7.000 F240.000
G1 X-67.420 Y-58.750 Z-7.000 F240.000
G1 X-70.956 Y-58.750 Z-7.000 F240.000
G1 X-61.456 Y-49.250 Z-7.000 F240.000
G1 X-64.991 Y-49.250 Z-7.000 F240.000
G1 X-74.491 Y-58.750 Z-7.000 F240.000
G1 X-78.027 Y-58.750 Z-7.000 F240.000
G1 X-68.527 Y-49.250 Z-7.000 F240.000
G1 X-72.062 Y-49.250 Z-7.000 F240.000
G1 X-81.562 Y-58.750 Z-7.000 F240.000
G1 X-85.098 Y-58.750 Z-7.000 F240.000
G1 X-75.598 Y-49.250 Z-7.000 F240.000
G1 X-79.133 Y-49.250 Z-7.000 F240.000
G1 X-88.633 Y-58.750 Z-7.000 F240.000
G1 X-92.169 Y-58.750 Z-7.000 F240.000
G1 X-82.669 Y-49.250 Z-7.000 F240.000
G1 X-86.204 Y-49.250 Z-7.000 F240.000
G1 X-95.704 Y-58.750 Z-7.000 F240.000
G1 X-98.750 Y-58.750 Z-7.000 F240.000
G1 X-98.750 Y-58.260 Z-7.000 F240.000
G1 X-89.090 Y-48.600 Z-7.000 F240.000
G2 X-89.250 Y-48.000 Z-7.000 I1.012 J0.591 K0.000 F240.000
G1 X-89.250 Y-45.225 Z-7.000 F240.000
G1 X-98.750 Y-54.725 Z-7.000 F240.000
G1 X-98.750 Y-51.189 Z-7.000 F240.000
G1 X-89.250 Y-41.689 Z-7.000 F240.000
G1 X-89.250 Y-38.153 Z-7.000 F240.000
G1 X-98.750 Y-47.653 Z-7.000 F240.000
G1 X-98.750 Y-44.118 Z-7.000 F240.000
G1 X-89.250 Y-34.618 Z-7.000 F240.000
G1 X-89.250 Y-31.082 Z-7.000 F240.000
G1 X-98.750 Y-40.582 Z-7.000 F240.000
G1 X-98.750 Y-37.047 Z-7.000 F240.000
G1 X-89.250 Y-27.547 Z-7.000 F240.000
G1 X-89.250 Y-24.011 Z-7.000 F240.000
G1 X-98.750 Y-33.511 Z-7.000 F240.000
G1 X-98.750 Y-29.976 Z-7.000 F240.000
G1 X-89.250 Y-20.476 Z-7.000 F240.000
G1 X-89.250 Y-16.940 Z-7.000 F240.000
G1 X-98.750 Y-26.440 Z-7.000 F240.000
G1 X-98.750 Y-22.905 Z-7.000 F240.000
G1 X-89.250 Y-13.405 Z-7.000 F240.000
G1 X-89.250 Y-9.869 Z-7.000 F240.000
G1 X-98.750 Y-19.369 Z-7.000 F240.000
G1 X-98.750 Y-15.834 Z-7.000 F240.000
G1 X-89.250 Y-6.334 Z-7.000 F240.000
G1 X-89.250 Y-2.798 Z-7.000 F240.000
G1 X-98.750 Y-12.298 Z-7.000 F240.000
G1 X-98.750 Y-8.763 Z-7.000 F240.000
G1 X-89.250 Y0.737 Z-7.000 F240.000
G1 X-89.250 Y4.273 Z-7.000 F240.000
G1 X-98.750 Y-5.227 Z-7.000 F240.000
G1 X-98.750 Y-1.692 Z-7.000 F240.000
G1 X-89.250 Y7.808 Z-7.000 F240.000
G1 X-89.250 Y11.344 Z-7.000 F240.000
G1 X-98.750 Y1.844 Z-7.000 F240.000
G1 X-98.750 Y5.380 Z-7.000 F240.000
G1 X-89.250 Y14.880 Z-7.000 F240.000
G1 X-89.250 Y18.415 Z-7.000 F240.000
G1 X-98.750 Y8.915 Z-7.000 F240.000
G1 X-98.750 Y12.451 Z-7.000 F240.000
G1 X-89.250 Y21.951 Z-7.000 F240.000
G1 X-89.250 Y25.486 Z-7.000 F240.000
G1 X-98.750 Y15.986 Z-7.000 F240.000
G1 X-98.750 Y19.522 Z-7.000 F240.000
G1 X-89.250 Y29.022 Z-7.000 F240.000
G1 X-89.250 Y32.557 Z-7.000 F240.000
G1 X-98.750 Y23.057 Z-7.000 F240.000
G1 X-98.750 Y26.593 Z-7.000 F240.000
G1 X-89.250 Y36.093 Z-7.000 F240.000
G1 X-89.250 Y39.628 Z-7.000 F240.000
G1 X-98.750 Y30.128 Z-7.000 F240.000
G1 X-98.750 Y33.664 Z-7.000 F240.000
G1 X-89.250 Y43.164 Z-7.000 F240.000
G1 X-89.250 Y46.699 Z-7.000 F240.000
G1 X-98.750 Y37.199 Z-7.000 F240.000
G0 Z17.000
G0 X-89.250 Z17.000
G0 X-89.250 Z15.000
G1 X-89.250 Y37.199 Z-7.000 F240.000
G1 X-89.250 Y-48.000 Z-7.000 F240.000
G3 X-88.000 Y-49.250 Z-7.000 I1.250 J0.000 K0.000 F240.000
G1 X88.000 Y-49.250 Z-7.000 F240.000
G3 X89.250 Y-48.000 Z-7.000 I-0.000 J1.250 K0.000 F240.000
G1 X89.250 Y48.000 Z-7.000 F240.000
G3 X88.000 Y49.250 Z-7.000 I-1.250 J-0.000 K0.000 F240.000
G1 X-88.000 Y49.250 Z-7.000 F240.000
G3 X-89.250 Y48.000 Z-7.000 I0.000 J-1.250 K0.000 F240.000
G1 X-89.250 Y37.199 Z-7.000 F240.000
G0 Z17.000
G0 X-98.750 Y58.413 Z17.000
G0 X-98.750 Y58.413 Z15.000
G1 X-98.750 Y58.413 Z-7.000 F240.000
G1 X-98.413 Y58.750 Z-7.000 F240.000
G1 X-98.750 Y58.750 Z-7.000 F240.000
G1 X-98.750 Y58.413 Z-7.000 F240.000
G0 Z17.000
G0 X-98.413 Y58.750 Z17.000
G0 X-98.413 Y58.750 Z15.000
G1 X-98.413 Y58.750 Z-7.000 F240.000
G1 X98.750 Y58.750 Z-7.000 F240.000
G1 X98.750 Y-58.750 Z-7.000 F240.000
G1 X-98.750 Y-58.750 Z-7.000 F240.000
G1 X-98.750 Y-58.750 Z-7.000 F240.000
G1 X-98.750 Y58.750 Z-7.000 F240.000
G1 X-98.413 Y58.750 Z-7.000 F240.000
G1 X-94.877 Y58.750 Z-7.000 F240.000
G1 X-98.750 Y54.877 Z-7.000 F240.000
G1 X-98.750 Y51.341 Z-7.000 F240.000
G1 X-91.341 Y58.750 Z-7.000 F240.000
G1 X-87.806 Y58.750 Z-7.000 F240.000
G1 X-98.750 Y47.806 Z-7.000 F240.000
G1 X-98.750 Y44.270 Z-7.000 F240.000
G1 X-84.270 Y58.750 Z-7.000 F240.000
G1 X-80.735 Y58.750 Z-7.000 F240.000
G1 X-98.750 Y40.735 Z-7.000 F240.000
G1 X-98.750 Y37.199 Z-7.000 F240.000
G1 X-89.250 Y46.699 Z-7.000 F240.000
G1 X-89.250 Y48.000 Z-7.000 F240.000
G2 X-88.000 Y49.250 Z-7.000 I1.250 J-0.000 K0.000 F240.000
G1 X-86.699 Y49.250 Z-7.000 F240.000
G1 X-77.199 Y58.750 Z-7.000 F240.000
G1 X-73.664 Y58.750 Z-7.000 F240.000
G1 X-83.164 Y49.250 Z-7.000 F240.000
G1 X-79.628 Y49.250 Z-7.000 F240.000
G1 X-70.128 Y58.750 Z-7.000 F240.000
G1 X-66.593 Y58.750 Z-7.000 F240.000
G1 X-76.093 Y49.250 Z-7.000 F240.000
G1 X-72.557 Y49.250 Z-7.000 F240.000
G1 X-63.057 Y58.750 Z-7.000 F240.000
G1 X-59.522 Y58.750 Z-7.000 F240.000
G1 X-69.022 Y49.250 Z-7.000 F240.000
G1 X-65.486 Y49.250 Z-7.000 F240.000
G1 X-55.986 Y58.750 Z-7.000 F240.000
G1 X-52.451 Y58.750 Z-7.000 F240.000
G1 X-61.951 Y49.250 Z-7.000 F240.000
G1 X-58.415 Y49.250 Z-7.000 F240.000
G1 X-48.915 Y58.750 Z-7.000 F240.000
G1 X-45.380 Y58.750 Z-7.000 F240.000
G1 X-54.880 Y49.250 Z-7.000 F240.000
G1 X-51.344 Y49.250 Z-7.000 F240.000
G1 X-41.844 Y58.750 Z-7.000 F240.000
G1 X-38.308 Y58.750 Z-7.000 F240.000
G1 X-47.808 Y49.250 Z-7.000 F240.000
G1 X-44.273 Y49.250 Z-7.000 F240.000
G1 X-34.773 Y58.750 Z-7.000 F240.000
G1 X-31.237 Y58.750 Z-7.000 F240.000
G1 X-40.737 Y49.250 Z-7.000 F240.000
G1 X-37.202 Y49.250 Z-7.000 F240.000
G1 X-27.702 Y58.750 Z-7.000 F240.000
G1 X-24.166 Y58.750 Z-7.000 F240.000
G1 X-33.666 Y49.250 Z-7.000 F240.000
G1 X-30.131 Y49.250 Z-7.000 F240.000
G1 X-20.631 Y58.750 Z-7.000 F240.000
G1 X-17.095 Y58.750 Z-7.000 F240.000
G1 X-26.595 Y49.250 Z-7.000 F240.000
G1 X-23.060 Y49.250 Z-7.000 F240.000
G1 X-13.560 Y58.750 Z-7.000 F240.000
G1 X-10.024 Y58.750 Z-7.000 F240.000
G1 X-19.524 Y49.250 Z-7.000 F240.000
G1 X-15.989 Y49.250 Z-7.000 F240.000
G1 X-6.489 Y58.750 Z-7.000 F240.000
G1 X-2.953 Y58.750 Z-7.000 F240.000
G1 X-12.453 Y49.250 Z-7.000 F240.000
G1 X-8.918 Y49.250 Z-7.000 F240.000
G1 X0.582 Y58.750 Z-7.000 F240.000
G1 X4.118 Y58.750 Z-7.000 F240.000
G1 X-5.382 Y49.250 Z-7.000 F240.000
G1 X-1.847 Y49.250 Z-7.000 F240.000
G1 X7.653 Y58.750 Z-7.000 F240.000
G1 X11.189 Y58.750 Z-7.000 F240.000
G1 X1.689 Y49.250 Z-7.000 F240.000
G1 X5.225 Y49.250 Z-7.000 F240.000
G1 X14.725 Y58.750 Z-7.000 F240.000
G1 X18.260 Y58.750 Z-7.000 F240.000
G1 X8.760 Y49.250 Z-7.000 F240.000
G1 X12.296 Y49.250 Z-7.000 F240.000
G1 X21.796 Y58.750 Z-7.000 F240.000
G1 X25.331 Y58.750 Z-7.000 F240.000
G1 X15.831 Y49.250 Z-7.000 F240.000
G1 X19.367 Y49.250 Z-7.000 F240.000
G1 X28.867 Y58.750 Z-7.000 F240.000
G1 X32.402 Y58.750 Z-7.000 F240.000
G1 X22.902 Y49.250 Z-7.000 F240.000
G1 X26.438 Y49.250 Z-7.000 F240.000
G1 X35.938 Y58.750 Z-7.000 F240.000
G1 X39.473 Y58.750 Z-7.000 F240.000
G1 X29.973 Y49.250 Z-7.000 F240.000
G1 X33.509 Y49.250 Z-7.000 F240.000
G1 X43.009 Y58.750 Z-7.000 F240.000
G1 X46.544 Y58.750 Z-7.000 F240.000
G1 X37.044 Y49.250 Z-7.000 F240.000
G1 X40.580 Y49.250 Z-7.000 F240.000
G1 X50.080 Y58.750 Z-7.000 F240.000
G1 X53.615 Y58.750 Z-7.000 F240.000
G1 X44.115 Y49.250 Z-7.000 F240.000
G1 X47.651 Y49.250 Z-7.000 F240.000
G1 X57.151 Y58.750 Z-7.000 F240.000
G1 X60.687 Y58.750 Z-7.000 F240.000
G1 X51.187 Y49.250 Z-7.000 F240.000
G1 X54.722 Y49.250 Z-7.000 F240.000
G1 X64.222 Y58.750 Z-7.000 F240.000
G1 X67.758 Y58.750 Z-7.000 F240.000
G1 X58.258 Y49.250 Z-7.000 F240.000
G1 X61.793 Y49.250 Z-7.000 F240.000
G1 X71.293 Y58.750 Z-7.000 F240.000
G1 X74.829 Y58.750 Z-7.000 F240.000
G1 X65.329 Y49.250 Z-7.000 F240.000
G1 X68.864 Y49.250 Z-7.000 F240.000
G1 X78.364 Y58.750 Z-7.000 F240.000
G1 X81.900 Y58.750 Z-7.000 F240.000
G1 X72.400 Y49.250 Z-7.000 F240.000
G1 X75.935 Y49.250 Z-7.000 F240.000
G1 X85.435 Y58.750 Z-7.000 F240.000
G1 X88.971 Y58.750 Z-7.000 F240.000
G1 X79.471 Y49.250 Z-7.000 F240.000
G1 X83.006 Y49.250 Z-7.000 F240.000
G1 X92.506 Y58.750 Z-7.000 F240.000
G1 X96.042 Y58.750 Z-7.000 F240.000
G1 X86.542 Y49.250 Z-7.000 F240.000
G1 X88.000 Y49.250 Z-7.000 F240.000
G2 X89.189 Y48.362 Z-7.000 I0.006 J-1.232 K0.000 F240.000
G1 X98.750 Y57.923 Z-7.000 F240.000
G1 X98.750 Y54.387 Z-7.000 F240.000
G1 X89.250 Y44.887 Z-7.000 F240.000
G1 X89.250 Y41.352 Z-7.000 F240.000
G1 X98.750 Y50.852 Z-7.000 F240.000
G1 X98.750 Y47.316 Z-7.000 F240.000
G1 X89.250 Y37.816 Z-7.000 F240.000
G1 X89.250 Y34.280 Z-7.000 F240.000
G1 X98.750 Y43.780 Z-7.000 F240.000
G1 X98.750 Y40.245 Z-7.000 F240.000
G1 X89.250 Y30.745 Z-7.000 F240.000
G1 X89.250 Y27.209 Z-7.000 F240.000
G1 X98.750 Y36.709 Z-7.000 F240.000
G1 X98.750 Y33.174 Z-7.000 F240.000
G1 X89.250 Y23.674 Z-7.000 F240.000
G1 X89.250 Y20.138 Z-7.000 F240.000
G1 X98.750 Y29.638 Z-7.000 F240.000
G1 X98.750 Y26.103 Z-7.000 F240.000
G1 X89.250 Y16.603 Z-7.000 F240.000
G1 X89.250 Y13.067 Z-7.000 F240.000
G1 X98.750 Y22.567 Z-7.000 F240.000
G1 X98.750 Y19.032 Z-7.000 F240.000
G1 X89.250 Y9.532 Z-7.000 F240.000
G1 X89.250 Y5.996 Z-7.000 F240.000
G1 X98.750 Y15.496 Z-7.000 F240.000
G1 X98.750 Y11.961 Z-7.000 F240.000
G1 X89.250 Y2.461 Z-7.000 F240.000
G1 X89.250 Y-1.075 Z-7.000 F240.000
G1 X98.750 Y8.425 Z-7.000 F240.000
G1 X98.750 Y4.890 Z-7.000 F240.000
G1 X89.250 Y-4.610 Z-7.000 F240.000
G1 X89.250 Y-8.146 Z-7.000 F240.000
G1 X98.750 Y1.354 Z-7.000 F240.000
G1 X98.750 Y-2.181 Z-7.000 F240.000
G1 X89.250 Y-11.681 Z-7.000 F240.000
G1 X89.250 Y-15.217 Z-7.000 F240.000
G1 X98.750 Y-5.717 Z-7.000 F240.000
G1 X98.750 Y-9.253 Z-7.000 F240.000
G1 X89.250 Y-18.753 Z-7.000 F240.000
G1 X89.250 Y-22.288 Z-7.000 F240.000
G1 X98.750 Y-12.788 Z-7.000 F240.000
G1 X98.750 Y-16.324 Z-7.000 F240.000
G1 X89.250 Y-25.824 Z-7.000 F240.000
G1 X89.250 Y-29.359 Z-7.000 F240.000
G1 X98.750 Y-19.859 Z-7.000 F240.000
G1 X98.750 Y-23.395 Z-7.000 F240.000
G1 X89.250 Y-32.895 Z-7.000 F240.000
G1 X89.250 Y-36.430 Z-7.000 F240.000
G1 X98.750 Y-26.930 Z-7.000 F240.000
G1 X98.750 Y-30.466 Z-7.000 F240.000
G1 X89.250 Y-39.966 Z-7.000 F240.000
G1 X89.250 Y-43.501 Z-7.000 F240.000
G1 X98.750 Y-34.001 Z-7.000 F240.000
G1 X98.750 Y-37.537 Z-7.000 F240.000
G1 X89.250 Y-47.037 Z-7.000 F240.000
G0 Z17.000
G0 Z17.000
(Finish operation: Pocket_Shape)
(Begin operation: Profile003)
(Path: Profile003)
(Profile003)
(Compensated Tool Path. Diameter: 2.5)
G0 Z17.000
G0 X100.884 Y60.884
G0 Z15.000
G1 X100.884 Y60.884 Z-2.500 F240.000
G2 X101.250 Y60.000 Z-2.500 I-0.884 J-0.884 K0.000 F240.000
G1 X101.250 Y-60.000 Z-2.500 F240.000
G2 X100.000 Y-61.250 Z-2.500 I-1.250 J-0.000 K0.000 F240.000
G1 X-100.000 Y-61.250 Z-2.500 F240.000
G2 X-101.250 Y-60.000 Z-2.500 I-0.000 J1.250 K0.000 F240.000
G1 X-101.250 Y60.000 Z-2.500 F240.000
G2 X-100.000 Y61.250 Z-2.500 I1.250 J0.000 K0.000 F240.000
G1 X100.000 Y61.250 Z-2.500 F240.000
G2 X100.884 Y60.884 Z-2.500 I0.000 J-1.250 K0.000 F240.000
G1 X100.884 Y60.884 Z-5.000 F240.000
G2 X101.250 Y60.000 Z-5.000 I-0.884 J-0.884 K0.000 F240.000
G1 X101.250 Y-60.000 Z-5.000 F240.000
G2 X100.000 Y-61.250 Z-5.000 I-1.250 J-0.000 K0.000 F240.000
G1 X-100.000 Y-61.250 Z-5.000 F240.000
G2 X-101.250 Y-60.000 Z-5.000 I-0.000 J1.250 K0.000 F240.000
G1 X-101.250 Y60.000 Z-5.000 F240.000
G2 X-100.000 Y61.250 Z-5.000 I1.250 J0.000 K0.000 F240.000
G1 X100.000 Y61.250 Z-5.000 F240.000
G2 X100.884 Y60.884 Z-5.000 I0.000 J-1.250 K0.000 F240.000
G1 X100.884 Y60.884 Z-7.500 F240.000
G2 X101.250 Y60.000 Z-7.500 I-0.884 J-0.884 K0.000 F240.000
G1 X101.250 Y-60.000 Z-7.500 F240.000
G2 X100.000 Y-61.250 Z-7.500 I-1.250 J-0.000 K0.000 F240.000
G1 X-100.000 Y-61.250 Z-7.500 F240.000
G2 X-101.250 Y-60.000 Z-7.500 I-0.000 J1.250 K0.000 F240.000
G1 X-101.250 Y60.000 Z-7.500 F240.000
G2 X-100.000 Y61.250 Z-7.500 I1.250 J0.000 K0.000 F240.000
G1 X100.000 Y61.250 Z-7.500 F240.000
G2 X100.884 Y60.884 Z-7.500 I0.000 J-1.250 K0.000 F240.000
G1 X100.884 Y60.884 Z-10.000 F240.000
G2 X101.250 Y60.000 Z-10.000 I-0.884 J-0.884 K0.000 F240.000
G1 X101.250 Y-60.000 Z-10.000 F240.000
G2 X100.000 Y-61.250 Z-10.000 I-1.250 J-0.000 K0.000 F240.000
G1 X-100.000 Y-61.250 Z-10.000 F240.000
G2 X-101.250 Y-60.000 Z-10.000 I-0.000 J1.250 K0.000 F240.000
G1 X-101.250 Y60.000 Z-10.000 F240.000
G2 X-100.000 Y61.250 Z-10.000 I1.250 J0.000 K0.000 F240.000
G1 X100.000 Y61.250 Z-10.000 F240.000
G2 X100.884 Y60.884 Z-10.000 I0.000 J-1.250 K0.000 F240.000
G1 X100.884 Y60.884 Z-12.000 F240.000
G2 X101.250 Y60.000 Z-12.000 I-0.884 J-0.884 K0.000 F240.000
G1 X101.250 Y-60.000 Z-12.000 F240.000
G2 X100.000 Y-61.250 Z-12.000 I-1.250 J-0.000 K0.000 F240.000
G1 X-100.000 Y-61.250 Z-12.000 F240.000
G2 X-101.250 Y-60.000 Z-12.000 I-0.000 J1.250 K0.000 F240.000
G1 X-101.250 Y60.000 Z-12.000 F240.000
G2 X-100.000 Y61.250 Z-12.000 I1.250 J0.000 K0.000 F240.000
G1 X100.000 Y61.250 Z-12.000 F240.000
G2 X100.884 Y60.884 Z-12.000 I0.000 J-1.250 K0.000 F240.000
G0 Z17.000
G0 Z17.000
(Finish operation: Profile003)
(Begin postamble)
M5
G17 G90
M2
