(Exported by FreeCAD)
(Post Processor: script_module)
(Output Time:2026-02-13 15:46:42.943167)
(Begin preamble)
G17 G90
G21
(Begin operation: Fixture)
(Path: Fixture)
G54
(Finish operation: Fixture)
(Begin operation: 2_5mmEndMill004)
(Path: 2_5mmEndMill004)
(2_5mmEndMill004)
(Begin toolchange)
( M6 T2 )
M3 S10000
(Finish operation: 2_5mmEndMill004)
(Begin operation: Profile002)
(Path: Profile002)
(Profile002)
(Compensated Tool Path. Diameter: 2.5)
G0 Z5.000
G0 X102.884 Y55.884
G0 Z3.000
G1 X102.884 Y55.884 Z-2.000 F240.000
G2 X103.250 Y55.000 Z-2.000 I-0.884 J-0.884 K0.000 F240.000
G1 X103.250 Y33.000 Z-2.000 F240.000
G2 X102.000 Y31.750 Z-2.000 I-1.250 J-0.000 K0.000 F240.000
G1 X89.250 Y31.750 Z-2.000 F240.000
G1 X89.250 Y12.250 Z-2.000 F240.000
G1 X102.000 Y12.250 Z-2.000 F240.000
G2 X103.250 Y11.000 Z-2.000 I0.000 J-1.250 K0.000 F240.000
G1 X103.250 Y-11.000 Z-2.000 F240.000
G2 X102.000 Y-12.250 Z-2.000 I-1.250 J-0.000 K0.000 F240.000
G1 X89.250 Y-12.250 Z-2.000 F240.000
G1 X89.250 Y-31.750 Z-2.000 F240.000
G1 X102.000 Y-31.750 Z-2.000 F240.000
G2 X103.250 Y-33.000 Z-2.000 I0.000 J-1.250 K0.000 F240.000
G1 X103.250 Y-55.000 Z-2.000 F240.000
G2 X102.000 Y-56.250 Z-2.000 I-1.250 J-0.000 K0.000 F240.000
G1 X-102.000 Y-56.250 Z-2.000 F240.000
G2 X-103.250 Y-55.000 Z-2.000 I-0.000 J1.250 K0.000 F240.000
G1 X-103.250 Y-33.000 Z-2.000 F240.000
G2 X-102.000 Y-31.750 Z-2.000 I1.250 J0.000 K0.000 F240.000
G1 X-89.250 Y-31.750 Z-2.000 F240.000
G1 X-89.250 Y-12.250 Z-2.000 F240.000
G1 X-102.000 Y-12.250 Z-2.000 F240.000
G2 X-103.250 Y-11.000 Z-2.000 I-0.000 J1.250 K0.000 F240.000
G1 X-103.250 Y11.000 Z-2.000 F240.000
G2 X-102.000 Y12.250 Z-2.000 I1.250 J0.000 K0.000 F240.000
G1 X-89.250 Y12.250 Z-2.000 F240.000
G1 X-89.250 Y31.750 Z-2.000 F240.000
G1 X-102.000 Y31.750 Z-2.000 F240.000
G2 X-103.250 Y33.000 Z-2.000 I-0.000 J1.250 K0.000 F240.000
G1 X-103.250 Y55.000 Z-2.000 F240.000
G2 X-102.000 Y56.250 Z-2.000 I1.250 J0.000 K0.000 F240.000
G1 X102.000 Y56.250 Z-2.000 F240.000
G2 X102.884 Y55.884 Z-2.000 I0.000 J-1.250 K0.000 F240.000
G1 X102.884 Y55.884 Z-4.000 F240.000
G2 X103.250 Y55.000 Z-4.000 I-0.884 J-0.884 K0.000 F240.000
G1 X103.250 Y33.000 Z-4.000 F240.000
G2 X102.000 Y31.750 Z-4.000 I-1.250 J-0.000 K0.000 F240.000
G1 X89.250 Y31.750 Z-4.000 F240.000
G1 X89.250 Y12.250 Z-4.000 F240.000
G1 X102.000 Y12.250 Z-4.000 F240.000
G2 X103.250 Y11.000 Z-4.000 I0.000 J-1.250 K0.000 F240.000
G1 X103.250 Y-11.000 Z-4.000 F240.000
G2 X102.000 Y-12.250 Z-4.000 I-1.250 J-0.000 K0.000 F240.000
G1 X89.250 Y-12.250 Z-4.000 F240.000
G1 X89.250 Y-31.750 Z-4.000 F240.000
G1 X102.000 Y-31.750 Z-4.000 F240.000
G2 X103.250 Y-33.000 Z-4.000 I0.000 J-1.250 K0.000 F240.000
G1 X103.250 Y-55.000 Z-4.000 F240.000
G2 X102.000 Y-56.250 Z-4.000 I-1.250 J-0.000 K0.000 F240.000
G1 X-102.000 Y-56.250 Z-4.000 F240.000
G2 X-103.250 Y-55.000 Z-4.000 I-0.000 J1.250 K0.000 F240.000
G1 X-103.250 Y-33.000 Z-4.000 F240.000
G2 X-102.000 Y-31.750 Z-4.000 I1.250 J0.000 K0.000 F240.000
G1 X-89.250 Y-31.750 Z-4.000 F240.000
G1 X-89.250 Y-12.250 Z-4.000 F240.000
G1 X-102.000 Y-12.250 Z-4.000 F240.000
G2 X-103.250 Y-11.000 Z-4.000 I-0.000 J1.250 K0.000 F240.000
G1 X-103.250 Y11.000 Z-4.000 F240.000
G2 X-102.000 Y12.250 Z-4.000 I1.250 J0.000 K0.000 F240.000
G1 X-89.250 Y12.250 Z-4.000 F240.000
G1 X-89.250 Y31.750 Z-4.000 F240.000
G1 X-102.000 Y31.750 Z-4.000 F240.000
G2 X-103.250 Y33.000 Z-4.000 I-0.000 J1.250 K0.000 F240.000
G1 X-103.250 Y55.000 Z-4.000 F240.000
G2 X-102.000 Y56.250 Z-4.000 I1.250 J0.000 K0.000 F240.000
G1 X102.000 Y56.250 Z-4.000 F240.000
G2 X102.884 Y55.884 Z-4.000 I0.000 J-1.250 K0.000 F240.000
G1 X102.884 Y55.884 Z-6.000 F240.000
G2 X103.250 Y55.000 Z-6.000 I-0.884 J-0.884 K0.000 F240.000
G1 X103.250 Y33.000 Z-6.000 F240.000
G2 X102.000 Y31.750 Z-6.000 I-1.250 J-0.000 K0.000 F240.000
G1 X89.250 Y31.750 Z-6.000 F240.000
G1 X89.250 Y12.250 Z-6.000 F240.000
G1 X102.000 Y12.250 Z-6.000 F240.000
G2 X103.250 Y11.000 Z-6.000 I0.000 J-1.250 K0.000 F240.000
G1 X103.250 Y-11.000 Z-6.000 F240.000
G2 X102.000 Y-12.250 Z-6.000 I-1.250 J-0.000 K0.000 F240.000
G1 X89.250 Y-12.250 Z-6.000 F240.000
G1 X89.250 Y-31.750 Z-6.000 F240.000
G1 X102.000 Y-31.750 Z-6.000 F240.000
G2 X103.250 Y-33.000 Z-6.000 I0.000 J-1.250 K0.000 F240.000
G1 X103.250 Y-55.000 Z-6.000 F240.000
G2 X102.000 Y-56.250 Z-6.000 I-1.250 J-0.000 K0.000 F240.000
G1 X-102.000 Y-56.250 Z-6.000 F240.000
G2 X-103.250 Y-55.000 Z-6.000 I-0.000 J1.250 K0.000 F240.000
G1 X-103.250 Y-33.000 Z-6.000 F240.000
G2 X-102.000 Y-31.750 Z-6.000 I1.250 J0.000 K0.000 F240.000
G1 X-89.250 Y-31.750 Z-6.000 F240.000
G1 X-89.250 Y-12.250 Z-6.000 F240.000
G1 X-102.000 Y-12.250 Z-6.000 F240.000
G2 X-103.250 Y-11.000 Z-6.000 I-0.000 J1.250 K0.000 F240.000
G1 X-103.250 Y11.000 Z-6.000 F240.000
G2 X-102.000 Y12.250 Z-6.000 I1.250 J0.000 K0.000 F240.000
G1 X-89.250 Y12.250 Z-6.000 F240.000
G1 X-89.250 Y31.750 Z-6.000 F240.000
G1 X-102.000 Y31.750 Z-6.000 F240.000
G2 X-103.250 Y33.000 Z-6.000 I-0.000 J1.250 K0.000 F240.000
G1 X-103.250 Y55.000 Z-6.000 F240.000
G2 X-102.000 Y56.250 Z-6.000 I1.250 J0.000 K0.000 F240.000
G1 X102.000 Y56.250 Z-6.000 F240.000
G2 X102.884 Y55.884 Z-6.000 I0.000 J-1.250 K0.000 F240.000
G1 X102.884 Y55.884 Z-8.000 F240.000
G2 X103.250 Y55.000 Z-8.000 I-0.884 J-0.884 K0.000 F240.000
G1 X103.250 Y33.000 Z-8.000 F240.000
G2 X102.000 Y31.750 Z-8.000 I-1.250 J-0.000 K0.000 F240.000
G1 X89.250 Y31.750 Z-8.000 F240.000
G1 X89.250 Y12.250 Z-8.000 F240.000
G1 X102.000 Y12.250 Z-8.000 F240.000
G2 X103.250 Y11.000 Z-8.000 I0.000 J-1.250 K0.000 F240.000
G1 X103.250 Y-11.000 Z-8.000 F240.000
G2 X102.000 Y-12.250 Z-8.000 I-1.250 J-0.000 K0.000 F240.000
G1 X89.250 Y-12.250 Z-8.000 F240.000
G1 X89.250 Y-31.750 Z-8.000 F240.000
G1 X102.000 Y-31.750 Z-8.000 F240.000
G2 X103.250 Y-33.000 Z-8.000 I0.000 J-1.250 K0.000 F240.000
G1 X103.250 Y-55.000 Z-8.000 F240.000
G2 X102.000 Y-56.250 Z-8.000 I-1.250 J-0.000 K0.000 F240.000
G1 X-102.000 Y-56.250 Z-8.000 F240.000
G2 X-103.250 Y-55.000 Z-8.000 I-0.000 J1.250 K0.000 F240.000
G1 X-103.250 Y-33.000 Z-8.000 F240.000
G2 X-102.000 Y-31.750 Z-8.000 I1.250 J0.000 K0.000 F240.000
G1 X-89.250 Y-31.750 Z-8.000 F240.000
G1 X-89.250 Y-12.250 Z-8.000 F240.000
G1 X-102.000 Y-12.250 Z-8.000 F240.000
G2 X-103.250 Y-11.000 Z-8.000 I-0.000 J1.250 K0.000 F240.000
G1 X-103.250 Y11.000 Z-8.000 F240.000
G2 X-102.000 Y12.250 Z-8.000 I1.250 J0.000 K0.000 F240.000
G1 X-89.250 Y12.250 Z-8.000 F240.000
G1 X-89.250 Y31.750 Z-8.000 F240.000
G1 X-102.000 Y31.750 Z-8.000 F240.000
G2 X-103.250 Y33.000 Z-8.000 I-0.000 J1.250 K0.000 F240.000
G1 X-103.250 Y55.000 Z-8.000 F240.000
G2 X-102.000 Y56.250 Z-8.000 I1.250 J0.000 K0.000 F240.000
G1 X102.000 Y56.250 Z-8.000 F240.000
G2 X102.884 Y55.884 Z-8.000 I0.000 J-1.250 K0.000 F240.000
G1 X102.884 Y55.884 Z-10.000 F240.000
G2 X103.250 Y55.000 Z-10.000 I-0.884 J-0.884 K0.000 F240.000
G1 X103.250 Y33.000 Z-10.000 F240.000
G2 X102.000 Y31.750 Z-10.000 I-1.250 J-0.000 K0.000 F240.000
G1 X89.250 Y31.750 Z-10.000 F240.000
G1 X89.250 Y12.250 Z-10.000 F240.000
G1 X102.000 Y12.250 Z-10.000 F240.000
G2 X103.250 Y11.000 Z-10.000 I0.000 J-1.250 K0.000 F240.000
G1 X103.250 Y-11.000 Z-10.000 F240.000
G2 X102.000 Y-12.250 Z-10.000 I-1.250 J-0.000 K0.000 F240.000
G1 X89.250 Y-12.250 Z-10.000 F240.000
G1 X89.250 Y-31.750 Z-10.000 F240.000
G1 X102.000 Y-31.750 Z-10.000 F240.000
G2 X103.250 Y-33.000 Z-10.000 I0.000 J-1.250 K0.000 F240.000
G1 X103.250 Y-55.000 Z-10.000 F240.000
G2 X102.000 Y-56.250 Z-10.000 I-1.250 J-0.000 K0.000 F240.000
G1 X-102.000 Y-56.250 Z-10.000 F240.000
G2 X-103.250 Y-55.000 Z-10.000 I-0.000 J1.250 K0.000 F240.000
G1 X-103.250 Y-33.000 Z-10.000 F240.000
G2 X-102.000 Y-31.750 Z-10.000 I1.250 J0.000 K0.000 F240.000
G1 X-89.250 Y-31.750 Z-10.000 F240.000
G1 X-89.250 Y-12.250 Z-10.000 F240.000
G1 X-102.000 Y-12.250 Z-10.000 F240.000
G2 X-103.250 Y-11.000 Z-10.000 I-0.000 J1.250 K0.000 F240.000
G1 X-103.250 Y11.000 Z-10.000 F240.000
G2 X-102.000 Y12.250 Z-10.000 I1.250 J0.000 K0.000 F240.000
G1 X-89.250 Y12.250 Z-10.000 F240.000
G1 X-89.250 Y31.750 Z-10.000 F240.000
G1 X-102.000 Y31.750 Z-10.000 F240.000
G2 X-103.250 Y33.000 Z-10.000 I-0.000 J1.250 K0.000 F240.000
G1 X-103.250 Y55.000 Z-10.000 F240.000
G2 X-102.000 Y56.250 Z-10.000 I1.250 J0.000 K0.000 F240.000
G1 X102.000 Y56.250 Z-10.000 F240.000
G2 X102.884 Y55.884 Z-10.000 I0.000 J-1.250 K0.000 F240.000
G1 X102.884 Y55.884 Z-12.000 F240.000
G2 X103.250 Y55.000 Z-12.000 I-0.884 J-0.884 K0.000 F240.000
G1 X103.250 Y33.000 Z-12.000 F240.000
G2 X102.000 Y31.750 Z-12.000 I-1.250 J-0.000 K0.000 F240.000
G1 X89.250 Y31.750 Z-12.000 F240.000
G1 X89.250 Y12.250 Z-12.000 F240.000
G1 X102.000 Y12.250 Z-12.000 F240.000
G2 X103.250 Y11.000 Z-12.000 I0.000 J-1.250 K0.000 F240.000
G1 X103.250 Y-11.000 Z-12.000 F240.000
G2 X102.000 Y-12.250 Z-12.000 I-1.250 J-0.000 K0.000 F240.000
G1 X89.250 Y-12.250 Z-12.000 F240.000
G1 X89.250 Y-31.750 Z-12.000 F240.000
G1 X102.000 Y-31.750 Z-12.000 F240.000
G2 X103.250 Y-33.000 Z-12.000 I0.000 J-1.250 K0.000 F240.000
G1 X103.250 Y-55.000 Z-12.000 F240.000
G2 X102.000 Y-56.250 Z-12.000 I-1.250 J-0.000 K0.000 F240.000
G1 X-102.000 Y-56.250 Z-12.000 F240.000
G2 X-103.250 Y-55.000 Z-12.000 I-0.000 J1.250 K0.000 F240.000
G1 X-103.250 Y-33.000 Z-12.000 F240.000
G2 X-102.000 Y-31.750 Z-12.000 I1.250 J0.000 K0.000 F240.000
G1 X-89.250 Y-31.750 Z-12.000 F240.000
G1 X-89.250 Y-12.250 Z-12.000 F240.000
G1 X-102.000 Y-12.250 Z-12.000 F240.000
G2 X-103.250 Y-11.000 Z-12.000 I-0.000 J1.250 K0.000 F240.000
G1 X-103.250 Y11.000 Z-12.000 F240.000
G2 X-102.000 Y12.250 Z-12.000 I1.250 J0.000 K0.000 F240.000
G1 X-89.250 Y12.250 Z-12.000 F240.000
G1 X-89.250 Y31.750 Z-12.000 F240.000
G1 X-102.000 Y31.750 Z-12.000 F240.000
G2 X-103.250 Y33.000 Z-12.000 I-0.000 J1.250 K0.000 F240.000
G1 X-103.250 Y55.000 Z-12.000 F240.000
G2 X-102.000 Y56.250 Z-12.000 I1.250 J0.000 K0.000 F240.000
G1 X102.000 Y56.250 Z-12.000 F240.000
G2 X102.884 Y55.884 Z-12.000 I0.000 J-1.250 K0.000 F240.000
G0 Z5.000
G0 Z5.000
(Finish operation: Profile002)
(Begin postamble)
M5
G17 G90
M2
