(Exported by FreeCAD)
(Post Processor: script_module)
(Output Time:2026-04-17 12:58:28.472093)
(Begin preamble)
G17 G90
G21
(Begin operation: Fixture)
(Path: Fixture)
G54
(Finish operation: Fixture)
(Begin operation: 3175001)
(Path: 3175001)
(3175001)
(Begin toolchange)
( M6 T2 )
M3 S10000
(Finish operation: 3175001)
(Begin operation: Profile)
(Path: Profile)
(Profile)
(Compensated Tool Path. Diameter: 3.17)
G0 Z5.000
G0 X0.000 Y0.000
G0 X7.172
G0 X7.172 Z3.000
G1 X7.172 Y0.000 Z-2.000 F300.000
G1 X7.172 Y44.415 Z-2.000 F300.000
G1 X96.002 Y44.415 Z-2.000 F300.000
G1 X96.002 Y-44.415 Z-2.000 F300.000
G1 X7.172 Y-44.415 Z-2.000 F300.000
G1 X7.172 Y0.000 Z-2.000 F300.000
G1 X7.172 Y0.000 Z-4.000 F300.000
G1 X7.172 Y44.415 Z-4.000 F300.000
G1 X96.002 Y44.415 Z-4.000 F300.000
G1 X96.002 Y-44.415 Z-4.000 F300.000
G1 X7.172 Y-44.415 Z-4.000 F300.000
G1 X7.172 Y0.000 Z-4.000 F300.000
G1 X7.172 Y0.000 Z-6.000 F300.000
G1 X7.172 Y44.415 Z-6.000 F300.000
G1 X96.002 Y44.415 Z-6.000 F300.000
G1 X96.002 Y-44.415 Z-6.000 F300.000
G1 X7.172 Y-44.415 Z-6.000 F300.000
G1 X7.172 Y0.000 Z-6.000 F300.000
G1 X7.172 Y0.000 Z-8.000 F300.000
G1 X7.172 Y44.415 Z-8.000 F300.000
G1 X96.002 Y44.415 Z-8.000 F300.000
G1 X96.002 Y-44.415 Z-8.000 F300.000
G1 X7.172 Y-44.415 Z-8.000 F300.000
G1 X7.172 Y0.000 Z-8.000 F300.000
G1 X7.172 Y0.000 Z-10.000 F300.000
G1 X7.172 Y44.415 Z-10.000 F300.000
G1 X96.002 Y44.415 Z-10.000 F300.000
G1 X96.002 Y-44.415 Z-10.000 F300.000
G1 X7.172 Y-44.415 Z-10.000 F300.000
G1 X7.172 Y0.000 Z-10.000 F300.000
G1 X7.172 Y0.000 Z-12.000 F300.000
G1 X7.172 Y44.415 Z-12.000 F300.000
G1 X96.002 Y44.415 Z-12.000 F300.000
G1 X96.002 Y-44.415 Z-12.000 F300.000
G1 X7.172 Y-44.415 Z-12.000 F300.000
G1 X7.172 Y0.000 Z-12.000 F300.000
G1 X7.172 Y0.000 Z-14.000 F300.000
G1 X7.172 Y44.415 Z-14.000 F300.000
G1 X96.002 Y44.415 Z-14.000 F300.000
G1 X96.002 Y-44.415 Z-14.000 F300.000
G1 X7.172 Y-44.415 Z-14.000 F300.000
G1 X7.172 Y0.000 Z-14.000 F300.000
G1 X7.172 Y0.000 Z-16.000 F300.000
G1 X7.172 Y44.415 Z-16.000 F300.000
G1 X96.002 Y44.415 Z-16.000 F300.000
G1 X96.002 Y-44.415 Z-16.000 F300.000
G1 X7.172 Y-44.415 Z-16.000 F300.000
G1 X7.172 Y0.000 Z-16.000 F300.000
G1 X7.172 Y0.000 Z-18.000 F300.000
G1 X7.172 Y44.415 Z-18.000 F300.000
G1 X96.002 Y44.415 Z-18.000 F300.000
G1 X96.002 Y-44.415 Z-18.000 F300.000
G1 X7.172 Y-44.415 Z-18.000 F300.000
G1 X7.172 Y0.000 Z-18.000 F300.000
G1 X7.172 Y0.000 Z-20.000 F300.000
G1 X7.172 Y44.415 Z-20.000 F300.000
G1 X96.002 Y44.415 Z-20.000 F300.000
G1 X96.002 Y-44.415 Z-20.000 F300.000
G1 X7.172 Y-44.415 Z-20.000 F300.000
G1 X7.172 Y0.000 Z-20.000 F300.000
G1 X7.172 Y0.000 Z-21.000 F300.000
G1 X7.172 Y44.415 Z-21.000 F300.000
G1 X96.002 Y44.415 Z-21.000 F300.000
G1 X96.002 Y-44.415 Z-21.000 F300.000
G1 X7.172 Y-44.415 Z-21.000 F300.000
G1 X7.172 Y0.000 Z-21.000 F300.000
G0 Z5.000
G0 Z5.000
(Finish operation: Profile)
(Begin postamble)
M5
G17 G90
M2
