(Exported by FreeCAD)
(Post Processor: script_module)
(Output Time:2026-02-14 17:59:00.249266)
(begin preamble)
%
G17 G21 G40 G49 G80 G90
M08
G21
(begin operation: Fixture)
(machine: not set, mm/min)
G54
(finish operation: Fixture)
(begin operation: 2_5mmEndMill014)
(machine: not set, mm/min)
(2_5mmEndMill014)
M05
M09M6 T2
M3 S10000
(finish operation: 2_5mmEndMill014)
(begin operation: Pocket_Shape004)
(machine: not set, mm/min)
(Pocket_Shape004)
G0 Z5.000
G0 X-10.739 Y8.638
G0 Z3.000
G1 X-10.739 Y8.638 Z-2.500 F240.000
G1 X-10.739 Y1.917 Z-2.500 F240.000
G3 X-9.489 Y0.667 Z-2.500 I1.250 J-0.000 F240.000
G1 X-3.094 Y0.667 Z-2.500 F240.000
G1 X-3.094 Y-0.693 Z-2.500 F240.000
G1 X-9.489 Y-0.693 Z-2.500 F240.000
G3 X-10.739 Y-1.943 Z-2.500 I-0.000 J-1.250 F240.000
G1 X-10.739 Y-9.040 Z-2.500 F240.000
G1 X-12.575 Y-9.040 Z-2.500 F240.000
G1 X-12.575 Y-1.943 Z-2.500 F240.000
G3 X-13.825 Y-0.693 Z-2.500 I-1.250 J-0.000 F240.000
G1 X-21.890 Y-0.693 Z-2.500 F240.000
G3 X-23.140 Y-1.943 Z-2.500 I-0.000 J-1.250 F240.000
G1 X-23.140 Y-8.187 Z-2.500 F240.000
G1 X-24.951 Y-8.187 Z-2.500 F240.000
G1 X-24.951 Y8.212 Z-2.500 F240.000
G1 X-23.140 Y8.212 Z-2.500 F240.000
G1 X-23.140 Y1.917 Z-2.500 F240.000
G3 X-21.890 Y0.667 Z-2.500 I1.250 J0.000 F240.000
G1 X-13.825 Y0.667 Z-2.500 F240.000
G3 X-12.575 Y1.917 Z-2.500 I0.000 J1.250 F240.000
G1 X-12.575 Y9.040 Z-2.500 F240.000
G1 X-10.739 Y9.040 Z-2.500 F240.000
G1 X-10.739 Y8.638 Z-2.500 F240.000
G1 X-12.575 Y6.802 Z-2.500 F240.000
G1 X-12.575 Y9.040 Z-2.500 F240.000
G1 X-10.739 Y9.040 Z-2.500 F240.000
G1 X-10.739 Y8.638 Z-2.500 F240.000
G1 X-10.739 Y5.102 Z-2.500 F240.000
G1 X-12.575 Y3.267 Z-2.500 F240.000
G0 Z5.000
G0 X-8.103 Y0.667 Z5.000
G0 X-8.103 Y0.667 Z3.000
G1 X-8.103 Y0.667 Z-2.500 F240.000
G1 X-9.463 Y-0.693 Z-2.500 F240.000
G1 X-5.928 Y-0.693 Z-2.500 F240.000
G1 X-4.568 Y0.667 Z-2.500 F240.000
G1 X-3.094 Y0.667 Z-2.500 F240.000
G1 X-3.094 Y-0.693 Z-2.500 F240.000
G1 X-5.928 Y-0.693 Z-2.500 F240.000
G0 Z5.000
G0 X-10.739 Y-9.040 Z5.000
G0 X-10.739 Y-9.040 Z3.000
G1 X-10.739 Y-9.040 Z-2.500 F240.000
G1 X-10.739 Y-5.504 Z-2.500 F240.000
G1 X-12.575 Y-7.340 Z-2.500 F240.000
G1 X-12.575 Y-3.804 Z-2.500 F240.000
G1 X-10.739 Y-1.969 Z-2.500 F240.000
G2 X-9.463 Y-0.693 Z-2.500 I1.251 J0.025 F240.000
G1 X-8.103 Y0.667 Z-2.500 F240.000
G1 X-9.489 Y0.667 Z-2.500 F240.000
G2 X-10.697 Y1.609 Z-2.500 I-0.003 J1.242 F240.000
G1 X-13.184 Y-0.878 Z-2.500 F240.000
G3 X-13.825 Y-0.693 Z-2.500 I-0.631 J-0.981 F240.000
G1 X-16.534 Y-0.693 Z-2.500 F240.000
G1 X-15.174 Y0.667 Z-2.500 F240.000
G1 X-18.710 Y0.667 Z-2.500 F240.000
G1 X-20.070 Y-0.693 Z-2.500 F240.000
G1 X-21.890 Y-0.693 Z-2.500 F240.000
G3 X-23.140 Y-1.943 Z-2.500 I-0.000 J-1.250 F240.000
G1 X-23.140 Y-3.762 Z-2.500 F240.000
G1 X-24.951 Y-5.574 Z-2.500 F240.000
G1 X-24.951 Y-2.038 Z-2.500 F240.000
G1 X-22.202 Y0.711 Z-2.500 F240.000
G2 X-23.140 Y1.917 Z-2.500 I0.304 J1.204 F240.000
G1 X-23.140 Y3.309 Z-2.500 F240.000
G1 X-24.951 Y1.497 Z-2.500 F240.000
G1 X-24.951 Y5.033 Z-2.500 F240.000
G1 X-24.951 Y8.212 Z-2.500 F240.000
G1 X-23.140 Y8.212 Z-2.500 F240.000
G1 X-23.140 Y6.844 Z-2.500 F240.000
G1 X-24.951 Y5.033 Z-2.500 F240.000
G0 Z5.000
G0 Y-5.574 Z5.000
G0 Y-5.574 Z3.000
G1 X-24.951 Y-5.574 Z-2.500 F240.000
G1 X-23.140 Y-3.762 Z-2.500 F240.000
G1 X-23.140 Y-7.298 Z-2.500 F240.000
G1 X-24.029 Y-8.187 Z-2.500 F240.000
G1 X-23.140 Y-8.187 Z-2.500 F240.000
G1 X-23.140 Y-7.298 Z-2.500 F240.000
G0 Z5.000
G0 Z5.000
(finish operation: Pocket_Shape004)
(begin operation: Pocket_Shape005)
(machine: not set, mm/min)
(Pocket_Shape005)
G0 Z5.000
G0 X-16.411 Y7.310
G0 Z3.000
G1 X-16.411 Y7.310 Z-2.500 F240.000
G1 X-15.927 Y6.566 Z-2.500 F240.000
G1 X-19.151 Y4.451 Z-2.500 F240.000
G1 X-19.836 Y5.496 Z-2.500 F240.000
G1 X-16.616 Y7.625 Z-2.500 F240.000
G1 X-15.927 Y6.566 Z-2.500 F240.000
G1 X-19.151 Y4.451 Z-2.500 F240.000
G1 X-19.836 Y5.496 Z-2.500 F240.000
G1 X-16.616 Y7.625 Z-2.500 F240.000
G1 X-16.411 Y7.310 Z-2.500 F240.000
G0 Z5.000
G0 Z5.000
(finish operation: Pocket_Shape005)
(begin operation: Pocket_Shape006)
(machine: not set, mm/min)
(Pocket_Shape006)
G0 Z5.000
G0 X-17.838 Y-5.187
G0 Z3.000
G1 X-17.838 Y-5.187 Z-2.500 F240.000
G1 X-15.927 Y-6.441 Z-2.500 F240.000
G1 X-16.615 Y-7.499 Z-2.500 F240.000
G1 X-19.836 Y-5.371 Z-2.500 F240.000
G1 X-19.151 Y-4.326 Z-2.500 F240.000
G1 X-17.838 Y-5.187 Z-2.500 F240.000
G1 X-19.151 Y-4.326 Z-2.500 F240.000
G1 X-19.836 Y-5.371 Z-2.500 F240.000
G1 X-18.744 Y-6.093 Z-2.500 F240.000
G1 X-17.838 Y-5.187 Z-2.500 F240.000
G1 X-15.927 Y-6.441 Z-2.500 F240.000
G1 X-16.615 Y-7.499 Z-2.500 F240.000
G0 Z5.000
G0 Z5.000
(finish operation: Pocket_Shape006)
(begin operation: Pocket_Shape007)
(machine: not set, mm/min)
(Pocket_Shape007)
G0 Z5.000
G0 X8.294 Y8.238
G0 Z3.000
G1 X8.294 Y8.238 Z-2.500 F240.000
G1 X9.697 Y8.238 Z-2.500 F240.000
G1 X9.697 Y7.028 Z-2.500 F240.000
G1 X8.916 Y7.028 Z-2.500 F240.000
G3 X7.666 Y5.778 Z-2.500 I0.000 J-1.250 F240.000
G1 X7.666 Y-5.752 Z-2.500 F240.000
G3 X8.638 Y-6.971 Z-2.500 I1.250 J-0.000 F240.000
G3 X9.672 Y-7.002 Z-2.500 I0.656 J4.571 F240.000
G1 X9.672 Y-8.062 Z-2.500 F240.000
G1 X6.006 Y-8.062 Z-2.500 F240.000
G1 X6.006 Y-1.917 Z-2.500 F240.000
G3 X5.535 Y-0.940 Z-2.500 I-1.250 J-0.000 F240.000
G3 X4.377 Y-0.667 Z-2.500 I-0.901 J-1.230 F240.000
G1 X4.377 Y1.144 Z-2.500 F240.000
G1 X4.756 Y1.144 Z-2.500 F240.000
G3 X6.006 Y2.394 Z-2.500 I0.000 J1.250 F240.000
G1 X6.006 Y8.238 Z-2.500 F240.000
G1 X8.294 Y8.238 Z-2.500 F240.000
G1 X6.006 Y5.950 Z-2.500 F240.000
G1 X6.006 Y8.238 Z-2.500 F240.000
G1 X8.294 Y8.238 Z-2.500 F240.000
G1 X9.697 Y8.238 Z-2.500 F240.000
G1 X9.697 Y7.028 Z-2.500 F240.000
G1 X8.916 Y7.028 Z-2.500 F240.000
G3 X7.666 Y5.778 Z-2.500 I0.000 J-1.250 F240.000
G1 X7.666 Y4.074 Z-2.500 F240.000
G1 X6.006 Y2.414 Z-2.500 F240.000
G0 Z5.000
G0 X4.377 Y0.785 Z5.000
G0 X4.377 Y0.785 Z3.000
G1 X4.377 Y0.785 Z-2.500 F240.000
G1 X4.736 Y1.144 Z-2.500 F240.000
G1 X4.377 Y1.144 Z-2.500 F240.000
G1 X4.377 Y0.785 Z-2.500 F240.000
G1 X4.377 Y-0.667 Z-2.500 F240.000
G1 X4.756 Y-0.667 Z-2.500 F240.000
G2 X5.832 Y-1.295 Z-2.500 I0.005 J-1.227 F240.000
G1 X7.666 Y0.539 Z-2.500 F240.000
G1 X7.666 Y-2.997 Z-2.500 F240.000
G1 X6.006 Y-4.657 Z-2.500 F240.000
G1 X6.006 Y-8.062 Z-2.500 F240.000
G1 X6.136 Y-8.062 Z-2.500 F240.000
G1 X7.834 Y-6.365 Z-2.500 F240.000
G3 X8.638 Y-6.971 Z-2.500 I1.064 J0.575 F240.000
G3 X9.672 Y-7.002 Z-2.500 I0.656 J4.571 F240.000
G1 X9.672 Y-8.062 Z-2.500 F240.000
G0 Z5.000
G0 Z5.000
(finish operation: Pocket_Shape007)
(begin operation: Pocket_Shape008)
(machine: not set, mm/min)
(Pocket_Shape008)
G0 Z5.000
G0 X22.764 Y3.653
G0 Z3.000
G1 X22.764 Y3.653 Z-2.500 F240.000
G1 X24.977 Y8.217 Z-2.500 F240.000
G1 X26.440 Y7.506 Z-2.500 F240.000
G1 X22.897 Y0.181 Z-2.500 F240.000
G3 X23.043 Y-1.139 Z-2.500 I1.125 J-0.544 F240.000
G1 X27.053 Y-6.200 Z-2.500 F240.000
G1 X25.780 Y-7.207 Z-2.500 F240.000
G1 X22.996 Y-3.697 Z-2.500 F240.000
G3 X20.894 Y-3.924 Z-2.500 I-0.979 J-0.777 F240.000
G1 X19.590 Y-6.587 Z-2.500 F240.000
G1 X17.128 Y-5.382 Z-2.500 F240.000
G3 X15.328 Y-6.505 Z-2.500 I-0.550 J-1.123 F240.000
G1 X15.328 Y-9.215 Z-2.500 F240.000
G1 X13.717 Y-9.215 Z-2.500 F240.000
G1 X13.717 Y-9.215 Z-2.500 F240.000
G1 X13.717 Y-4.499 Z-2.500 F240.000
G3 X13.011 Y-3.373 Z-2.500 I-1.250 J0.000 F240.000
G1 X10.818 Y-2.315 Z-2.500 F240.000
G1 X11.525 Y-0.872 Z-2.500 F240.000
G1 X11.928 Y-1.065 Z-2.500 F240.000
G3 X13.717 Y0.063 Z-2.500 I0.539 J1.128 F240.000
G1 X13.717 Y9.215 Z-2.500 F240.000
G1 X15.328 Y9.215 Z-2.500 F240.000
G3 X15.598 Y8.235 Z-2.500 I1.375 J-0.148 F240.000
G1 X20.185 Y2.445 Z-2.500 F240.000
G3 X22.290 Y2.676 Z-2.500 I0.980 J0.776 F240.000
G1 X24.977 Y8.217 Z-2.500 F240.000
G1 X26.440 Y7.506 Z-2.500 F240.000
G1 X26.274 Y7.163 Z-2.500 F240.000
G1 X22.764 Y3.653 Z-2.500 F240.000
G0 Z5.000
G0 X19.318 Y0.923 Z5.000
G0 X19.318 Y0.923 Z3.000
G1 X19.318 Y0.923 Z-2.500 F240.000
G1 X17.558 Y3.145 Z-2.500 F240.000
G3 X15.328 Y2.369 Z-2.500 I-0.980 J-0.776 F240.000
G1 X15.328 Y-1.943 Z-2.500 F240.000
G3 X16.026 Y-3.064 Z-2.500 I1.250 J-0.000 F240.000
G1 X17.705 Y-3.891 Z-2.500 F240.000
G3 X18.250 Y-4.019 Z-2.500 I0.552 J1.122 F240.000
G3 X19.384 Y-3.310 Z-2.500 I0.007 J1.250 F240.000
G1 X20.286 Y-1.430 Z-2.500 F240.000
G3 X20.139 Y-0.113 Z-2.500 I-1.127 J0.541 F240.000
G1 X19.318 Y0.923 Z-2.500 F240.000
G0 Z5.000
G0 X18.724 Y-3.922 Z5.000
G0 X18.724 Y-3.922 Z3.000
G1 X18.724 Y-3.922 Z-2.500 F240.000
G1 X17.219 Y-5.427 Z-2.500 F240.000
G3 X15.328 Y-6.505 Z-2.500 I-0.637 J-1.080 F240.000
G1 X15.328 Y-7.318 Z-2.500 F240.000
G1 X13.717 Y-8.929 Z-2.500 F240.000
G1 X13.717 Y-5.393 Z-2.500 F240.000
G1 X16.040 Y-3.071 Z-2.500 F240.000
G2 X15.328 Y-1.943 Z-2.500 I0.539 J1.128 F240.000
G1 X15.328 Y-0.247 Z-2.500 F240.000
G1 X12.465 Y-3.110 Z-2.500 F240.000
G0 Z5.000
G0 X15.328 Y-7.318 Z5.000
G0 X15.328 Y-7.318 Z3.000
G1 X15.328 Y-7.318 Z-2.500 F240.000
G1 X15.328 Y-9.215 Z-2.500 F240.000
G1 X13.717 Y-9.215 Z-2.500 F240.000
G1 X13.717 Y-8.929 Z-2.500 F240.000
G1 X15.328 Y-7.318 Z-2.500 F240.000
G0 Z5.000
G0 X27.053 Y-6.200 Z5.000
G0 X27.053 Y-6.200 Z3.000
G1 X27.053 Y-6.200 Z-2.500 F240.000
G1 X25.490 Y-4.227 Z-2.500 F240.000
G1 X24.334 Y-5.383 Z-2.500 F240.000
G1 X22.996 Y-3.697 Z-2.500 F240.000
G3 X22.729 Y-3.453 Z-2.500 I-0.608 J-0.397 F240.000
G1 X23.927 Y-2.255 Z-2.500 F240.000
G1 X23.043 Y-1.139 Z-2.500 F240.000
G2 X22.963 Y0.316 Z-2.500 I1.006 J0.786 F240.000
G1 X19.428 Y-3.218 Z-2.500 F240.000
G1 X20.286 Y-1.430 Z-2.500 F240.000
G3 X20.139 Y-0.113 Z-2.500 I-1.127 J0.541 F240.000
G1 X19.635 Y0.524 Z-2.500 F240.000
G1 X21.093 Y1.982 Z-2.500 F240.000
G2 X20.185 Y2.445 Z-2.500 I0.035 J1.190 F240.000
G1 X19.228 Y3.653 Z-2.500 F240.000
G1 X18.072 Y2.496 Z-2.500 F240.000
G3 X17.338 Y3.361 Z-2.500 I-3.847 J-2.521 F240.000
G3 X15.328 Y2.369 Z-2.500 I-0.760 J-0.992 F240.000
G1 X15.328 Y-0.247 Z-2.500 F240.000
G1 X12.465 Y-3.110 Z-2.500 F240.000
G1 X10.818 Y-2.315 Z-2.500 F240.000
G1 X11.525 Y-0.872 Z-2.500 F240.000
G3 X12.226 Y-1.164 Z-2.500 I1.501 J2.621 F240.000
G3 X13.717 Y0.063 Z-2.500 I0.241 J1.227 F240.000
G1 X13.717 Y1.678 Z-2.500 F240.000
G1 X17.665 Y5.626 Z-2.500 F240.000
G1 X16.102 Y7.598 Z-2.500 F240.000
G1 X13.717 Y5.213 Z-2.500 F240.000
G1 X13.717 Y8.749 Z-2.500 F240.000
G1 X13.717 Y9.215 Z-2.500 F240.000
G1 X14.184 Y9.215 Z-2.500 F240.000
G1 X13.717 Y8.749 Z-2.500 F240.000
G0 Z5.000
G0 Z5.000
(finish operation: Pocket_Shape008)
(begin operation: Profile008)
(machine: not set, mm/min)
(Profile008)
(Compensated Tool Path. Diameter: 2.5)
G0 Z5.000
G0 X-31.762 Y3.234
G0 Z3.000
G1 X-31.762 Y3.234 Z-2.500 F240.000
G2 X-31.250 Y1.951 Z-2.500 I-1.236 J-1.236 F240.000
G1 X-31.250 Y-1.951 Z-2.500 F240.000
G2 X-32.460 Y-3.661 Z-2.500 I-1.757 J-0.040 F240.000
G2 X-34.750 Y-1.951 Z-2.500 I-0.539 J1.667 F240.000
G1 X-34.750 Y1.951 Z-2.500 F240.000
G1 X-34.725 Y2.273 Z-2.500 F240.000
G2 X-31.762 Y3.234 Z-2.500 I1.727 J-0.276 F240.000
G1 X-31.762 Y3.234 Z-5.000 F240.000
G2 X-31.250 Y1.951 Z-5.000 I-1.236 J-1.236 F240.000
G1 X-31.250 Y-1.951 Z-5.000 F240.000
G2 X-32.460 Y-3.661 Z-5.000 I-1.757 J-0.040 F240.000
G2 X-34.750 Y-1.951 Z-5.000 I-0.539 J1.667 F240.000
G1 X-34.750 Y1.951 Z-5.000 F240.000
G1 X-34.725 Y2.273 Z-5.000 F240.000
G2 X-31.762 Y3.234 Z-5.000 I1.727 J-0.276 F240.000
G1 X-31.762 Y3.234 Z-6.000 F240.000
G2 X-31.250 Y1.951 Z-6.000 I-1.236 J-1.236 F240.000
G1 X-31.250 Y-1.951 Z-6.000 F240.000
G2 X-32.460 Y-3.661 Z-6.000 I-1.757 J-0.040 F240.000
G2 X-34.750 Y-1.951 Z-6.000 I-0.539 J1.667 F240.000
G1 X-34.750 Y1.951 Z-6.000 F240.000
G1 X-34.725 Y2.273 Z-6.000 F240.000
G2 X-31.762 Y3.234 Z-6.000 I1.727 J-0.276 F240.000
G0 Z5.000
G0 Z5.000
(finish operation: Profile008)
(begin postamble)
M05 M09
G17 G90 G80 G40
M30
