(Exported by FreeCAD)
(Post Processor: script_module)
(Output Time:2026-03-20 18:07:34.804470)
(Begin preamble)
G17 G90
G21
(Begin operation: Fixture)
(Path: Fixture)
G54
(Finish operation: Fixture)
(Begin operation: 30dvbit001)
(Path: 30dvbit001)
(30dvbit001)
(Begin toolchange)
( M6 T2 )
M3 S10000
(Finish operation: 30dvbit001)
(Begin operation: Profile)
(Path: Profile)
(Profile)
(Uncompensated Tool Path)
G0 Z6.000
G0 X-25.187 Y5.650
G0 Z4.000
G1 X-25.187 Y5.650 Z1.000 F600.000
G1 X-24.565 Y5.122 Z1.000 F600.000
G1 X-24.336 Y2.828 Z1.000 F600.000
G1 X-24.794 Y1.604 Z1.000 F600.000
G1 X-26.553 Y-0.079 Z1.000 F600.000
G1 X-29.383 Y-0.767 Z1.000 F600.000
G1 X-32.289 Y-0.461 Z1.000 F600.000
G1 X-34.278 Y1.145 Z1.000 F600.000
G1 X-34.201 Y3.134 Z1.000 F600.000
G1 X-33.437 Y4.587 Z1.000 F600.000
G1 X-32.366 Y5.657 Z1.000 F600.000
G1 X-30.913 Y6.422 Z1.000 F600.000
G1 X-28.542 Y6.652 Z1.000 F600.000
G1 X-26.095 Y6.422 Z1.000 F600.000
G1 X-25.187 Y5.650 Z1.000 F600.000
G0 Z6.000
G0 Z6.000
G0 X-25.187 Y5.650
G0 X-31.295 Y9.634
G0 X-31.295 Y9.634 Z4.000
G1 X-31.295 Y9.634 Z1.000 F600.000
G1 X-32.978 Y8.487 Z1.000 F600.000
G1 X-35.119 Y8.411 Z1.000 F600.000
G1 X-37.031 Y9.176 Z1.000 F600.000
G1 X-37.261 Y10.017 Z1.000 F600.000
G1 X-37.108 Y11.240 Z1.000 F600.000
G1 X-36.343 Y12.388 Z1.000 F600.000
G1 X-35.043 Y13.535 Z1.000 F600.000
G1 X-33.360 Y13.917 Z1.000 F600.000
G1 X-31.907 Y13.688 Z1.000 F600.000
G1 X-31.142 Y12.770 Z1.000 F600.000
G1 X-30.760 Y11.317 Z1.000 F600.000
G1 X-31.295 Y9.634 Z1.000 F600.000
G0 Z6.000
G0 Z6.000
G0 X-31.295 Y9.634
G0 X-30.913 Y28.295
G0 X-30.913 Y28.295 Z4.000
G1 X-30.913 Y28.295 Z1.000 F600.000
G1 X-34.966 Y28.601 Z1.000 F600.000
G3 X-38.867 Y29.596 Z1.000 I-12.390 J-40.458 K0.000 F600.000
G1 X-40.014 Y30.360 Z1.000 F600.000
G1 X-39.861 Y31.584 Z1.000 F600.000
G1 X-39.096 Y32.196 Z1.000 F600.000
G2 X-35.119 Y33.343 Z1.000 I23.817 J-75.098 K0.000 F600.000
G1 X-31.448 Y33.802 Z1.000 F600.000
G1 X-23.494 Y33.802 Z1.000 F600.000
G1 X-20.588 Y33.420 Z1.000 F600.000
G1 X-18.676 Y32.884 Z1.000 F600.000
G1 X-17.452 Y31.431 Z1.000 F600.000
G1 X-18.294 Y30.055 Z1.000 F600.000
G1 X-20.129 Y29.290 Z1.000 F600.000
G1 X-22.882 Y28.678 Z1.000 F600.000
G1 X-26.630 Y28.295 Z1.000 F600.000
G1 X-30.913 Y28.295 Z1.000 F600.000
G0 Z6.000
G0 Z6.000
(Finish operation: Profile)
(Begin operation: Profile001)
(Path: Profile001)
(Profile001)
(Uncompensated Tool Path)
G0 Z6.000
G0 X32.130 Y28.667
G0 Z4.000
G1 X32.130 Y28.667 Z1.000 F600.000
G1 X33.159 Y27.667 Z1.000 F600.000
G1 X32.596 Y27.166 Z1.000 F600.000
G1 X31.030 Y26.853 Z1.000 F600.000
G1 X29.715 Y26.039 Z1.000 F600.000
G1 X28.651 Y24.473 Z1.000 F600.000
G1 X28.400 Y22.845 Z1.000 F600.000
G1 X28.776 Y21.092 Z1.000 F600.000
G1 X29.590 Y19.464 Z1.000 F600.000
G3 X34.036 Y16.145 Z1.000 I406.252 J539.588 K0.000 F600.000
G1 X36.165 Y14.267 Z1.000 F600.000
G1 X37.605 Y11.700 Z1.000 F600.000
G1 X38.544 Y9.446 Z1.000 F600.000
G1 X38.544 Y8.256 Z1.000 F600.000
G3 X37.041 Y5.939 Z1.000 I14.824 J-11.261 K0.000 F600.000
G3 X34.161 Y4.624 Z1.000 I38.537 J-88.227 K0.000 F600.000
G1 X36.040 Y3.810 Z1.000 F600.000
G1 X37.981 Y2.620 Z1.000 F600.000
G1 X39.421 Y0.491 Z1.000 F600.000
G1 X40.986 Y-2.765 Z1.000 F600.000
G1 X40.986 Y-5.708 Z1.000 F600.000
G2 X39.176 Y-11.733 Z1.000 I-60.450 J14.877 K0.000 F600.000
G3 X36.922 Y-16.492 Z1.000 I54.197 J-28.586 K0.000 F600.000
G1 X36.296 Y-18.683 Z1.000 F600.000
G1 X36.171 Y-20.812 Z1.000 F600.000
G1 X36.671 Y-22.315 Z1.000 F600.000
G1 X37.799 Y-23.567 Z1.000 F600.000
G1 X39.239 Y-24.569 Z1.000 F600.000
G1 X41.117 Y-25.133 Z1.000 F600.000
G1 X41.869 Y-25.571 Z1.000 F600.000
G1 X41.305 Y-26.573 Z1.000 F600.000
G1 X39.677 Y-28.013 Z1.000 F600.000
G1 X37.861 Y-29.140 Z1.000 F600.000
G1 X34.856 Y-29.892 Z1.000 F600.000
G1 X31.224 Y-29.892 Z1.000 F600.000
G1 X29.095 Y-29.015 Z1.000 F600.000
G1 X26.778 Y-27.512 Z1.000 F600.000
G1 X24.837 Y-25.696 Z1.000 F600.000
G1 X23.522 Y-24.131 Z1.000 F600.000
G2 X21.831 Y-19.936 Z1.000 I79.243 J34.372 K0.000 F600.000
G1 X21.518 Y-17.243 Z1.000 F600.000
G1 X21.644 Y-16.179 Z1.000 F600.000
G1 X20.829 Y-16.492 Z1.000 F600.000
G1 X17.824 Y-16.492 Z1.000 F600.000
G1 X17.073 Y-16.993 Z1.000 F600.000
G1 X18.826 Y-18.495 Z1.000 F600.000
G1 X20.516 Y-19.059 Z1.000 F600.000
G1 X20.078 Y-20.311 Z1.000 F600.000
G1 X18.638 Y-21.125 Z1.000 F600.000
G1 X16.759 Y-21.125 Z1.000 F600.000
G1 X14.756 Y-19.560 Z1.000 F600.000
G1 X13.811 Y-17.558 Z1.000 F600.000
G1 X13.433 Y-15.908 Z1.000 F600.000
G1 X13.433 Y-13.881 Z1.000 F600.000
G1 X13.605 Y-11.956 Z1.000 F600.000
G1 X14.017 Y-9.998 Z1.000 F600.000
G1 X14.670 Y-8.726 Z1.000 F600.000
G3 X17.041 Y-6.114 Z1.000 I-339.264 J310.398 K0.000 F600.000
G1 X17.797 Y-4.808 Z1.000 F600.000
G1 X15.804 Y-4.808 Z1.000 F600.000
G1 X9.880 Y-6.016 Z1.000 F600.000
G2 X1.161 Y-8.005 Z1.000 I-135.007 J571.843 K0.000 F600.000
G1 X0.626 Y-9.152 Z1.000 F600.000
G1 X-0.368 Y-10.223 Z1.000 F600.000
G1 X-2.204 Y-10.605 Z1.000 F600.000
G1 X-3.612 Y-11.529 Z1.000 F600.000
G1 X-4.835 Y-14.511 Z1.000 F600.000
G1 X-6.977 Y-17.724 Z1.000 F600.000
G1 X-9.348 Y-20.859 Z1.000 F600.000
G1 X-12.101 Y-23.307 Z1.000 F600.000
G1 X-15.160 Y-25.066 Z1.000 F600.000
G1 X-17.111 Y-25.923 Z1.000 F600.000
G1 X-19.585 Y-26.644 Z1.000 F600.000
G2 X-24.568 Y-27.263 Z1.000 I-8.759 J50.183 K0.000 F600.000
G1 X-25.805 Y-27.504 Z1.000 F600.000
G1 X-26.149 Y-28.328 Z1.000 F600.000
G1 X-26.355 Y-30.184 Z1.000 F600.000
G1 X-25.943 Y-31.765 Z1.000 F600.000
G1 X-24.637 Y-33.242 Z1.000 F600.000
G1 X-23.159 Y-34.102 Z1.000 F600.000
G2 X-19.207 Y-35.992 Z1.000 I-10.383 J-26.786 K0.000 F600.000
G1 X-17.970 Y-36.507 Z1.000 F600.000
G1 X-17.592 Y-37.229 Z1.000 F600.000
G1 X-17.901 Y-38.157 Z1.000 F600.000
G3 X-20.960 Y-39.428 Z1.000 I14.219 J-38.516 K0.000 F600.000
G1 X-23.446 Y-39.878 Z1.000 F600.000
G1 X-26.093 Y-39.878 Z1.000 F600.000
G1 X-27.776 Y-38.984 Z1.000 F600.000
G1 X-29.529 Y-37.266 Z1.000 F600.000
G1 X-30.801 Y-35.136 Z1.000 F600.000
G1 X-31.419 Y-33.143 Z1.000 F600.000
G1 X-31.557 Y-30.943 Z1.000 F600.000
G1 X-31.007 Y-29.259 Z1.000 F600.000
G1 X-30.079 Y-27.919 Z1.000 F600.000
G1 X-29.220 Y-27.197 Z1.000 F600.000
G1 X-30.319 Y-26.854 Z1.000 F600.000
G1 X-32.877 Y-25.649 Z1.000 F600.000
G1 X-35.214 Y-23.896 Z1.000 F600.000
G3 X-40.252 Y-18.235 Z1.000 I-117.410 J-99.420 K0.000 F600.000
G1 X-42.465 Y-14.150 Z1.000 F600.000
G1 X-43.997 Y-9.895 Z1.000 F600.000
G1 X-44.337 Y-5.640 Z1.000 F600.000
G1 X-44.337 Y-1.044 Z1.000 F600.000
G1 X-43.486 Y3.041 Z1.000 F600.000
G1 X-42.295 Y6.445 Z1.000 F600.000
G1 X-40.593 Y9.509 Z1.000 F600.000
G3 X-37.305 Y15.023 Z1.000 I-57.835 J38.214 K0.000 F600.000
G1 X-37.243 Y16.401 Z1.000 F600.000
G1 X-37.556 Y18.404 Z1.000 F600.000
G1 X-38.119 Y19.657 Z1.000 F600.000
G1 X-39.121 Y21.222 Z1.000 F600.000
G1 X-40.436 Y22.913 Z1.000 F600.000
G1 X-42.190 Y24.541 Z1.000 F600.000
G1 X-43.630 Y26.169 Z1.000 F600.000
G1 X-44.694 Y27.859 Z1.000 F600.000
G1 X-45.007 Y29.362 Z1.000 F600.000
G1 X-45.070 Y30.865 Z1.000 F600.000
G1 X-44.632 Y32.242 Z1.000 F600.000
G1 X-43.880 Y33.495 Z1.000 F600.000
G1 X-42.628 Y34.810 Z1.000 F600.000
G1 X-40.937 Y35.937 Z1.000 F600.000
G1 X-38.996 Y37.001 Z1.000 F600.000
G1 X-36.742 Y37.878 Z1.000 F600.000
G1 X-34.112 Y38.629 Z1.000 F600.000
G1 X-30.418 Y39.068 Z1.000 F600.000
G1 X-25.221 Y39.068 Z1.000 F600.000
G1 X-22.215 Y38.817 Z1.000 F600.000
G1 X-19.084 Y38.066 Z1.000 F600.000
G1 X-16.830 Y37.001 Z1.000 F600.000
G1 X-15.014 Y35.812 Z1.000 F600.000
G1 X-13.198 Y34.309 Z1.000 F600.000
G1 X-12.008 Y32.806 Z1.000 F600.000
G1 X-11.508 Y31.616 Z1.000 F600.000
G1 X-11.320 Y29.800 Z1.000 F600.000
G1 X-11.508 Y28.360 Z1.000 F600.000
G3 X-14.200 Y25.292 Z1.000 I8.882 J-10.510 K0.000 F600.000
G1 X-14.263 Y24.228 Z1.000 F600.000
G1 X-14.263 Y18.404 Z1.000 F600.000
G1 X-12.760 Y17.340 Z1.000 F600.000
G1 X-9.851 Y14.391 Z1.000 F600.000
G1 X-7.660 Y11.073 Z1.000 F600.000
G1 X-5.969 Y8.130 Z1.000 F600.000
G3 X-3.840 Y3.559 Z1.000 I308.731 J141.011 K0.000 F600.000
G1 X-3.089 Y2.369 Z1.000 F600.000
G1 X-1.774 Y1.242 Z1.000 F600.000
G1 X-0.334 Y0.678 Z1.000 F600.000
G1 X4.050 Y0.490 Z1.000 F600.000
G1 X13.533 Y0.490 Z1.000 F600.000
G1 X17.228 Y0.865 Z1.000 F600.000
G1 X20.233 Y1.428 Z1.000 F600.000
G1 X17.228 Y2.242 Z1.000 F600.000
G1 X15.099 Y4.371 Z1.000 F600.000
G1 X13.533 Y6.876 Z1.000 F600.000
G1 X13.032 Y9.819 Z1.000 F600.000
G1 X13.283 Y13.263 Z1.000 F600.000
G1 X14.160 Y15.267 Z1.000 F600.000
G1 X14.723 Y15.705 Z1.000 F600.000
G1 X14.473 Y18.648 Z1.000 F600.000
G1 X14.473 Y20.714 Z1.000 F600.000
G1 X15.099 Y22.906 Z1.000 F600.000
G1 X16.602 Y24.847 Z1.000 F600.000
G1 X18.668 Y27.039 Z1.000 F600.000
G1 X20.985 Y28.416 Z1.000 F600.000
G1 X22.863 Y29.167 Z1.000 F600.000
G1 X24.992 Y29.794 Z1.000 F600.000
G1 X28.436 Y29.794 Z1.000 F600.000
G1 X30.315 Y29.355 Z1.000 F600.000
G1 X32.130 Y28.667 Z1.000 F600.000
G0 Z6.000
G0 Z6.000
(Finish operation: Profile001)
(Begin postamble)
M5
G17 G90
M2
