(Exported by FreeCAD)
(Post Processor: script_module)
(Output Time:2025-05-14 20:02:17.208727)
(Begin preamble)
G17 G90
G21
(Begin operation: Fixture)
(Path: Fixture)
G54
(Finish operation: Fixture)
(Begin operation: 3mm_Endmill001)
(Path: 3mm_Endmill001)
(3mm_Endmill001)
(Begin toolchange)
( M6 T2 )
M3 S10000
(Finish operation: 3mm_Endmill001)
(Begin operation: Pocket_Shape)
(Path: Pocket_Shape)
(Pocket_Shape)
G0 Z5.000
G0 X0.000 Y0.000
G0 X-5.774 Y2.368
G0 X-5.774 Y2.368 Z3.000
G1 X-5.774 Y2.368 Z-3.000 F600.000
G2 X-4.576 Y4.250 Z-3.000 I5.497 J-2.176 K0.000 F600.000
G1 X4.578 Y4.250 Z-3.000 F600.000
G2 X4.578 Y-4.250 Z-3.000 I-4.573 J-4.250 K0.000 F600.000
G1 X-4.576 Y-4.250 Z-3.000 F600.000
G2 X-4.576 Y4.250 Z-3.000 I4.565 J4.250 K0.000 F600.000
G1 X-3.892 Y4.250 Z-3.000 F600.000
G1 X-5.774 Y2.368 Z-3.000 F600.000
G3 X-5.911 Y-2.012 Z-3.000 I5.682 J-2.370 K0.000 F600.000
G1 X0.351 Y4.250 Z-3.000 F600.000
G1 X4.578 Y4.250 Z-3.000 F600.000
G1 X4.586 Y4.243 Z-3.000 F600.000
G1 X-3.907 Y-4.250 Z-3.000 F600.000
G1 X0.336 Y-4.250 Z-3.000 F600.000
G1 X6.064 Y1.478 Z-3.000 F600.000
G2 X4.578 Y-4.250 Z-3.000 I-6.034 J-1.492 K0.000 F600.000
G1 X4.578 Y-4.250 Z-5.000 F600.000
G3 X6.064 Y1.478 Z-5.000 I-4.549 J4.237 K0.000 F600.000
G1 X0.336 Y-4.250 Z-5.000 F600.000
G1 X-3.907 Y-4.250 Z-5.000 F600.000
G1 X4.586 Y4.243 Z-5.000 F600.000
G1 X4.578 Y4.250 Z-5.000 F600.000
G1 X0.351 Y4.250 Z-5.000 F600.000
G1 X-5.911 Y-2.012 Z-5.000 F600.000
G2 X-5.774 Y2.368 Z-5.000 I5.819 J2.010 K0.000 F600.000
G1 X-3.892 Y4.250 Z-5.000 F600.000
G1 X-4.576 Y4.250 Z-5.000 F600.000
G3 X-4.576 Y-4.250 Z-5.000 I4.565 J-4.250 K0.000 F600.000
G1 X4.578 Y-4.250 Z-5.000 F600.000
G3 X4.578 Y4.250 Z-5.000 I-4.573 J4.250 K0.000 F600.000
G1 X-4.576 Y4.250 Z-5.000 F600.000
G3 X-5.774 Y2.368 Z-5.000 I4.299 J-4.058 K0.000 F600.000
G0 Z5.000
G0 Z5.000
(Finish operation: Pocket_Shape)
(Begin postamble)
M5
G17 G90
M2
