(Exported by FreeCAD)
(Post Processor: script_module)
(Output Time:2026-04-17 11:59:27.864017)
(Begin preamble)
G17 G90
G21
(Begin operation: Fixture)
(Path: Fixture)
G54
(Finish operation: Fixture)
(Begin operation: 3175001)
(Path: 3175001)
(3175001)
(Begin toolchange)
( M6 T2 )
M3 S10000
(Finish operation: 3175001)
(Begin operation: Profile)
(Path: Profile)
(Profile)
(Compensated Tool Path. Diameter: 3.17)
G0 Z5.000
G0 X43.415 Y43.415
G0 Z3.000
G1 X43.415 Y43.415 Z-3.000 F360.000
G1 X43.415 Y-43.415 Z-3.000 F360.000
G1 X-43.415 Y-43.415 Z-3.000 F360.000
G1 X-43.415 Y43.415 Z-3.000 F360.000
G1 X43.415 Y43.415 Z-3.000 F360.000
G1 X43.415 Y43.415 Z-6.000 F360.000
G1 X43.415 Y-43.415 Z-6.000 F360.000
G1 X-43.415 Y-43.415 Z-6.000 F360.000
G1 X-43.415 Y43.415 Z-6.000 F360.000
G1 X43.415 Y43.415 Z-6.000 F360.000
G1 X43.415 Y43.415 Z-9.000 F360.000
G1 X43.415 Y-43.415 Z-9.000 F360.000
G1 X-43.415 Y-43.415 Z-9.000 F360.000
G1 X-43.415 Y43.415 Z-9.000 F360.000
G1 X43.415 Y43.415 Z-9.000 F360.000
G1 X43.415 Y43.415 Z-12.000 F360.000
G1 X43.415 Y-43.415 Z-12.000 F360.000
G1 X-43.415 Y-43.415 Z-12.000 F360.000
G1 X-43.415 Y43.415 Z-12.000 F360.000
G1 X43.415 Y43.415 Z-12.000 F360.000
G1 X43.415 Y43.415 Z-15.000 F360.000
G1 X43.415 Y-43.415 Z-15.000 F360.000
G1 X-43.415 Y-43.415 Z-15.000 F360.000
G1 X-43.415 Y43.415 Z-15.000 F360.000
G1 X43.415 Y43.415 Z-15.000 F360.000
G1 X43.415 Y43.415 Z-18.000 F360.000
G1 X43.415 Y-43.415 Z-18.000 F360.000
G1 X-43.415 Y-43.415 Z-18.000 F360.000
G1 X-43.415 Y43.415 Z-18.000 F360.000
G1 X43.415 Y43.415 Z-18.000 F360.000
G1 X43.415 Y43.415 Z-20.000 F360.000
G1 X43.415 Y-43.415 Z-20.000 F360.000
G1 X-43.415 Y-43.415 Z-20.000 F360.000
G1 X-43.415 Y43.415 Z-20.000 F360.000
G1 X43.415 Y43.415 Z-20.000 F360.000
G0 Z5.000
G0 Z5.000
(Finish operation: Profile)
(Begin postamble)
M5
G17 G90
M2
