(Exported by FreeCAD)
(Post Processor: script_module)
(Output Time:2025-05-18 11:41:50.277913)
(Begin preamble)
G17 G90
G21
(Begin operation: Fixture)
(Path: Fixture)
G54
(Finish operation: Fixture)
(Begin operation: 2mm_Endmill004)
(Path: 2mm_Endmill004)
(2mm_Endmill004)
(Begin toolchange)
( M6 T3 )
M3 S10000
(Finish operation: 2mm_Endmill004)
(Begin operation: Pocket_Shape001)
(Path: Pocket_Shape001)
(Pocket_Shape001)
G0 Z5.000
G0 X0.000 Y0.000
G0 X134.882 Y98.503
G0 X134.882 Y98.503 Z3.000
G1 X134.882 Y98.503 Z-3.000 F600.000
G1 X137.848 Y102.600 Z-3.000 F600.000
G3 X137.038 Y104.186 Z-3.000 I-0.810 J0.586 K0.000 F600.000
G1 X132.985 Y104.186 Z-3.000 F600.000
G1 X132.985 Y106.367 Z-3.000 F600.000
G1 X133.980 Y106.367 Z-3.000 F600.000
G1 X132.985 Y105.372 Z-3.000 F600.000
G1 X132.985 Y104.186 Z-3.000 F600.000
G1 X134.628 Y104.186 Z-3.000 F600.000
G1 X136.808 Y106.367 Z-3.000 F600.000
G1 X136.808 Y106.367 Z-5.000 F600.000
G1 X134.628 Y104.186 Z-5.000 F600.000
G1 X132.985 Y104.186 Z-5.000 F600.000
G1 X132.985 Y105.372 Z-5.000 F600.000
G1 X133.980 Y106.367 Z-5.000 F600.000
G1 X132.985 Y106.367 Z-5.000 F600.000
G1 X132.985 Y104.186 Z-5.000 F600.000
G1 X137.038 Y104.186 Z-5.000 F600.000
G2 X137.848 Y102.600 Z-5.000 I0.000 J-1.000 K0.000 F600.000
G1 X134.882 Y98.503 Z-5.000 F600.000
G1 X134.882 Y98.503 Z-5.000 F600.000
G1 X136.849 Y97.066 Z-5.000 F600.000
G1 X140.831 Y102.541 Z-5.000 F600.000
G2 X142.640 Y101.953 Z-5.000 I0.809 J-0.588 K0.000 F600.000
G1 X142.640 Y97.809 Z-5.000 F600.000
G1 X145.151 Y97.809 Z-5.000 F600.000
G1 X145.151 Y103.186 Z-5.000 F600.000
G2 X146.151 Y104.186 Z-5.000 I1.000 J-0.000 K0.000 F600.000
G1 X147.588 Y104.186 Z-5.000 F600.000
G2 X148.588 Y103.186 Z-5.000 I-0.000 J-1.000 K0.000 F600.000
G1 X148.588 Y98.772 Z-5.000 F600.000
G1 X160.326 Y98.772 Z-5.000 F600.000
G1 X160.326 Y111.811 Z-5.000 F600.000
G1 X148.588 Y111.811 Z-5.000 F600.000
G1 X148.588 Y107.367 Z-5.000 F600.000
G2 X147.588 Y106.367 Z-5.000 I-1.000 J0.000 K0.000 F600.000
G1 X146.151 Y106.367 Z-5.000 F600.000
G2 X145.151 Y107.367 Z-5.000 I0.000 J1.000 K0.000 F600.000
G1 X145.151 Y112.653 Z-5.000 F600.000
G1 X142.640 Y112.653 Z-5.000 F600.000
G1 X142.640 Y109.593 Z-5.000 F600.000
G2 X141.025 Y108.804 Z-5.000 I-1.000 J-0.000 K0.000 F600.000
G1 X137.897 Y111.240 Z-5.000 F600.000
G2 X137.838 Y112.768 Z-5.000 I0.614 J0.789 K0.000 F600.000
G1 X140.377 Y115.082 Z-5.000 F600.000
G2 X141.369 Y116.122 Z-5.000 I0.988 J0.051 K0.000 F600.000
G1 X151.641 Y116.122 Z-5.000 F600.000
G1 X151.641 Y120.258 Z-5.000 F600.000
G1 X148.467 Y120.258 Z-5.000 F600.000
G1 X148.467 Y119.243 Z-5.000 F600.000
G2 X147.467 Y118.243 Z-5.000 I-1.000 J0.000 K0.000 F600.000
G1 X137.639 Y118.243 Z-5.000 F600.000
G2 X136.905 Y118.564 Z-5.000 I-0.000 J1.000 K0.000 F600.000
G1 X135.716 Y119.848 Z-5.000 F600.000
G1 X133.605 Y117.915 Z-5.000 F600.000
G1 X136.455 Y114.775 Z-5.000 F600.000
G2 X136.502 Y113.487 Z-5.000 I-0.740 J-0.672 K0.000 F600.000
G1 X134.439 Y110.846 Z-5.000 F600.000
G1 X137.866 Y108.154 Z-5.000 F600.000
G2 X137.248 Y106.367 Z-5.000 I-0.618 J-0.786 K0.000 F600.000
G1 X132.985 Y106.367 Z-5.000 F600.000
G1 X132.985 Y105.372 Z-5.000 F600.000
G1 X132.985 Y105.372 Z-3.000 F600.000
G1 X132.985 Y106.367 Z-3.000 F600.000
G1 X137.248 Y106.367 Z-3.000 F600.000
G3 X137.866 Y108.154 Z-3.000 I0.000 J1.000 K0.000 F600.000
G1 X134.439 Y110.846 Z-3.000 F600.000
G1 X136.502 Y113.487 Z-3.000 F600.000
G3 X136.455 Y114.775 Z-3.000 I-0.788 J0.616 K0.000 F600.000
G1 X133.605 Y117.915 Z-3.000 F600.000
G1 X135.716 Y119.848 Z-3.000 F600.000
G1 X136.905 Y118.564 Z-3.000 F600.000
G3 X137.639 Y118.243 Z-3.000 I0.734 J0.679 K0.000 F600.000
G1 X147.467 Y118.243 Z-3.000 F600.000
G3 X148.467 Y119.243 Z-3.000 I-0.000 J1.000 K0.000 F600.000
G1 X148.467 Y120.258 Z-3.000 F600.000
G1 X151.641 Y120.258 Z-3.000 F600.000
G1 X151.641 Y116.122 Z-3.000 F600.000
G1 X141.369 Y116.122 Z-3.000 F600.000
G3 X140.377 Y115.082 Z-3.000 I-0.004 J-0.989 K0.000 F600.000
G1 X137.838 Y112.768 Z-3.000 F600.000
G3 X137.897 Y111.240 Z-3.000 I0.674 J-0.739 K0.000 F600.000
G1 X141.025 Y108.804 Z-3.000 F600.000
G3 X142.640 Y109.593 Z-3.000 I0.614 J0.789 K0.000 F600.000
G1 X142.640 Y112.653 Z-3.000 F600.000
G1 X145.151 Y112.653 Z-3.000 F600.000
G1 X145.151 Y107.367 Z-3.000 F600.000
G3 X146.151 Y106.367 Z-3.000 I1.000 J0.000 K0.000 F600.000
G1 X147.588 Y106.367 Z-3.000 F600.000
G3 X148.588 Y107.367 Z-3.000 I-0.000 J1.000 K0.000 F600.000
G1 X148.588 Y111.811 Z-3.000 F600.000
G1 X160.326 Y111.811 Z-3.000 F600.000
G1 X160.326 Y98.772 Z-3.000 F600.000
G1 X148.588 Y98.772 Z-3.000 F600.000
G1 X148.588 Y103.186 Z-3.000 F600.000
G3 X147.588 Y104.186 Z-3.000 I-1.000 J-0.000 K0.000 F600.000
G1 X146.151 Y104.186 Z-3.000 F600.000
G3 X145.151 Y103.186 Z-3.000 I0.000 J-1.000 K0.000 F600.000
G1 X145.151 Y97.809 Z-3.000 F600.000
G1 X142.640 Y97.809 Z-3.000 F600.000
G1 X142.640 Y101.953 Z-3.000 F600.000
G3 X140.831 Y102.541 Z-3.000 I-1.000 J0.000 K0.000 F600.000
G1 X136.849 Y97.066 Z-3.000 F600.000
G1 X134.882 Y98.503 Z-3.000 F600.000
G0 Z5.000
G0 X139.134 Y100.208 Z5.000
G0 X139.134 Y100.208 Z3.000
G1 X139.134 Y100.208 Z-3.000 F600.000
G1 X136.849 Y97.066 Z-3.000 F600.000
G1 X136.354 Y97.427 Z-3.000 F600.000
G1 X139.134 Y100.208 Z-3.000 F600.000
G1 X140.831 Y102.541 Z-3.000 F600.000
G2 X141.852 Y102.925 Z-3.000 I0.795 J-0.565 K0.000 F600.000
G1 X145.525 Y106.598 Z-3.000 F600.000
G2 X145.151 Y107.367 Z-3.000 I0.578 J0.756 K0.000 F600.000
G1 X145.151 Y109.053 Z-3.000 F600.000
G1 X135.620 Y99.522 Z-3.000 F600.000
G1 X137.848 Y102.600 Z-3.000 F600.000
G3 X137.385 Y104.116 Z-3.000 I-0.796 J0.585 K0.000 F600.000
G1 X141.908 Y108.639 Z-3.000 F600.000
G2 X141.025 Y108.804 Z-3.000 I-0.287 J0.907 K0.000 F600.000
G1 X140.024 Y109.583 Z-3.000 F600.000
G1 X138.175 Y107.734 Z-3.000 F600.000
G3 X137.866 Y108.154 Z-3.000 I-0.897 J-0.338 K0.000 F600.000
G1 X136.690 Y109.077 Z-3.000 F600.000
G1 X138.434 Y110.821 Z-3.000 F600.000
G2 X137.722 Y111.415 Z-3.000 I2.019 J3.147 K0.000 F600.000
G2 X137.838 Y112.768 Z-3.000 I0.790 J0.613 K0.000 F600.000
G1 X140.377 Y115.082 Z-3.000 F600.000
G2 X141.369 Y116.122 Z-3.000 I0.988 J0.051 K0.000 F600.000
G1 X143.734 Y116.122 Z-3.000 F600.000
G1 X145.856 Y118.243 Z-3.000 F600.000
G1 X143.027 Y118.243 Z-3.000 F600.000
G1 X135.106 Y110.322 Z-3.000 F600.000
G1 X134.439 Y110.846 Z-3.000 F600.000
G1 X136.502 Y113.487 Z-3.000 F600.000
G3 X136.566 Y114.610 Z-3.000 I-0.751 J0.606 K0.000 F600.000
G1 X140.199 Y118.243 Z-3.000 F600.000
G1 X137.639 Y118.243 Z-3.000 F600.000
G2 X137.402 Y118.274 Z-3.000 I-0.043 J0.583 K0.000 F600.000
G1 X135.240 Y116.113 Z-3.000 F600.000
G1 X133.894 Y117.595 Z-3.000 F600.000
G1 X135.924 Y119.625 Z-3.000 F600.000
G1 X135.716 Y119.848 Z-3.000 F600.000
G1 X133.605 Y117.915 Z-3.000 F600.000
G1 X133.894 Y117.595 Z-3.000 F600.000
G1 X133.894 Y117.595 Z-5.000 F600.000
G1 X133.605 Y117.915 Z-5.000 F600.000
G1 X135.716 Y119.848 Z-5.000 F600.000
G1 X135.924 Y119.625 Z-5.000 F600.000
G1 X133.894 Y117.595 Z-5.000 F600.000
G1 X135.240 Y116.113 Z-5.000 F600.000
G1 X137.402 Y118.274 Z-5.000 F600.000
G3 X137.639 Y118.243 Z-5.000 I0.194 J0.552 K0.000 F600.000
G1 X140.199 Y118.243 Z-5.000 F600.000
G1 X136.566 Y114.610 Z-5.000 F600.000
G2 X136.502 Y113.487 Z-5.000 I-0.815 J-0.517 K0.000 F600.000
G1 X134.439 Y110.846 Z-5.000 F600.000
G1 X135.106 Y110.322 Z-5.000 F600.000
G1 X143.027 Y118.243 Z-5.000 F600.000
G1 X145.856 Y118.243 Z-5.000 F600.000
G1 X143.734 Y116.122 Z-5.000 F600.000
G1 X141.369 Y116.122 Z-5.000 F600.000
G3 X140.377 Y115.082 Z-5.000 I-0.004 J-0.989 K0.000 F600.000
G1 X137.838 Y112.768 Z-5.000 F600.000
G3 X137.722 Y111.415 Z-5.000 I0.674 J-0.739 K0.000 F600.000
G3 X138.434 Y110.821 Z-5.000 I2.731 J2.553 K0.000 F600.000
G1 X136.690 Y109.077 Z-5.000 F600.000
G1 X137.866 Y108.154 Z-5.000 F600.000
G2 X138.175 Y107.734 Z-5.000 I-0.588 J-0.758 K0.000 F600.000
G1 X140.024 Y109.583 Z-5.000 F600.000
G1 X141.025 Y108.804 Z-5.000 F600.000
G3 X141.908 Y108.639 Z-5.000 I0.596 J0.742 K0.000 F600.000
G1 X137.385 Y104.116 Z-5.000 F600.000
G2 X137.848 Y102.600 Z-5.000 I-0.334 J-0.930 K0.000 F600.000
G1 X135.620 Y99.522 Z-5.000 F600.000
G1 X145.151 Y109.053 Z-5.000 F600.000
G1 X145.151 Y107.367 Z-5.000 F600.000
G3 X145.525 Y106.598 Z-5.000 I0.952 J-0.013 K0.000 F600.000
G1 X141.852 Y102.925 Z-5.000 F600.000
G3 X140.831 Y102.541 Z-5.000 I-0.225 J-0.949 K0.000 F600.000
G1 X139.134 Y100.208 Z-5.000 F600.000
G1 X136.354 Y97.427 Z-5.000 F600.000
G1 X136.849 Y97.066 Z-5.000 F600.000
G1 X139.134 Y100.208 Z-5.000 F600.000
G0 Z5.000
G0 X142.640 Y100.885 Z5.000
G0 X142.640 Y100.885 Z3.000
G1 X142.640 Y100.885 Z-3.000 F600.000
G1 X145.183 Y103.428 Z-3.000 F600.000
G1 X145.151 Y103.186 Z-3.000 F600.000
G1 X145.151 Y100.568 Z-3.000 F600.000
G1 X142.640 Y98.056 Z-3.000 F600.000
G1 X142.640 Y97.809 Z-3.000 F600.000
G1 X145.151 Y97.809 Z-3.000 F600.000
G1 X145.151 Y100.568 Z-3.000 F600.000
G1 X145.151 Y100.568 Z-5.000 F600.000
G1 X145.151 Y97.809 Z-5.000 F600.000
G1 X142.640 Y97.809 Z-5.000 F600.000
G1 X142.640 Y98.056 Z-5.000 F600.000
G1 X145.151 Y100.568 Z-5.000 F600.000
G1 X145.151 Y103.186 Z-5.000 F600.000
G1 X145.183 Y103.428 Z-5.000 F600.000
G1 X142.640 Y100.885 Z-5.000 F600.000
G0 Z5.000
G0 X145.909 Y104.154 Z5.000
G0 X145.909 Y104.154 Z3.000
G1 X145.909 Y104.154 Z-3.000 F600.000
G1 X150.498 Y108.744 Z-3.000 F600.000
G1 X150.498 Y107.216 Z-3.000 F600.000
G3 X150.962 Y106.378 Z-3.000 I0.979 J-0.006 K0.000 F600.000
G1 X148.374 Y103.791 Z-3.000 F600.000
G2 X148.588 Y103.186 Z-3.000 I-0.622 J-0.560 K0.000 F600.000
G1 X148.588 Y101.176 Z-3.000 F600.000
G1 X150.498 Y103.087 Z-3.000 F600.000
G2 X150.532 Y103.595 Z-3.000 I1.948 J0.125 K0.000 F600.000
G2 X151.748 Y104.336 Z-3.000 I1.014 J-0.296 K0.000 F600.000
G1 X154.864 Y107.453 Z-3.000 F600.000
G1 X154.864 Y108.900 Z-3.000 F600.000
G2 X155.864 Y109.900 Z-3.000 I1.000 J-0.000 K0.000 F600.000
G1 X157.175 Y109.900 Z-3.000 F600.000
G1 X157.296 Y109.885 Z-3.000 F600.000
G1 X159.223 Y111.811 Z-3.000 F600.000
G1 X160.326 Y111.811 Z-3.000 F600.000
G1 X160.326 Y110.086 Z-3.000 F600.000
G1 X158.175 Y107.935 Z-3.000 F600.000
G1 X158.175 Y107.935 Z-3.000 F600.000
G1 X158.175 Y108.900 Z-3.000 F600.000
G3 X157.175 Y109.900 Z-3.000 I-1.000 J-0.000 K0.000 F600.000
G1 X155.864 Y109.900 Z-3.000 F600.000
G3 X154.864 Y108.900 Z-3.000 I0.000 J-1.000 K0.000 F600.000
G1 X154.864 Y107.186 Z-3.000 F600.000
G3 X155.864 Y106.186 Z-3.000 I1.000 J0.000 K0.000 F600.000
G1 X157.175 Y106.186 Z-3.000 F600.000
G3 X158.175 Y107.186 Z-3.000 I-0.000 J1.000 K0.000 F600.000
G1 X158.175 Y107.935 Z-3.000 F600.000
G1 X158.175 Y107.935 Z-5.000 F600.000
G1 X158.175 Y108.900 Z-5.000 F600.000
G3 X157.175 Y109.900 Z-5.000 I-1.000 J-0.000 K0.000 F600.000
G1 X155.864 Y109.900 Z-5.000 F600.000
G3 X154.864 Y108.900 Z-5.000 I0.000 J-1.000 K0.000 F600.000
G1 X154.864 Y107.186 Z-5.000 F600.000
G3 X155.864 Y106.186 Z-5.000 I1.000 J0.000 K0.000 F600.000
G1 X157.175 Y106.186 Z-5.000 F600.000
G3 X158.175 Y107.186 Z-5.000 I-0.000 J1.000 K0.000 F600.000
G1 X158.175 Y107.935 Z-5.000 F600.000
G1 X158.175 Y107.935 Z-5.000 F600.000
G1 X160.326 Y110.086 Z-5.000 F600.000
G1 X160.326 Y111.811 Z-5.000 F600.000
G1 X159.223 Y111.811 Z-5.000 F600.000
G1 X157.296 Y109.885 Z-5.000 F600.000
G1 X157.175 Y109.900 Z-5.000 F600.000
G1 X155.864 Y109.900 Z-5.000 F600.000
G3 X154.864 Y108.900 Z-5.000 I0.000 J-1.000 K0.000 F600.000
G1 X154.864 Y107.453 Z-5.000 F600.000
G1 X151.748 Y104.336 Z-5.000 F600.000
G3 X150.532 Y103.595 Z-5.000 I-0.201 J-1.037 K0.000 F600.000
G3 X150.498 Y103.087 Z-5.000 I1.914 J-0.384 K0.000 F600.000
G1 X148.588 Y101.176 Z-5.000 F600.000
G1 X148.588 Y103.186 Z-5.000 F600.000
G3 X148.374 Y103.791 Z-5.000 I-0.836 J0.044 K0.000 F600.000
G1 X150.962 Y106.378 Z-5.000 F600.000
G2 X150.498 Y107.216 Z-5.000 I0.516 J0.832 K0.000 F600.000
G1 X150.498 Y108.744 Z-5.000 F600.000
G1 X145.909 Y104.154 Z-5.000 F600.000
G0 Z5.000
G0 X148.588 Y101.176 Z5.000
G0 X148.588 Y101.176 Z3.000
G1 X148.588 Y101.176 Z-3.000 F600.000
G1 X150.498 Y103.087 Z-3.000 F600.000
G1 X150.498 Y101.682 Z-3.000 F600.000
G3 X151.040 Y100.799 Z-3.000 I0.984 J-0.004 K0.000 F600.000
G1 X149.012 Y98.772 Z-3.000 F600.000
G1 X151.840 Y98.772 Z-3.000 F600.000
G1 X154.864 Y101.796 Z-3.000 F600.000
G1 X154.864 Y103.336 Z-3.000 F600.000
G2 X155.864 Y104.336 Z-3.000 I1.000 J-0.000 K0.000 F600.000
G1 X157.175 Y104.336 Z-3.000 F600.000
G1 X157.378 Y104.309 Z-3.000 F600.000
G1 X160.326 Y107.257 Z-3.000 F600.000
G1 X160.326 Y104.429 Z-3.000 F600.000
G1 X158.175 Y102.278 Z-3.000 F600.000
G1 X158.175 Y102.278 Z-3.000 F600.000
G1 X158.175 Y103.336 Z-3.000 F600.000
G3 X157.175 Y104.336 Z-3.000 I-1.000 J-0.000 K0.000 F600.000
G1 X155.864 Y104.336 Z-3.000 F600.000
G3 X154.864 Y103.336 Z-3.000 I0.000 J-1.000 K0.000 F600.000
G1 X154.864 Y101.682 Z-3.000 F600.000
G3 X155.864 Y100.682 Z-3.000 I1.000 J0.000 K0.000 F600.000
G1 X157.175 Y100.682 Z-3.000 F600.000
G3 X158.175 Y101.682 Z-3.000 I-0.000 J1.000 K0.000 F600.000
G1 X158.175 Y102.278 Z-3.000 F600.000
G1 X158.175 Y102.278 Z-5.000 F600.000
G1 X158.175 Y103.336 Z-5.000 F600.000
G3 X157.175 Y104.336 Z-5.000 I-1.000 J-0.000 K0.000 F600.000
G1 X155.864 Y104.336 Z-5.000 F600.000
G3 X154.864 Y103.336 Z-5.000 I0.000 J-1.000 K0.000 F600.000
G1 X154.864 Y101.682 Z-5.000 F600.000
G3 X155.864 Y100.682 Z-5.000 I1.000 J0.000 K0.000 F600.000
G1 X157.175 Y100.682 Z-5.000 F600.000
G3 X158.175 Y101.682 Z-5.000 I-0.000 J1.000 K0.000 F600.000
G1 X158.175 Y102.278 Z-5.000 F600.000
G1 X158.175 Y102.278 Z-5.000 F600.000
G1 X160.326 Y104.429 Z-5.000 F600.000
G1 X160.326 Y107.257 Z-5.000 F600.000
G1 X157.378 Y104.309 Z-5.000 F600.000
G1 X157.175 Y104.336 Z-5.000 F600.000
G1 X155.864 Y104.336 Z-5.000 F600.000
G3 X154.864 Y103.336 Z-5.000 I0.000 J-1.000 K0.000 F600.000
G1 X154.864 Y101.796 Z-5.000 F600.000
G1 X151.840 Y98.772 Z-5.000 F600.000
G1 X149.012 Y98.772 Z-5.000 F600.000
G1 X151.040 Y100.799 Z-5.000 F600.000
G2 X150.498 Y101.682 Z-5.000 I0.443 J0.879 K0.000 F600.000
G1 X150.498 Y103.087 Z-5.000 F600.000
G1 X148.588 Y101.176 Z-5.000 F600.000
G1 X150.513 Y101.511 Z-5.000 F600.000
G3 X151.498 Y100.682 Z-5.000 I0.985 J0.171 K0.000 F600.000
G1 X152.736 Y100.682 Z-5.000 F600.000
G3 X153.736 Y101.682 Z-5.000 I-0.000 J1.000 K0.000 F600.000
G1 X153.736 Y103.336 Z-5.000 F600.000
G3 X152.736 Y104.336 Z-5.000 I-1.000 J-0.000 K0.000 F600.000
G1 X151.498 Y104.336 Z-5.000 F600.000
G3 X150.498 Y103.336 Z-5.000 I-0.000 J-1.000 K0.000 F600.000
G1 X150.498 Y101.682 Z-5.000 F600.000
G3 X150.513 Y101.511 Z-5.000 I1.000 J0.000 K0.000 F600.000
G1 X150.513 Y101.511 Z-3.000 F600.000
G3 X151.498 Y100.682 Z-3.000 I0.985 J0.171 K0.000 F600.000
G1 X152.736 Y100.682 Z-3.000 F600.000
G3 X153.736 Y101.682 Z-3.000 I-0.000 J1.000 K0.000 F600.000
G1 X153.736 Y103.336 Z-3.000 F600.000
G3 X152.736 Y104.336 Z-3.000 I-1.000 J-0.000 K0.000 F600.000
G1 X151.498 Y104.336 Z-3.000 F600.000
G3 X150.498 Y103.336 Z-3.000 I-0.000 J-1.000 K0.000 F600.000
G1 X150.498 Y101.682 Z-3.000 F600.000
G3 X150.513 Y101.511 Z-3.000 I1.000 J0.000 K0.000 F600.000
G0 Z5.000
G0 X151.840 Y98.772 Z5.000
G0 X151.840 Y98.772 Z3.000
G1 X151.840 Y98.772 Z-3.000 F600.000
G1 X154.864 Y101.796 Z-3.000 F600.000
G3 X155.605 Y100.717 Z-3.000 I1.010 J-0.101 K0.000 F600.000
G3 X156.579 Y100.682 Z-3.000 I0.616 J3.682 K0.000 F600.000
G1 X154.669 Y98.772 Z-3.000 F600.000
G1 X157.497 Y98.772 Z-3.000 F600.000
G1 X160.326 Y101.600 Z-3.000 F600.000
G1 X160.326 Y98.772 Z-3.000 F600.000
G1 X160.326 Y98.772 Z-5.000 F600.000
G1 X160.326 Y101.600 Z-5.000 F600.000
G1 X157.497 Y98.772 Z-5.000 F600.000
G1 X154.669 Y98.772 Z-5.000 F600.000
G1 X156.579 Y100.682 Z-5.000 F600.000
G2 X155.605 Y100.717 Z-5.000 I-0.358 J3.716 K0.000 F600.000
G2 X154.864 Y101.796 Z-5.000 I0.268 J0.978 K0.000 F600.000
G1 X151.840 Y98.772 Z-5.000 F600.000
G0 Z5.000
G0 X153.717 Y103.477 Z5.000
G0 X153.717 Y103.477 Z3.000
G1 X153.717 Y103.477 Z-3.000 F600.000
G1 X156.426 Y106.186 Z-3.000 F600.000
G2 X155.605 Y106.220 Z-3.000 I-0.281 J3.134 K0.000 F600.000
G2 X154.864 Y107.453 Z-3.000 I0.300 J1.019 K0.000 F600.000
G1 X151.748 Y104.336 Z-3.000 F600.000
G1 X151.748 Y106.216 Z-3.000 F600.000
G1 X152.736 Y106.216 Z-3.000 F600.000
G3 X153.736 Y107.216 Z-3.000 I-0.000 J1.000 K0.000 F600.000
G1 X153.736 Y108.900 Z-3.000 F600.000
G3 X152.736 Y109.900 Z-3.000 I-1.000 J-0.000 K0.000 F600.000
G1 X151.498 Y109.900 Z-3.000 F600.000
G3 X150.498 Y108.900 Z-3.000 I0.000 J-1.000 K0.000 F600.000
G1 X150.498 Y107.216 Z-3.000 F600.000
G3 X151.498 Y106.216 Z-3.000 I1.000 J0.000 K0.000 F600.000
G1 X151.748 Y106.216 Z-3.000 F600.000
G1 X151.748 Y106.216 Z-5.000 F600.000
G1 X152.736 Y106.216 Z-5.000 F600.000
G3 X153.736 Y107.216 Z-5.000 I-0.000 J1.000 K0.000 F600.000
G1 X153.736 Y108.900 Z-5.000 F600.000
G3 X152.736 Y109.900 Z-5.000 I-1.000 J-0.000 K0.000 F600.000
G1 X151.498 Y109.900 Z-5.000 F600.000
G3 X150.498 Y108.900 Z-5.000 I0.000 J-1.000 K0.000 F600.000
G1 X150.498 Y107.216 Z-5.000 F600.000
G3 X151.498 Y106.216 Z-5.000 I1.000 J0.000 K0.000 F600.000
G1 X151.748 Y106.216 Z-5.000 F600.000
G1 X151.748 Y104.336 Z-5.000 F600.000
G1 X154.864 Y107.453 Z-5.000 F600.000
G3 X155.605 Y106.220 Z-5.000 I1.041 J-0.213 K0.000 F600.000
G3 X156.426 Y106.186 Z-5.000 I0.540 J3.100 K0.000 F600.000
G1 X153.717 Y103.477 Z-5.000 F600.000
G0 Z5.000
G0 X153.707 Y109.123 Z5.000
G0 X153.707 Y109.123 Z3.000
G1 X153.707 Y109.123 Z-3.000 F600.000
G1 X156.394 Y111.811 Z-3.000 F600.000
G1 X153.566 Y111.811 Z-3.000 F600.000
G1 X151.655 Y109.900 Z-3.000 F600.000
G3 X150.498 Y108.744 Z-3.000 I-0.135 J-1.022 K0.000 F600.000
G1 X145.909 Y104.154 Z-3.000 F600.000
G3 X145.183 Y103.428 Z-3.000 I0.232 J-0.958 K0.000 F600.000
G1 X142.640 Y100.885 Z-3.000 F600.000
G1 X142.640 Y101.953 Z-3.000 F600.000
G3 X141.852 Y102.925 Z-3.000 I-0.987 J0.006 K0.000 F600.000
G1 X145.525 Y106.598 Z-3.000 F600.000
G3 X146.151 Y106.367 Z-3.000 I0.619 J0.714 K0.000 F600.000
G1 X147.588 Y106.367 Z-3.000 F600.000
G3 X148.588 Y107.367 Z-3.000 I-0.000 J1.000 K0.000 F600.000
G1 X148.588 Y109.661 Z-3.000 F600.000
G1 X150.737 Y111.811 Z-3.000 F600.000
G1 X150.737 Y111.811 Z-3.000 F600.000
G1 X148.588 Y109.661 Z-3.000 F600.000
G1 X148.588 Y111.811 Z-3.000 F600.000
G1 X150.737 Y111.811 Z-3.000 F600.000
G1 X150.737 Y111.811 Z-5.000 F600.000
G1 X148.588 Y109.661 Z-5.000 F600.000
G1 X148.588 Y111.811 Z-5.000 F600.000
G1 X150.737 Y111.811 Z-5.000 F600.000
G1 X150.737 Y111.811 Z-5.000 F600.000
G1 X148.588 Y109.661 Z-5.000 F600.000
G1 X148.588 Y107.367 Z-5.000 F600.000
G2 X147.588 Y106.367 Z-5.000 I-1.000 J0.000 K0.000 F600.000
G1 X146.151 Y106.367 Z-5.000 F600.000
G2 X145.525 Y106.598 Z-5.000 I-0.007 J0.946 K0.000 F600.000
G1 X141.852 Y102.925 Z-5.000 F600.000
G2 X142.640 Y101.953 Z-5.000 I-0.198 J-0.966 K0.000 F600.000
G1 X142.640 Y100.885 Z-5.000 F600.000
G1 X145.183 Y103.428 Z-5.000 F600.000
G2 X145.909 Y104.154 Z-5.000 I0.958 J-0.232 K0.000 F600.000
G1 X150.498 Y108.744 Z-5.000 F600.000
G2 X151.655 Y109.900 Z-5.000 I1.022 J0.135 K0.000 F600.000
G1 X153.566 Y111.811 Z-5.000 F600.000
G1 X156.394 Y111.811 Z-5.000 F600.000
G1 X153.707 Y109.123 Z-5.000 F600.000
G0 Z5.000
G0 X151.641 Y118.371 Z5.000
G0 X151.641 Y118.371 Z3.000
G1 X151.641 Y118.371 Z-3.000 F600.000
G1 X151.641 Y116.122 Z-3.000 F600.000
G1 X149.391 Y116.122 Z-3.000 F600.000
G1 X151.641 Y118.371 Z-3.000 F600.000
G1 X151.641 Y120.258 Z-3.000 F600.000
G1 X150.699 Y120.258 Z-3.000 F600.000
G1 X146.563 Y116.122 Z-3.000 F600.000
G1 X143.734 Y116.122 Z-3.000 F600.000
G1 X145.856 Y118.243 Z-3.000 F600.000
G1 X145.856 Y118.243 Z-5.000 F600.000
G1 X143.734 Y116.122 Z-5.000 F600.000
G1 X146.563 Y116.122 Z-5.000 F600.000
G1 X150.699 Y120.258 Z-5.000 F600.000
G1 X151.641 Y120.258 Z-5.000 F600.000
G1 X151.641 Y118.371 Z-5.000 F600.000
G1 X149.391 Y116.122 Z-5.000 F600.000
G1 X151.641 Y116.122 Z-5.000 F600.000
G1 X151.641 Y118.371 Z-5.000 F600.000
G0 Z5.000
G0 X143.094 Y112.653 Z5.000
G0 X143.094 Y112.653 Z3.000
G1 X143.094 Y112.653 Z-3.000 F600.000
G1 X142.640 Y112.653 Z-3.000 F600.000
G1 X142.640 Y112.199 Z-3.000 F600.000
G1 X143.094 Y112.653 Z-3.000 F600.000
G1 X145.151 Y112.653 Z-3.000 F600.000
G1 X145.151 Y111.882 Z-3.000 F600.000
G1 X142.603 Y109.334 Z-3.000 F600.000
G1 X142.603 Y109.334 Z-5.000 F600.000
G1 X145.151 Y111.882 Z-5.000 F600.000
G1 X145.151 Y112.653 Z-5.000 F600.000
G1 X143.094 Y112.653 Z-5.000 F600.000
G1 X142.640 Y112.199 Z-5.000 F600.000
G1 X142.640 Y112.653 Z-5.000 F600.000
G1 X143.094 Y112.653 Z-5.000 F600.000
G0 Z5.000
G0 Z5.000
G0 X143.094 Y112.653
G0 X155.444 Y117.535
G0 X155.444 Y117.535 Z3.000
G1 X155.444 Y117.535 Z-3.000 F600.000
G1 X155.130 Y117.752 Z-3.000 F600.000
G1 X156.603 Y119.868 Z-3.000 F600.000
G1 X160.262 Y117.337 Z-3.000 F600.000
G1 X158.789 Y115.222 Z-3.000 F600.000
G1 X155.130 Y117.752 Z-3.000 F600.000
G1 X156.603 Y119.868 Z-3.000 F600.000
G1 X157.297 Y119.388 Z-3.000 F600.000
G1 X155.444 Y117.535 Z-3.000 F600.000
G1 X157.116 Y116.378 Z-3.000 F600.000
G1 X158.969 Y118.231 Z-3.000 F600.000
G1 X160.262 Y117.337 Z-3.000 F600.000
G1 X158.789 Y115.222 Z-3.000 F600.000
G1 X158.789 Y115.222 Z-5.000 F600.000
G1 X160.262 Y117.337 Z-5.000 F600.000
G1 X158.969 Y118.231 Z-5.000 F600.000
G1 X157.116 Y116.378 Z-5.000 F600.000
G1 X155.444 Y117.535 Z-5.000 F600.000
G1 X157.297 Y119.388 Z-5.000 F600.000
G1 X156.603 Y119.868 Z-5.000 F600.000
G1 X155.130 Y117.752 Z-5.000 F600.000
G1 X158.789 Y115.222 Z-5.000 F600.000
G1 X160.262 Y117.337 Z-5.000 F600.000
G1 X156.603 Y119.868 Z-5.000 F600.000
G1 X155.130 Y117.752 Z-5.000 F600.000
G1 X155.444 Y117.535 Z-5.000 F600.000
G0 Z5.000
G0 Z5.000
G0 X155.444 Y117.535
G0 X159.063 Y132.547
G0 X159.063 Y132.547 Z3.000
G1 X159.063 Y132.547 Z-3.000 F600.000
G1 X159.063 Y134.849 Z-3.000 F600.000
G1 X158.535 Y134.849 Z-3.000 F600.000
G1 X156.234 Y132.547 Z-3.000 F600.000
G1 X153.406 Y132.547 Z-3.000 F600.000
G1 X155.707 Y134.849 Z-3.000 F600.000
G1 X152.879 Y134.849 Z-3.000 F600.000
G1 X150.577 Y132.547 Z-3.000 F600.000
G1 X147.749 Y132.547 Z-3.000 F600.000
G1 X150.050 Y134.849 Z-3.000 F600.000
G1 X147.222 Y134.849 Z-3.000 F600.000
G1 X144.921 Y132.547 Z-3.000 F600.000
G1 X142.092 Y132.547 Z-3.000 F600.000
G1 X144.393 Y134.849 Z-3.000 F600.000
G1 X144.393 Y134.849 Z-5.000 F600.000
G1 X142.092 Y132.547 Z-5.000 F600.000
G1 X144.921 Y132.547 Z-5.000 F600.000
G1 X147.222 Y134.849 Z-5.000 F600.000
G1 X150.050 Y134.849 Z-5.000 F600.000
G1 X147.749 Y132.547 Z-5.000 F600.000
G1 X150.577 Y132.547 Z-5.000 F600.000
G1 X152.879 Y134.849 Z-5.000 F600.000
G1 X155.707 Y134.849 Z-5.000 F600.000
G1 X153.406 Y132.547 Z-5.000 F600.000
G1 X156.234 Y132.547 Z-5.000 F600.000
G1 X158.535 Y134.849 Z-5.000 F600.000
G1 X159.063 Y134.849 Z-5.000 F600.000
G1 X159.063 Y132.547 Z-5.000 F600.000
G0 Z5.000
G0 X140.995 Y125.793 Z5.000
G0 X140.995 Y125.793 Z3.000
G1 X140.995 Y125.793 Z-3.000 F600.000
G1 X140.995 Y124.755 Z-3.000 F600.000
G1 X139.956 Y124.755 Z-3.000 F600.000
G1 X140.995 Y125.793 Z-3.000 F600.000
G1 X140.995 Y128.622 Z-3.000 F600.000
G1 X138.692 Y126.319 Z-3.000 F600.000
G1 X138.692 Y129.147 Z-3.000 F600.000
G1 X140.995 Y131.450 Z-3.000 F600.000
G2 X142.092 Y132.547 Z-3.000 I1.009 J0.088 K0.000 F600.000
G1 X144.393 Y134.849 Z-3.000 F600.000
G1 X141.565 Y134.849 Z-3.000 F600.000
G1 X138.692 Y131.976 Z-3.000 F600.000
G1 X138.692 Y134.804 Z-3.000 F600.000
G2 X138.692 Y134.849 Z-3.000 I0.022 J0.022 K0.000 F600.000
G2 X138.736 Y134.849 Z-3.000 I0.022 J-0.022 K0.000 F600.000
G1 X138.692 Y134.804 Z-3.000 F600.000
G1 X138.692 Y124.755 Z-3.000 F600.000
G1 X140.995 Y124.755 Z-3.000 F600.000
G1 X140.995 Y131.547 Z-3.000 F600.000
G2 X141.995 Y132.547 Z-3.000 I1.000 J-0.000 K0.000 F600.000
G1 X159.063 Y132.547 Z-3.000 F600.000
G1 X159.063 Y134.849 Z-3.000 F600.000
G1 X138.692 Y134.849 Z-3.000 F600.000
G1 X138.692 Y134.804 Z-3.000 F600.000
G1 X138.692 Y134.804 Z-5.000 F600.000
G1 X138.692 Y134.849 Z-5.000 F600.000
G1 X159.063 Y134.849 Z-5.000 F600.000
G1 X159.063 Y132.547 Z-5.000 F600.000
G1 X141.995 Y132.547 Z-5.000 F600.000
G3 X140.995 Y131.547 Z-5.000 I0.000 J-1.000 K0.000 F600.000
G1 X140.995 Y124.755 Z-5.000 F600.000
G1 X138.692 Y124.755 Z-5.000 F600.000
G1 X138.692 Y134.804 Z-5.000 F600.000
G1 X138.736 Y134.849 Z-5.000 F600.000
G3 X138.692 Y134.849 Z-5.000 I-0.022 J-0.022 K0.000 F600.000
G3 X138.692 Y134.804 Z-5.000 I0.022 J-0.022 K0.000 F600.000
G1 X138.692 Y131.976 Z-5.000 F600.000
G1 X141.565 Y134.849 Z-5.000 F600.000
G1 X144.393 Y134.849 Z-5.000 F600.000
G1 X142.092 Y132.547 Z-5.000 F600.000
G3 X140.995 Y131.450 Z-5.000 I-0.088 J-1.009 K0.000 F600.000
G1 X138.692 Y129.147 Z-5.000 F600.000
G1 X138.692 Y126.319 Z-5.000 F600.000
G1 X140.995 Y128.622 Z-5.000 F600.000
G1 X140.995 Y125.793 Z-5.000 F600.000
G1 X139.956 Y124.755 Z-5.000 F600.000
G1 X140.995 Y124.755 Z-5.000 F600.000
G1 X140.995 Y125.793 Z-5.000 F600.000
G0 Z5.000
G0 Z5.000
G0 X140.995 Y125.793
G0 X142.734 Y139.026
G0 X142.734 Y139.026 Z3.000
G1 X142.734 Y139.026 Z-3.000 F600.000
G3 X146.618 Y140.137 Z-3.000 I0.575 J5.333 K0.000 F600.000
G3 X147.987 Y141.399 Z-3.000 I-5.128 J6.932 K0.000 F600.000
G2 X149.355 Y141.476 Z-3.000 I0.725 J-0.689 K0.000 F600.000
G3 X151.911 Y139.953 Z-3.000 I4.262 J4.245 K0.000 F600.000
G3 X155.186 Y140.251 Z-3.000 I1.246 J4.449 K0.000 F600.000
G3 X158.373 Y143.149 Z-3.000 I-3.896 J7.486 K0.000 F600.000
G1 X158.373 Y151.517 Z-3.000 F600.000
G1 X137.815 Y151.517 Z-3.000 F600.000
G1 X137.815 Y150.598 Z-3.000 F600.000
G1 X137.815 Y150.598 Z-5.000 F600.000
G1 X137.815 Y151.517 Z-5.000 F600.000
G1 X158.373 Y151.517 Z-5.000 F600.000
G1 X158.373 Y143.149 Z-5.000 F600.000
G2 X155.186 Y140.251 Z-5.000 I-7.083 J4.589 K0.000 F600.000
G2 X151.911 Y139.953 Z-5.000 I-2.029 J4.151 K0.000 F600.000
G2 X149.355 Y141.476 Z-5.000 I1.705 J5.768 K0.000 F600.000
G3 X147.987 Y141.399 Z-5.000 I-0.643 J-0.766 K0.000 F600.000
G2 X146.618 Y140.137 Z-5.000 I-6.497 J5.670 K0.000 F600.000
G2 X142.734 Y139.026 Z-5.000 I-3.309 J4.222 K0.000 F600.000
G1 X142.734 Y139.026 Z-5.000 F600.000
G2 X140.507 Y139.847 Z-5.000 I0.741 J5.440 K0.000 F600.000
G2 X137.815 Y142.416 Z-5.000 I5.898 J8.877 K0.000 F600.000
G1 X137.815 Y151.517 Z-5.000 F600.000
G1 X138.733 Y151.517 Z-5.000 F600.000
G1 X137.815 Y150.598 Z-5.000 F600.000
G1 X137.815 Y147.770 Z-5.000 F600.000
G1 X141.562 Y151.517 Z-5.000 F600.000
G1 X144.390 Y151.517 Z-5.000 F600.000
G1 X142.089 Y149.216 Z-5.000 F600.000
G1 X141.201 Y149.216 Z-5.000 F600.000
G3 X140.235 Y148.475 Z-5.000 I0.000 J-1.000 K0.000 F600.000
G3 X140.201 Y147.328 Z-5.000 I4.338 J-0.703 K0.000 F600.000
G1 X137.815 Y144.941 Z-5.000 F600.000
G1 X137.815 Y142.416 Z-5.000 F600.000
G1 X137.949 Y142.248 Z-5.000 F600.000
G1 X140.201 Y144.499 Z-5.000 F600.000
G1 X140.201 Y143.633 Z-5.000 F600.000
G3 X140.380 Y143.062 Z-5.000 I1.000 J0.000 K0.000 F600.000
G3 X140.987 Y142.457 Z-5.000 I3.282 J2.682 K0.000 F600.000
G1 X139.307 Y140.777 Z-5.000 F600.000
G3 X140.955 Y139.597 Z-5.000 I4.902 J5.110 K0.000 F600.000
G1 X142.770 Y141.411 Z-5.000 F600.000
G1 X142.768 Y141.405 Z-5.000 F600.000
G3 X143.376 Y141.332 Z-5.000 I0.640 J2.786 K0.000 F600.000
G3 X144.685 Y141.653 Z-5.000 I-0.066 J3.107 K0.000 F600.000
G3 X146.749 Y143.531 Z-5.000 I-2.720 J5.062 K0.000 F600.000
G3 X146.963 Y144.149 Z-5.000 I-0.786 J0.618 K0.000 F600.000
G1 X146.963 Y148.216 Z-5.000 F600.000
G3 X145.963 Y149.216 Z-5.000 I-1.000 J-0.000 K0.000 F600.000
G1 X141.201 Y149.216 Z-5.000 F600.000
G3 X140.201 Y148.216 Z-5.000 I0.000 J-1.000 K0.000 F600.000
G1 X140.201 Y143.633 Z-5.000 F600.000
G3 X140.380 Y143.062 Z-5.000 I1.000 J0.000 K0.000 F600.000
G3 X141.711 Y141.891 Z-5.000 I5.240 J4.610 K0.000 F600.000
G3 X142.768 Y141.405 Z-5.000 I1.697 J2.300 K0.000 F600.000
G1 X142.768 Y141.405 Z-3.000 F600.000
G3 X143.376 Y141.332 Z-3.000 I0.640 J2.786 K0.000 F600.000
G3 X144.685 Y141.653 Z-3.000 I-0.066 J3.107 K0.000 F600.000
G3 X146.749 Y143.531 Z-3.000 I-2.720 J5.062 K0.000 F600.000
G3 X146.963 Y144.149 Z-3.000 I-0.786 J0.618 K0.000 F600.000
G1 X146.963 Y148.216 Z-3.000 F600.000
G3 X145.963 Y149.216 Z-3.000 I-1.000 J-0.000 K0.000 F600.000
G1 X141.201 Y149.216 Z-3.000 F600.000
G3 X140.201 Y148.216 Z-3.000 I0.000 J-1.000 K0.000 F600.000
G1 X140.201 Y143.633 Z-3.000 F600.000
G3 X140.380 Y143.062 Z-3.000 I1.000 J0.000 K0.000 F600.000
G3 X141.711 Y141.891 Z-3.000 I5.240 J4.610 K0.000 F600.000
G3 X142.768 Y141.405 Z-3.000 I1.697 J2.300 K0.000 F600.000
G1 X142.770 Y141.411 Z-3.000 F600.000
G1 X140.955 Y139.597 Z-3.000 F600.000
G2 X139.307 Y140.777 Z-3.000 I3.254 J6.289 K0.000 F600.000
G1 X140.987 Y142.457 Z-3.000 F600.000
G2 X140.380 Y143.062 Z-3.000 I2.675 J3.288 K0.000 F600.000
G2 X140.201 Y143.633 Z-3.000 I0.821 J0.571 K0.000 F600.000
G1 X140.201 Y144.499 Z-3.000 F600.000
G1 X137.949 Y142.248 Z-3.000 F600.000
G1 X137.815 Y142.416 Z-3.000 F600.000
G1 X137.815 Y144.941 Z-3.000 F600.000
G1 X140.201 Y147.328 Z-3.000 F600.000
G2 X140.235 Y148.475 Z-3.000 I4.372 J0.444 K0.000 F600.000
G2 X141.201 Y149.216 Z-3.000 I0.966 J-0.259 K0.000 F600.000
G1 X142.089 Y149.216 Z-3.000 F600.000
G1 X144.390 Y151.517 Z-3.000 F600.000
G1 X141.562 Y151.517 Z-3.000 F600.000
G1 X137.815 Y147.770 Z-3.000 F600.000
G1 X137.815 Y150.598 Z-3.000 F600.000
G1 X138.733 Y151.517 Z-3.000 F600.000
G1 X137.815 Y151.517 Z-3.000 F600.000
G1 X137.815 Y142.416 Z-3.000 F600.000
G3 X140.507 Y139.847 Z-3.000 I8.590 J6.308 K0.000 F600.000
G3 X142.734 Y139.026 Z-3.000 I2.968 J4.619 K0.000 F600.000
G0 Z5.000
G0 X150.437 Y143.748 Z5.000
G0 X150.437 Y143.748 Z3.000
G1 X150.437 Y143.748 Z-3.000 F600.000
G3 X150.470 Y143.698 Z-3.000 I0.853 J0.523 K0.000 F600.000
G3 X151.581 Y142.699 Z-3.000 I4.914 J4.350 K0.000 F600.000
G3 X153.225 Y142.117 Z-3.000 I1.697 J2.180 K0.000 F600.000
G3 X154.097 Y142.280 Z-3.000 I-0.063 J2.759 K0.000 F600.000
G3 X155.785 Y143.542 Z-3.000 I-1.915 J4.322 K0.000 F600.000
G3 X156.070 Y144.241 Z-3.000 I-0.715 J0.699 K0.000 F600.000
G1 X156.070 Y148.216 Z-3.000 F600.000
G3 X155.070 Y149.216 Z-3.000 I-1.000 J-0.000 K0.000 F600.000
G1 X151.290 Y149.216 Z-3.000 F600.000
G3 X150.290 Y148.216 Z-3.000 I0.000 J-1.000 K0.000 F600.000
G1 X150.290 Y144.271 Z-3.000 F600.000
G3 X150.437 Y143.748 Z-3.000 I1.000 J-0.000 K0.000 F600.000
G1 X150.437 Y143.748 Z-5.000 F600.000
G3 X150.470 Y143.698 Z-5.000 I0.853 J0.523 K0.000 F600.000
G3 X151.581 Y142.699 Z-5.000 I4.914 J4.350 K0.000 F600.000
G3 X153.225 Y142.117 Z-5.000 I1.697 J2.180 K0.000 F600.000
G3 X154.097 Y142.280 Z-5.000 I-0.063 J2.759 K0.000 F600.000
G3 X155.785 Y143.542 Z-5.000 I-1.915 J4.322 K0.000 F600.000
G3 X156.070 Y144.241 Z-5.000 I-0.715 J0.699 K0.000 F600.000
G1 X156.070 Y148.216 Z-5.000 F600.000
G3 X155.070 Y149.216 Z-5.000 I-1.000 J-0.000 K0.000 F600.000
G1 X151.290 Y149.216 Z-5.000 F600.000
G3 X150.290 Y148.216 Z-5.000 I0.000 J-1.000 K0.000 F600.000
G1 X150.290 Y144.271 Z-5.000 F600.000
G3 X150.437 Y143.748 Z-5.000 I1.000 J-0.000 K0.000 F600.000
G0 Z5.000
G0 X156.070 Y146.226 Z5.000
G0 X156.070 Y146.226 Z3.000
G1 X156.070 Y146.226 Z-3.000 F600.000
G1 X158.373 Y148.530 Z-3.000 F600.000
G1 X158.373 Y151.358 Z-3.000 F600.000
G1 X155.847 Y148.832 Z-3.000 F600.000
G3 X155.070 Y149.216 Z-3.000 I-0.764 J-0.568 K0.000 F600.000
G1 X153.403 Y149.216 Z-3.000 F600.000
G1 X155.704 Y151.517 Z-3.000 F600.000
G1 X155.704 Y151.517 Z-5.000 F600.000
G1 X153.403 Y149.216 Z-5.000 F600.000
G1 X155.070 Y149.216 Z-5.000 F600.000
G2 X155.847 Y148.832 Z-5.000 I0.013 J-0.952 K0.000 F600.000
G1 X158.373 Y151.358 Z-5.000 F600.000
G1 X158.373 Y148.530 Z-5.000 F600.000
G1 X156.070 Y146.226 Z-5.000 F600.000
G0 Z5.000
G0 X157.385 Y141.885 Z5.000
G0 X157.385 Y141.885 Z3.000
G1 X157.385 Y141.885 Z-3.000 F600.000
G3 X158.373 Y143.149 Z-3.000 I-6.355 J5.986 K0.000 F600.000
G1 X158.373 Y145.701 Z-3.000 F600.000
G1 X152.504 Y139.832 Z-3.000 F600.000
G2 X150.460 Y140.616 Z-3.000 I0.723 J4.940 K0.000 F600.000
G1 X152.188 Y142.344 Z-3.000 F600.000
G2 X150.583 Y143.567 Z-3.000 I2.377 J4.783 K0.000 F600.000
G1 X148.720 Y141.705 Z-3.000 F600.000
G3 X147.987 Y141.399 Z-3.000 I-0.033 J-0.955 K0.000 F600.000
G2 X144.401 Y139.095 Z-3.000 I-5.332 J4.354 K0.000 F600.000
G2 X143.177 Y138.990 Z-3.000 I-0.924 J3.602 K0.000 F600.000
G1 X150.290 Y146.103 Z-3.000 F600.000
G1 X150.290 Y148.216 Z-3.000 F600.000
G2 X151.290 Y149.216 Z-3.000 I1.000 J-0.000 K0.000 F600.000
G1 X153.403 Y149.216 Z-3.000 F600.000
G1 X155.704 Y151.517 Z-3.000 F600.000
G1 X152.875 Y151.517 Z-3.000 F600.000
G1 X146.963 Y145.605 Z-3.000 F600.000
G1 X146.963 Y148.216 Z-3.000 F600.000
G1 X146.938 Y148.408 Z-3.000 F600.000
G1 X150.047 Y151.517 Z-3.000 F600.000
G1 X147.219 Y151.517 Z-3.000 F600.000
G1 X144.917 Y149.216 Z-3.000 F600.000
G1 X142.089 Y149.216 Z-3.000 F600.000
G1 X144.390 Y151.517 Z-3.000 F600.000
G1 X144.390 Y151.517 Z-5.000 F600.000
G1 X142.089 Y149.216 Z-5.000 F600.000
G1 X144.917 Y149.216 Z-5.000 F600.000
G1 X147.219 Y151.517 Z-5.000 F600.000
G1 X150.047 Y151.517 Z-5.000 F600.000
G1 X146.938 Y148.408 Z-5.000 F600.000
G1 X146.963 Y148.216 Z-5.000 F600.000
G1 X146.963 Y145.605 Z-5.000 F600.000
G1 X152.875 Y151.517 Z-5.000 F600.000
G1 X155.704 Y151.517 Z-5.000 F600.000
G1 X153.403 Y149.216 Z-5.000 F600.000
G1 X151.290 Y149.216 Z-5.000 F600.000
G3 X150.290 Y148.216 Z-5.000 I0.000 J-1.000 K0.000 F600.000
G1 X150.290 Y146.103 Z-5.000 F600.000
G1 X143.177 Y138.990 Z-5.000 F600.000
G3 X144.401 Y139.095 Z-5.000 I0.301 J3.707 K0.000 F600.000
G3 X147.987 Y141.399 Z-5.000 I-1.747 J6.658 K0.000 F600.000
G2 X148.720 Y141.705 Z-5.000 I0.701 J-0.649 K0.000 F600.000
G1 X150.583 Y143.567 Z-5.000 F600.000
G3 X152.188 Y142.344 Z-5.000 I3.982 J3.560 K0.000 F600.000
G1 X150.460 Y140.616 Z-5.000 F600.000
G3 X152.504 Y139.832 Z-5.000 I2.767 J4.155 K0.000 F600.000
G1 X158.373 Y145.701 Z-5.000 F600.000
G1 X158.373 Y143.149 Z-5.000 F600.000
G2 X157.385 Y141.885 Z-5.000 I-7.343 J4.722 K0.000 F600.000
G0 Z5.000
G0 Z5.000
G0 X157.385 Y141.885
G0 X151.713 Y156.310
G0 X151.713 Y156.310 Z3.000
G1 X151.713 Y156.310 Z-3.000 F600.000
G1 X151.179 Y156.349 Z-3.000 F600.000
G2 X148.814 Y156.972 Z-3.000 I0.250 J5.749 K0.000 F600.000
G2 X145.274 Y161.050 Z-3.000 I2.845 J6.045 K0.000 F600.000
G2 X144.975 Y165.555 Z-3.000 I11.664 J3.036 K0.000 F600.000
G3 X143.986 Y166.699 Z-3.000 I-0.990 J0.143 K0.000 F600.000
G1 X138.473 Y166.699 Z-3.000 F600.000
G1 X138.473 Y169.000 Z-3.000 F600.000
G1 X150.663 Y169.000 Z-3.000 F600.000
G1 X148.359 Y166.696 Z-3.000 F600.000
G1 X148.380 Y166.699 Z-3.000 F600.000
G1 X151.190 Y166.699 Z-3.000 F600.000
G1 X153.492 Y169.000 Z-3.000 F600.000
G1 X156.320 Y169.000 Z-3.000 F600.000
G1 X154.019 Y166.699 Z-3.000 F600.000
G1 X155.697 Y166.699 Z-3.000 F600.000
G2 X156.469 Y166.321 Z-3.000 I0.013 J-0.952 K0.000 F600.000
G1 X159.000 Y168.852 Z-3.000 F600.000
G1 X159.000 Y166.023 Z-3.000 F600.000
G1 X156.664 Y163.688 Z-3.000 F600.000
G1 X156.662 Y163.688 Z-3.000 F600.000
G3 X156.697 Y165.699 Z-3.000 I-20.699 J1.365 K0.000 F600.000
G3 X155.697 Y166.699 Z-3.000 I-1.000 J-0.000 K0.000 F600.000
G1 X148.380 Y166.699 Z-3.000 F600.000
G3 X147.442 Y166.046 Z-3.000 I0.000 J-1.000 K0.000 F600.000
G3 X147.199 Y163.235 Z-3.000 I14.708 J-2.688 K0.000 F600.000
G3 X149.058 Y159.472 Z-3.000 I4.424 J-0.154 K0.000 F600.000
G3 X151.237 Y158.666 Z-3.000 I3.152 J5.172 K0.000 F600.000
G3 X152.162 Y158.628 Z-3.000 I0.624 J3.887 K0.000 F600.000
G3 X152.771 Y158.671 Z-3.000 I-0.098 J5.679 K0.000 F600.000
G3 X155.661 Y160.420 Z-3.000 I-0.289 J3.740 K0.000 F600.000
G3 X156.657 Y163.615 Z-3.000 I-6.483 J3.773 K0.000 F600.000
G3 X156.662 Y163.688 Z-3.000 I-20.694 J1.438 K0.000 F600.000
G1 X156.662 Y163.688 Z-5.000 F600.000
G3 X156.697 Y165.699 Z-5.000 I-20.699 J1.365 K0.000 F600.000
G3 X155.697 Y166.699 Z-5.000 I-1.000 J-0.000 K0.000 F600.000
G1 X148.380 Y166.699 Z-5.000 F600.000
G3 X147.442 Y166.046 Z-5.000 I0.000 J-1.000 K0.000 F600.000
G3 X147.199 Y163.235 Z-5.000 I14.708 J-2.688 K0.000 F600.000
G3 X149.058 Y159.472 Z-5.000 I4.424 J-0.154 K0.000 F600.000
G3 X151.237 Y158.666 Z-5.000 I3.152 J5.172 K0.000 F600.000
G3 X152.162 Y158.628 Z-5.000 I0.624 J3.887 K0.000 F600.000
G3 X152.771 Y158.671 Z-5.000 I-0.098 J5.679 K0.000 F600.000
G3 X155.661 Y160.420 Z-5.000 I-0.289 J3.740 K0.000 F600.000
G3 X156.657 Y163.615 Z-5.000 I-6.483 J3.773 K0.000 F600.000
G3 X156.662 Y163.688 Z-5.000 I-20.694 J1.438 K0.000 F600.000
G1 X156.664 Y163.688 Z-5.000 F600.000
G1 X159.000 Y166.023 Z-5.000 F600.000
G1 X159.000 Y168.852 Z-5.000 F600.000
G1 X156.469 Y166.321 Z-5.000 F600.000
G3 X155.697 Y166.699 Z-5.000 I-0.759 J-0.574 K0.000 F600.000
G1 X154.019 Y166.699 Z-5.000 F600.000
G1 X156.320 Y169.000 Z-5.000 F600.000
G1 X153.492 Y169.000 Z-5.000 F600.000
G1 X151.190 Y166.699 Z-5.000 F600.000
G1 X148.380 Y166.699 Z-5.000 F600.000
G1 X148.359 Y166.696 Z-5.000 F600.000
G1 X150.663 Y169.000 Z-5.000 F600.000
G1 X138.473 Y169.000 Z-5.000 F600.000
G1 X138.473 Y166.699 Z-5.000 F600.000
G1 X143.986 Y166.699 Z-5.000 F600.000
G2 X144.975 Y165.555 Z-5.000 I-0.000 J-1.000 K0.000 F600.000
G3 X145.274 Y161.050 Z-5.000 I11.962 J-1.470 K0.000 F600.000
G3 X148.814 Y156.972 Z-5.000 I6.385 J1.967 K0.000 F600.000
G3 X151.179 Y156.349 Z-5.000 I2.615 J5.126 K0.000 F600.000
G1 X151.713 Y156.310 Z-5.000 F600.000
G1 X151.713 Y156.310 Z-5.000 F600.000
G3 X155.517 Y157.161 Z-5.000 I0.378 J7.241 K0.000 F600.000
G3 X158.274 Y160.541 Z-5.000 I-3.356 J5.551 K0.000 F600.000
G3 X159.000 Y164.186 Z-5.000 I-9.398 J3.766 K0.000 F600.000
G1 X159.000 Y169.000 Z-5.000 F600.000
G1 X150.663 Y169.000 Z-5.000 F600.000
G1 X150.663 Y169.000 Z-3.000 F600.000
G1 X159.000 Y169.000 Z-3.000 F600.000
G1 X159.000 Y164.186 Z-3.000 F600.000
G2 X158.274 Y160.541 Z-3.000 I-10.124 J0.121 K0.000 F600.000
G2 X155.517 Y157.161 Z-3.000 I-6.112 J2.171 K0.000 F600.000
G2 X151.713 Y156.310 Z-3.000 I-3.426 J6.391 K0.000 F600.000
G0 Z5.000
G0 X156.826 Y158.193 Z5.000
G0 X156.826 Y158.193 Z3.000
G1 X156.826 Y158.193 Z-3.000 F600.000
G3 X158.769 Y162.160 Z-3.000 I-6.249 J5.519 K0.000 F600.000
G3 X158.933 Y163.128 Z-3.000 I-9.916 J2.185 K0.000 F600.000
G1 X152.109 Y156.304 Z-3.000 F600.000
G2 X150.137 Y156.495 Z-3.000 I0.040 J10.660 K0.000 F600.000
G1 X149.631 Y156.654 Z-3.000 F600.000
G1 X151.622 Y158.645 Z-3.000 F600.000
G2 X150.079 Y158.958 Z-3.000 I0.036 J4.133 K0.000 F600.000
G2 X149.414 Y159.266 Z-3.000 I1.355 J3.804 K0.000 F600.000
G1 X147.748 Y157.600 Z-3.000 F600.000
G2 X146.323 Y159.003 Z-3.000 I3.666 J5.146 K0.000 F600.000
G1 X147.940 Y160.620 Z-3.000 F600.000
G2 X147.228 Y162.736 Z-3.000 I3.629 J2.400 K0.000 F600.000
G1 X145.345 Y160.853 Z-3.000 F600.000
G2 X144.910 Y163.247 Z-3.000 I7.620 J2.621 K0.000 F600.000
G1 X147.375 Y165.712 Z-3.000 F600.000
G2 X148.359 Y166.696 Z-3.000 I1.004 J-0.019 K0.000 F600.000
G1 X150.663 Y169.000 Z-3.000 F600.000
G1 X147.835 Y169.000 Z-3.000 F600.000
G1 X144.908 Y166.074 Z-3.000 F600.000
G3 X143.986 Y166.699 Z-3.000 I-0.920 J-0.364 K0.000 F600.000
G1 X142.705 Y166.699 Z-3.000 F600.000
G1 X145.006 Y169.000 Z-3.000 F600.000
G1 X142.178 Y169.000 Z-3.000 F600.000
G1 X139.877 Y166.699 Z-3.000 F600.000
G1 X138.473 Y166.699 Z-3.000 F600.000
G1 X138.473 Y168.123 Z-3.000 F600.000
G1 X139.349 Y169.000 Z-3.000 F600.000
G1 X138.473 Y169.000 Z-3.000 F600.000
G1 X138.473 Y168.123 Z-3.000 F600.000
G1 X138.473 Y168.123 Z-5.000 F600.000
G1 X138.473 Y169.000 Z-5.000 F600.000
G1 X139.349 Y169.000 Z-5.000 F600.000
G1 X138.473 Y168.123 Z-5.000 F600.000
G1 X138.473 Y166.699 Z-5.000 F600.000
G1 X139.877 Y166.699 Z-5.000 F600.000
G1 X142.178 Y169.000 Z-5.000 F600.000
G1 X145.006 Y169.000 Z-5.000 F600.000
G1 X142.705 Y166.699 Z-5.000 F600.000
G1 X143.986 Y166.699 Z-5.000 F600.000
G2 X144.908 Y166.074 Z-5.000 I0.003 J-0.990 K0.000 F600.000
G1 X147.835 Y169.000 Z-5.000 F600.000
G1 X150.663 Y169.000 Z-5.000 F600.000
G1 X148.359 Y166.696 Z-5.000 F600.000
G3 X147.375 Y165.712 Z-5.000 I0.019 J-1.004 K0.000 F600.000
G1 X144.910 Y163.247 Z-5.000 F600.000
G3 X145.345 Y160.853 Z-5.000 I8.055 J0.228 K0.000 F600.000
G1 X147.228 Y162.736 Z-5.000 F600.000
G3 X147.940 Y160.620 Z-5.000 I4.342 J0.284 K0.000 F600.000
G1 X146.323 Y159.003 Z-5.000 F600.000
G3 X147.748 Y157.600 Z-5.000 I5.091 J3.743 K0.000 F600.000
G1 X149.414 Y159.266 Z-5.000 F600.000
G3 X150.079 Y158.958 Z-5.000 I2.020 J3.497 K0.000 F600.000
G3 X151.622 Y158.645 Z-5.000 I1.578 J3.820 K0.000 F600.000
G1 X149.631 Y156.654 Z-5.000 F600.000
G1 X150.137 Y156.495 Z-5.000 F600.000
G3 X152.109 Y156.304 Z-5.000 I2.012 J10.469 K0.000 F600.000
G1 X158.933 Y163.128 Z-5.000 F600.000
G2 X158.769 Y162.160 Z-5.000 I-10.080 J1.217 K0.000 F600.000
G2 X156.826 Y158.193 Z-5.000 I-8.192 J1.551 K0.000 F600.000
G0 Z5.000
G0 Z5.000
G0 X156.826 Y158.193
G0 X190.237 Y141.027
G0 X190.237 Y141.027 Z3.000
G1 X190.237 Y141.027 Z-3.000 F600.000
G1 X189.927 Y141.027 Z-3.000 F600.000
G1 X189.927 Y140.717 Z-3.000 F600.000
G1 X190.237 Y141.027 Z-3.000 F600.000
G1 X191.687 Y141.027 Z-3.000 F600.000
G1 X191.687 Y139.648 Z-3.000 F600.000
G1 X189.927 Y137.888 Z-3.000 F600.000
G1 X189.927 Y135.060 Z-3.000 F600.000
G1 X191.687 Y136.820 Z-3.000 F600.000
G1 X191.687 Y133.991 Z-3.000 F600.000
G1 X189.927 Y132.231 Z-3.000 F600.000
G1 X189.927 Y129.403 Z-3.000 F600.000
G1 X191.804 Y131.280 Z-3.000 F600.000
G3 X192.687 Y130.740 Z-3.000 I0.871 J0.433 K0.000 F600.000
G1 X193.752 Y130.740 Z-3.000 F600.000
G3 X194.209 Y130.856 Z-3.000 I0.012 J0.910 K0.000 F600.000
G1 X189.927 Y126.575 Z-3.000 F600.000
G1 X189.927 Y123.746 Z-3.000 F600.000
G1 X191.687 Y125.506 Z-3.000 F600.000
G1 X191.687 Y127.499 Z-3.000 F600.000
G2 X192.687 Y128.499 Z-3.000 I1.000 J-0.000 K0.000 F600.000
G1 X193.752 Y128.499 Z-3.000 F600.000
G2 X194.418 Y128.237 Z-3.000 I0.004 J-0.969 K0.000 F600.000
G1 X196.921 Y130.740 Z-3.000 F600.000
G1 X196.921 Y130.740 Z-5.000 F600.000
G1 X194.418 Y128.237 Z-5.000 F600.000
G3 X193.752 Y128.499 Z-5.000 I-0.662 J-0.707 K0.000 F600.000
G1 X192.687 Y128.499 Z-5.000 F600.000
G3 X191.687 Y127.499 Z-5.000 I-0.000 J-1.000 K0.000 F600.000
G1 X191.687 Y125.506 Z-5.000 F600.000
G1 X189.927 Y123.746 Z-5.000 F600.000
G1 X189.927 Y126.575 Z-5.000 F600.000
G1 X194.209 Y130.856 Z-5.000 F600.000
G2 X193.752 Y130.740 Z-5.000 I-0.445 J0.794 K0.000 F600.000
G1 X192.687 Y130.740 Z-5.000 F600.000
G2 X191.804 Y131.280 Z-5.000 I-0.011 J0.973 K0.000 F600.000
G1 X189.927 Y129.403 Z-5.000 F600.000
G1 X189.927 Y132.231 Z-5.000 F600.000
G1 X191.687 Y133.991 Z-5.000 F600.000
G1 X191.687 Y136.820 Z-5.000 F600.000
G1 X189.927 Y135.060 Z-5.000 F600.000
G1 X189.927 Y137.888 Z-5.000 F600.000
G1 X191.687 Y139.648 Z-5.000 F600.000
G1 X191.687 Y141.027 Z-5.000 F600.000
G1 X190.237 Y141.027 Z-5.000 F600.000
G1 X189.927 Y140.717 Z-5.000 F600.000
G1 X189.927 Y141.027 Z-5.000 F600.000
G1 X190.237 Y141.027 Z-5.000 F600.000
G0 Z5.000
G0 X194.752 Y137.056 Z5.000
G0 X194.752 Y137.056 Z3.000
G1 X194.752 Y137.056 Z-3.000 F600.000
G1 X194.752 Y139.312 Z-3.000 F600.000
G1 X195.609 Y139.312 Z-3.000 F600.000
G1 X195.609 Y131.740 Z-3.000 F600.000
G3 X196.609 Y130.740 Z-3.000 I1.000 J0.000 K0.000 F600.000
G1 X197.637 Y130.740 Z-3.000 F600.000
G3 X198.637 Y131.740 Z-3.000 I-0.000 J1.000 K0.000 F600.000
G1 X198.637 Y138.681 Z-3.000 F600.000
G1 X206.538 Y138.681 Z-3.000 F600.000
G1 X206.538 Y120.558 Z-3.000 F600.000
G1 X198.637 Y120.558 Z-3.000 F600.000
G1 X198.637 Y127.499 Z-3.000 F600.000
G3 X197.637 Y128.499 Z-3.000 I-1.000 J-0.000 K0.000 F600.000
G1 X196.609 Y128.499 Z-3.000 F600.000
G3 X195.609 Y127.499 Z-3.000 I0.000 J-1.000 K0.000 F600.000
G1 X195.609 Y119.927 Z-3.000 F600.000
G1 X194.752 Y119.927 Z-3.000 F600.000
G1 X194.752 Y127.499 Z-3.000 F600.000
G3 X193.752 Y128.499 Z-3.000 I-1.000 J-0.000 K0.000 F600.000
G1 X192.687 Y128.499 Z-3.000 F600.000
G3 X191.687 Y127.499 Z-3.000 I0.000 J-1.000 K0.000 F600.000
G1 X191.687 Y118.212 Z-3.000 F600.000
G1 X189.927 Y118.212 Z-3.000 F600.000
G1 X189.927 Y118.212 Z-3.000 F600.000
G1 X189.927 Y141.027 Z-3.000 F600.000
G1 X191.687 Y141.027 Z-3.000 F600.000
G1 X191.687 Y131.740 Z-3.000 F600.000
G3 X192.687 Y130.740 Z-3.000 I1.000 J0.000 K0.000 F600.000
G1 X193.752 Y130.740 Z-3.000 F600.000
G3 X194.752 Y131.740 Z-3.000 I0.000 J1.000 K0.000 F600.000
G1 X194.752 Y139.312 Z-3.000 F600.000
G1 X195.609 Y139.312 Z-3.000 F600.000
G1 X195.609 Y137.914 Z-3.000 F600.000
G1 X194.752 Y137.056 Z-3.000 F600.000
G1 X194.752 Y134.228 Z-3.000 F600.000
G1 X195.609 Y135.085 Z-3.000 F600.000
G1 X195.609 Y132.257 Z-3.000 F600.000
G1 X194.636 Y131.284 Z-3.000 F600.000
G1 X194.636 Y131.284 Z-5.000 F600.000
G1 X195.609 Y132.257 Z-5.000 F600.000
G1 X195.609 Y135.085 Z-5.000 F600.000
G1 X194.752 Y134.228 Z-5.000 F600.000
G1 X194.752 Y137.056 Z-5.000 F600.000
G1 X195.609 Y137.914 Z-5.000 F600.000
G1 X195.609 Y139.312 Z-5.000 F600.000
G1 X194.752 Y139.312 Z-5.000 F600.000
G1 X194.752 Y131.740 Z-5.000 F600.000
G2 X193.752 Y130.740 Z-5.000 I-1.000 J-0.000 K0.000 F600.000
G1 X192.687 Y130.740 Z-5.000 F600.000
G2 X191.687 Y131.740 Z-5.000 I0.000 J1.000 K0.000 F600.000
G1 X191.687 Y141.027 Z-5.000 F600.000
G1 X189.927 Y141.027 Z-5.000 F600.000
G1 X189.927 Y118.212 Z-5.000 F600.000
G1 X189.927 Y118.212 Z-5.000 F600.000
G1 X191.687 Y118.212 Z-5.000 F600.000
G1 X191.687 Y127.499 Z-5.000 F600.000
G2 X192.687 Y128.499 Z-5.000 I1.000 J-0.000 K0.000 F600.000
G1 X193.752 Y128.499 Z-5.000 F600.000
G2 X194.752 Y127.499 Z-5.000 I0.000 J-1.000 K0.000 F600.000
G1 X194.752 Y119.927 Z-5.000 F600.000
G1 X195.609 Y119.927 Z-5.000 F600.000
G1 X195.609 Y127.499 Z-5.000 F600.000
G2 X196.609 Y128.499 Z-5.000 I1.000 J-0.000 K0.000 F600.000
G1 X197.637 Y128.499 Z-5.000 F600.000
G2 X198.637 Y127.499 Z-5.000 I-0.000 J-1.000 K0.000 F600.000
G1 X198.637 Y120.558 Z-5.000 F600.000
G1 X206.538 Y120.558 Z-5.000 F600.000
G1 X206.538 Y138.681 Z-5.000 F600.000
G1 X198.637 Y138.681 Z-5.000 F600.000
G1 X198.637 Y131.740 Z-5.000 F600.000
G2 X197.637 Y130.740 Z-5.000 I-1.000 J0.000 K0.000 F600.000
G1 X196.609 Y130.740 Z-5.000 F600.000
G2 X195.609 Y131.740 Z-5.000 I0.000 J1.000 K0.000 F600.000
G1 X195.609 Y139.312 Z-5.000 F600.000
G1 X194.752 Y139.312 Z-5.000 F600.000
G1 X194.752 Y137.056 Z-5.000 F600.000
G0 Z5.000
G0 X199.205 Y138.681 Z5.000
G0 X199.205 Y138.681 Z3.000
G1 X199.205 Y138.681 Z-3.000 F600.000
G1 X198.637 Y138.681 Z-3.000 F600.000
G1 X198.637 Y138.113 Z-3.000 F600.000
G1 X199.205 Y138.681 Z-3.000 F600.000
G1 X202.033 Y138.681 Z-3.000 F600.000
G1 X198.637 Y135.285 Z-3.000 F600.000
G1 X198.637 Y132.456 Z-3.000 F600.000
G1 X199.314 Y133.133 Z-3.000 F600.000
G1 X199.314 Y135.380 Z-3.000 F600.000
G2 X200.314 Y136.380 Z-3.000 I1.000 J-0.000 K0.000 F600.000
G1 X201.522 Y136.380 Z-3.000 F600.000
G2 X202.246 Y136.065 Z-3.000 I0.007 J-0.974 K0.000 F600.000
G1 X204.862 Y138.681 Z-3.000 F600.000
G1 X206.538 Y138.681 Z-3.000 F600.000
G1 X206.538 Y137.529 Z-3.000 F600.000
G1 X205.312 Y136.303 Z-3.000 F600.000
G3 X204.951 Y136.380 Z-3.000 I-0.323 J-0.636 K0.000 F600.000
G1 X203.778 Y136.380 Z-3.000 F600.000
G3 X202.778 Y135.380 Z-3.000 I0.000 J-1.000 K0.000 F600.000
G1 X202.778 Y133.769 Z-3.000 F600.000
G1 X202.522 Y133.513 Z-3.000 F600.000
G1 X202.522 Y133.513 Z-3.000 F600.000
G1 X202.522 Y135.380 Z-3.000 F600.000
G3 X201.522 Y136.380 Z-3.000 I-1.000 J-0.000 K0.000 F600.000
G1 X200.314 Y136.380 Z-3.000 F600.000
G3 X199.314 Y135.380 Z-3.000 I0.000 J-1.000 K0.000 F600.000
G1 X199.314 Y131.740 Z-3.000 F600.000
G3 X200.314 Y130.740 Z-3.000 I1.000 J-0.000 K0.000 F600.000
G1 X201.522 Y130.740 Z-3.000 F600.000
G3 X202.522 Y131.740 Z-3.000 I-0.000 J1.000 K0.000 F600.000
G1 X202.522 Y133.513 Z-3.000 F600.000
G1 X202.778 Y133.513 Z-3.000 F600.000
G1 X202.778 Y131.740 Z-3.000 F600.000
G3 X203.778 Y130.740 Z-3.000 I1.000 J-0.000 K0.000 F600.000
G1 X204.951 Y130.740 Z-3.000 F600.000
G3 X205.951 Y131.740 Z-3.000 I-0.000 J1.000 K0.000 F600.000
G1 X205.951 Y135.380 Z-3.000 F600.000
G3 X204.951 Y136.380 Z-3.000 I-1.000 J-0.000 K0.000 F600.000
G1 X203.778 Y136.380 Z-3.000 F600.000
G3 X202.778 Y135.380 Z-3.000 I0.000 J-1.000 K0.000 F600.000
G1 X202.778 Y133.513 Z-3.000 F600.000
G1 X202.778 Y133.769 Z-3.000 F600.000
G1 X202.522 Y133.513 Z-3.000 F600.000
G1 X202.522 Y131.740 Z-3.000 F600.000
G2 X201.522 Y130.740 Z-3.000 I-1.000 J0.000 K0.000 F600.000
G1 X200.314 Y130.740 Z-3.000 F600.000
G2 X199.863 Y130.854 Z-3.000 I-0.013 J0.898 K0.000 F600.000
G1 X197.508 Y128.499 Z-3.000 F600.000
G2 X198.603 Y127.758 Z-3.000 I0.113 J-1.012 K0.000 F600.000
G2 X198.637 Y126.799 Z-3.000 I-3.622 J-0.608 K0.000 F600.000
G1 X199.314 Y127.476 Z-3.000 F600.000
G2 X200.336 Y128.499 Z-3.000 I1.001 J0.022 K0.000 F600.000
G1 X202.984 Y131.146 Z-3.000 F600.000
G1 X202.984 Y131.146 Z-5.000 F600.000
G1 X200.336 Y128.499 Z-5.000 F600.000
G3 X199.314 Y127.476 Z-5.000 I-0.022 J-1.001 K0.000 F600.000
G1 X198.637 Y126.799 Z-5.000 F600.000
G3 X198.603 Y127.758 Z-5.000 I-3.656 J0.350 K0.000 F600.000
G3 X197.508 Y128.499 Z-5.000 I-0.982 J-0.271 K0.000 F600.000
G1 X199.863 Y130.854 Z-5.000 F600.000
G3 X200.314 Y130.740 Z-5.000 I0.438 J0.785 K0.000 F600.000
G1 X201.522 Y130.740 Z-5.000 F600.000
G3 X202.522 Y131.740 Z-5.000 I-0.000 J1.000 K0.000 F600.000
G1 X202.522 Y133.513 Z-5.000 F600.000
G1 X202.778 Y133.769 Z-5.000 F600.000
G1 X202.778 Y133.769 Z-5.000 F600.000
G1 X202.778 Y131.740 Z-5.000 F600.000
G3 X203.778 Y130.740 Z-5.000 I1.000 J-0.000 K0.000 F600.000
G1 X204.951 Y130.740 Z-5.000 F600.000
G3 X205.951 Y131.740 Z-5.000 I-0.000 J1.000 K0.000 F600.000
G1 X205.951 Y135.380 Z-5.000 F600.000
G3 X204.951 Y136.380 Z-5.000 I-1.000 J-0.000 K0.000 F600.000
G1 X203.778 Y136.380 Z-5.000 F600.000
G3 X202.778 Y135.380 Z-5.000 I0.000 J-1.000 K0.000 F600.000
G1 X202.778 Y133.769 Z-5.000 F600.000
G1 X202.522 Y133.769 Z-5.000 F600.000
G1 X202.522 Y135.380 Z-5.000 F600.000
G3 X201.522 Y136.380 Z-5.000 I-1.000 J-0.000 K0.000 F600.000
G1 X200.314 Y136.380 Z-5.000 F600.000
G3 X199.314 Y135.380 Z-5.000 I0.000 J-1.000 K0.000 F600.000
G1 X199.314 Y131.740 Z-5.000 F600.000
G3 X200.314 Y130.740 Z-5.000 I1.000 J-0.000 K0.000 F600.000
G1 X201.522 Y130.740 Z-5.000 F600.000
G3 X202.522 Y131.740 Z-5.000 I-0.000 J1.000 K0.000 F600.000
G1 X202.522 Y133.769 Z-5.000 F600.000
G1 X202.522 Y133.513 Z-5.000 F600.000
G1 X202.778 Y133.769 Z-5.000 F600.000
G1 X202.778 Y135.380 Z-5.000 F600.000
G2 X203.778 Y136.380 Z-5.000 I1.000 J-0.000 K0.000 F600.000
G1 X204.951 Y136.380 Z-5.000 F600.000
G2 X205.312 Y136.303 Z-5.000 I0.038 J-0.712 K0.000 F600.000
G1 X206.538 Y137.529 Z-5.000 F600.000
G1 X206.538 Y138.681 Z-5.000 F600.000
G1 X204.862 Y138.681 Z-5.000 F600.000
G1 X202.246 Y136.065 Z-5.000 F600.000
G3 X201.522 Y136.380 Z-5.000 I-0.717 J-0.659 K0.000 F600.000
G1 X200.314 Y136.380 Z-5.000 F600.000
G3 X199.314 Y135.380 Z-5.000 I0.000 J-1.000 K0.000 F600.000
G1 X199.314 Y133.133 Z-5.000 F600.000
G1 X198.637 Y132.456 Z-5.000 F600.000
G1 X198.637 Y135.285 Z-5.000 F600.000
G1 X202.033 Y138.681 Z-5.000 F600.000
G1 X199.205 Y138.681 Z-5.000 F600.000
G1 X198.637 Y138.113 Z-5.000 F600.000
G1 X198.637 Y138.681 Z-5.000 F600.000
G1 X199.205 Y138.681 Z-5.000 F600.000
G0 Z5.000
G0 X206.538 Y137.529 Z5.000
G0 X206.538 Y137.529 Z3.000
G1 X206.538 Y137.529 Z-3.000 F600.000
G1 X205.312 Y136.303 Z-3.000 F600.000
G2 X205.951 Y135.380 Z-3.000 I-0.329 J-0.910 K0.000 F600.000
G1 X205.951 Y134.113 Z-3.000 F600.000
G1 X206.538 Y134.700 Z-3.000 F600.000
G1 X206.538 Y131.872 Z-3.000 F600.000
G1 X202.469 Y127.803 Z-3.000 F600.000
G2 X202.522 Y127.499 Z-3.000 I-0.542 J-0.251 K0.000 F600.000
G1 X202.522 Y125.028 Z-3.000 F600.000
G1 X202.778 Y125.284 Z-3.000 F600.000
G1 X202.778 Y127.499 Z-3.000 F600.000
G2 X203.778 Y128.499 Z-3.000 I1.000 J0.000 K0.000 F600.000
G1 X204.951 Y128.499 Z-3.000 F600.000
G2 X205.676 Y128.182 Z-3.000 I0.008 J-0.972 K0.000 F600.000
G1 X206.538 Y129.043 Z-3.000 F600.000
G1 X206.538 Y126.215 Z-3.000 F600.000
G1 X205.951 Y125.628 Z-3.000 F600.000
G1 X205.951 Y125.628 Z-3.000 F600.000
G1 X205.951 Y127.499 Z-3.000 F600.000
G3 X204.951 Y128.499 Z-3.000 I-1.000 J-0.000 K0.000 F600.000
G1 X203.778 Y128.499 Z-3.000 F600.000
G3 X202.778 Y127.499 Z-3.000 I-0.000 J-1.000 K0.000 F600.000
G1 X202.778 Y123.859 Z-3.000 F600.000
G3 X203.778 Y122.859 Z-3.000 I1.000 J0.000 K0.000 F600.000
G1 X204.951 Y122.859 Z-3.000 F600.000
G3 X205.951 Y123.859 Z-3.000 I-0.000 J1.000 K0.000 F600.000
G1 X205.951 Y125.628 Z-3.000 F600.000
G1 X205.951 Y125.628 Z-5.000 F600.000
G1 X205.951 Y127.499 Z-5.000 F600.000
G3 X204.951 Y128.499 Z-5.000 I-1.000 J-0.000 K0.000 F600.000
G1 X203.778 Y128.499 Z-5.000 F600.000
G3 X202.778 Y127.499 Z-5.000 I-0.000 J-1.000 K0.000 F600.000
G1 X202.778 Y123.859 Z-5.000 F600.000
G3 X203.778 Y122.859 Z-5.000 I1.000 J0.000 K0.000 F600.000
G1 X204.951 Y122.859 Z-5.000 F600.000
G3 X205.951 Y123.859 Z-5.000 I-0.000 J1.000 K0.000 F600.000
G1 X205.951 Y125.628 Z-5.000 F600.000
G1 X205.951 Y125.628 Z-5.000 F600.000
G1 X206.538 Y126.215 Z-5.000 F600.000
G1 X206.538 Y129.043 Z-5.000 F600.000
G1 X205.676 Y128.182 Z-5.000 F600.000
G3 X204.951 Y128.499 Z-5.000 I-0.718 J-0.655 K0.000 F600.000
G1 X203.778 Y128.499 Z-5.000 F600.000
G3 X202.778 Y127.499 Z-5.000 I-0.000 J-1.000 K0.000 F600.000
G1 X202.778 Y125.284 Z-5.000 F600.000
G1 X202.522 Y125.028 Z-5.000 F600.000
G1 X202.522 Y127.499 Z-5.000 F600.000
G3 X202.469 Y127.803 Z-5.000 I-0.595 J0.053 K0.000 F600.000
G1 X206.538 Y131.872 Z-5.000 F600.000
G1 X206.538 Y134.700 Z-5.000 F600.000
G1 X205.951 Y134.113 Z-5.000 F600.000
G1 X205.951 Y135.380 Z-5.000 F600.000
G3 X205.312 Y136.303 Z-5.000 I-0.968 J0.013 K0.000 F600.000
G1 X206.538 Y137.529 Z-5.000 F600.000
G0 Z5.000
G0 X201.969 Y128.393 Z5.000
G0 X201.969 Y128.393 Z3.000
G1 X201.969 Y128.393 Z-3.000 F600.000
G3 X201.522 Y128.499 Z-3.000 I-0.447 J-0.894 K0.000 F600.000
G1 X200.314 Y128.499 Z-3.000 F600.000
G3 X199.314 Y127.499 Z-3.000 I-0.000 J-1.000 K0.000 F600.000
G1 X199.314 Y123.859 Z-3.000 F600.000
G3 X200.314 Y122.859 Z-3.000 I1.000 J0.000 K0.000 F600.000
G1 X201.522 Y122.859 Z-3.000 F600.000
G3 X202.522 Y123.859 Z-3.000 I-0.000 J1.000 K0.000 F600.000
G1 X202.522 Y127.499 Z-3.000 F600.000
G3 X201.969 Y128.393 Z-3.000 I-1.000 J-0.000 K0.000 F600.000
G1 X201.969 Y128.393 Z-5.000 F600.000
G3 X201.522 Y128.499 Z-5.000 I-0.447 J-0.894 K0.000 F600.000
G1 X200.314 Y128.499 Z-5.000 F600.000
G3 X199.314 Y127.499 Z-5.000 I-0.000 J-1.000 K0.000 F600.000
G1 X199.314 Y123.859 Z-5.000 F600.000
G3 X200.314 Y122.859 Z-5.000 I1.000 J0.000 K0.000 F600.000
G1 X201.522 Y122.859 Z-5.000 F600.000
G3 X202.522 Y123.859 Z-5.000 I-0.000 J1.000 K0.000 F600.000
G1 X202.522 Y127.499 Z-5.000 F600.000
G3 X201.969 Y128.393 Z-5.000 I-1.000 J-0.000 K0.000 F600.000
G0 Z5.000
G0 X198.637 Y126.799 Z5.000
G0 X198.637 Y126.799 Z3.000
G1 X198.637 Y126.799 Z-3.000 F600.000
G1 X199.314 Y127.476 Z-3.000 F600.000
G1 X199.314 Y124.648 Z-3.000 F600.000
G1 X198.637 Y123.971 Z-3.000 F600.000
G1 X198.637 Y121.143 Z-3.000 F600.000
G1 X200.354 Y122.859 Z-3.000 F600.000
G1 X200.354 Y122.859 Z-5.000 F600.000
G1 X198.637 Y121.143 Z-5.000 F600.000
G1 X198.637 Y123.971 Z-5.000 F600.000
G1 X199.314 Y124.648 Z-5.000 F600.000
G1 X199.314 Y127.476 Z-5.000 F600.000
G1 X198.637 Y126.799 Z-5.000 F600.000
G0 Z5.000
G0 X194.418 Y128.237 Z5.000
G0 X194.418 Y128.237 Z3.000
G1 X194.418 Y128.237 Z-3.000 F600.000
G1 X196.921 Y130.740 Z-3.000 F600.000
G1 X197.637 Y130.740 Z-3.000 F600.000
G3 X198.603 Y131.481 Z-3.000 I0.000 J1.000 K0.000 F600.000
G3 X198.637 Y132.456 Z-3.000 I-3.686 J0.617 K0.000 F600.000
G1 X199.314 Y133.133 Z-3.000 F600.000
G1 X199.314 Y131.740 Z-3.000 F600.000
G3 X199.863 Y130.854 Z-3.000 I0.982 J-0.005 K0.000 F600.000
G1 X197.508 Y128.499 Z-3.000 F600.000
G1 X196.609 Y128.499 Z-3.000 F600.000
G3 X195.643 Y127.758 Z-3.000 I-0.000 J-1.000 K0.000 F600.000
G3 X195.609 Y126.600 Z-3.000 I4.380 J-0.708 K0.000 F600.000
G1 X194.752 Y125.743 Z-3.000 F600.000
G1 X194.752 Y122.914 Z-3.000 F600.000
G1 X195.609 Y123.771 Z-3.000 F600.000
G1 X195.609 Y120.943 Z-3.000 F600.000
G1 X194.752 Y120.086 Z-3.000 F600.000
G1 X194.752 Y119.927 Z-3.000 F600.000
G1 X195.609 Y119.927 Z-3.000 F600.000
G1 X195.609 Y120.943 Z-3.000 F600.000
G1 X195.609 Y120.943 Z-5.000 F600.000
G1 X195.609 Y119.927 Z-5.000 F600.000
G1 X194.752 Y119.927 Z-5.000 F600.000
G1 X194.752 Y120.086 Z-5.000 F600.000
G1 X195.609 Y120.943 Z-5.000 F600.000
G1 X195.609 Y123.771 Z-5.000 F600.000
G1 X194.752 Y122.914 Z-5.000 F600.000
G1 X194.752 Y125.743 Z-5.000 F600.000
G1 X195.609 Y126.600 Z-5.000 F600.000
G2 X195.643 Y127.758 Z-5.000 I4.414 J0.449 K0.000 F600.000
G2 X196.609 Y128.499 Z-5.000 I0.966 J-0.259 K0.000 F600.000
G1 X197.508 Y128.499 Z-5.000 F600.000
G1 X199.863 Y130.854 Z-5.000 F600.000
G2 X199.314 Y131.740 Z-5.000 I0.433 J0.882 K0.000 F600.000
G1 X199.314 Y133.133 Z-5.000 F600.000
G1 X198.637 Y132.456 Z-5.000 F600.000
G2 X198.603 Y131.481 Z-5.000 I-3.720 J-0.358 K0.000 F600.000
G2 X197.637 Y130.740 Z-5.000 I-0.966 J0.259 K0.000 F600.000
G1 X196.921 Y130.740 Z-5.000 F600.000
G1 X194.418 Y128.237 Z-5.000 F600.000
G0 Z5.000
G0 X189.927 Y123.746 Z5.000
G0 X189.927 Y123.746 Z3.000
G1 X189.927 Y123.746 Z-3.000 F600.000
G1 X191.687 Y125.506 Z-3.000 F600.000
G1 X191.687 Y122.677 Z-3.000 F600.000
G1 X189.927 Y120.918 Z-3.000 F600.000
G1 X189.927 Y118.212 Z-3.000 F600.000
G1 X190.050 Y118.212 Z-3.000 F600.000
G1 X191.687 Y119.849 Z-3.000 F600.000
G1 X191.687 Y118.212 Z-3.000 F600.000
G1 X190.050 Y118.212 Z-3.000 F600.000
G1 X190.050 Y118.212 Z-5.000 F600.000
G1 X191.687 Y118.212 Z-5.000 F600.000
G1 X191.687 Y119.849 Z-5.000 F600.000
G1 X190.050 Y118.212 Z-5.000 F600.000
G1 X189.927 Y118.212 Z-5.000 F600.000
G1 X189.927 Y120.918 Z-5.000 F600.000
G1 X191.687 Y122.677 Z-5.000 F600.000
G1 X191.687 Y125.506 Z-5.000 F600.000
G1 X189.927 Y123.746 Z-5.000 F600.000
G0 Z5.000
G0 X198.637 Y121.143 Z5.000
G0 X198.637 Y121.143 Z3.000
G1 X198.637 Y121.143 Z-3.000 F600.000
G1 X200.354 Y122.859 Z-3.000 F600.000
G1 X201.522 Y122.859 Z-3.000 F600.000
G3 X202.522 Y123.859 Z-3.000 I-0.000 J1.000 K0.000 F600.000
G1 X202.522 Y125.028 Z-3.000 F600.000
G1 X202.778 Y125.284 Z-3.000 F600.000
G1 X202.778 Y123.859 Z-3.000 F600.000
G3 X203.305 Y122.982 Z-3.000 I0.988 J-0.003 K0.000 F600.000
G1 X200.881 Y120.558 Z-3.000 F600.000
G1 X203.709 Y120.558 Z-3.000 F600.000
G1 X206.538 Y123.387 Z-3.000 F600.000
G1 X206.538 Y120.558 Z-3.000 F600.000
G1 X206.538 Y120.558 Z-5.000 F600.000
G1 X206.538 Y123.387 Z-5.000 F600.000
G1 X203.709 Y120.558 Z-5.000 F600.000
G1 X200.881 Y120.558 Z-5.000 F600.000
G1 X203.305 Y122.982 Z-5.000 F600.000
G2 X202.778 Y123.859 Z-5.000 I0.461 J0.874 K0.000 F600.000
G1 X202.778 Y125.284 Z-5.000 F600.000
G1 X202.522 Y125.028 Z-5.000 F600.000
G1 X202.522 Y123.859 Z-5.000 F600.000
G2 X201.522 Y122.859 Z-5.000 I-1.000 J0.000 K0.000 F600.000
G1 X200.354 Y122.859 Z-5.000 F600.000
G1 X198.637 Y121.143 Z-5.000 F600.000
G0 Z5.000
G0 Z5.000
G0 X198.637 Y121.143
G0 X209.540 Y121.554
G0 X209.540 Y121.554 Z3.000
G1 X209.540 Y121.554 Z-3.000 F600.000
G1 X211.090 Y123.103 Z-3.000 F600.000
G1 X211.059 Y122.867 Z-3.000 F600.000
G1 X211.059 Y120.244 Z-3.000 F600.000
G1 X209.540 Y118.725 Z-3.000 F600.000
G1 X209.540 Y118.392 Z-3.000 F600.000
G1 X211.059 Y118.392 Z-3.000 F600.000
G1 X211.059 Y120.244 Z-3.000 F600.000
G1 X211.059 Y120.244 Z-5.000 F600.000
G1 X211.059 Y118.392 Z-5.000 F600.000
G1 X209.540 Y118.392 Z-5.000 F600.000
G1 X209.540 Y118.725 Z-5.000 F600.000
G1 X211.059 Y120.244 Z-5.000 F600.000
G1 X211.059 Y122.867 Z-5.000 F600.000
G1 X211.090 Y123.103 Z-5.000 F600.000
G1 X209.540 Y121.554 Z-5.000 F600.000
G0 Z5.000
G0 Y118.392 Z5.000
G0 Y118.392 Z3.000
G1 X209.540 Y118.392 Z-3.000 F600.000
G1 X211.059 Y118.392 Z-3.000 F600.000
G1 X211.059 Y122.867 Z-3.000 F600.000
G2 X212.504 Y123.762 Z-3.000 I1.000 J-0.000 K0.000 F600.000
G1 X214.263 Y122.890 Z-3.000 F600.000
G2 X214.819 Y121.994 Z-3.000 I-0.444 J-0.896 K0.000 F600.000
G1 X214.819 Y119.716 Z-3.000 F600.000
G1 X216.188 Y119.716 Z-3.000 F600.000
G1 X216.188 Y127.198 Z-3.000 F600.000
G2 X217.188 Y128.198 Z-3.000 I1.000 J-0.000 K0.000 F600.000
G1 X217.722 Y128.198 Z-3.000 F600.000
G1 X217.722 Y131.131 Z-3.000 F600.000
G2 X216.929 Y131.165 Z-3.000 I-0.267 J3.029 K0.000 F600.000
G2 X216.188 Y132.131 Z-3.000 I0.259 J0.966 K0.000 F600.000
G1 X216.188 Y139.463 Z-3.000 F600.000
G1 X214.819 Y139.463 Z-3.000 F600.000
G1 X214.819 Y137.305 Z-3.000 F600.000
G2 X214.263 Y136.409 Z-3.000 I-1.000 J0.000 K0.000 F600.000
G1 X212.504 Y135.536 Z-3.000 F600.000
G2 X211.059 Y136.432 Z-3.000 I-0.444 J0.896 K0.000 F600.000
G1 X211.059 Y140.043 Z-3.000 F600.000
G1 X211.059 Y140.043 Z-5.000 F600.000
G1 X211.059 Y136.432 Z-5.000 F600.000
G3 X212.504 Y135.536 Z-5.000 I1.000 J0.000 K0.000 F600.000
G1 X214.263 Y136.409 Z-5.000 F600.000
G3 X214.819 Y137.305 Z-5.000 I-0.444 J0.896 K0.000 F600.000
G1 X214.819 Y139.463 Z-5.000 F600.000
G1 X216.188 Y139.463 Z-5.000 F600.000
G1 X216.188 Y132.131 Z-5.000 F600.000
G3 X216.929 Y131.165 Z-5.000 I1.000 J-0.000 K0.000 F600.000
G3 X217.722 Y131.131 Z-5.000 I0.526 J2.995 K0.000 F600.000
G1 X217.722 Y128.198 Z-5.000 F600.000
G1 X217.188 Y128.198 Z-5.000 F600.000
G3 X216.188 Y127.198 Z-5.000 I0.000 J-1.000 K0.000 F600.000
G1 X216.188 Y119.716 Z-5.000 F600.000
G1 X214.819 Y119.716 Z-5.000 F600.000
G1 X214.819 Y121.994 Z-5.000 F600.000
G3 X214.263 Y122.890 Z-5.000 I-1.000 J0.000 K0.000 F600.000
G1 X212.504 Y123.762 Z-5.000 F600.000
G3 X211.059 Y122.867 Z-5.000 I-0.444 J-0.896 K0.000 F600.000
G1 X211.059 Y118.392 Z-5.000 F600.000
G1 X209.540 Y118.392 Z-5.000 F600.000
G1 X209.540 Y118.392 Z-5.000 F600.000
G1 X209.540 Y140.816 Z-5.000 F600.000
G1 X211.059 Y140.816 Z-5.000 F600.000
G1 X211.059 Y140.043 Z-5.000 F600.000
G1 X209.540 Y138.524 Z-5.000 F600.000
G1 X209.540 Y140.816 Z-5.000 F600.000
G1 X211.059 Y140.816 Z-5.000 F600.000
G1 X211.059 Y140.043 Z-5.000 F600.000
G1 X211.059 Y137.215 Z-5.000 F600.000
G1 X209.540 Y135.696 Z-5.000 F600.000
G1 X209.540 Y132.868 Z-5.000 F600.000
G1 X212.114 Y135.441 Z-5.000 F600.000
G1 X212.114 Y135.441 Z-3.000 F600.000
G1 X209.540 Y132.868 Z-3.000 F600.000
G1 X209.540 Y135.696 Z-3.000 F600.000
G1 X211.059 Y137.215 Z-3.000 F600.000
G1 X211.059 Y140.043 Z-3.000 F600.000
G1 X211.059 Y140.816 Z-3.000 F600.000
G1 X209.540 Y140.816 Z-3.000 F600.000
G1 X209.540 Y138.524 Z-3.000 F600.000
G1 X211.059 Y140.043 Z-3.000 F600.000
G1 X211.059 Y140.816 Z-3.000 F600.000
G1 X209.540 Y140.816 Z-3.000 F600.000
G1 X209.540 Y118.392 Z-3.000 F600.000
G0 Z5.000
G0 X216.188 Y119.716 Z5.000
G0 X216.188 Y119.716 Z3.000
G1 X216.188 Y119.716 Z-3.000 F600.000
G1 X216.188 Y122.544 Z-3.000 F600.000
G1 X214.819 Y121.175 Z-3.000 F600.000
G3 X214.781 Y122.268 Z-3.000 I-3.930 J0.409 K0.000 F600.000
G3 X214.263 Y122.890 Z-3.000 I-0.962 J-0.274 K0.000 F600.000
G1 X213.890 Y123.075 Z-3.000 F600.000
G1 X216.188 Y125.373 Z-3.000 F600.000
G1 X216.188 Y127.198 Z-3.000 F600.000
G2 X217.188 Y128.198 Z-3.000 I1.000 J-0.000 K0.000 F600.000
G1 X217.722 Y128.198 Z-3.000 F600.000
G1 X217.722 Y129.736 Z-3.000 F600.000
G1 X214.801 Y126.814 Z-3.000 F600.000
G1 X214.819 Y126.957 Z-3.000 F600.000
G1 X214.819 Y129.661 Z-3.000 F600.000
G1 X216.538 Y131.380 Z-3.000 F600.000
G2 X216.188 Y132.131 Z-3.000 I0.604 J0.739 K0.000 F600.000
G1 X216.188 Y133.858 Z-3.000 F600.000
G1 X214.802 Y132.472 Z-3.000 F600.000
G3 X213.375 Y133.237 Z-3.000 I-0.983 J-0.119 K0.000 F600.000
G1 X212.113 Y132.612 Z-3.000 F600.000
G1 X216.188 Y136.687 Z-3.000 F600.000
G1 X216.188 Y136.687 Z-5.000 F600.000
G1 X212.113 Y132.612 Z-5.000 F600.000
G1 X213.375 Y133.237 Z-5.000 F600.000
G2 X214.802 Y132.472 Z-5.000 I0.445 J-0.884 K0.000 F600.000
G1 X216.188 Y133.858 Z-5.000 F600.000
G1 X216.188 Y132.131 Z-5.000 F600.000
G3 X216.538 Y131.380 Z-5.000 I0.954 J-0.012 K0.000 F600.000
G1 X214.819 Y129.661 Z-5.000 F600.000
G1 X214.819 Y126.957 Z-5.000 F600.000
G1 X214.801 Y126.814 Z-5.000 F600.000
G1 X217.722 Y129.736 Z-5.000 F600.000
G1 X217.722 Y128.198 Z-5.000 F600.000
G1 X217.188 Y128.198 Z-5.000 F600.000
G3 X216.188 Y127.198 Z-5.000 I0.000 J-1.000 K0.000 F600.000
G1 X216.188 Y125.373 Z-5.000 F600.000
G1 X213.890 Y123.075 Z-5.000 F600.000
G1 X214.263 Y122.890 Z-5.000 F600.000
G2 X214.781 Y122.268 Z-5.000 I-0.444 J-0.896 K0.000 F600.000
G2 X214.819 Y121.175 Z-5.000 I-3.892 J-0.683 K0.000 F600.000
G1 X216.188 Y122.544 Z-5.000 F600.000
G1 X216.188 Y119.716 Z-5.000 F600.000
G0 Z5.000
G0 X214.130 Y126.007 Z5.000
G0 X214.130 Y126.007 Z3.000
G1 X214.130 Y126.007 Z-3.000 F600.000
G3 X214.819 Y126.957 Z-3.000 I-0.311 J0.950 K0.000 F600.000
G1 X214.819 Y132.341 Z-3.000 F600.000
G3 X213.375 Y133.237 Z-3.000 I-1.000 J-0.000 K0.000 F600.000
G1 X211.615 Y132.365 Z-3.000 F600.000
G3 X211.059 Y131.469 Z-3.000 I0.444 J-0.896 K0.000 F600.000
G1 X211.059 Y127.830 Z-3.000 F600.000
G3 X211.615 Y126.934 Z-3.000 I1.000 J0.000 K0.000 F600.000
G1 X213.375 Y126.061 Z-3.000 F600.000
G3 X213.866 Y125.958 Z-3.000 I0.444 J0.896 K0.000 F600.000
G3 X214.130 Y126.007 Z-3.000 I-0.047 J0.999 K0.000 F600.000
G1 X213.962 Y125.975 Z-3.000 F600.000
G1 X211.818 Y123.831 Z-3.000 F600.000
G3 X211.090 Y123.103 Z-3.000 I0.222 J-0.950 K0.000 F600.000
G1 X209.540 Y121.554 Z-3.000 F600.000
G1 X209.540 Y124.382 Z-3.000 F600.000
G1 X211.934 Y126.776 Z-3.000 F600.000
G2 X211.210 Y127.302 Z-3.000 I0.347 J1.238 K0.000 F600.000
G2 X211.059 Y127.830 Z-3.000 I0.850 J0.527 K0.000 F600.000
G1 X211.059 Y128.730 Z-3.000 F600.000
G1 X209.540 Y127.211 Z-3.000 F600.000
G1 X209.540 Y130.039 Z-3.000 F600.000
G1 X211.074 Y131.572 Z-3.000 F600.000
G2 X211.615 Y132.365 Z-3.000 I0.958 J-0.074 K0.000 F600.000
G1 X212.113 Y132.612 Z-3.000 F600.000
G1 X216.188 Y136.687 Z-3.000 F600.000
G1 X216.188 Y139.463 Z-3.000 F600.000
G1 X216.136 Y139.463 Z-3.000 F600.000
G1 X214.819 Y139.463 Z-3.000 F600.000
G1 X214.819 Y138.146 Z-3.000 F600.000
G1 X216.136 Y139.463 Z-3.000 F600.000
G1 X216.136 Y139.463 Z-5.000 F600.000
G1 X214.819 Y138.146 Z-5.000 F600.000
G1 X214.819 Y139.463 Z-5.000 F600.000
G1 X216.136 Y139.463 Z-5.000 F600.000
G1 X216.188 Y139.463 Z-5.000 F600.000
G1 X216.188 Y136.687 Z-5.000 F600.000
G1 X212.113 Y132.612 Z-5.000 F600.000
G1 X211.615 Y132.365 Z-5.000 F600.000
G3 X211.074 Y131.572 Z-5.000 I0.417 J-0.866 K0.000 F600.000
G1 X209.540 Y130.039 Z-5.000 F600.000
G1 X209.540 Y127.211 Z-5.000 F600.000
G1 X211.059 Y128.730 Z-5.000 F600.000
G1 X211.059 Y127.830 Z-5.000 F600.000
G3 X211.210 Y127.302 Z-5.000 I1.000 J0.000 K0.000 F600.000
G3 X211.934 Y126.776 Z-5.000 I1.071 J0.711 K0.000 F600.000
G1 X209.540 Y124.382 Z-5.000 F600.000
G1 X209.540 Y121.554 Z-5.000 F600.000
G1 X211.090 Y123.103 Z-5.000 F600.000
G2 X211.818 Y123.831 Z-5.000 I0.950 J-0.222 K0.000 F600.000
G1 X213.962 Y125.975 Z-5.000 F600.000
G1 X213.963 Y125.968 Z-5.000 F600.000
G3 X214.819 Y126.957 Z-5.000 I-0.144 J0.990 K0.000 F600.000
G1 X214.819 Y132.341 Z-5.000 F600.000
G3 X213.375 Y133.237 Z-5.000 I-1.000 J-0.000 K0.000 F600.000
G1 X211.615 Y132.365 Z-5.000 F600.000
G3 X211.059 Y131.469 Z-5.000 I0.444 J-0.896 K0.000 F600.000
G1 X211.059 Y127.830 Z-5.000 F600.000
G3 X211.615 Y126.934 Z-5.000 I1.000 J0.000 K0.000 F600.000
G1 X213.375 Y126.061 Z-5.000 F600.000
G3 X213.866 Y125.958 Z-5.000 I0.444 J0.896 K0.000 F600.000
G3 X213.963 Y125.968 Z-5.000 I-0.047 J0.999 K0.000 F600.000
G0 Z5.000
G0 Z5.000
G0 X213.963 Y125.968
G0 X196.441 Y146.330
G0 X196.441 Y146.330 Z3.000
G1 X196.441 Y146.330 Z-3.000 F600.000
G1 X197.807 Y146.059 Z-3.000 F600.000
G1 X198.209 Y148.098 Z-3.000 F600.000
G1 X196.441 Y146.330 Z-3.000 F600.000
G1 X194.080 Y146.798 Z-3.000 F600.000
G1 X196.078 Y148.795 Z-3.000 F600.000
G1 X194.643 Y149.076 Z-3.000 F600.000
G2 X193.985 Y149.531 Z-3.000 I0.190 J0.977 K0.000 F600.000
G1 X191.720 Y147.265 Z-3.000 F600.000
G1 X190.481 Y147.511 Z-3.000 F600.000
G1 X190.481 Y148.855 Z-3.000 F600.000
G1 X193.835 Y152.209 Z-3.000 F600.000
G2 X195.029 Y153.403 Z-3.000 I1.031 J0.163 K0.000 F600.000
G1 X197.692 Y156.066 Z-3.000 F600.000
G1 X194.863 Y156.066 Z-3.000 F600.000
G1 X190.481 Y151.684 Z-3.000 F600.000
G1 X190.481 Y154.512 Z-3.000 F600.000
G1 X192.035 Y156.066 Z-3.000 F600.000
G1 X190.481 Y156.066 Z-3.000 F600.000
G1 X190.481 Y147.511 Z-3.000 F600.000
G1 X197.807 Y146.059 Z-3.000 F600.000
G1 X198.262 Y148.367 Z-3.000 F600.000
G1 X194.643 Y149.076 Z-3.000 F600.000
G2 X193.835 Y150.057 Z-3.000 I0.192 J0.981 K0.000 F600.000
G1 X193.835 Y152.403 Z-3.000 F600.000
G2 X194.835 Y153.403 Z-3.000 I1.000 J-0.000 K0.000 F600.000
G1 X217.657 Y153.403 Z-3.000 F600.000
G1 X217.657 Y156.066 Z-3.000 F600.000
G1 X190.481 Y156.066 Z-3.000 F600.000
G1 X190.481 Y154.512 Z-3.000 F600.000
G1 X190.481 Y154.512 Z-5.000 F600.000
G1 X190.481 Y156.066 Z-5.000 F600.000
G1 X217.657 Y156.066 Z-5.000 F600.000
G1 X217.657 Y153.403 Z-5.000 F600.000
G1 X194.835 Y153.403 Z-5.000 F600.000
G3 X193.835 Y152.403 Z-5.000 I0.000 J-1.000 K0.000 F600.000
G1 X193.835 Y150.057 Z-5.000 F600.000
G3 X194.643 Y149.076 Z-5.000 I1.000 J-0.000 K0.000 F600.000
G1 X198.262 Y148.367 Z-5.000 F600.000
G1 X197.807 Y146.059 Z-5.000 F600.000
G1 X190.481 Y147.511 Z-5.000 F600.000
G1 X190.481 Y156.066 Z-5.000 F600.000
G1 X192.035 Y156.066 Z-5.000 F600.000
G1 X190.481 Y154.512 Z-5.000 F600.000
G1 X190.481 Y151.684 Z-5.000 F600.000
G1 X194.863 Y156.066 Z-5.000 F600.000
G1 X197.692 Y156.066 Z-5.000 F600.000
G1 X195.029 Y153.403 Z-5.000 F600.000
G3 X193.835 Y152.209 Z-5.000 I-0.163 J-1.031 K0.000 F600.000
G1 X190.481 Y148.855 Z-5.000 F600.000
G1 X190.481 Y147.511 Z-5.000 F600.000
G1 X191.720 Y147.265 Z-5.000 F600.000
G1 X193.985 Y149.531 Z-5.000 F600.000
G3 X194.643 Y149.076 Z-5.000 I0.847 J0.522 K0.000 F600.000
G1 X196.078 Y148.795 Z-5.000 F600.000
G1 X194.080 Y146.798 Z-5.000 F600.000
G1 X196.441 Y146.330 Z-5.000 F600.000
G1 X198.209 Y148.098 Z-5.000 F600.000
G1 X197.807 Y146.059 Z-5.000 F600.000
G1 X196.441 Y146.330 Z-5.000 F600.000
G0 Z5.000
G0 X197.692 Y156.066 Z5.000
G0 X197.692 Y156.066 Z3.000
G1 X197.692 Y156.066 Z-3.000 F600.000
G1 X195.029 Y153.403 Z-3.000 F600.000
G1 X197.858 Y153.403 Z-3.000 F600.000
G1 X200.520 Y156.066 Z-3.000 F600.000
G1 X203.349 Y156.066 Z-3.000 F600.000
G1 X200.686 Y153.403 Z-3.000 F600.000
G1 X203.515 Y153.403 Z-3.000 F600.000
G1 X206.177 Y156.066 Z-3.000 F600.000
G1 X209.005 Y156.066 Z-3.000 F600.000
G1 X206.343 Y153.403 Z-3.000 F600.000
G1 X209.171 Y153.403 Z-3.000 F600.000
G1 X211.834 Y156.066 Z-3.000 F600.000
G1 X214.662 Y156.066 Z-3.000 F600.000
G1 X212.000 Y153.403 Z-3.000 F600.000
G1 X214.828 Y153.403 Z-3.000 F600.000
G1 X217.491 Y156.066 Z-3.000 F600.000
G1 X217.657 Y156.066 Z-3.000 F600.000
G1 X217.657 Y153.403 Z-3.000 F600.000
G1 X217.657 Y153.403 Z-5.000 F600.000
G1 X217.657 Y156.066 Z-5.000 F600.000
G1 X217.491 Y156.066 Z-5.000 F600.000
G1 X214.828 Y153.403 Z-5.000 F600.000
G1 X212.000 Y153.403 Z-5.000 F600.000
G1 X214.662 Y156.066 Z-5.000 F600.000
G1 X211.834 Y156.066 Z-5.000 F600.000
G1 X209.171 Y153.403 Z-5.000 F600.000
G1 X206.343 Y153.403 Z-5.000 F600.000
G1 X209.005 Y156.066 Z-5.000 F600.000
G1 X206.177 Y156.066 Z-5.000 F600.000
G1 X203.515 Y153.403 Z-5.000 F600.000
G1 X200.686 Y153.403 Z-5.000 F600.000
G1 X203.349 Y156.066 Z-5.000 F600.000
G1 X200.520 Y156.066 Z-5.000 F600.000
G1 X197.858 Y153.403 Z-5.000 F600.000
G1 X195.029 Y153.403 Z-5.000 F600.000
G1 X197.692 Y156.066 Z-5.000 F600.000
G0 Z5.000
G0 Z5.000
G0 X197.692 Y156.066
G0 X190.110 Y167.579
G0 X190.110 Y167.579 Z3.000
G1 X190.110 Y167.579 Z-3.000 F600.000
G1 X190.357 Y168.824 Z-3.000 F600.000
G1 X217.782 Y163.378 Z-3.000 F600.000
G1 X217.269 Y160.798 Z-3.000 F600.000
G1 X189.844 Y166.244 Z-3.000 F600.000
G1 X190.357 Y168.824 Z-3.000 F600.000
G1 X191.189 Y168.659 Z-3.000 F600.000
G1 X190.110 Y167.579 Z-3.000 F600.000
G1 X189.844 Y166.244 Z-3.000 F600.000
G1 X191.311 Y165.953 Z-3.000 F600.000
G1 X193.549 Y168.191 Z-3.000 F600.000
G1 X195.909 Y167.722 Z-3.000 F600.000
G1 X193.671 Y165.484 Z-3.000 F600.000
G1 X196.031 Y165.015 Z-3.000 F600.000
G1 X198.269 Y167.253 Z-3.000 F600.000
G1 X200.629 Y166.785 Z-3.000 F600.000
G1 X198.391 Y164.547 Z-3.000 F600.000
G1 X200.751 Y164.078 Z-3.000 F600.000
G1 X202.988 Y166.316 Z-3.000 F600.000
G1 X205.348 Y165.847 Z-3.000 F600.000
G1 X203.110 Y163.610 Z-3.000 F600.000
G1 X205.470 Y163.141 Z-3.000 F600.000
G1 X207.708 Y165.379 Z-3.000 F600.000
G1 X210.068 Y164.910 Z-3.000 F600.000
G1 X207.830 Y162.672 Z-3.000 F600.000
G1 X210.190 Y162.204 Z-3.000 F600.000
G1 X212.428 Y164.442 Z-3.000 F600.000
G1 X214.787 Y163.973 Z-3.000 F600.000
G1 X212.550 Y161.735 Z-3.000 F600.000
G1 X214.910 Y161.267 Z-3.000 F600.000
G1 X217.147 Y163.504 Z-3.000 F600.000
G1 X217.782 Y163.378 Z-3.000 F600.000
G1 X217.269 Y160.798 Z-3.000 F600.000
G1 X217.269 Y160.798 Z-5.000 F600.000
G1 X217.782 Y163.378 Z-5.000 F600.000
G1 X217.147 Y163.504 Z-5.000 F600.000
G1 X214.910 Y161.267 Z-5.000 F600.000
G1 X212.550 Y161.735 Z-5.000 F600.000
G1 X214.787 Y163.973 Z-5.000 F600.000
G1 X212.428 Y164.442 Z-5.000 F600.000
G1 X210.190 Y162.204 Z-5.000 F600.000
G1 X207.830 Y162.672 Z-5.000 F600.000
G1 X210.068 Y164.910 Z-5.000 F600.000
G1 X207.708 Y165.379 Z-5.000 F600.000
G1 X205.470 Y163.141 Z-5.000 F600.000
G1 X203.110 Y163.610 Z-5.000 F600.000
G1 X205.348 Y165.847 Z-5.000 F600.000
G1 X202.988 Y166.316 Z-5.000 F600.000
G1 X200.751 Y164.078 Z-5.000 F600.000
G1 X198.391 Y164.547 Z-5.000 F600.000
G1 X200.629 Y166.785 Z-5.000 F600.000
G1 X198.269 Y167.253 Z-5.000 F600.000
G1 X196.031 Y165.015 Z-5.000 F600.000
G1 X193.671 Y165.484 Z-5.000 F600.000
G1 X195.909 Y167.722 Z-5.000 F600.000
G1 X193.549 Y168.191 Z-5.000 F600.000
G1 X191.311 Y165.953 Z-5.000 F600.000
G1 X189.844 Y166.244 Z-5.000 F600.000
G1 X190.110 Y167.579 Z-5.000 F600.000
G1 X191.189 Y168.659 Z-5.000 F600.000
G1 X190.357 Y168.824 Z-5.000 F600.000
G1 X189.844 Y166.244 Z-5.000 F600.000
G1 X217.269 Y160.798 Z-5.000 F600.000
G1 X217.782 Y163.378 Z-5.000 F600.000
G1 X190.357 Y168.824 Z-5.000 F600.000
G1 X190.110 Y167.579 Z-5.000 F600.000
G0 Z5.000
G0 Z5.000
G0 X190.110 Y167.579
G0 X193.857 Y111.589
G0 X193.857 Y111.589 Z3.000
G1 X193.857 Y111.589 Z-3.000 F600.000
G1 X193.624 Y111.755 Z-3.000 F600.000
G1 X195.347 Y114.160 Z-3.000 F600.000
G1 X207.949 Y105.147 Z-3.000 F600.000
G3 X209.531 Y105.960 Z-3.000 I0.582 J0.813 K0.000 F600.000
G1 X209.531 Y112.390 Z-3.000 F600.000
G1 X213.095 Y112.390 Z-3.000 F600.000
G1 X213.095 Y104.185 Z-3.000 F600.000
G3 X214.095 Y103.185 Z-3.000 I1.000 J0.000 K0.000 F600.000
G1 X217.938 Y103.185 Z-3.000 F600.000
G1 X217.938 Y100.583 Z-3.000 F600.000
G1 X214.095 Y100.583 Z-3.000 F600.000
G3 X213.095 Y99.583 Z-3.000 I0.000 J-1.000 K0.000 F600.000
G1 X213.095 Y91.229 Z-3.000 F600.000
G1 X209.531 Y91.229 Z-3.000 F600.000
G1 X209.531 Y98.169 Z-3.000 F600.000
G3 X207.907 Y98.951 Z-3.000 I-1.000 J0.000 K0.000 F600.000
G1 X195.938 Y89.410 Z-3.000 F600.000
G1 X193.694 Y92.232 Z-3.000 F600.000
G1 X201.993 Y98.799 Z-3.000 F600.000
G3 X201.372 Y100.583 Z-3.000 I-0.621 J0.784 K0.000 F600.000
G1 X189.739 Y100.583 Z-3.000 F600.000
G1 X189.739 Y103.185 Z-3.000 F600.000
G1 X202.485 Y103.185 Z-3.000 F600.000
G3 X203.067 Y104.998 Z-3.000 I-0.000 J1.000 K0.000 F600.000
G1 X193.624 Y111.755 Z-3.000 F600.000
G1 X195.347 Y114.160 Z-3.000 F600.000
G1 X195.977 Y113.709 Z-3.000 F600.000
G1 X193.857 Y111.589 Z-3.000 F600.000
G1 X195.506 Y110.409 Z-3.000 F600.000
G1 X197.626 Y112.530 Z-3.000 F600.000
G1 X199.275 Y111.350 Z-3.000 F600.000
G1 X197.154 Y109.229 Z-3.000 F600.000
G1 X198.803 Y108.049 Z-3.000 F600.000
G1 X200.924 Y110.171 Z-3.000 F600.000
G1 X202.573 Y108.991 Z-3.000 F600.000
G1 X200.452 Y106.870 Z-3.000 F600.000
G1 X202.100 Y105.690 Z-3.000 F600.000
G1 X204.222 Y107.812 Z-3.000 F600.000
G1 X205.871 Y106.633 Z-3.000 F600.000
G1 X203.477 Y104.238 Z-3.000 F600.000
G1 X203.477 Y104.238 Z-5.000 F600.000
G1 X205.871 Y106.633 Z-5.000 F600.000
G1 X204.222 Y107.812 Z-5.000 F600.000
G1 X202.100 Y105.690 Z-5.000 F600.000
G1 X200.452 Y106.870 Z-5.000 F600.000
G1 X202.573 Y108.991 Z-5.000 F600.000
G1 X200.924 Y110.171 Z-5.000 F600.000
G1 X198.803 Y108.049 Z-5.000 F600.000
G1 X197.154 Y109.229 Z-5.000 F600.000
G1 X199.275 Y111.350 Z-5.000 F600.000
G1 X197.626 Y112.530 Z-5.000 F600.000
G1 X195.506 Y110.409 Z-5.000 F600.000
G1 X193.857 Y111.589 Z-5.000 F600.000
G1 X195.977 Y113.709 Z-5.000 F600.000
G1 X195.347 Y114.160 Z-5.000 F600.000
G1 X193.624 Y111.755 Z-5.000 F600.000
G1 X203.067 Y104.998 Z-5.000 F600.000
G2 X202.485 Y103.185 Z-5.000 I-0.582 J-0.813 K0.000 F600.000
G1 X189.739 Y103.185 Z-5.000 F600.000
G1 X189.739 Y100.583 Z-5.000 F600.000
G1 X201.372 Y100.583 Z-5.000 F600.000
G2 X201.993 Y98.799 Z-5.000 I0.000 J-1.000 K0.000 F600.000
G1 X193.694 Y92.232 Z-5.000 F600.000
G1 X195.938 Y89.410 Z-5.000 F600.000
G1 X207.907 Y98.951 Z-5.000 F600.000
G2 X209.531 Y98.169 Z-5.000 I0.623 J-0.782 K0.000 F600.000
G1 X209.531 Y91.229 Z-5.000 F600.000
G1 X213.095 Y91.229 Z-5.000 F600.000
G1 X213.095 Y99.583 Z-5.000 F600.000
G2 X214.095 Y100.583 Z-5.000 I1.000 J0.000 K0.000 F600.000
G1 X217.938 Y100.583 Z-5.000 F600.000
G1 X217.938 Y103.185 Z-5.000 F600.000
G1 X214.095 Y103.185 Z-5.000 F600.000
G2 X213.095 Y104.185 Z-5.000 I0.000 J1.000 K0.000 F600.000
G1 X213.095 Y112.390 Z-5.000 F600.000
G1 X209.531 Y112.390 Z-5.000 F600.000
G1 X209.531 Y105.960 Z-5.000 F600.000
G2 X207.949 Y105.147 Z-5.000 I-1.000 J0.000 K0.000 F600.000
G1 X195.347 Y114.160 Z-5.000 F600.000
G1 X193.624 Y111.755 Z-5.000 F600.000
G1 X193.857 Y111.589 Z-5.000 F600.000
G0 Z5.000
G0 X189.739 Y101.814 Z5.000
G0 X189.739 Y101.814 Z3.000
G1 X189.739 Y101.814 Z-3.000 F600.000
G1 X191.110 Y103.185 Z-3.000 F600.000
G1 X189.739 Y103.185 Z-3.000 F600.000
G1 X189.739 Y101.814 Z-3.000 F600.000
G1 X189.739 Y100.583 Z-3.000 F600.000
G1 X191.337 Y100.583 Z-3.000 F600.000
G1 X193.939 Y103.185 Z-3.000 F600.000
G1 X196.767 Y103.185 Z-3.000 F600.000
G1 X194.165 Y100.583 Z-3.000 F600.000
G1 X196.994 Y100.583 Z-3.000 F600.000
G1 X199.595 Y103.185 Z-3.000 F600.000
G1 X202.424 Y103.185 Z-3.000 F600.000
G1 X199.822 Y100.583 Z-3.000 F600.000
G1 X201.372 Y100.583 Z-3.000 F600.000
G2 X202.198 Y100.131 Z-3.000 I0.012 J-0.959 K0.000 F600.000
G1 X207.520 Y105.453 Z-3.000 F600.000
G1 X207.520 Y105.453 Z-5.000 F600.000
G1 X202.198 Y100.131 Z-5.000 F600.000
G3 X201.372 Y100.583 Z-5.000 I-0.814 J-0.506 K0.000 F600.000
G1 X199.822 Y100.583 Z-5.000 F600.000
G1 X202.424 Y103.185 Z-5.000 F600.000
G1 X199.595 Y103.185 Z-5.000 F600.000
G1 X196.994 Y100.583 Z-5.000 F600.000
G1 X194.165 Y100.583 Z-5.000 F600.000
G1 X196.767 Y103.185 Z-5.000 F600.000
G1 X193.939 Y103.185 Z-5.000 F600.000
G1 X191.337 Y100.583 Z-5.000 F600.000
G1 X189.739 Y100.583 Z-5.000 F600.000
G1 X189.739 Y101.814 Z-5.000 F600.000
G1 X189.739 Y103.185 Z-5.000 F600.000
G1 X191.110 Y103.185 Z-5.000 F600.000
G1 X189.739 Y101.814 Z-5.000 F600.000
G0 Z5.000
G0 X195.925 Y93.997 Z5.000
G0 X195.925 Y93.997 Z3.000
G1 X195.925 Y93.997 Z-3.000 F600.000
G1 X193.694 Y92.232 Z-3.000 F600.000
G1 X193.962 Y91.895 Z-3.000 F600.000
G1 X196.593 Y94.526 Z-3.000 F600.000
G1 X195.925 Y93.997 Z-3.000 F600.000
G1 X195.925 Y93.997 Z-5.000 F600.000
G1 X193.694 Y92.232 Z-5.000 F600.000
G1 X193.962 Y91.895 Z-5.000 F600.000
G1 X196.593 Y94.526 Z-5.000 F600.000
G1 X195.925 Y93.997 Z-5.000 F600.000
G0 Z5.000
G0 X209.531 Y96.150 Z5.000
G0 X209.531 Y96.150 Z3.000
G1 X209.531 Y96.150 Z-3.000 F600.000
G1 X213.115 Y99.734 Z-3.000 F600.000
G1 X213.095 Y99.583 Z-3.000 F600.000
G1 X213.095 Y96.886 Z-3.000 F600.000
G1 X209.531 Y93.321 Z-3.000 F600.000
G1 X209.531 Y91.229 Z-3.000 F600.000
G1 X210.267 Y91.229 Z-3.000 F600.000
G1 X213.095 Y94.057 Z-3.000 F600.000
G1 X213.095 Y91.229 Z-3.000 F600.000
G1 X213.095 Y91.229 Z-5.000 F600.000
G1 X213.095 Y94.057 Z-5.000 F600.000
G1 X210.267 Y91.229 Z-5.000 F600.000
G1 X209.531 Y91.229 Z-5.000 F600.000
G1 X209.531 Y93.321 Z-5.000 F600.000
G1 X213.095 Y96.886 Z-5.000 F600.000
G1 X213.095 Y99.583 Z-5.000 F600.000
G1 X213.115 Y99.734 Z-5.000 F600.000
G1 X209.531 Y96.150 Z-5.000 F600.000
G0 Z5.000
G0 X217.938 Y101.728 Z5.000
G0 X217.938 Y101.728 Z3.000
G1 X217.938 Y101.728 Z-3.000 F600.000
G1 X217.938 Y100.583 Z-3.000 F600.000
G1 X216.793 Y100.583 Z-3.000 F600.000
G1 X217.938 Y101.728 Z-3.000 F600.000
G1 X217.938 Y103.185 Z-3.000 F600.000
G1 X216.566 Y103.185 Z-3.000 F600.000
G1 X213.944 Y100.563 Z-3.000 F600.000
G3 X213.115 Y99.734 Z-3.000 I0.121 J-0.951 K0.000 F600.000
G1 X209.531 Y96.150 Z-3.000 F600.000
G1 X209.531 Y98.169 Z-3.000 F600.000
G3 X209.321 Y98.768 Z-3.000 I-0.774 J0.065 K0.000 F600.000
G1 X213.791 Y103.238 Z-3.000 F600.000
G2 X213.095 Y104.185 Z-3.000 I0.293 J0.944 K0.000 F600.000
G1 X213.095 Y105.371 Z-3.000 F600.000
G1 X201.834 Y94.110 Z-3.000 F600.000
G1 X195.938 Y89.410 Z-3.000 F600.000
G1 X195.215 Y90.319 Z-3.000 F600.000
G1 X213.095 Y108.199 Z-3.000 F600.000
G1 X213.095 Y111.028 Z-3.000 F600.000
G1 X209.531 Y107.463 Z-3.000 F600.000
G1 X209.531 Y110.292 Z-3.000 F600.000
G1 X211.628 Y112.390 Z-3.000 F600.000
G1 X209.531 Y112.390 Z-3.000 F600.000
G1 X209.531 Y110.292 Z-3.000 F600.000
G1 X209.531 Y110.292 Z-5.000 F600.000
G1 X209.531 Y112.390 Z-5.000 F600.000
G1 X211.628 Y112.390 Z-5.000 F600.000
G1 X209.531 Y110.292 Z-5.000 F600.000
G1 X209.531 Y107.463 Z-5.000 F600.000
G1 X213.095 Y111.028 Z-5.000 F600.000
G1 X213.095 Y108.199 Z-5.000 F600.000
G1 X195.215 Y90.319 Z-5.000 F600.000
G1 X195.938 Y89.410 Z-5.000 F600.000
G1 X201.834 Y94.110 Z-5.000 F600.000
G1 X213.095 Y105.371 Z-5.000 F600.000
G1 X213.095 Y104.185 Z-5.000 F600.000
G3 X213.791 Y103.238 Z-5.000 I0.988 J-0.003 K0.000 F600.000
G1 X209.321 Y98.768 Z-5.000 F600.000
G2 X209.531 Y98.169 Z-5.000 I-0.564 J-0.534 K0.000 F600.000
G1 X209.531 Y96.150 Z-5.000 F600.000
G1 X213.115 Y99.734 Z-5.000 F600.000
G2 X213.944 Y100.563 Z-5.000 I0.951 J-0.121 K0.000 F600.000
G1 X216.566 Y103.185 Z-5.000 F600.000
G1 X217.938 Y103.185 Z-5.000 F600.000
G1 X217.938 Y101.728 Z-5.000 F600.000
G1 X216.793 Y100.583 Z-5.000 F600.000
G1 X217.938 Y100.583 Z-5.000 F600.000
G1 X217.938 Y101.728 Z-5.000 F600.000
G0 Z5.000
G0 Z5.000
G0 X217.938 Y101.728
G0 X215.379 Y83.518
G0 X215.379 Y83.518 Z3.000
G1 X215.379 Y83.518 Z-3.000 F600.000
G1 X212.619 Y83.518 Z-3.000 F600.000
G1 X212.619 Y80.757 Z-3.000 F600.000
G1 X215.379 Y83.518 Z-3.000 F600.000
G1 X216.063 Y83.518 Z-3.000 F600.000
G1 X216.063 Y64.402 Z-3.000 F600.000
G1 X212.619 Y64.402 Z-3.000 F600.000
G1 X212.619 Y71.373 Z-3.000 F600.000
G3 X211.619 Y72.373 Z-3.000 I-1.000 J0.000 K0.000 F600.000
G1 X196.064 Y72.373 Z-3.000 F600.000
G3 X195.064 Y71.373 Z-3.000 I0.000 J-1.000 K0.000 F600.000
G1 X195.064 Y62.627 Z-3.000 F600.000
G1 X191.619 Y62.627 Z-3.000 F600.000
G1 X191.619 Y85.322 Z-3.000 F600.000
G1 X195.064 Y85.322 Z-3.000 F600.000
G1 X195.064 Y76.516 Z-3.000 F600.000
G3 X196.064 Y75.516 Z-3.000 I1.000 J0.000 K0.000 F600.000
G1 X211.619 Y75.516 Z-3.000 F600.000
G3 X212.619 Y76.516 Z-3.000 I-0.000 J1.000 K0.000 F600.000
G1 X212.619 Y83.518 Z-3.000 F600.000
G1 X215.379 Y83.518 Z-3.000 F600.000
G1 X216.063 Y83.518 Z-3.000 F600.000
G1 X216.063 Y81.373 Z-3.000 F600.000
G1 X212.619 Y77.929 Z-3.000 F600.000
G1 X212.619 Y77.929 Z-5.000 F600.000
G1 X216.063 Y81.373 Z-5.000 F600.000
G1 X216.063 Y83.518 Z-5.000 F600.000
G1 X215.379 Y83.518 Z-5.000 F600.000
G1 X212.619 Y83.518 Z-5.000 F600.000
G1 X212.619 Y76.516 Z-5.000 F600.000
G2 X211.619 Y75.516 Z-5.000 I-1.000 J-0.000 K0.000 F600.000
G1 X196.064 Y75.516 Z-5.000 F600.000
G2 X195.064 Y76.516 Z-5.000 I0.000 J1.000 K0.000 F600.000
G1 X195.064 Y85.322 Z-5.000 F600.000
G1 X191.619 Y85.322 Z-5.000 F600.000
G1 X191.619 Y62.627 Z-5.000 F600.000
G1 X195.064 Y62.627 Z-5.000 F600.000
G1 X195.064 Y71.373 Z-5.000 F600.000
G2 X196.064 Y72.373 Z-5.000 I1.000 J-0.000 K0.000 F600.000
G1 X211.619 Y72.373 Z-5.000 F600.000
G2 X212.619 Y71.373 Z-5.000 I-0.000 J-1.000 K0.000 F600.000
G1 X212.619 Y64.402 Z-5.000 F600.000
G1 X216.063 Y64.402 Z-5.000 F600.000
G1 X216.063 Y83.518 Z-5.000 F600.000
G1 X215.379 Y83.518 Z-5.000 F600.000
G1 X212.619 Y80.757 Z-5.000 F600.000
G1 X212.619 Y83.518 Z-5.000 F600.000
G1 X215.379 Y83.518 Z-5.000 F600.000
G0 Z5.000
G0 X198.893 Y75.516 Z5.000
G0 X198.893 Y75.516 Z3.000
G1 X198.893 Y75.516 Z-3.000 F600.000
G1 X195.652 Y72.276 Z-3.000 F600.000
G2 X196.064 Y72.373 Z-3.000 I0.388 J-0.720 K0.000 F600.000
G1 X198.578 Y72.373 Z-3.000 F600.000
G1 X201.721 Y75.516 Z-3.000 F600.000
G1 X204.549 Y75.516 Z-3.000 F600.000
G1 X201.406 Y72.373 Z-3.000 F600.000
G1 X204.235 Y72.373 Z-3.000 F600.000
G1 X207.378 Y75.516 Z-3.000 F600.000
G1 X210.206 Y75.516 Z-3.000 F600.000
G1 X207.063 Y72.373 Z-3.000 F600.000
G1 X209.891 Y72.373 Z-3.000 F600.000
G1 X216.063 Y78.544 Z-3.000 F600.000
G1 X216.063 Y75.716 Z-3.000 F600.000
G1 X212.370 Y72.023 Z-3.000 F600.000
G2 X212.619 Y71.373 Z-3.000 I-0.660 J-0.626 K0.000 F600.000
G1 X212.619 Y69.444 Z-3.000 F600.000
G1 X216.063 Y72.887 Z-3.000 F600.000
G1 X216.063 Y70.059 Z-3.000 F600.000
G1 X212.619 Y66.615 Z-3.000 F600.000
G1 X212.619 Y64.402 Z-3.000 F600.000
G1 X213.234 Y64.402 Z-3.000 F600.000
G1 X216.063 Y67.231 Z-3.000 F600.000
G1 X216.063 Y64.402 Z-3.000 F600.000
G1 X216.063 Y64.402 Z-5.000 F600.000
G1 X216.063 Y67.231 Z-5.000 F600.000
G1 X213.234 Y64.402 Z-5.000 F600.000
G1 X212.619 Y64.402 Z-5.000 F600.000
G1 X212.619 Y66.615 Z-5.000 F600.000
G1 X216.063 Y70.059 Z-5.000 F600.000
G1 X216.063 Y72.887 Z-5.000 F600.000
G1 X212.619 Y69.444 Z-5.000 F600.000
G1 X212.619 Y71.373 Z-5.000 F600.000
G3 X212.370 Y72.023 Z-5.000 I-0.909 J0.024 K0.000 F600.000
G1 X216.063 Y75.716 Z-5.000 F600.000
G1 X216.063 Y78.544 Z-5.000 F600.000
G1 X209.891 Y72.373 Z-5.000 F600.000
G1 X207.063 Y72.373 Z-5.000 F600.000
G1 X210.206 Y75.516 Z-5.000 F600.000
G1 X207.378 Y75.516 Z-5.000 F600.000
G1 X204.235 Y72.373 Z-5.000 F600.000
G1 X201.406 Y72.373 Z-5.000 F600.000
G1 X204.549 Y75.516 Z-5.000 F600.000
G1 X201.721 Y75.516 Z-5.000 F600.000
G1 X198.578 Y72.373 Z-5.000 F600.000
G1 X196.064 Y72.373 Z-5.000 F600.000
G3 X195.652 Y72.276 Z-5.000 I-0.024 J-0.817 K0.000 F600.000
G1 X198.893 Y75.516 Z-5.000 F600.000
G0 Z5.000
G0 X191.619 Y85.213 Z5.000
G0 X191.619 Y85.213 Z3.000
G1 X191.619 Y85.213 Z-3.000 F600.000
G1 X191.728 Y85.322 Z-3.000 F600.000
G3 X191.619 Y85.322 Z-3.000 I-0.055 J-0.055 K0.000 F600.000
G3 X191.619 Y85.213 Z-3.000 I0.055 J-0.055 K0.000 F600.000
G1 X191.619 Y82.385 Z-3.000 F600.000
G1 X194.556 Y85.322 Z-3.000 F600.000
G1 X195.064 Y85.322 Z-3.000 F600.000
G1 X195.064 Y83.001 Z-3.000 F600.000
G1 X191.619 Y79.556 Z-3.000 F600.000
G1 X191.619 Y76.728 Z-3.000 F600.000
G1 X195.064 Y80.173 Z-3.000 F600.000
G1 X195.064 Y77.344 Z-3.000 F600.000
G1 X191.619 Y73.899 Z-3.000 F600.000
G1 X191.619 Y71.071 Z-3.000 F600.000
G1 X196.064 Y75.516 Z-3.000 F600.000
G1 X198.893 Y75.516 Z-3.000 F600.000
G1 X195.652 Y72.276 Z-3.000 F600.000
G3 X195.161 Y71.785 Z-3.000 I0.333 J-0.823 K0.000 F600.000
G1 X191.619 Y68.242 Z-3.000 F600.000
G1 X191.619 Y65.414 Z-3.000 F600.000
G1 X195.064 Y68.859 Z-3.000 F600.000
G1 X195.064 Y66.030 Z-3.000 F600.000
G1 X191.660 Y62.627 Z-3.000 F600.000
G1 X194.489 Y62.627 Z-3.000 F600.000
G1 X195.064 Y63.202 Z-3.000 F600.000
G1 X195.064 Y62.627 Z-3.000 F600.000
G1 X194.489 Y62.627 Z-3.000 F600.000
G1 X194.489 Y62.627 Z-5.000 F600.000
G1 X195.064 Y62.627 Z-5.000 F600.000
G1 X195.064 Y63.202 Z-5.000 F600.000
G1 X194.489 Y62.627 Z-5.000 F600.000
G1 X191.660 Y62.627 Z-5.000 F600.000
G1 X195.064 Y66.030 Z-5.000 F600.000
G1 X195.064 Y68.859 Z-5.000 F600.000
G1 X191.619 Y65.414 Z-5.000 F600.000
G1 X191.619 Y68.242 Z-5.000 F600.000
G1 X195.161 Y71.785 Z-5.000 F600.000
G2 X195.652 Y72.276 Z-5.000 I0.823 J-0.333 K0.000 F600.000
G1 X198.893 Y75.516 Z-5.000 F600.000
G1 X196.064 Y75.516 Z-5.000 F600.000
G1 X191.619 Y71.071 Z-5.000 F600.000
G1 X191.619 Y73.899 Z-5.000 F600.000
G1 X195.064 Y77.344 Z-5.000 F600.000
G1 X195.064 Y80.173 Z-5.000 F600.000
G1 X191.619 Y76.728 Z-5.000 F600.000
G1 X191.619 Y79.556 Z-5.000 F600.000
G1 X195.064 Y83.001 Z-5.000 F600.000
G1 X195.064 Y85.322 Z-5.000 F600.000
G1 X194.556 Y85.322 Z-5.000 F600.000
G1 X191.619 Y82.385 Z-5.000 F600.000
G1 X191.619 Y85.213 Z-5.000 F600.000
G2 X191.619 Y85.322 Z-5.000 I0.055 J0.055 K0.000 F600.000
G2 X191.728 Y85.322 Z-5.000 I0.055 J-0.055 K0.000 F600.000
G1 X191.619 Y85.213 Z-5.000 F600.000
G0 Z5.000
G0 Z5.000
(Finish operation: Pocket_Shape001)
(Begin postamble)
M5
G17 G90
M2
