(Exported by FreeCAD)
(Post Processor: script_module)
(Output Time:2025-05-15 18:01:41.438531)
(Begin preamble)
G17 G90
G21
(Begin operation: Fixture)
(Path: Fixture)
G54
(Finish operation: Fixture)
(Begin operation: 3mm_Endmill001)
(Path: 3mm_Endmill001)
(3mm_Endmill001)
(Begin toolchange)
( M6 T2 )
M3 S10000
(Finish operation: 3mm_Endmill001)
(Begin operation: Pocket_Shape)
(Path: Pocket_Shape)
(Pocket_Shape)
G0 Z5.000
G0 X0.000 Y0.000
G0 X25.464 Y14.911
G0 X25.464 Y14.911 Z3.000
G1 X25.464 Y14.911 Z-2.000 F600.000
G1 X43.563 Y14.911 Z-2.000 F600.000
G1 X43.563 Y13.211 Z-2.000 F600.000
G1 X25.321 Y13.211 Z-2.000 F600.000
G1 X25.321 Y14.911 Z-2.000 F600.000
G1 X25.464 Y14.911 Z-2.000 F600.000
G1 X25.321 Y14.768 Z-2.000 F600.000
G1 X25.321 Y14.911 Z-2.000 F600.000
G1 X25.464 Y14.911 Z-2.000 F600.000
G1 X28.293 Y14.911 Z-2.000 F600.000
G1 X26.593 Y13.211 Z-2.000 F600.000
G1 X29.421 Y13.211 Z-2.000 F600.000
G1 X31.121 Y14.911 Z-2.000 F600.000
G1 X33.950 Y14.911 Z-2.000 F600.000
G1 X32.250 Y13.211 Z-2.000 F600.000
G1 X35.078 Y13.211 Z-2.000 F600.000
G1 X36.778 Y14.911 Z-2.000 F600.000
G1 X39.607 Y14.911 Z-2.000 F600.000
G1 X37.906 Y13.211 Z-2.000 F600.000
G1 X40.735 Y13.211 Z-2.000 F600.000
G1 X42.435 Y14.911 Z-2.000 F600.000
G1 X43.563 Y14.911 Z-2.000 F600.000
G1 X43.563 Y13.211 Z-2.000 F600.000
G1 X43.563 Y13.211 Z-4.000 F600.000
G1 X43.563 Y14.911 Z-4.000 F600.000
G1 X42.435 Y14.911 Z-4.000 F600.000
G1 X40.735 Y13.211 Z-4.000 F600.000
G1 X37.906 Y13.211 Z-4.000 F600.000
G1 X39.607 Y14.911 Z-4.000 F600.000
G1 X36.778 Y14.911 Z-4.000 F600.000
G1 X35.078 Y13.211 Z-4.000 F600.000
G1 X32.250 Y13.211 Z-4.000 F600.000
G1 X33.950 Y14.911 Z-4.000 F600.000
G1 X31.121 Y14.911 Z-4.000 F600.000
G1 X29.421 Y13.211 Z-4.000 F600.000
G1 X26.593 Y13.211 Z-4.000 F600.000
G1 X28.293 Y14.911 Z-4.000 F600.000
G1 X25.464 Y14.911 Z-4.000 F600.000
G1 X25.321 Y14.911 Z-4.000 F600.000
G1 X25.321 Y14.768 Z-4.000 F600.000
G1 X25.464 Y14.911 Z-4.000 F600.000
G1 X25.321 Y14.911 Z-4.000 F600.000
G1 X25.321 Y13.211 Z-4.000 F600.000
G1 X43.563 Y13.211 Z-4.000 F600.000
G1 X43.563 Y14.911 Z-4.000 F600.000
G1 X25.464 Y14.911 Z-4.000 F600.000
G1 X25.464 Y14.911 Z-5.000 F600.000
G1 X43.563 Y14.911 Z-5.000 F600.000
G1 X43.563 Y13.211 Z-5.000 F600.000
G1 X25.321 Y13.211 Z-5.000 F600.000
G1 X25.321 Y14.911 Z-5.000 F600.000
G1 X25.464 Y14.911 Z-5.000 F600.000
G1 X25.321 Y14.768 Z-5.000 F600.000
G1 X25.321 Y14.911 Z-5.000 F600.000
G1 X25.464 Y14.911 Z-5.000 F600.000
G1 X28.293 Y14.911 Z-5.000 F600.000
G1 X26.593 Y13.211 Z-5.000 F600.000
G1 X29.421 Y13.211 Z-5.000 F600.000
G1 X31.121 Y14.911 Z-5.000 F600.000
G1 X33.950 Y14.911 Z-5.000 F600.000
G1 X32.250 Y13.211 Z-5.000 F600.000
G1 X35.078 Y13.211 Z-5.000 F600.000
G1 X36.778 Y14.911 Z-5.000 F600.000
G1 X39.607 Y14.911 Z-5.000 F600.000
G1 X37.906 Y13.211 Z-5.000 F600.000
G1 X40.735 Y13.211 Z-5.000 F600.000
G1 X42.435 Y14.911 Z-5.000 F600.000
G1 X43.563 Y14.911 Z-5.000 F600.000
G1 X43.563 Y13.211 Z-5.000 F600.000
G0 Z5.000
G0 Z5.000
G0 X43.563 Y13.211
G0 X45.669 Y7.393
G0 X45.669 Y7.393 Z3.000
G1 X45.669 Y7.393 Z-2.000 F600.000
G1 X45.669 Y9.334 Z-2.000 F600.000
G1 X44.782 Y9.334 Z-2.000 F600.000
G1 X42.841 Y7.393 Z-2.000 F600.000
G1 X40.013 Y7.393 Z-2.000 F600.000
G1 X41.953 Y9.334 Z-2.000 F600.000
G1 X39.125 Y9.334 Z-2.000 F600.000
G1 X37.184 Y7.393 Z-2.000 F600.000
G1 X34.356 Y7.393 Z-2.000 F600.000
G1 X36.297 Y9.334 Z-2.000 F600.000
G1 X33.468 Y9.334 Z-2.000 F600.000
G1 X31.527 Y7.393 Z-2.000 F600.000
G1 X28.699 Y7.393 Z-2.000 F600.000
G1 X30.640 Y9.334 Z-2.000 F600.000
G1 X27.811 Y9.334 Z-2.000 F600.000
G1 X25.870 Y7.393 Z-2.000 F600.000
G1 X23.042 Y7.393 Z-2.000 F600.000
G1 X24.983 Y9.334 Z-2.000 F600.000
G1 X22.154 Y9.334 Z-2.000 F600.000
G1 X20.214 Y7.393 Z-2.000 F600.000
G1 X17.927 Y7.393 Z-2.000 F600.000
G1 X17.927 Y7.935 Z-2.000 F600.000
G1 X21.101 Y11.109 Z-2.000 F600.000
G1 X21.101 Y12.252 Z-2.000 F600.000
G1 X19.415 Y12.252 Z-2.000 F600.000
G1 X17.927 Y12.252 Z-2.000 F600.000
G1 X17.927 Y7.393 Z-2.000 F600.000
G1 X45.669 Y7.393 Z-2.000 F600.000
G1 X45.669 Y9.334 Z-2.000 F600.000
G1 X22.101 Y9.334 Z-2.000 F600.000
G2 X21.101 Y10.334 Z-2.000 I0.000 J1.000 K0.000 F600.000
G1 X21.101 Y12.252 Z-2.000 F600.000
G1 X19.415 Y12.252 Z-2.000 F600.000
G1 X17.927 Y12.252 Z-2.000 F600.000
G1 X17.927 Y10.763 Z-2.000 F600.000
G1 X19.415 Y12.252 Z-2.000 F600.000
G1 X19.415 Y12.252 Z-4.000 F600.000
G1 X17.927 Y10.763 Z-4.000 F600.000
G1 X17.927 Y12.252 Z-4.000 F600.000
G1 X19.415 Y12.252 Z-4.000 F600.000
G1 X21.101 Y12.252 Z-4.000 F600.000
G1 X21.101 Y10.334 Z-4.000 F600.000
G3 X22.101 Y9.334 Z-4.000 I1.000 J0.000 K0.000 F600.000
G1 X45.669 Y9.334 Z-4.000 F600.000
G1 X45.669 Y7.393 Z-4.000 F600.000
G1 X17.927 Y7.393 Z-4.000 F600.000
G1 X17.927 Y12.252 Z-4.000 F600.000
G1 X19.415 Y12.252 Z-4.000 F600.000
G1 X21.101 Y12.252 Z-4.000 F600.000
G1 X21.101 Y11.109 Z-4.000 F600.000
G1 X17.927 Y7.935 Z-4.000 F600.000
G1 X17.927 Y7.393 Z-4.000 F600.000
G1 X20.214 Y7.393 Z-4.000 F600.000
G1 X22.154 Y9.334 Z-4.000 F600.000
G1 X24.983 Y9.334 Z-4.000 F600.000
G1 X23.042 Y7.393 Z-4.000 F600.000
G1 X25.870 Y7.393 Z-4.000 F600.000
G1 X27.811 Y9.334 Z-4.000 F600.000
G1 X30.640 Y9.334 Z-4.000 F600.000
G1 X28.699 Y7.393 Z-4.000 F600.000
G1 X31.527 Y7.393 Z-4.000 F600.000
G1 X33.468 Y9.334 Z-4.000 F600.000
G1 X36.297 Y9.334 Z-4.000 F600.000
G1 X34.356 Y7.393 Z-4.000 F600.000
G1 X37.184 Y7.393 Z-4.000 F600.000
G1 X39.125 Y9.334 Z-4.000 F600.000
G1 X41.953 Y9.334 Z-4.000 F600.000
G1 X40.013 Y7.393 Z-4.000 F600.000
G1 X42.841 Y7.393 Z-4.000 F600.000
G1 X44.782 Y9.334 Z-4.000 F600.000
G1 X45.669 Y9.334 Z-4.000 F600.000
G1 X45.669 Y7.393 Z-4.000 F600.000
G1 X45.669 Y7.393 Z-5.000 F600.000
G1 X45.669 Y9.334 Z-5.000 F600.000
G1 X44.782 Y9.334 Z-5.000 F600.000
G1 X42.841 Y7.393 Z-5.000 F600.000
G1 X40.013 Y7.393 Z-5.000 F600.000
G1 X41.953 Y9.334 Z-5.000 F600.000
G1 X39.125 Y9.334 Z-5.000 F600.000
G1 X37.184 Y7.393 Z-5.000 F600.000
G1 X34.356 Y7.393 Z-5.000 F600.000
G1 X36.297 Y9.334 Z-5.000 F600.000
G1 X33.468 Y9.334 Z-5.000 F600.000
G1 X31.527 Y7.393 Z-5.000 F600.000
G1 X28.699 Y7.393 Z-5.000 F600.000
G1 X30.640 Y9.334 Z-5.000 F600.000
G1 X27.811 Y9.334 Z-5.000 F600.000
G1 X25.870 Y7.393 Z-5.000 F600.000
G1 X23.042 Y7.393 Z-5.000 F600.000
G1 X24.983 Y9.334 Z-5.000 F600.000
G1 X22.154 Y9.334 Z-5.000 F600.000
G1 X20.214 Y7.393 Z-5.000 F600.000
G1 X17.927 Y7.393 Z-5.000 F600.000
G1 X17.927 Y7.935 Z-5.000 F600.000
G1 X21.101 Y11.109 Z-5.000 F600.000
G1 X21.101 Y12.252 Z-5.000 F600.000
G1 X19.415 Y12.252 Z-5.000 F600.000
G1 X17.927 Y12.252 Z-5.000 F600.000
G1 X17.927 Y7.393 Z-5.000 F600.000
G1 X45.669 Y7.393 Z-5.000 F600.000
G1 X45.669 Y9.334 Z-5.000 F600.000
G1 X22.101 Y9.334 Z-5.000 F600.000
G2 X21.101 Y10.334 Z-5.000 I0.000 J1.000 K0.000 F600.000
G1 X21.101 Y12.252 Z-5.000 F600.000
G1 X19.415 Y12.252 Z-5.000 F600.000
G1 X17.927 Y12.252 Z-5.000 F600.000
G1 X17.927 Y10.763 Z-5.000 F600.000
G1 X19.415 Y12.252 Z-5.000 F600.000
G0 Z5.000
G0 Z5.000
G0 X19.415 Y12.252
G0 X21.141 Y19.538
G0 X21.141 Y19.538 Z3.000
G1 X21.141 Y19.538 Z-2.000 F600.000
G1 X21.571 Y17.420 Z-2.000 F600.000
G1 X19.243 Y16.963 Z-2.000 F600.000
G1 X19.128 Y17.525 Z-2.000 F600.000
G1 X21.141 Y19.538 Z-2.000 F600.000
G1 X20.880 Y20.825 Z-2.000 F600.000
G2 X21.659 Y22.004 Z-2.000 I0.980 J0.199 K0.000 F600.000
G1 X24.108 Y22.504 Z-2.000 F600.000
G1 X27.639 Y26.036 Z-2.000 F600.000
G1 X26.300 Y27.525 Z-2.000 F600.000
G1 X24.432 Y25.657 Z-2.000 F600.000
G1 X24.326 Y25.813 Z-2.000 F600.000
G1 X23.113 Y27.166 Z-2.000 F600.000
G1 X24.960 Y29.014 Z-2.000 F600.000
G1 X23.621 Y30.503 Z-2.000 F600.000
G1 X23.599 Y30.527 Z-2.000 F600.000
G1 X21.673 Y28.773 Z-2.000 F600.000
G1 X21.776 Y28.658 Z-2.000 F600.000
G1 X23.621 Y30.503 Z-2.000 F600.000
G1 X23.621 Y30.503 Z-4.000 F600.000
G1 X21.776 Y28.658 Z-4.000 F600.000
G1 X21.673 Y28.773 Z-4.000 F600.000
G1 X23.599 Y30.527 Z-4.000 F600.000
G1 X23.621 Y30.503 Z-4.000 F600.000
G1 X24.960 Y29.014 Z-4.000 F600.000
G1 X23.113 Y27.166 Z-4.000 F600.000
G1 X24.326 Y25.813 Z-4.000 F600.000
G1 X24.432 Y25.657 Z-4.000 F600.000
G1 X26.300 Y27.525 Z-4.000 F600.000
G1 X27.639 Y26.036 Z-4.000 F600.000
G1 X24.108 Y22.504 Z-4.000 F600.000
G1 X21.659 Y22.004 Z-4.000 F600.000
G3 X20.880 Y20.825 Z-4.000 I0.200 J-0.980 K0.000 F600.000
G1 X21.141 Y19.538 Z-4.000 F600.000
G1 X19.128 Y17.525 Z-4.000 F600.000
G1 X19.243 Y16.963 Z-4.000 F600.000
G1 X21.571 Y17.420 Z-4.000 F600.000
G1 X21.141 Y19.538 Z-4.000 F600.000
G1 X21.141 Y19.538 Z-5.000 F600.000
G1 X21.571 Y17.420 Z-5.000 F600.000
G1 X19.243 Y16.963 Z-5.000 F600.000
G1 X19.128 Y17.525 Z-5.000 F600.000
G1 X21.141 Y19.538 Z-5.000 F600.000
G1 X20.880 Y20.825 Z-5.000 F600.000
G2 X21.659 Y22.004 Z-5.000 I0.980 J0.199 K0.000 F600.000
G1 X24.108 Y22.504 Z-5.000 F600.000
G1 X27.639 Y26.036 Z-5.000 F600.000
G1 X26.300 Y27.525 Z-5.000 F600.000
G1 X24.432 Y25.657 Z-5.000 F600.000
G1 X24.326 Y25.813 Z-5.000 F600.000
G1 X23.113 Y27.166 Z-5.000 F600.000
G1 X24.960 Y29.014 Z-5.000 F600.000
G1 X23.621 Y30.503 Z-5.000 F600.000
G1 X23.599 Y30.527 Z-5.000 F600.000
G1 X21.673 Y28.773 Z-5.000 F600.000
G1 X21.776 Y28.658 Z-5.000 F600.000
G1 X23.621 Y30.503 Z-5.000 F600.000
G0 Z5.000
G0 X27.639 Y26.036 Z5.000
G0 X27.639 Y26.036 Z3.000
G1 X27.639 Y26.036 Z-2.000 F600.000
G1 X24.108 Y22.504 Z-2.000 F600.000
G1 X26.226 Y22.937 Z-2.000 F600.000
G2 X27.110 Y22.678 Z-2.000 I0.202 J-0.946 K0.000 F600.000
G1 X29.808 Y25.376 Z-2.000 F600.000
G1 X33.368 Y26.107 Z-2.000 F600.000
G1 X28.459 Y21.198 Z-2.000 F600.000
G1 X29.801 Y19.712 Z-2.000 F600.000
G1 X31.664 Y21.575 Z-2.000 F600.000
G1 X30.976 Y22.342 Z-2.000 F600.000
G2 X31.516 Y23.989 Z-2.000 I0.744 J0.668 K0.000 F600.000
G1 X34.754 Y24.665 Z-2.000 F600.000
G1 X38.415 Y28.327 Z-2.000 F600.000
G3 X39.345 Y27.366 Z-2.000 I1.010 J0.048 K0.000 F600.000
G3 X40.470 Y27.553 Z-2.000 I-0.121 J4.212 K0.000 F600.000
G1 X36.106 Y23.189 Z-2.000 F600.000
G1 X36.439 Y20.694 Z-2.000 F600.000
G1 X39.073 Y23.327 Z-2.000 F600.000
G1 X38.911 Y24.530 Z-2.000 F600.000
G2 X39.702 Y25.643 Z-2.000 I0.991 J0.133 K0.000 F600.000
G1 X41.822 Y26.077 Z-2.000 F600.000
G1 X44.002 Y28.256 Z-2.000 F600.000
G1 X45.290 Y28.513 Z-2.000 F600.000
G1 X45.600 Y27.026 Z-2.000 F600.000
G1 X45.377 Y26.803 Z-2.000 F600.000
G1 X45.636 Y26.856 Z-2.000 F600.000
G1 X45.600 Y27.026 Z-2.000 F600.000
G1 X45.600 Y27.026 Z-4.000 F600.000
G1 X45.636 Y26.856 Z-4.000 F600.000
G1 X45.377 Y26.803 Z-4.000 F600.000
G1 X45.600 Y27.026 Z-4.000 F600.000
G1 X45.290 Y28.513 Z-4.000 F600.000
G1 X44.002 Y28.256 Z-4.000 F600.000
G1 X41.822 Y26.077 Z-4.000 F600.000
G1 X39.702 Y25.643 Z-4.000 F600.000
G3 X38.911 Y24.530 Z-4.000 I0.200 J-0.980 K0.000 F600.000
G1 X39.073 Y23.327 Z-4.000 F600.000
G1 X36.439 Y20.694 Z-4.000 F600.000
G1 X36.106 Y23.189 Z-4.000 F600.000
G1 X40.470 Y27.553 Z-4.000 F600.000
G2 X39.345 Y27.366 Z-4.000 I-1.246 J4.026 K0.000 F600.000
G2 X38.415 Y28.327 Z-4.000 I0.081 J1.008 K0.000 F600.000
G1 X34.754 Y24.665 Z-4.000 F600.000
G1 X31.516 Y23.989 Z-4.000 F600.000
G3 X30.976 Y22.342 Z-4.000 I0.205 J-0.979 K0.000 F600.000
G1 X31.664 Y21.575 Z-4.000 F600.000
G1 X29.801 Y19.712 Z-4.000 F600.000
G1 X28.459 Y21.198 Z-4.000 F600.000
G1 X33.368 Y26.107 Z-4.000 F600.000
G1 X29.808 Y25.376 Z-4.000 F600.000
G1 X27.110 Y22.678 Z-4.000 F600.000
G3 X26.226 Y22.937 Z-4.000 I-0.681 J-0.687 K0.000 F600.000
G1 X24.108 Y22.504 Z-4.000 F600.000
G1 X27.639 Y26.036 Z-4.000 F600.000
G1 X27.639 Y26.036 Z-5.000 F600.000
G1 X24.108 Y22.504 Z-5.000 F600.000
G1 X26.226 Y22.937 Z-5.000 F600.000
G2 X27.110 Y22.678 Z-5.000 I0.202 J-0.946 K0.000 F600.000
G1 X29.808 Y25.376 Z-5.000 F600.000
G1 X33.368 Y26.107 Z-5.000 F600.000
G1 X28.459 Y21.198 Z-5.000 F600.000
G1 X29.801 Y19.712 Z-5.000 F600.000
G1 X31.664 Y21.575 Z-5.000 F600.000
G1 X30.976 Y22.342 Z-5.000 F600.000
G2 X31.516 Y23.989 Z-5.000 I0.744 J0.668 K0.000 F600.000
G1 X34.754 Y24.665 Z-5.000 F600.000
G1 X38.415 Y28.327 Z-5.000 F600.000
G3 X39.345 Y27.366 Z-5.000 I1.010 J0.048 K0.000 F600.000
G3 X40.470 Y27.553 Z-5.000 I-0.121 J4.212 K0.000 F600.000
G1 X36.106 Y23.189 Z-5.000 F600.000
G1 X36.439 Y20.694 Z-5.000 F600.000
G1 X39.073 Y23.327 Z-5.000 F600.000
G1 X38.911 Y24.530 Z-5.000 F600.000
G2 X39.702 Y25.643 Z-5.000 I0.991 J0.133 K0.000 F600.000
G1 X41.822 Y26.077 Z-5.000 F600.000
G1 X44.002 Y28.256 Z-5.000 F600.000
G1 X45.290 Y28.513 Z-5.000 F600.000
G1 X45.600 Y27.026 Z-5.000 F600.000
G1 X45.377 Y26.803 Z-5.000 F600.000
G1 X45.636 Y26.856 Z-5.000 F600.000
G1 X45.600 Y27.026 Z-5.000 F600.000
G0 Z5.000
G0 X44.228 Y22.263 Z5.000
G0 X44.228 Y22.263 Z3.000
G1 X44.228 Y22.263 Z-2.000 F600.000
G1 X45.260 Y21.029 Z-2.000 F600.000
G1 X42.766 Y18.945 Z-2.000 F600.000
G1 X41.738 Y20.178 Z-2.000 F600.000
G1 X44.228 Y22.263 Z-2.000 F600.000
G1 X44.228 Y22.263 Z-2.000 F600.000
G1 X45.260 Y21.029 Z-2.000 F600.000
G1 X42.766 Y18.945 Z-2.000 F600.000
G1 X41.738 Y20.178 Z-2.000 F600.000
G1 X44.228 Y22.263 Z-2.000 F600.000
G1 X44.228 Y22.263 Z-4.000 F600.000
G1 X45.260 Y21.029 Z-4.000 F600.000
G1 X42.766 Y18.945 Z-4.000 F600.000
G1 X41.738 Y20.178 Z-4.000 F600.000
G1 X44.228 Y22.263 Z-4.000 F600.000
G1 X44.228 Y22.263 Z-4.000 F600.000
G1 X45.260 Y21.029 Z-4.000 F600.000
G1 X42.766 Y18.945 Z-4.000 F600.000
G1 X41.738 Y20.178 Z-4.000 F600.000
G1 X44.228 Y22.263 Z-4.000 F600.000
G1 X44.228 Y22.263 Z-5.000 F600.000
G1 X45.260 Y21.029 Z-5.000 F600.000
G1 X42.766 Y18.945 Z-5.000 F600.000
G1 X41.738 Y20.178 Z-5.000 F600.000
G1 X44.228 Y22.263 Z-5.000 F600.000
G1 X44.228 Y22.263 Z-5.000 F600.000
G1 X45.260 Y21.029 Z-5.000 F600.000
G1 X42.766 Y18.945 Z-5.000 F600.000
G1 X41.738 Y20.178 Z-5.000 F600.000
G1 X44.228 Y22.263 Z-5.000 F600.000
G0 Z5.000
G0 X39.626 Y18.224 Z5.000
G0 X39.626 Y18.224 Z3.000
G1 X39.626 Y18.224 Z-2.000 F600.000
G1 X39.769 Y18.243 Z-2.000 F600.000
G1 X39.754 Y18.352 Z-2.000 F600.000
G1 X39.626 Y18.224 Z-2.000 F600.000
G1 X36.820 Y17.847 Z-2.000 F600.000
G1 X36.773 Y18.199 Z-2.000 F600.000
G1 X39.408 Y20.834 Z-2.000 F600.000
G1 X39.073 Y23.327 Z-2.000 F600.000
G1 X36.439 Y20.694 Z-2.000 F600.000
G1 X36.439 Y20.694 Z-4.000 F600.000
G1 X39.073 Y23.327 Z-4.000 F600.000
G1 X39.408 Y20.834 Z-4.000 F600.000
G1 X36.773 Y18.199 Z-4.000 F600.000
G1 X36.820 Y17.847 Z-4.000 F600.000
G1 X39.626 Y18.224 Z-4.000 F600.000
G1 X39.754 Y18.352 Z-4.000 F600.000
G1 X39.769 Y18.243 Z-4.000 F600.000
G1 X39.626 Y18.224 Z-4.000 F600.000
G1 X39.626 Y18.224 Z-5.000 F600.000
G1 X39.769 Y18.243 Z-5.000 F600.000
G1 X39.754 Y18.352 Z-5.000 F600.000
G1 X39.626 Y18.224 Z-5.000 F600.000
G1 X36.820 Y17.847 Z-5.000 F600.000
G1 X36.773 Y18.199 Z-5.000 F600.000
G1 X39.408 Y20.834 Z-5.000 F600.000
G1 X39.073 Y23.327 Z-5.000 F600.000
G1 X36.439 Y20.694 Z-5.000 F600.000
G0 Z5.000
G0 X33.001 Y20.084 Z5.000
G0 X33.001 Y20.084 Z3.000
G1 X33.001 Y20.084 Z-2.000 F600.000
G1 X33.198 Y19.865 Z-2.000 F600.000
G1 X31.251 Y18.106 Z-2.000 F600.000
G1 X31.143 Y18.226 Z-2.000 F600.000
G1 X33.001 Y20.084 Z-2.000 F600.000
G1 X31.664 Y21.575 Z-2.000 F600.000
G1 X29.801 Y19.712 Z-2.000 F600.000
G1 X29.801 Y19.712 Z-4.000 F600.000
G1 X31.664 Y21.575 Z-4.000 F600.000
G1 X33.001 Y20.084 Z-4.000 F600.000
G1 X31.143 Y18.226 Z-4.000 F600.000
G1 X31.251 Y18.106 Z-4.000 F600.000
G1 X33.198 Y19.865 Z-4.000 F600.000
G1 X33.001 Y20.084 Z-4.000 F600.000
G1 X33.001 Y20.084 Z-5.000 F600.000
G1 X33.198 Y19.865 Z-5.000 F600.000
G1 X31.251 Y18.106 Z-5.000 F600.000
G1 X31.143 Y18.226 Z-5.000 F600.000
G1 X33.001 Y20.084 Z-5.000 F600.000
G1 X31.664 Y21.575 Z-5.000 F600.000
G1 X29.801 Y19.712 Z-5.000 F600.000
G0 Z5.000
G0 X22.723 Y23.949 Z5.000
G0 X22.723 Y23.949 Z3.000
G1 X22.723 Y23.949 Z-2.000 F600.000
G1 X18.650 Y19.875 Z-2.000 F600.000
G1 X18.171 Y22.224 Z-2.000 F600.000
G1 X19.165 Y23.219 Z-2.000 F600.000
G1 X18.016 Y22.983 Z-2.000 F600.000
G1 X19.243 Y16.963 Z-2.000 F600.000
G1 X21.571 Y17.420 Z-2.000 F600.000
G1 X20.880 Y20.825 Z-2.000 F600.000
G2 X21.659 Y22.004 Z-2.000 I0.980 J0.199 K0.000 F600.000
G1 X26.226 Y22.937 Z-2.000 F600.000
G2 X27.168 Y22.627 Z-2.000 I0.200 J-0.980 K0.000 F600.000
G1 X31.251 Y18.106 Z-2.000 F600.000
G1 X33.198 Y19.865 Z-2.000 F600.000
G1 X30.976 Y22.342 Z-2.000 F600.000
G2 X31.516 Y23.989 Z-2.000 I0.744 J0.668 K0.000 F600.000
G1 X34.824 Y24.680 Z-2.000 F600.000
G2 X36.020 Y23.833 Z-2.000 I0.205 J-0.979 K0.000 F600.000
G1 X36.820 Y17.847 Z-2.000 F600.000
G1 X39.769 Y18.243 Z-2.000 F600.000
G1 X39.542 Y19.928 Z-2.000 F600.000
G3 X39.482 Y20.290 Z-2.000 I-0.703 J0.068 K0.000 F600.000
G1 X38.911 Y24.530 Z-2.000 F600.000
G2 X39.702 Y25.643 Z-2.000 I0.991 J0.133 K0.000 F600.000
G1 X45.636 Y26.856 Z-2.000 F600.000
G1 X45.290 Y28.513 Z-2.000 F600.000
G1 X39.615 Y27.383 Z-2.000 F600.000
G2 X38.430 Y28.225 Z-2.000 I-0.195 J0.981 K0.000 F600.000
G1 X38.206 Y29.826 Z-2.000 F600.000
G1 X35.280 Y29.431 Z-2.000 F600.000
G1 X35.539 Y27.504 Z-2.000 F600.000
G2 X34.749 Y26.391 Z-2.000 I-0.991 J-0.133 K0.000 F600.000
G1 X29.040 Y25.218 Z-2.000 F600.000
G2 X28.095 Y25.529 Z-2.000 I-0.201 J0.980 K0.000 F600.000
G1 X23.599 Y30.527 Z-2.000 F600.000
G1 X21.673 Y28.773 Z-2.000 F600.000
G1 X24.326 Y25.813 Z-2.000 F600.000
G2 X23.782 Y24.166 Z-2.000 I-0.745 J-0.667 K0.000 F600.000
G1 X18.016 Y22.983 Z-2.000 F600.000
G1 X18.016 Y22.983 Z-2.000 F600.000
G1 X18.171 Y22.224 Z-2.000 F600.000
G1 X18.171 Y22.224 Z-4.000 F600.000
G1 X18.016 Y22.983 Z-4.000 F600.000
G1 X18.016 Y22.983 Z-4.000 F600.000
G1 X23.782 Y24.166 Z-4.000 F600.000
G3 X24.326 Y25.813 Z-4.000 I-0.201 J0.980 K0.000 F600.000
G1 X21.673 Y28.773 Z-4.000 F600.000
G1 X23.599 Y30.527 Z-4.000 F600.000
G1 X28.095 Y25.529 Z-4.000 F600.000
G3 X29.040 Y25.218 Z-4.000 I0.743 J0.669 K0.000 F600.000
G1 X34.749 Y26.391 Z-4.000 F600.000
G3 X35.539 Y27.504 Z-4.000 I-0.201 J0.980 K0.000 F600.000
G1 X35.280 Y29.431 Z-4.000 F600.000
G1 X38.206 Y29.826 Z-4.000 F600.000
G1 X38.430 Y28.225 Z-4.000 F600.000
G3 X39.615 Y27.383 Z-4.000 I0.990 J0.138 K0.000 F600.000
G1 X45.290 Y28.513 Z-4.000 F600.000
G1 X45.636 Y26.856 Z-4.000 F600.000
G1 X39.702 Y25.643 Z-4.000 F600.000
G3 X38.911 Y24.530 Z-4.000 I0.200 J-0.980 K0.000 F600.000
G1 X39.482 Y20.290 Z-4.000 F600.000
G2 X39.542 Y19.928 Z-4.000 I-0.642 J-0.294 K0.000 F600.000
G1 X39.769 Y18.243 Z-4.000 F600.000
G1 X36.820 Y17.847 Z-4.000 F600.000
G1 X36.020 Y23.833 Z-4.000 F600.000
G3 X34.824 Y24.680 Z-4.000 I-0.991 J-0.132 K0.000 F600.000
G1 X31.516 Y23.989 Z-4.000 F600.000
G3 X30.976 Y22.342 Z-4.000 I0.205 J-0.979 K0.000 F600.000
G1 X33.198 Y19.865 Z-4.000 F600.000
G1 X31.251 Y18.106 Z-4.000 F600.000
G1 X27.168 Y22.627 Z-4.000 F600.000
G3 X26.226 Y22.937 Z-4.000 I-0.742 J-0.670 K0.000 F600.000
G1 X21.659 Y22.004 Z-4.000 F600.000
G3 X20.880 Y20.825 Z-4.000 I0.200 J-0.980 K0.000 F600.000
G1 X21.571 Y17.420 Z-4.000 F600.000
G1 X19.243 Y16.963 Z-4.000 F600.000
G1 X18.016 Y22.983 Z-4.000 F600.000
G1 X19.165 Y23.219 Z-4.000 F600.000
G1 X18.171 Y22.224 Z-4.000 F600.000
G1 X18.650 Y19.875 Z-4.000 F600.000
G1 X22.723 Y23.949 Z-4.000 F600.000
G1 X22.723 Y23.949 Z-5.000 F600.000
G1 X18.650 Y19.875 Z-5.000 F600.000
G1 X18.171 Y22.224 Z-5.000 F600.000
G1 X19.165 Y23.219 Z-5.000 F600.000
G1 X18.016 Y22.983 Z-5.000 F600.000
G1 X19.243 Y16.963 Z-5.000 F600.000
G1 X21.571 Y17.420 Z-5.000 F600.000
G1 X20.880 Y20.825 Z-5.000 F600.000
G2 X21.659 Y22.004 Z-5.000 I0.980 J0.199 K0.000 F600.000
G1 X26.226 Y22.937 Z-5.000 F600.000
G2 X27.168 Y22.627 Z-5.000 I0.200 J-0.980 K0.000 F600.000
G1 X31.251 Y18.106 Z-5.000 F600.000
G1 X33.198 Y19.865 Z-5.000 F600.000
G1 X30.976 Y22.342 Z-5.000 F600.000
G2 X31.516 Y23.989 Z-5.000 I0.744 J0.668 K0.000 F600.000
G1 X34.824 Y24.680 Z-5.000 F600.000
G2 X36.020 Y23.833 Z-5.000 I0.205 J-0.979 K0.000 F600.000
G1 X36.820 Y17.847 Z-5.000 F600.000
G1 X39.769 Y18.243 Z-5.000 F600.000
G1 X39.542 Y19.928 Z-5.000 F600.000
G3 X39.482 Y20.290 Z-5.000 I-0.703 J0.068 K0.000 F600.000
G1 X38.911 Y24.530 Z-5.000 F600.000
G2 X39.702 Y25.643 Z-5.000 I0.991 J0.133 K0.000 F600.000
G1 X45.636 Y26.856 Z-5.000 F600.000
G1 X45.290 Y28.513 Z-5.000 F600.000
G1 X39.615 Y27.383 Z-5.000 F600.000
G2 X38.430 Y28.225 Z-5.000 I-0.195 J0.981 K0.000 F600.000
G1 X38.206 Y29.826 Z-5.000 F600.000
G1 X35.280 Y29.431 Z-5.000 F600.000
G1 X35.539 Y27.504 Z-5.000 F600.000
G2 X34.749 Y26.391 Z-5.000 I-0.991 J-0.133 K0.000 F600.000
G1 X29.040 Y25.218 Z-5.000 F600.000
G2 X28.095 Y25.529 Z-5.000 I-0.201 J0.980 K0.000 F600.000
G1 X23.599 Y30.527 Z-5.000 F600.000
G1 X21.673 Y28.773 Z-5.000 F600.000
G1 X24.326 Y25.813 Z-5.000 F600.000
G2 X23.782 Y24.166 Z-5.000 I-0.745 J-0.667 K0.000 F600.000
G1 X18.016 Y22.983 Z-5.000 F600.000
G1 X18.016 Y22.983 Z-5.000 F600.000
G1 X18.171 Y22.224 Z-5.000 F600.000
G0 Z5.000
G0 X35.447 Y28.187 Z5.000
G0 X35.447 Y28.187 Z3.000
G1 X35.447 Y28.187 Z-2.000 F600.000
G1 X35.280 Y29.431 Z-2.000 F600.000
G1 X36.912 Y29.651 Z-2.000 F600.000
G1 X35.447 Y28.187 Z-2.000 F600.000
G1 X35.447 Y28.187 Z-4.000 F600.000
G1 X35.280 Y29.431 Z-4.000 F600.000
G1 X36.912 Y29.651 Z-4.000 F600.000
G1 X35.447 Y28.187 Z-4.000 F600.000
G1 X35.447 Y28.187 Z-5.000 F600.000
G1 X35.280 Y29.431 Z-5.000 F600.000
G1 X36.912 Y29.651 Z-5.000 F600.000
G1 X35.447 Y28.187 Z-5.000 F600.000
G0 Z5.000
G0 Z5.000
G0 X35.447 Y28.187
G0 X35.635 Y35.826
G0 X35.635 Y35.826 Z3.000
G1 X35.635 Y35.826 Z-2.000 F600.000
G1 X36.482 Y35.826 Z-2.000 F600.000
G1 X36.482 Y36.673 Z-2.000 F600.000
G1 X35.635 Y35.826 Z-2.000 F600.000
G1 X34.332 Y35.826 Z-2.000 F600.000
G1 X34.332 Y37.351 Z-2.000 F600.000
G1 X36.482 Y39.501 Z-2.000 F600.000
G2 X36.516 Y40.286 Z-2.000 I3.018 J0.264 K0.000 F600.000
G3 X36.517 Y40.459 Z-2.000 I-0.086 J0.087 K0.000 F600.000
G1 X36.482 Y40.720 Z-2.000 F600.000
G1 X36.482 Y42.330 Z-2.000 F600.000
G1 X34.332 Y40.179 Z-2.000 F600.000
G1 X34.332 Y43.008 Z-2.000 F600.000
G1 X37.054 Y45.730 Z-2.000 F600.000
G1 X37.054 Y48.007 Z-2.000 F600.000
G2 X36.739 Y48.243 Z-2.000 I0.197 J0.592 K0.000 F600.000
G1 X33.796 Y45.301 Z-2.000 F600.000
G3 X33.332 Y45.420 Z-2.000 I-0.455 J-0.807 K0.000 F600.000
G1 X31.948 Y45.420 Z-2.000 F600.000
G3 X30.948 Y44.420 Z-2.000 I0.000 J-1.000 K0.000 F600.000
G1 X30.948 Y42.453 Z-2.000 F600.000
G1 X29.038 Y40.542 Z-2.000 F600.000
G1 X29.038 Y43.371 Z-2.000 F600.000
G1 X33.634 Y47.967 Z-2.000 F600.000
G2 X33.302 Y47.902 Z-2.000 I-0.287 J0.589 K0.000 F600.000
G1 X31.918 Y47.902 Z-2.000 F600.000
G2 X31.134 Y48.295 Z-2.000 I-0.012 J0.953 K0.000 F600.000
G1 X28.206 Y45.368 Z-2.000 F600.000
G1 X28.038 Y45.390 Z-2.000 F600.000
G1 X25.872 Y45.390 Z-2.000 F600.000
G3 X24.981 Y44.844 Z-2.000 I-0.000 J-1.000 K0.000 F600.000
G1 X23.569 Y42.077 Z-2.000 F600.000
G2 X23.414 Y41.709 Z-2.000 I-0.714 J0.082 K0.000 F600.000
G1 X22.280 Y39.441 Z-2.000 F600.000
G1 X18.800 Y35.961 Z-2.000 F600.000
G1 X17.831 Y36.445 Z-2.000 F600.000
G1 X19.217 Y39.207 Z-2.000 F600.000
G1 X27.913 Y47.902 Z-2.000 F600.000
G1 X26.023 Y47.902 Z-2.000 F600.000
G2 X25.353 Y48.171 Z-2.000 I-0.029 J0.897 K0.000 F600.000
G1 X21.686 Y44.504 Z-2.000 F600.000
G3 X20.699 Y45.390 Z-2.000 I-0.981 J-0.101 K0.000 F600.000
G1 X19.743 Y45.390 Z-2.000 F600.000
G1 X24.351 Y49.998 Z-2.000 F600.000
G1 X23.403 Y51.878 Z-2.000 F600.000
G1 X21.453 Y49.928 Z-2.000 F600.000
G1 X20.508 Y51.812 Z-2.000 F600.000
G1 X22.470 Y53.773 Z-2.000 F600.000
G1 X21.527 Y55.658 Z-2.000 F600.000
G1 X19.564 Y53.695 Z-2.000 F600.000
G1 X18.619 Y55.579 Z-2.000 F600.000
G1 X17.831 Y57.148 Z-2.000 F600.000
G1 X20.192 Y58.328 Z-2.000 F600.000
G1 X20.584 Y57.544 Z-2.000 F600.000
G1 X18.619 Y55.579 Z-2.000 F600.000
G1 X18.619 Y55.579 Z-4.000 F600.000
G1 X20.584 Y57.544 Z-4.000 F600.000
G1 X20.192 Y58.328 Z-4.000 F600.000
G1 X17.831 Y57.148 Z-4.000 F600.000
G1 X18.619 Y55.579 Z-4.000 F600.000
G1 X19.564 Y53.695 Z-4.000 F600.000
G1 X21.527 Y55.658 Z-4.000 F600.000
G1 X22.470 Y53.773 Z-4.000 F600.000
G1 X20.508 Y51.812 Z-4.000 F600.000
G1 X21.453 Y49.928 Z-4.000 F600.000
G1 X23.403 Y51.878 Z-4.000 F600.000
G1 X24.351 Y49.998 Z-4.000 F600.000
G1 X19.743 Y45.390 Z-4.000 F600.000
G1 X20.699 Y45.390 Z-4.000 F600.000
G2 X21.686 Y44.504 Z-4.000 I0.005 J-0.987 K0.000 F600.000
G1 X25.353 Y48.171 Z-4.000 F600.000
G3 X26.023 Y47.902 Z-4.000 I0.641 J0.628 K0.000 F600.000
G1 X27.913 Y47.902 Z-4.000 F600.000
G1 X19.217 Y39.207 Z-4.000 F600.000
G1 X17.831 Y36.445 Z-4.000 F600.000
G1 X18.800 Y35.961 Z-4.000 F600.000
G1 X22.280 Y39.441 Z-4.000 F600.000
G1 X23.414 Y41.709 Z-4.000 F600.000
G3 X23.569 Y42.077 Z-4.000 I-0.559 J0.451 K0.000 F600.000
G1 X24.981 Y44.844 Z-4.000 F600.000
G2 X25.872 Y45.390 Z-4.000 I0.891 J-0.455 K0.000 F600.000
G1 X28.038 Y45.390 Z-4.000 F600.000
G1 X28.206 Y45.368 Z-4.000 F600.000
G1 X31.134 Y48.295 Z-4.000 F600.000
G3 X31.918 Y47.902 Z-4.000 I0.771 J0.561 K0.000 F600.000
G1 X33.302 Y47.902 Z-4.000 F600.000
G3 X33.634 Y47.967 Z-4.000 I0.046 J0.654 K0.000 F600.000
G1 X29.038 Y43.371 Z-4.000 F600.000
G1 X29.038 Y40.542 Z-4.000 F600.000
G1 X30.948 Y42.453 Z-4.000 F600.000
G1 X30.948 Y44.420 Z-4.000 F600.000
G2 X31.948 Y45.420 Z-4.000 I1.000 J-0.000 K0.000 F600.000
G1 X33.332 Y45.420 Z-4.000 F600.000
G2 X33.796 Y45.301 Z-4.000 I0.010 J-0.927 K0.000 F600.000
G1 X36.739 Y48.243 Z-4.000 F600.000
G3 X37.054 Y48.007 Z-4.000 I0.512 J0.355 K0.000 F600.000
G1 X37.054 Y45.730 Z-4.000 F600.000
G1 X34.332 Y43.008 Z-4.000 F600.000
G1 X34.332 Y40.179 Z-4.000 F600.000
G1 X36.482 Y42.330 Z-4.000 F600.000
G1 X36.482 Y40.720 Z-4.000 F600.000
G1 X36.517 Y40.459 Z-4.000 F600.000
G2 X36.516 Y40.286 Z-4.000 I-0.087 J-0.086 K0.000 F600.000
G3 X36.482 Y39.501 Z-4.000 I2.985 J-0.521 K0.000 F600.000
G1 X34.332 Y37.351 Z-4.000 F600.000
G1 X34.332 Y35.826 Z-4.000 F600.000
G1 X35.635 Y35.826 Z-4.000 F600.000
G1 X36.482 Y36.673 Z-4.000 F600.000
G1 X36.482 Y35.826 Z-4.000 F600.000
G1 X35.635 Y35.826 Z-4.000 F600.000
G1 X35.635 Y35.826 Z-5.000 F600.000
G1 X36.482 Y35.826 Z-5.000 F600.000
G1 X36.482 Y36.673 Z-5.000 F600.000
G1 X35.635 Y35.826 Z-5.000 F600.000
G1 X34.332 Y35.826 Z-5.000 F600.000
G1 X34.332 Y37.351 Z-5.000 F600.000
G1 X36.482 Y39.501 Z-5.000 F600.000
G2 X36.516 Y40.286 Z-5.000 I3.018 J0.264 K0.000 F600.000
G3 X36.517 Y40.459 Z-5.000 I-0.086 J0.087 K0.000 F600.000
G1 X36.482 Y40.720 Z-5.000 F600.000
G1 X36.482 Y42.330 Z-5.000 F600.000
G1 X34.332 Y40.179 Z-5.000 F600.000
G1 X34.332 Y43.008 Z-5.000 F600.000
G1 X37.054 Y45.730 Z-5.000 F600.000
G1 X37.054 Y48.007 Z-5.000 F600.000
G2 X36.739 Y48.243 Z-5.000 I0.197 J0.592 K0.000 F600.000
G1 X33.796 Y45.301 Z-5.000 F600.000
G3 X33.332 Y45.420 Z-5.000 I-0.455 J-0.807 K0.000 F600.000
G1 X31.948 Y45.420 Z-5.000 F600.000
G3 X30.948 Y44.420 Z-5.000 I0.000 J-1.000 K0.000 F600.000
G1 X30.948 Y42.453 Z-5.000 F600.000
G1 X29.038 Y40.542 Z-5.000 F600.000
G1 X29.038 Y43.371 Z-5.000 F600.000
G1 X33.634 Y47.967 Z-5.000 F600.000
G2 X33.302 Y47.902 Z-5.000 I-0.287 J0.589 K0.000 F600.000
G1 X31.918 Y47.902 Z-5.000 F600.000
G2 X31.134 Y48.295 Z-5.000 I-0.012 J0.953 K0.000 F600.000
G1 X28.206 Y45.368 Z-5.000 F600.000
G1 X28.038 Y45.390 Z-5.000 F600.000
G1 X25.872 Y45.390 Z-5.000 F600.000
G3 X24.981 Y44.844 Z-5.000 I-0.000 J-1.000 K0.000 F600.000
G1 X23.569 Y42.077 Z-5.000 F600.000
G2 X23.414 Y41.709 Z-5.000 I-0.714 J0.082 K0.000 F600.000
G1 X22.280 Y39.441 Z-5.000 F600.000
G1 X18.800 Y35.961 Z-5.000 F600.000
G1 X17.831 Y36.445 Z-5.000 F600.000
G1 X19.217 Y39.207 Z-5.000 F600.000
G1 X27.913 Y47.902 Z-5.000 F600.000
G1 X26.023 Y47.902 Z-5.000 F600.000
G2 X25.353 Y48.171 Z-5.000 I-0.029 J0.897 K0.000 F600.000
G1 X21.686 Y44.504 Z-5.000 F600.000
G3 X20.699 Y45.390 Z-5.000 I-0.981 J-0.101 K0.000 F600.000
G1 X19.743 Y45.390 Z-5.000 F600.000
G1 X24.351 Y49.998 Z-5.000 F600.000
G1 X23.403 Y51.878 Z-5.000 F600.000
G1 X21.453 Y49.928 Z-5.000 F600.000
G1 X20.508 Y51.812 Z-5.000 F600.000
G1 X22.470 Y53.773 Z-5.000 F600.000
G1 X21.527 Y55.658 Z-5.000 F600.000
G1 X19.564 Y53.695 Z-5.000 F600.000
G1 X18.619 Y55.579 Z-5.000 F600.000
G1 X17.831 Y57.148 Z-5.000 F600.000
G1 X20.192 Y58.328 Z-5.000 F600.000
G1 X20.584 Y57.544 Z-5.000 F600.000
G1 X18.619 Y55.579 Z-5.000 F600.000
G0 Z5.000
G0 X19.428 Y47.902 Z5.000
G0 X19.428 Y47.902 Z3.000
G1 X19.428 Y47.902 Z-2.000 F600.000
G1 X20.849 Y47.902 Z-2.000 F600.000
G3 X21.743 Y49.351 Z-2.000 I0.000 J1.000 K0.000 F600.000
G1 X17.831 Y57.148 Z-2.000 F600.000
G1 X20.192 Y58.328 Z-2.000 F600.000
G1 X23.138 Y52.436 Z-2.000 F600.000
G1 X23.175 Y52.333 Z-2.000 F600.000
G1 X25.130 Y48.452 Z-2.000 F600.000
G3 X26.023 Y47.902 Z-2.000 I0.893 J0.450 K0.000 F600.000
G1 X28.038 Y47.902 Z-2.000 F600.000
G3 X29.038 Y48.902 Z-2.000 I0.000 J1.000 K0.000 F600.000
G1 X29.038 Y52.783 Z-2.000 F600.000
G3 X28.038 Y53.783 Z-2.000 I-1.000 J-0.000 K0.000 F600.000
G1 X25.068 Y53.783 Z-2.000 F600.000
G1 X25.068 Y56.144 Z-2.000 F600.000
G1 X30.918 Y56.144 Z-2.000 F600.000
G1 X30.918 Y48.902 Z-2.000 F600.000
G3 X31.918 Y47.902 Z-2.000 I1.000 J0.000 K0.000 F600.000
G1 X33.302 Y47.902 Z-2.000 F600.000
G3 X34.302 Y48.902 Z-2.000 I-0.000 J1.000 K0.000 F600.000
G1 X34.302 Y57.467 Z-2.000 F600.000
G1 X37.392 Y57.467 Z-2.000 F600.000
G3 X38.186 Y57.859 Z-2.000 I0.000 J1.000 K0.000 F600.000
G3 X38.613 Y58.738 Z-2.000 I-3.608 J2.294 K0.000 F600.000
G1 X46.234 Y55.291 Z-2.000 F600.000
G1 X45.082 Y52.739 Z-2.000 F600.000
G3 X43.909 Y51.759 Z-2.000 I-0.183 J-0.973 K0.000 F600.000
G1 X43.909 Y48.127 Z-2.000 F600.000
G1 X41.488 Y48.127 Z-2.000 F600.000
G1 X41.488 Y49.504 Z-2.000 F600.000
G3 X40.474 Y50.503 Z-2.000 I-1.000 J-0.000 K0.000 F600.000
G3 X39.483 Y50.256 Z-2.000 I0.434 J-3.855 K0.000 F600.000
G1 X38.996 Y51.898 Z-2.000 F600.000
G1 X40.773 Y52.425 Z-2.000 F600.000
G3 X41.360 Y52.893 Z-2.000 I-0.285 J0.959 K0.000 F600.000
G3 X41.488 Y53.775 Z-2.000 I-1.207 J0.627 K0.000 F600.000
G3 X40.899 Y54.687 Z-2.000 I-1.000 J-0.000 K0.000 F600.000
G1 X37.893 Y56.040 Z-2.000 F600.000
G3 X36.482 Y55.129 Z-2.000 I-0.410 J-0.912 K0.000 F600.000
G1 X36.482 Y48.902 Z-2.000 F600.000
G3 X37.054 Y48.007 Z-2.000 I0.979 J-0.006 K0.000 F600.000
G1 X37.054 Y45.316 Z-2.000 F600.000
G3 X36.482 Y44.420 Z-2.000 I0.393 J-0.881 K0.000 F600.000
G1 X36.482 Y40.720 Z-2.000 F600.000
G3 X36.552 Y40.374 Z-2.000 I0.674 J-0.043 K0.000 F600.000
G3 X36.482 Y40.029 Z-2.000 I0.615 J-0.305 K0.000 F600.000
G1 X36.482 Y35.826 Z-2.000 F600.000
G1 X34.332 Y35.826 Z-2.000 F600.000
G1 X34.332 Y44.420 Z-2.000 F600.000
G3 X33.332 Y45.420 Z-2.000 I-1.000 J-0.000 K0.000 F600.000
G1 X31.948 Y45.420 Z-2.000 F600.000
G3 X30.948 Y44.420 Z-2.000 I0.000 J-1.000 K0.000 F600.000
G1 X30.948 Y37.179 Z-2.000 F600.000
G1 X25.308 Y37.179 Z-2.000 F600.000
G1 X25.308 Y40.623 Z-2.000 F600.000
G1 X25.654 Y40.623 Z-2.000 F600.000
G3 X26.654 Y39.540 Z-2.000 I1.004 J-0.076 K0.000 F600.000
G1 X28.038 Y39.540 Z-2.000 F600.000
G3 X29.038 Y40.540 Z-2.000 I-0.000 J1.000 K0.000 F600.000
G1 X29.038 Y44.390 Z-2.000 F600.000
G3 X28.038 Y45.390 Z-2.000 I-1.000 J0.000 K0.000 F600.000
G1 X25.872 Y45.390 Z-2.000 F600.000
G3 X24.981 Y44.844 Z-2.000 I-0.000 J-1.000 K0.000 F600.000
G1 X23.569 Y42.077 Z-2.000 F600.000
G2 X23.414 Y41.709 Z-2.000 I-1.349 J0.349 K0.000 F600.000
G1 X20.192 Y35.265 Z-2.000 F600.000
G1 X17.831 Y36.445 Z-2.000 F600.000
G1 X17.831 Y36.445 Z-2.000 F600.000
G1 X21.593 Y43.941 Z-2.000 F600.000
G3 X20.699 Y45.390 Z-2.000 I-0.894 J0.449 K0.000 F600.000
G1 X17.098 Y45.390 Z-2.000 F600.000
G1 X17.098 Y47.902 Z-2.000 F600.000
G1 X19.428 Y47.902 Z-2.000 F600.000
G1 X17.098 Y47.902 Z-2.000 F600.000
G1 X17.098 Y45.572 Z-2.000 F600.000
G1 X19.428 Y47.902 Z-2.000 F600.000
G1 X19.428 Y47.902 Z-4.000 F600.000
G1 X17.098 Y45.572 Z-4.000 F600.000
G1 X17.098 Y47.902 Z-4.000 F600.000
G1 X19.428 Y47.902 Z-4.000 F600.000
G1 X17.098 Y47.902 Z-4.000 F600.000
G1 X17.098 Y45.390 Z-4.000 F600.000
G1 X20.699 Y45.390 Z-4.000 F600.000
G2 X21.593 Y43.941 Z-4.000 I0.000 J-1.000 K0.000 F600.000
G1 X17.831 Y36.445 Z-4.000 F600.000
G1 X17.831 Y36.445 Z-4.000 F600.000
G1 X20.192 Y35.265 Z-4.000 F600.000
G1 X23.414 Y41.709 Z-4.000 F600.000
G3 X23.569 Y42.077 Z-4.000 I-1.195 J0.718 K0.000 F600.000
G1 X24.981 Y44.844 Z-4.000 F600.000
G2 X25.872 Y45.390 Z-4.000 I0.891 J-0.455 K0.000 F600.000
G1 X28.038 Y45.390 Z-4.000 F600.000
G2 X29.038 Y44.390 Z-4.000 I0.000 J-1.000 K0.000 F600.000
G1 X29.038 Y40.540 Z-4.000 F600.000
G2 X28.038 Y39.540 Z-4.000 I-1.000 J0.000 K0.000 F600.000
G1 X26.654 Y39.540 Z-4.000 F600.000
G2 X25.654 Y40.623 Z-4.000 I0.004 J1.007 K0.000 F600.000
G1 X25.308 Y40.623 Z-4.000 F600.000
G1 X25.308 Y37.179 Z-4.000 F600.000
G1 X30.948 Y37.179 Z-4.000 F600.000
G1 X30.948 Y44.420 Z-4.000 F600.000
G2 X31.948 Y45.420 Z-4.000 I1.000 J-0.000 K0.000 F600.000
G1 X33.332 Y45.420 Z-4.000 F600.000
G2 X34.332 Y44.420 Z-4.000 I-0.000 J-1.000 K0.000 F600.000
G1 X34.332 Y35.826 Z-4.000 F600.000
G1 X36.482 Y35.826 Z-4.000 F600.000
G1 X36.482 Y40.029 Z-4.000 F600.000
G2 X36.552 Y40.374 Z-4.000 I0.685 J0.041 K0.000 F600.000
G2 X36.482 Y40.720 Z-4.000 I0.604 J0.302 K0.000 F600.000
G1 X36.482 Y44.420 Z-4.000 F600.000
G2 X37.054 Y45.316 Z-4.000 I0.965 J0.015 K0.000 F600.000
G1 X37.054 Y48.007 Z-4.000 F600.000
G2 X36.482 Y48.902 Z-4.000 I0.407 J0.890 K0.000 F600.000
G1 X36.482 Y55.129 Z-4.000 F600.000
G2 X37.893 Y56.040 Z-4.000 I1.000 J0.000 K0.000 F600.000
G1 X40.899 Y54.687 Z-4.000 F600.000
G2 X41.488 Y53.775 Z-4.000 I-0.410 J-0.912 K0.000 F600.000
G2 X41.360 Y52.893 Z-4.000 I-1.336 J-0.256 K0.000 F600.000
G2 X40.773 Y52.425 Z-4.000 I-0.871 J0.491 K0.000 F600.000
G1 X38.996 Y51.898 Z-4.000 F600.000
G1 X39.483 Y50.256 Z-4.000 F600.000
G2 X40.474 Y50.503 Z-4.000 I1.426 J-3.608 K0.000 F600.000
G2 X41.488 Y49.504 Z-4.000 I0.014 J-1.000 K0.000 F600.000
G1 X41.488 Y48.127 Z-4.000 F600.000
G1 X43.909 Y48.127 Z-4.000 F600.000
G1 X43.909 Y51.759 Z-4.000 F600.000
G2 X45.082 Y52.739 Z-4.000 I0.990 J0.006 K0.000 F600.000
G1 X46.234 Y55.291 Z-4.000 F600.000
G1 X38.613 Y58.738 Z-4.000 F600.000
G2 X38.186 Y57.859 Z-4.000 I-4.035 J1.415 K0.000 F600.000
G2 X37.392 Y57.467 Z-4.000 I-0.794 J0.609 K0.000 F600.000
G1 X34.302 Y57.467 Z-4.000 F600.000
G1 X34.302 Y48.902 Z-4.000 F600.000
G2 X33.302 Y47.902 Z-4.000 I-1.000 J-0.000 K0.000 F600.000
G1 X31.918 Y47.902 Z-4.000 F600.000
G2 X30.918 Y48.902 Z-4.000 I0.000 J1.000 K0.000 F600.000
G1 X30.918 Y56.144 Z-4.000 F600.000
G1 X25.068 Y56.144 Z-4.000 F600.000
G1 X25.068 Y53.783 Z-4.000 F600.000
G1 X28.038 Y53.783 Z-4.000 F600.000
G2 X29.038 Y52.783 Z-4.000 I-0.000 J-1.000 K0.000 F600.000
G1 X29.038 Y48.902 Z-4.000 F600.000
G2 X28.038 Y47.902 Z-4.000 I-1.000 J-0.000 K0.000 F600.000
G1 X26.023 Y47.902 Z-4.000 F600.000
G2 X25.130 Y48.452 Z-4.000 I0.000 J1.000 K0.000 F600.000
G1 X23.175 Y52.333 Z-4.000 F600.000
G1 X23.138 Y52.436 Z-4.000 F600.000
G1 X20.192 Y58.328 Z-4.000 F600.000
G1 X17.831 Y57.148 Z-4.000 F600.000
G1 X21.743 Y49.351 Z-4.000 F600.000
G2 X20.849 Y47.902 Z-4.000 I-0.894 J-0.448 K0.000 F600.000
G1 X19.428 Y47.902 Z-4.000 F600.000
G1 X19.428 Y47.902 Z-5.000 F600.000
G1 X20.849 Y47.902 Z-5.000 F600.000
G3 X21.743 Y49.351 Z-5.000 I0.000 J1.000 K0.000 F600.000
G1 X17.831 Y57.148 Z-5.000 F600.000
G1 X20.192 Y58.328 Z-5.000 F600.000
G1 X23.138 Y52.436 Z-5.000 F600.000
G1 X23.175 Y52.333 Z-5.000 F600.000
G1 X25.130 Y48.452 Z-5.000 F600.000
G3 X26.023 Y47.902 Z-5.000 I0.893 J0.450 K0.000 F600.000
G1 X28.038 Y47.902 Z-5.000 F600.000
G3 X29.038 Y48.902 Z-5.000 I0.000 J1.000 K0.000 F600.000
G1 X29.038 Y52.783 Z-5.000 F600.000
G3 X28.038 Y53.783 Z-5.000 I-1.000 J-0.000 K0.000 F600.000
G1 X25.068 Y53.783 Z-5.000 F600.000
G1 X25.068 Y56.144 Z-5.000 F600.000
G1 X30.918 Y56.144 Z-5.000 F600.000
G1 X30.918 Y48.902 Z-5.000 F600.000
G3 X31.918 Y47.902 Z-5.000 I1.000 J0.000 K0.000 F600.000
G1 X33.302 Y47.902 Z-5.000 F600.000
G3 X34.302 Y48.902 Z-5.000 I-0.000 J1.000 K0.000 F600.000
G1 X34.302 Y57.467 Z-5.000 F600.000
G1 X37.392 Y57.467 Z-5.000 F600.000
G3 X38.186 Y57.859 Z-5.000 I0.000 J1.000 K0.000 F600.000
G3 X38.613 Y58.738 Z-5.000 I-3.608 J2.294 K0.000 F600.000
G1 X46.234 Y55.291 Z-5.000 F600.000
G1 X45.082 Y52.739 Z-5.000 F600.000
G3 X43.909 Y51.759 Z-5.000 I-0.183 J-0.973 K0.000 F600.000
G1 X43.909 Y48.127 Z-5.000 F600.000
G1 X41.488 Y48.127 Z-5.000 F600.000
G1 X41.488 Y49.504 Z-5.000 F600.000
G3 X40.474 Y50.503 Z-5.000 I-1.000 J-0.000 K0.000 F600.000
G3 X39.483 Y50.256 Z-5.000 I0.434 J-3.855 K0.000 F600.000
G1 X38.996 Y51.898 Z-5.000 F600.000
G1 X40.773 Y52.425 Z-5.000 F600.000
G3 X41.360 Y52.893 Z-5.000 I-0.285 J0.959 K0.000 F600.000
G3 X41.488 Y53.775 Z-5.000 I-1.207 J0.627 K0.000 F600.000
G3 X40.899 Y54.687 Z-5.000 I-1.000 J-0.000 K0.000 F600.000
G1 X37.893 Y56.040 Z-5.000 F600.000
G3 X36.482 Y55.129 Z-5.000 I-0.410 J-0.912 K0.000 F600.000
G1 X36.482 Y48.902 Z-5.000 F600.000
G3 X37.054 Y48.007 Z-5.000 I0.979 J-0.006 K0.000 F600.000
G1 X37.054 Y45.316 Z-5.000 F600.000
G3 X36.482 Y44.420 Z-5.000 I0.393 J-0.881 K0.000 F600.000
G1 X36.482 Y40.720 Z-5.000 F600.000
G3 X36.552 Y40.374 Z-5.000 I0.674 J-0.043 K0.000 F600.000
G3 X36.482 Y40.029 Z-5.000 I0.615 J-0.305 K0.000 F600.000
G1 X36.482 Y35.826 Z-5.000 F600.000
G1 X34.332 Y35.826 Z-5.000 F600.000
G1 X34.332 Y44.420 Z-5.000 F600.000
G3 X33.332 Y45.420 Z-5.000 I-1.000 J-0.000 K0.000 F600.000
G1 X31.948 Y45.420 Z-5.000 F600.000
G3 X30.948 Y44.420 Z-5.000 I0.000 J-1.000 K0.000 F600.000
G1 X30.948 Y37.179 Z-5.000 F600.000
G1 X25.308 Y37.179 Z-5.000 F600.000
G1 X25.308 Y40.623 Z-5.000 F600.000
G1 X25.654 Y40.623 Z-5.000 F600.000
G3 X26.654 Y39.540 Z-5.000 I1.004 J-0.076 K0.000 F600.000
G1 X28.038 Y39.540 Z-5.000 F600.000
G3 X29.038 Y40.540 Z-5.000 I-0.000 J1.000 K0.000 F600.000
G1 X29.038 Y44.390 Z-5.000 F600.000
G3 X28.038 Y45.390 Z-5.000 I-1.000 J0.000 K0.000 F600.000
G1 X25.872 Y45.390 Z-5.000 F600.000
G3 X24.981 Y44.844 Z-5.000 I-0.000 J-1.000 K0.000 F600.000
G1 X23.569 Y42.077 Z-5.000 F600.000
G2 X23.414 Y41.709 Z-5.000 I-1.349 J0.349 K0.000 F600.000
G1 X20.192 Y35.265 Z-5.000 F600.000
G1 X17.831 Y36.445 Z-5.000 F600.000
G1 X17.831 Y36.445 Z-5.000 F600.000
G1 X21.593 Y43.941 Z-5.000 F600.000
G3 X20.699 Y45.390 Z-5.000 I-0.894 J0.449 K0.000 F600.000
G1 X17.098 Y45.390 Z-5.000 F600.000
G1 X17.098 Y47.902 Z-5.000 F600.000
G1 X19.428 Y47.902 Z-5.000 F600.000
G1 X17.098 Y47.902 Z-5.000 F600.000
G1 X17.098 Y45.572 Z-5.000 F600.000
G1 X19.428 Y47.902 Z-5.000 F600.000
G0 Z5.000
G0 X22.280 Y39.441 Z5.000
G0 X22.280 Y39.441 Z3.000
G1 X22.280 Y39.441 Z-2.000 F600.000
G1 X20.192 Y35.265 Z-2.000 F600.000
G1 X18.800 Y35.961 Z-2.000 F600.000
G1 X22.280 Y39.441 Z-2.000 F600.000
G1 X22.280 Y39.441 Z-4.000 F600.000
G1 X20.192 Y35.265 Z-4.000 F600.000
G1 X18.800 Y35.961 Z-4.000 F600.000
G1 X22.280 Y39.441 Z-4.000 F600.000
G1 X22.280 Y39.441 Z-5.000 F600.000
G1 X20.192 Y35.265 Z-5.000 F600.000
G1 X18.800 Y35.961 Z-5.000 F600.000
G1 X22.280 Y39.441 Z-5.000 F600.000
G0 Z5.000
G0 X25.308 Y39.641 Z5.000
G0 X25.308 Y39.641 Z3.000
G1 X25.308 Y39.641 Z-2.000 F600.000
G1 X25.308 Y40.623 Z-2.000 F600.000
G1 X25.654 Y40.623 Z-2.000 F600.000
G3 X25.765 Y40.097 Z-2.000 I1.110 J-0.041 K0.000 F600.000
G1 X25.308 Y39.641 Z-2.000 F600.000
G1 X25.308 Y37.179 Z-2.000 F600.000
G1 X25.675 Y37.179 Z-2.000 F600.000
G1 X28.036 Y39.540 Z-2.000 F600.000
G1 X28.036 Y39.540 Z-4.000 F600.000
G1 X25.675 Y37.179 Z-4.000 F600.000
G1 X25.308 Y37.179 Z-4.000 F600.000
G1 X25.308 Y39.641 Z-4.000 F600.000
G1 X25.765 Y40.097 Z-4.000 F600.000
G2 X25.654 Y40.623 Z-4.000 I1.000 J0.484 K0.000 F600.000
G1 X25.308 Y40.623 Z-4.000 F600.000
G1 X25.308 Y39.641 Z-4.000 F600.000
G1 X25.308 Y39.641 Z-5.000 F600.000
G1 X25.308 Y40.623 Z-5.000 F600.000
G1 X25.654 Y40.623 Z-5.000 F600.000
G3 X25.765 Y40.097 Z-5.000 I1.110 J-0.041 K0.000 F600.000
G1 X25.308 Y39.641 Z-5.000 F600.000
G1 X25.308 Y37.179 Z-5.000 F600.000
G1 X25.675 Y37.179 Z-5.000 F600.000
G1 X28.036 Y39.540 Z-5.000 F600.000
G0 Z5.000
G0 X30.948 Y39.624 Z5.000
G0 X30.948 Y39.624 Z3.000
G1 X30.948 Y39.624 Z-2.000 F600.000
G1 X30.948 Y37.179 Z-2.000 F600.000
G1 X28.503 Y37.179 Z-2.000 F600.000
G1 X30.948 Y39.624 Z-2.000 F600.000
G1 X30.948 Y42.453 Z-2.000 F600.000
G1 X29.038 Y40.542 Z-2.000 F600.000
G2 X28.036 Y39.540 Z-2.000 I-1.000 J-0.002 K0.000 F600.000
G1 X25.675 Y37.179 Z-2.000 F600.000
G1 X25.675 Y37.179 Z-4.000 F600.000
G1 X28.036 Y39.540 Z-4.000 F600.000
G3 X29.038 Y40.542 Z-4.000 I0.002 J1.000 K0.000 F600.000
G1 X30.948 Y42.453 Z-4.000 F600.000
G1 X30.948 Y39.624 Z-4.000 F600.000
G1 X28.503 Y37.179 Z-4.000 F600.000
G1 X30.948 Y37.179 Z-4.000 F600.000
G1 X30.948 Y39.624 Z-4.000 F600.000
G1 X30.948 Y39.624 Z-5.000 F600.000
G1 X30.948 Y37.179 Z-5.000 F600.000
G1 X28.503 Y37.179 Z-5.000 F600.000
G1 X30.948 Y39.624 Z-5.000 F600.000
G1 X30.948 Y42.453 Z-5.000 F600.000
G1 X29.038 Y40.542 Z-5.000 F600.000
G2 X28.036 Y39.540 Z-5.000 I-1.000 J-0.002 K0.000 F600.000
G1 X25.675 Y37.179 Z-5.000 F600.000
G0 Z5.000
G0 X29.038 Y49.027 Z5.000
G0 X29.038 Y49.027 Z3.000
G1 X29.038 Y49.027 Z-2.000 F600.000
G1 X30.918 Y50.908 Z-2.000 F600.000
G1 X30.918 Y53.736 Z-2.000 F600.000
G1 X29.038 Y51.856 Z-2.000 F600.000
G1 X29.038 Y52.783 Z-2.000 F600.000
G3 X28.125 Y53.771 Z-2.000 I-0.985 J0.006 K0.000 F600.000
G1 X30.497 Y56.144 Z-2.000 F600.000
G1 X27.669 Y56.144 Z-2.000 F600.000
G1 X25.308 Y53.783 Z-2.000 F600.000
G1 X25.068 Y53.783 Z-2.000 F600.000
G1 X25.068 Y56.144 Z-2.000 F600.000
G1 X27.669 Y56.144 Z-2.000 F600.000
G1 X27.669 Y56.144 Z-4.000 F600.000
G1 X25.068 Y56.144 Z-4.000 F600.000
G1 X25.068 Y53.783 Z-4.000 F600.000
G1 X25.308 Y53.783 Z-4.000 F600.000
G1 X27.669 Y56.144 Z-4.000 F600.000
G1 X30.497 Y56.144 Z-4.000 F600.000
G1 X28.125 Y53.771 Z-4.000 F600.000
G2 X29.038 Y52.783 Z-4.000 I-0.072 J-0.982 K0.000 F600.000
G1 X29.038 Y51.856 Z-4.000 F600.000
G1 X30.918 Y53.736 Z-4.000 F600.000
G1 X30.918 Y50.908 Z-4.000 F600.000
G1 X29.038 Y49.027 Z-4.000 F600.000
G1 X29.038 Y49.027 Z-5.000 F600.000
G1 X30.918 Y50.908 Z-5.000 F600.000
G1 X30.918 Y53.736 Z-5.000 F600.000
G1 X29.038 Y51.856 Z-5.000 F600.000
G1 X29.038 Y52.783 Z-5.000 F600.000
G3 X28.125 Y53.771 Z-5.000 I-0.985 J0.006 K0.000 F600.000
G1 X30.497 Y56.144 Z-5.000 F600.000
G1 X27.669 Y56.144 Z-5.000 F600.000
G1 X25.308 Y53.783 Z-5.000 F600.000
G1 X25.068 Y53.783 Z-5.000 F600.000
G1 X25.068 Y56.144 Z-5.000 F600.000
G1 X27.669 Y56.144 Z-5.000 F600.000
G0 Z5.000
G0 X34.649 Y57.467 Z5.000
G0 X34.649 Y57.467 Z3.000
G1 X34.649 Y57.467 Z-2.000 F600.000
G1 X34.302 Y57.120 Z-2.000 F600.000
G1 X34.302 Y57.467 Z-2.000 F600.000
G1 X34.649 Y57.467 Z-2.000 F600.000
G1 X37.392 Y57.467 Z-2.000 F600.000
G1 X37.489 Y57.478 Z-2.000 F600.000
G1 X34.302 Y54.291 Z-2.000 F600.000
G1 X34.302 Y51.463 Z-2.000 F600.000
G1 X36.482 Y53.644 Z-2.000 F600.000
G1 X36.482 Y55.129 Z-2.000 F600.000
G2 X37.655 Y56.114 Z-2.000 I1.000 J0.000 K0.000 F600.000
G2 X38.573 Y55.734 Z-2.000 I-1.055 J-3.853 K0.000 F600.000
G1 X40.654 Y57.815 Z-2.000 F600.000
G1 X42.601 Y56.934 Z-2.000 F600.000
G1 X40.524 Y54.856 Z-2.000 F600.000
G1 X40.899 Y54.687 Z-2.000 F600.000
G2 X41.385 Y54.219 Z-2.000 I-0.410 J-0.912 K0.000 F600.000
G2 X41.488 Y53.384 Z-2.000 I-1.288 J-0.584 K0.000 F600.000
G2 X41.274 Y52.778 Z-2.000 I-0.941 J-0.008 K0.000 F600.000
G1 X44.549 Y56.053 Z-2.000 F600.000
G1 X46.234 Y55.291 Z-2.000 F600.000
G1 X45.920 Y54.596 Z-2.000 F600.000
G1 X41.343 Y50.019 Z-2.000 F600.000
G2 X41.488 Y49.504 Z-2.000 I-0.543 J-0.431 K0.000 F600.000
G1 X41.488 Y48.127 Z-2.000 F600.000
G1 X42.280 Y48.127 Z-2.000 F600.000
G1 X43.909 Y49.756 Z-2.000 F600.000
G1 X43.909 Y48.127 Z-2.000 F600.000
G1 X42.280 Y48.127 Z-2.000 F600.000
G1 X42.280 Y48.127 Z-4.000 F600.000
G1 X43.909 Y48.127 Z-4.000 F600.000
G1 X43.909 Y49.756 Z-4.000 F600.000
G1 X42.280 Y48.127 Z-4.000 F600.000
G1 X41.488 Y48.127 Z-4.000 F600.000
G1 X41.488 Y49.504 Z-4.000 F600.000
G3 X41.343 Y50.019 Z-4.000 I-0.689 J0.084 K0.000 F600.000
G1 X45.920 Y54.596 Z-4.000 F600.000
G1 X46.234 Y55.291 Z-4.000 F600.000
G1 X44.549 Y56.053 Z-4.000 F600.000
G1 X41.274 Y52.778 Z-4.000 F600.000
G3 X41.488 Y53.384 Z-4.000 I-0.726 J0.598 K0.000 F600.000
G3 X41.385 Y54.219 Z-4.000 I-1.392 J0.251 K0.000 F600.000
G3 X40.899 Y54.687 Z-4.000 I-0.896 J-0.443 K0.000 F600.000
G1 X40.524 Y54.856 Z-4.000 F600.000
G1 X42.601 Y56.934 Z-4.000 F600.000
G1 X40.654 Y57.815 Z-4.000 F600.000
G1 X38.573 Y55.734 Z-4.000 F600.000
G3 X37.655 Y56.114 Z-4.000 I-1.973 J-3.474 K0.000 F600.000
G3 X36.482 Y55.129 Z-4.000 I-0.173 J-0.985 K0.000 F600.000
G1 X36.482 Y53.644 Z-4.000 F600.000
G1 X34.302 Y51.463 Z-4.000 F600.000
G1 X34.302 Y54.291 Z-4.000 F600.000
G1 X37.489 Y57.478 Z-4.000 F600.000
G1 X37.392 Y57.467 Z-4.000 F600.000
G1 X34.649 Y57.467 Z-4.000 F600.000
G1 X34.302 Y57.467 Z-4.000 F600.000
G1 X34.302 Y57.120 Z-4.000 F600.000
G1 X34.649 Y57.467 Z-4.000 F600.000
G1 X34.649 Y57.467 Z-5.000 F600.000
G1 X34.302 Y57.120 Z-5.000 F600.000
G1 X34.302 Y57.467 Z-5.000 F600.000
G1 X34.649 Y57.467 Z-5.000 F600.000
G1 X37.392 Y57.467 Z-5.000 F600.000
G1 X37.489 Y57.478 Z-5.000 F600.000
G1 X34.302 Y54.291 Z-5.000 F600.000
G1 X34.302 Y51.463 Z-5.000 F600.000
G1 X36.482 Y53.644 Z-5.000 F600.000
G1 X36.482 Y55.129 Z-5.000 F600.000
G2 X37.655 Y56.114 Z-5.000 I1.000 J0.000 K0.000 F600.000
G2 X38.573 Y55.734 Z-5.000 I-1.055 J-3.853 K0.000 F600.000
G1 X40.654 Y57.815 Z-5.000 F600.000
G1 X42.601 Y56.934 Z-5.000 F600.000
G1 X40.524 Y54.856 Z-5.000 F600.000
G1 X40.899 Y54.687 Z-5.000 F600.000
G2 X41.385 Y54.219 Z-5.000 I-0.410 J-0.912 K0.000 F600.000
G2 X41.488 Y53.384 Z-5.000 I-1.288 J-0.584 K0.000 F600.000
G2 X41.274 Y52.778 Z-5.000 I-0.941 J-0.008 K0.000 F600.000
G1 X44.549 Y56.053 Z-5.000 F600.000
G1 X46.234 Y55.291 Z-5.000 F600.000
G1 X45.920 Y54.596 Z-5.000 F600.000
G1 X41.343 Y50.019 Z-5.000 F600.000
G2 X41.488 Y49.504 Z-5.000 I-0.543 J-0.431 K0.000 F600.000
G1 X41.488 Y48.127 Z-5.000 F600.000
G1 X42.280 Y48.127 Z-5.000 F600.000
G1 X43.909 Y49.756 Z-5.000 F600.000
G1 X43.909 Y48.127 Z-5.000 F600.000
G1 X42.280 Y48.127 Z-5.000 F600.000
G0 Z5.000
G0 X41.408 Y45.915 Z5.000
G0 X41.408 Y45.915 Z3.000
G1 X41.408 Y45.915 Z-2.000 F600.000
G1 X46.019 Y44.097 Z-2.000 F600.000
G1 X45.122 Y41.824 Z-2.000 F600.000
G3 X43.849 Y40.871 Z-2.000 I-0.286 J-0.945 K0.000 F600.000
G1 X43.849 Y35.555 Z-2.000 F600.000
G1 X41.548 Y35.555 Z-2.000 F600.000
G1 X41.548 Y37.562 Z-2.000 F600.000
G3 X40.268 Y38.522 Z-2.000 I-1.000 J-0.000 K0.000 F600.000
G1 X39.065 Y38.171 Z-2.000 F600.000
G1 X38.538 Y39.981 Z-2.000 F600.000
G1 X40.822 Y40.631 Z-2.000 F600.000
G3 X41.548 Y41.592 Z-2.000 I-0.274 J0.962 K0.000 F600.000
G1 X41.548 Y42.555 Z-2.000 F600.000
G3 X40.912 Y43.486 Z-2.000 I-1.000 J0.000 K0.000 F600.000
G1 X39.380 Y44.085 Z-2.000 F600.000
G1 X40.284 Y46.399 Z-2.000 F600.000
G3 X40.412 Y46.373 Z-2.000 I0.109 J0.212 K0.000 F600.000
G3 X40.692 Y46.197 Z-2.000 I0.450 J0.405 K0.000 F600.000
G1 X41.408 Y45.915 Z-2.000 F600.000
G1 X40.473 Y46.321 Z-2.000 F600.000
G3 X40.284 Y46.399 Z-2.000 I-0.164 J-0.130 K0.000 F600.000
G1 X40.113 Y45.960 Z-2.000 F600.000
G1 X40.473 Y46.321 Z-2.000 F600.000
G1 X40.692 Y46.197 Z-2.000 F600.000
G1 X42.475 Y45.494 Z-2.000 F600.000
G1 X40.592 Y43.611 Z-2.000 F600.000
G2 X41.519 Y42.792 Z-2.000 I-0.204 J-1.166 K0.000 F600.000
G2 X41.548 Y41.739 Z-2.000 I-4.361 J-0.646 K0.000 F600.000
G1 X44.504 Y44.694 Z-2.000 F600.000
G1 X46.019 Y44.097 Z-2.000 F600.000
G1 X45.552 Y42.915 Z-2.000 F600.000
G1 X44.403 Y41.765 Z-2.000 F600.000
G3 X43.971 Y41.333 Z-2.000 I0.405 J-0.838 K0.000 F600.000
G1 X41.057 Y38.419 Z-2.000 F600.000
G2 X41.548 Y37.562 Z-2.000 I-0.498 J-0.854 K0.000 F600.000
G1 X41.548 Y36.082 Z-2.000 F600.000
G1 X43.849 Y38.383 Z-2.000 F600.000
G1 X43.849 Y35.555 Z-2.000 F600.000
G1 X43.849 Y35.555 Z-4.000 F600.000
G1 X43.849 Y38.383 Z-4.000 F600.000
G1 X41.548 Y36.082 Z-4.000 F600.000
G1 X41.548 Y37.562 Z-4.000 F600.000
G3 X41.057 Y38.419 Z-4.000 I-0.988 J0.003 K0.000 F600.000
G1 X43.971 Y41.333 Z-4.000 F600.000
G2 X44.403 Y41.765 Z-4.000 I0.838 J-0.405 K0.000 F600.000
G1 X45.552 Y42.915 Z-4.000 F600.000
G1 X46.019 Y44.097 Z-4.000 F600.000
G1 X44.504 Y44.694 Z-4.000 F600.000
G1 X41.548 Y41.739 Z-4.000 F600.000
G3 X41.519 Y42.792 Z-4.000 I-4.390 J0.408 K0.000 F600.000
G3 X40.592 Y43.611 Z-4.000 I-1.132 J-0.347 K0.000 F600.000
G1 X42.475 Y45.494 Z-4.000 F600.000
G1 X40.692 Y46.197 Z-4.000 F600.000
G1 X40.473 Y46.321 Z-4.000 F600.000
G1 X40.113 Y45.960 Z-4.000 F600.000
G1 X40.284 Y46.399 Z-4.000 F600.000
G2 X40.473 Y46.321 Z-4.000 I0.025 J-0.208 K0.000 F600.000
G1 X40.470 Y46.317 Z-4.000 F600.000
G3 X40.692 Y46.197 Z-4.000 I0.392 J0.462 K0.000 F600.000
G1 X46.019 Y44.097 Z-4.000 F600.000
G1 X45.122 Y41.824 Z-4.000 F600.000
G3 X43.849 Y40.871 Z-4.000 I-0.286 J-0.945 K0.000 F600.000
G1 X43.849 Y35.555 Z-4.000 F600.000
G1 X41.548 Y35.555 Z-4.000 F600.000
G1 X41.548 Y37.562 Z-4.000 F600.000
G3 X40.268 Y38.522 Z-4.000 I-1.000 J-0.000 K0.000 F600.000
G1 X39.065 Y38.171 Z-4.000 F600.000
G1 X38.538 Y39.981 Z-4.000 F600.000
G1 X40.822 Y40.631 Z-4.000 F600.000
G3 X41.548 Y41.592 Z-4.000 I-0.274 J0.962 K0.000 F600.000
G1 X41.548 Y42.555 Z-4.000 F600.000
G3 X40.912 Y43.486 Z-4.000 I-1.000 J0.000 K0.000 F600.000
G1 X39.380 Y44.085 Z-4.000 F600.000
G1 X40.284 Y46.399 Z-4.000 F600.000
G3 X40.412 Y46.373 Z-4.000 I0.109 J0.212 K0.000 F600.000
G3 X40.470 Y46.317 Z-4.000 I0.450 J0.405 K0.000 F600.000
G1 X40.470 Y46.317 Z-5.000 F600.000
G3 X40.692 Y46.197 Z-5.000 I0.392 J0.462 K0.000 F600.000
G1 X46.019 Y44.097 Z-5.000 F600.000
G1 X45.122 Y41.824 Z-5.000 F600.000
G3 X43.849 Y40.871 Z-5.000 I-0.286 J-0.945 K0.000 F600.000
G1 X43.849 Y35.555 Z-5.000 F600.000
G1 X41.548 Y35.555 Z-5.000 F600.000
G1 X41.548 Y37.562 Z-5.000 F600.000
G3 X40.268 Y38.522 Z-5.000 I-1.000 J-0.000 K0.000 F600.000
G1 X39.065 Y38.171 Z-5.000 F600.000
G1 X38.538 Y39.981 Z-5.000 F600.000
G1 X40.822 Y40.631 Z-5.000 F600.000
G3 X41.548 Y41.592 Z-5.000 I-0.274 J0.962 K0.000 F600.000
G1 X41.548 Y42.555 Z-5.000 F600.000
G3 X40.912 Y43.486 Z-5.000 I-1.000 J0.000 K0.000 F600.000
G1 X39.380 Y44.085 Z-5.000 F600.000
G1 X40.284 Y46.399 Z-5.000 F600.000
G3 X40.412 Y46.373 Z-5.000 I0.109 J0.212 K0.000 F600.000
G3 X40.470 Y46.317 Z-5.000 I0.450 J0.405 K0.000 F600.000
G1 X40.473 Y46.321 Z-5.000 F600.000
G3 X40.284 Y46.399 Z-5.000 I-0.164 J-0.130 K0.000 F600.000
G1 X40.113 Y45.960 Z-5.000 F600.000
G1 X40.473 Y46.321 Z-5.000 F600.000
G1 X40.692 Y46.197 Z-5.000 F600.000
G1 X42.475 Y45.494 Z-5.000 F600.000
G1 X40.592 Y43.611 Z-5.000 F600.000
G2 X41.519 Y42.792 Z-5.000 I-0.204 J-1.166 K0.000 F600.000
G2 X41.548 Y41.739 Z-5.000 I-4.361 J-0.646 K0.000 F600.000
G1 X44.504 Y44.694 Z-5.000 F600.000
G1 X46.019 Y44.097 Z-5.000 F600.000
G1 X45.552 Y42.915 Z-5.000 F600.000
G1 X44.403 Y41.765 Z-5.000 F600.000
G3 X43.971 Y41.333 Z-5.000 I0.405 J-0.838 K0.000 F600.000
G1 X41.057 Y38.419 Z-5.000 F600.000
G2 X41.548 Y37.562 Z-5.000 I-0.498 J-0.854 K0.000 F600.000
G1 X41.548 Y36.082 Z-5.000 F600.000
G1 X43.849 Y38.383 Z-5.000 F600.000
G1 X43.849 Y35.555 Z-5.000 F600.000
G0 Z5.000
G0 X39.607 Y39.797 Z5.000
G0 X39.607 Y39.797 Z3.000
G1 X39.607 Y39.797 Z-2.000 F600.000
G1 X40.288 Y40.479 Z-2.000 F600.000
G1 X38.538 Y39.981 Z-2.000 F600.000
G1 X38.821 Y39.011 Z-2.000 F600.000
G1 X39.607 Y39.797 Z-2.000 F600.000
G1 X39.607 Y39.797 Z-4.000 F600.000
G1 X40.288 Y40.479 Z-4.000 F600.000
G1 X38.538 Y39.981 Z-4.000 F600.000
G1 X38.821 Y39.011 Z-4.000 F600.000
G1 X39.607 Y39.797 Z-4.000 F600.000
G1 X39.607 Y39.797 Z-5.000 F600.000
G1 X40.288 Y40.479 Z-5.000 F600.000
G1 X38.538 Y39.981 Z-5.000 F600.000
G1 X38.821 Y39.011 Z-5.000 F600.000
G1 X39.607 Y39.797 Z-5.000 F600.000
G0 Z5.000
G0 X44.403 Y41.765 Z5.000
G0 X44.403 Y41.765 Z3.000
G1 X44.403 Y41.765 Z-2.000 F600.000
G2 X45.122 Y41.824 Z-2.000 I0.431 J-0.842 K0.000 F600.000
G1 X45.552 Y42.915 Z-2.000 F600.000
G1 X44.403 Y41.765 Z-2.000 F600.000
G1 X44.403 Y41.765 Z-4.000 F600.000
G2 X45.122 Y41.824 Z-4.000 I0.431 J-0.842 K0.000 F600.000
G1 X45.552 Y42.915 Z-4.000 F600.000
G1 X44.403 Y41.765 Z-4.000 F600.000
G1 X44.403 Y41.765 Z-5.000 F600.000
G2 X45.122 Y41.824 Z-5.000 I0.431 J-0.842 K0.000 F600.000
G1 X45.552 Y42.915 Z-5.000 F600.000
G1 X44.403 Y41.765 Z-5.000 F600.000
G0 Z5.000
G0 X39.316 Y50.820 Z5.000
G0 X39.316 Y50.820 Z3.000
G1 X39.316 Y50.820 Z-2.000 F600.000
G1 X41.094 Y52.599 Z-2.000 F600.000
G2 X40.773 Y52.425 Z-2.000 I-0.491 J0.526 K0.000 F600.000
G1 X38.996 Y51.898 Z-2.000 F600.000
G1 X39.316 Y50.820 Z-2.000 F600.000
G1 X39.316 Y50.820 Z-4.000 F600.000
G1 X41.094 Y52.599 Z-4.000 F600.000
G2 X40.773 Y52.425 Z-4.000 I-0.491 J0.526 K0.000 F600.000
G1 X38.996 Y51.898 Z-4.000 F600.000
G1 X39.316 Y50.820 Z-4.000 F600.000
G1 X39.316 Y50.820 Z-5.000 F600.000
G1 X41.094 Y52.599 Z-5.000 F600.000
G2 X40.773 Y52.425 Z-5.000 I-0.491 J0.526 K0.000 F600.000
G1 X38.996 Y51.898 Z-5.000 F600.000
G1 X39.316 Y50.820 Z-5.000 F600.000
G0 Z5.000
G0 X34.302 Y51.463 Z5.000
G0 X34.302 Y51.463 Z3.000
G1 X34.302 Y51.463 Z-2.000 F600.000
G1 X36.482 Y53.644 Z-2.000 F600.000
G1 X36.482 Y50.815 Z-2.000 F600.000
G1 X34.237 Y48.570 Z-2.000 F600.000
G1 X34.237 Y48.570 Z-4.000 F600.000
G1 X36.482 Y50.815 Z-4.000 F600.000
G1 X36.482 Y53.644 Z-4.000 F600.000
G1 X34.302 Y51.463 Z-4.000 F600.000
G1 X34.302 Y51.463 Z-5.000 F600.000
G1 X36.482 Y53.644 Z-5.000 F600.000
G1 X36.482 Y50.815 Z-5.000 F600.000
G1 X34.237 Y48.570 Z-5.000 F600.000
G0 Z5.000
G0 X38.500 Y58.490 Z5.000
G0 X38.500 Y58.490 Z3.000
G1 X38.500 Y58.490 Z-2.000 F600.000
G1 X38.613 Y58.738 Z-2.000 F600.000
G1 X38.706 Y58.696 Z-2.000 F600.000
G1 X38.500 Y58.490 Z-2.000 F600.000
G1 X38.500 Y58.490 Z-4.000 F600.000
G1 X38.613 Y58.738 Z-4.000 F600.000
G1 X38.706 Y58.696 Z-4.000 F600.000
G1 X38.500 Y58.490 Z-4.000 F600.000
G1 X38.500 Y58.490 Z-5.000 F600.000
G1 X38.613 Y58.738 Z-5.000 F600.000
G1 X38.706 Y58.696 Z-5.000 F600.000
G1 X38.500 Y58.490 Z-5.000 F600.000
G0 Z5.000
G0 Z5.000
G0 X38.500 Y58.490
G0 X44.501 Y76.168
G0 X44.501 Y76.168 Z3.000
G1 X44.501 Y76.168 Z-2.000 F600.000
G1 X44.501 Y78.997 Z-2.000 F600.000
G1 X41.673 Y76.168 Z-2.000 F600.000
G1 X41.387 Y76.168 Z-2.000 F600.000
G1 X41.387 Y78.711 Z-2.000 F600.000
G1 X44.501 Y81.825 Z-2.000 F600.000
G1 X44.501 Y84.508 Z-2.000 F600.000
G1 X44.356 Y84.508 Z-2.000 F600.000
G1 X41.387 Y81.539 Z-2.000 F600.000
G1 X41.387 Y84.368 Z-2.000 F600.000
G1 X41.528 Y84.508 Z-2.000 F600.000
G1 X41.387 Y84.508 Z-2.000 F600.000
G1 X41.387 Y76.168 Z-2.000 F600.000
G1 X44.501 Y76.168 Z-2.000 F600.000
G1 X44.501 Y84.508 Z-2.000 F600.000
G1 X41.387 Y84.508 Z-2.000 F600.000
G1 X41.387 Y84.368 Z-2.000 F600.000
G1 X41.387 Y84.368 Z-4.000 F600.000
G1 X41.387 Y84.508 Z-4.000 F600.000
G1 X44.501 Y84.508 Z-4.000 F600.000
G1 X44.501 Y76.168 Z-4.000 F600.000
G1 X41.387 Y76.168 Z-4.000 F600.000
G1 X41.387 Y84.508 Z-4.000 F600.000
G1 X41.528 Y84.508 Z-4.000 F600.000
G1 X41.387 Y84.368 Z-4.000 F600.000
G1 X41.387 Y81.539 Z-4.000 F600.000
G1 X44.356 Y84.508 Z-4.000 F600.000
G1 X44.501 Y84.508 Z-4.000 F600.000
G1 X44.501 Y81.825 Z-4.000 F600.000
G1 X41.387 Y78.711 Z-4.000 F600.000
G1 X41.387 Y76.168 Z-4.000 F600.000
G1 X41.673 Y76.168 Z-4.000 F600.000
G1 X44.501 Y78.997 Z-4.000 F600.000
G1 X44.501 Y76.168 Z-4.000 F600.000
G1 X44.501 Y76.168 Z-5.000 F600.000
G1 X44.501 Y78.997 Z-5.000 F600.000
G1 X41.673 Y76.168 Z-5.000 F600.000
G1 X41.387 Y76.168 Z-5.000 F600.000
G1 X41.387 Y78.711 Z-5.000 F600.000
G1 X44.501 Y81.825 Z-5.000 F600.000
G1 X44.501 Y84.508 Z-5.000 F600.000
G1 X44.356 Y84.508 Z-5.000 F600.000
G1 X41.387 Y81.539 Z-5.000 F600.000
G1 X41.387 Y84.368 Z-5.000 F600.000
G1 X41.528 Y84.508 Z-5.000 F600.000
G1 X41.387 Y84.508 Z-5.000 F600.000
G1 X41.387 Y76.168 Z-5.000 F600.000
G1 X44.501 Y76.168 Z-5.000 F600.000
G1 X44.501 Y84.508 Z-5.000 F600.000
G1 X41.387 Y84.508 Z-5.000 F600.000
G1 X41.387 Y84.368 Z-5.000 F600.000
G0 Z5.000
G0 Z5.000
G0 X41.387 Y84.368
G0 X34.542 Y86.042
G0 X34.542 Y86.042 Z3.000
G1 X34.542 Y86.042 Z-2.000 F600.000
G1 X33.059 Y84.558 Z-2.000 F600.000
G1 X33.059 Y86.042 Z-2.000 F600.000
G1 X34.542 Y86.042 Z-2.000 F600.000
G1 X34.542 Y86.042 Z-4.000 F600.000
G1 X33.059 Y84.558 Z-4.000 F600.000
G1 X33.059 Y86.042 Z-4.000 F600.000
G1 X34.542 Y86.042 Z-4.000 F600.000
G1 X34.542 Y86.042 Z-5.000 F600.000
G1 X33.059 Y84.558 Z-5.000 F600.000
G1 X33.059 Y86.042 Z-5.000 F600.000
G1 X34.542 Y86.042 Z-5.000 F600.000
G0 Z5.000
G0 X26.586 Y83.742 Z5.000
G0 X26.586 Y83.742 Z3.000
G1 X26.586 Y83.742 Z-2.000 F600.000
G1 X24.675 Y81.831 Z-2.000 F600.000
G1 X27.035 Y81.363 Z-2.000 F600.000
G1 X28.945 Y83.273 Z-2.000 F600.000
G1 X31.305 Y82.805 Z-2.000 F600.000
G1 X29.395 Y80.894 Z-2.000 F600.000
G1 X31.755 Y80.426 Z-2.000 F600.000
G1 X36.292 Y84.963 Z-2.000 F600.000
G1 X36.292 Y82.135 Z-2.000 F600.000
G1 X33.059 Y78.902 Z-2.000 F600.000
G1 X33.059 Y76.073 Z-2.000 F600.000
G1 X36.292 Y79.306 Z-2.000 F600.000
G1 X36.292 Y76.478 Z-2.000 F600.000
G1 X35.253 Y75.439 Z-2.000 F600.000
G2 X36.292 Y75.353 Z-2.000 I0.328 J-2.368 K0.000 F600.000
G1 X36.292 Y76.478 Z-2.000 F600.000
G1 X36.292 Y76.478 Z-4.000 F600.000
G1 X36.292 Y75.353 Z-4.000 F600.000
G3 X35.253 Y75.439 Z-4.000 I-0.711 J-2.282 K0.000 F600.000
G1 X36.292 Y76.478 Z-4.000 F600.000
G1 X36.292 Y79.306 Z-4.000 F600.000
G1 X33.059 Y76.073 Z-4.000 F600.000
G1 X33.059 Y78.902 Z-4.000 F600.000
G1 X36.292 Y82.135 Z-4.000 F600.000
G1 X36.292 Y84.963 Z-4.000 F600.000
G1 X31.755 Y80.426 Z-4.000 F600.000
G1 X29.395 Y80.894 Z-4.000 F600.000
G1 X31.305 Y82.805 Z-4.000 F600.000
G1 X28.945 Y83.273 Z-4.000 F600.000
G1 X27.035 Y81.363 Z-4.000 F600.000
G1 X24.675 Y81.831 Z-4.000 F600.000
G1 X26.586 Y83.742 Z-4.000 F600.000
G1 X26.586 Y83.742 Z-5.000 F600.000
G1 X24.675 Y81.831 Z-5.000 F600.000
G1 X27.035 Y81.363 Z-5.000 F600.000
G1 X28.945 Y83.273 Z-5.000 F600.000
G1 X31.305 Y82.805 Z-5.000 F600.000
G1 X29.395 Y80.894 Z-5.000 F600.000
G1 X31.755 Y80.426 Z-5.000 F600.000
G1 X36.292 Y84.963 Z-5.000 F600.000
G1 X36.292 Y82.135 Z-5.000 F600.000
G1 X33.059 Y78.902 Z-5.000 F600.000
G1 X33.059 Y76.073 Z-5.000 F600.000
G1 X36.292 Y79.306 Z-5.000 F600.000
G1 X36.292 Y76.478 Z-5.000 F600.000
G1 X35.253 Y75.439 Z-5.000 F600.000
G2 X36.292 Y75.353 Z-5.000 I0.328 J-2.368 K0.000 F600.000
G1 X36.292 Y76.478 Z-5.000 F600.000
G0 Z5.000
G0 X27.509 Y76.180 Z5.000
G0 X27.509 Y76.180 Z3.000
G1 X27.509 Y76.180 Z-2.000 F600.000
G1 X28.925 Y76.463 Z-2.000 F600.000
G1 X28.735 Y77.406 Z-2.000 F600.000
G1 X27.509 Y76.180 Z-2.000 F600.000
G1 X23.973 Y75.473 Z-2.000 F600.000
G1 X26.663 Y78.162 Z-2.000 F600.000
G1 X24.673 Y77.764 Z-2.000 F600.000
G2 X23.742 Y78.070 Z-2.000 I-0.197 J0.971 K0.000 F600.000
G1 X20.309 Y74.637 Z-2.000 F600.000
G3 X20.072 Y74.400 Z-2.000 I0.323 J-0.560 K0.000 F600.000
G1 X18.197 Y72.525 Z-2.000 F600.000
G1 X18.230 Y73.064 Z-2.000 F600.000
G3 X18.930 Y74.215 Z-2.000 I-0.266 J0.950 K0.000 F600.000
G1 X18.617 Y75.773 Z-2.000 F600.000
G1 X19.633 Y76.789 Z-2.000 F600.000
G1 X19.412 Y76.713 Z-2.000 F600.000
G1 X18.466 Y76.521 Z-2.000 F600.000
G1 X18.617 Y75.773 Z-2.000 F600.000
G1 X18.617 Y75.773 Z-4.000 F600.000
G1 X18.466 Y76.521 Z-4.000 F600.000
G1 X19.412 Y76.713 Z-4.000 F600.000
G1 X19.633 Y76.789 Z-4.000 F600.000
G1 X18.617 Y75.773 Z-4.000 F600.000
G1 X18.930 Y74.215 Z-4.000 F600.000
G2 X18.230 Y73.064 Z-4.000 I-0.966 J-0.200 K0.000 F600.000
G1 X18.197 Y72.525 Z-4.000 F600.000
G1 X20.072 Y74.400 Z-4.000 F600.000
G2 X20.309 Y74.637 Z-4.000 I0.560 J-0.323 K0.000 F600.000
G1 X23.742 Y78.070 Z-4.000 F600.000
G3 X24.673 Y77.764 Z-4.000 I0.734 J0.666 K0.000 F600.000
G1 X26.663 Y78.162 Z-4.000 F600.000
G1 X23.973 Y75.473 Z-4.000 F600.000
G1 X27.509 Y76.180 Z-4.000 F600.000
G1 X28.735 Y77.406 Z-4.000 F600.000
G1 X28.925 Y76.463 Z-4.000 F600.000
G1 X27.509 Y76.180 Z-4.000 F600.000
G1 X27.509 Y76.180 Z-5.000 F600.000
G1 X28.925 Y76.463 Z-5.000 F600.000
G1 X28.735 Y77.406 Z-5.000 F600.000
G1 X27.509 Y76.180 Z-5.000 F600.000
G1 X23.973 Y75.473 Z-5.000 F600.000
G1 X26.663 Y78.162 Z-5.000 F600.000
G1 X24.673 Y77.764 Z-5.000 F600.000
G2 X23.742 Y78.070 Z-5.000 I-0.197 J0.971 K0.000 F600.000
G1 X20.309 Y74.637 Z-5.000 F600.000
G3 X20.072 Y74.400 Z-5.000 I0.323 J-0.560 K0.000 F600.000
G1 X18.197 Y72.525 Z-5.000 F600.000
G1 X18.230 Y73.064 Z-5.000 F600.000
G3 X18.930 Y74.215 Z-5.000 I-0.266 J0.950 K0.000 F600.000
G1 X18.617 Y75.773 Z-5.000 F600.000
G1 X19.633 Y76.789 Z-5.000 F600.000
G1 X19.412 Y76.713 Z-5.000 F600.000
G1 X18.466 Y76.521 Z-5.000 F600.000
G1 X18.617 Y75.773 Z-5.000 F600.000
G0 Z5.000
G0 X20.106 Y77.262 Z5.000
G0 X20.106 Y77.262 Z3.000
G1 X20.106 Y77.262 Z-2.000 F600.000
G1 X23.138 Y80.294 Z-2.000 F600.000
G2 X23.029 Y81.019 Z-2.000 I2.508 J0.748 K0.000 F600.000
G2 X24.220 Y81.922 Z-2.000 I0.997 J-0.079 K0.000 F600.000
G1 X24.675 Y81.831 Z-2.000 F600.000
G1 X26.586 Y83.742 Z-2.000 F600.000
G1 X24.226 Y84.210 Z-2.000 F600.000
G1 X19.808 Y79.793 Z-2.000 F600.000
G1 X19.332 Y82.145 Z-2.000 F600.000
G1 X22.216 Y85.029 Z-2.000 F600.000
G2 X22.072 Y85.596 Z-2.000 I2.334 J0.892 K0.000 F600.000
G1 X19.425 Y85.066 Z-2.000 F600.000
G1 X18.856 Y84.498 Z-2.000 F600.000
G1 X18.768 Y84.935 Z-2.000 F600.000
G1 X19.425 Y85.066 Z-2.000 F600.000
G1 X18.768 Y84.935 Z-2.000 F600.000
G1 X20.193 Y77.892 Z-2.000 F600.000
G2 X19.412 Y76.713 Z-2.000 I-0.980 J-0.198 K0.000 F600.000
G1 X18.466 Y76.521 Z-2.000 F600.000
G1 X18.930 Y74.215 Z-2.000 F600.000
G2 X18.230 Y73.064 Z-2.000 I-0.966 J-0.200 K0.000 F600.000
G1 X18.106 Y71.017 Z-2.000 F600.000
G1 X35.968 Y69.963 Z-2.000 F600.000
G2 X36.909 Y68.964 Z-2.000 I-0.059 J-0.998 K0.000 F600.000
G1 X36.909 Y66.837 Z-2.000 F600.000
G2 X35.909 Y65.837 Z-2.000 I-1.000 J0.000 K0.000 F600.000
G1 X22.401 Y65.837 Z-2.000 F600.000
G2 X21.401 Y67.100 Z-2.000 I0.029 J1.050 K0.000 F600.000
G1 X17.927 Y67.100 Z-2.000 F600.000
G1 X17.927 Y63.595 Z-2.000 F600.000
G1 X40.380 Y63.595 Z-2.000 F600.000
G1 X40.380 Y68.639 Z-2.000 F600.000
G2 X41.439 Y69.638 Z-2.000 I1.000 J0.000 K0.000 F600.000
G1 X45.562 Y69.396 Z-2.000 F600.000
G1 X45.666 Y71.362 Z-2.000 F600.000
G1 X41.324 Y71.606 Z-2.000 F600.000
G2 X40.380 Y72.605 Z-2.000 I0.056 J0.998 K0.000 F600.000
G1 X40.380 Y73.717 Z-2.000 F600.000
G1 X37.292 Y73.717 Z-2.000 F600.000
G2 X36.909 Y73.802 Z-2.000 I-0.032 J0.758 K0.000 F600.000
G2 X36.872 Y72.666 Z-2.000 I-4.173 J-0.434 K0.000 F600.000
G2 X35.849 Y71.937 Z-2.000 I-0.963 J0.268 K0.000 F600.000
G1 X20.837 Y72.839 Z-2.000 F600.000
G2 X20.701 Y74.818 Z-2.000 I0.060 J0.998 K0.000 F600.000
G1 X28.925 Y76.463 Z-2.000 F600.000
G1 X28.508 Y78.531 Z-2.000 F600.000
G1 X24.673 Y77.764 Z-2.000 F600.000
G2 X23.497 Y78.543 Z-2.000 I-0.196 J0.981 K0.000 F600.000
G1 X23.046 Y80.740 Z-2.000 F600.000
G2 X24.220 Y81.922 Z-2.000 I0.980 J0.201 K0.000 F600.000
G1 X32.254 Y80.327 Z-2.000 F600.000
G2 X33.059 Y79.346 Z-2.000 I-0.195 J-0.981 K0.000 F600.000
G1 X33.059 Y75.439 Z-2.000 F600.000
G1 X35.909 Y75.439 Z-2.000 F600.000
G2 X36.292 Y75.353 Z-2.000 I0.032 J-0.758 K0.000 F600.000
G1 X36.292 Y86.042 Z-2.000 F600.000
G1 X33.059 Y86.042 Z-2.000 F600.000
G1 X33.059 Y83.675 Z-2.000 F600.000
G2 X31.864 Y82.694 Z-2.000 I-1.000 J0.000 K0.000 F600.000
G1 X22.928 Y84.468 Z-2.000 F600.000
G2 X22.143 Y85.249 Z-2.000 I0.195 J0.981 K0.000 F600.000
G1 X22.072 Y85.596 Z-2.000 F600.000
G1 X19.425 Y85.066 Z-2.000 F600.000
G1 X19.425 Y85.066 Z-4.000 F600.000
G1 X22.072 Y85.596 Z-4.000 F600.000
G1 X22.143 Y85.249 Z-4.000 F600.000
G3 X22.928 Y84.468 Z-4.000 I0.980 J0.200 K0.000 F600.000
G1 X31.864 Y82.694 Z-4.000 F600.000
G3 X33.059 Y83.675 Z-4.000 I0.195 J0.981 K0.000 F600.000
G1 X33.059 Y86.042 Z-4.000 F600.000
G1 X36.292 Y86.042 Z-4.000 F600.000
G1 X36.292 Y75.353 Z-4.000 F600.000
G3 X35.909 Y75.439 Z-4.000 I-0.352 J-0.673 K0.000 F600.000
G1 X33.059 Y75.439 Z-4.000 F600.000
G1 X33.059 Y79.346 Z-4.000 F600.000
G3 X32.254 Y80.327 Z-4.000 I-1.000 J-0.000 K0.000 F600.000
G1 X24.220 Y81.922 Z-4.000 F600.000
G3 X23.046 Y80.740 Z-4.000 I-0.195 J-0.981 K0.000 F600.000
G1 X23.497 Y78.543 Z-4.000 F600.000
G3 X24.673 Y77.764 Z-4.000 I0.980 J0.201 K0.000 F600.000
G1 X28.508 Y78.531 Z-4.000 F600.000
G1 X28.925 Y76.463 Z-4.000 F600.000
G1 X20.701 Y74.818 Z-4.000 F600.000
G3 X20.837 Y72.839 Z-4.000 I0.196 J-0.981 K0.000 F600.000
G1 X35.849 Y71.937 Z-4.000 F600.000
G3 X36.872 Y72.666 Z-4.000 I0.060 J0.998 K0.000 F600.000
G3 X36.909 Y73.802 Z-4.000 I-4.136 J0.702 K0.000 F600.000
G3 X37.292 Y73.717 Z-4.000 I0.352 J0.673 K0.000 F600.000
G1 X40.380 Y73.717 Z-4.000 F600.000
G1 X40.380 Y72.605 Z-4.000 F600.000
G3 X41.324 Y71.606 Z-4.000 I1.000 J-0.000 K0.000 F600.000
G1 X45.666 Y71.362 Z-4.000 F600.000
G1 X45.562 Y69.396 Z-4.000 F600.000
G1 X41.439 Y69.638 Z-4.000 F600.000
G3 X40.380 Y68.639 Z-4.000 I-0.059 J-0.998 K0.000 F600.000
G1 X40.380 Y63.595 Z-4.000 F600.000
G1 X17.927 Y63.595 Z-4.000 F600.000
G1 X17.927 Y67.100 Z-4.000 F600.000
G1 X21.401 Y67.100 Z-4.000 F600.000
G3 X22.401 Y65.837 Z-4.000 I1.029 J-0.213 K0.000 F600.000
G1 X35.909 Y65.837 Z-4.000 F600.000
G3 X36.909 Y66.837 Z-4.000 I-0.000 J1.000 K0.000 F600.000
G1 X36.909 Y68.964 Z-4.000 F600.000
G3 X35.968 Y69.963 Z-4.000 I-1.000 J-0.000 K0.000 F600.000
G1 X18.106 Y71.017 Z-4.000 F600.000
G1 X18.230 Y73.064 Z-4.000 F600.000
G3 X18.930 Y74.215 Z-4.000 I-0.266 J0.950 K0.000 F600.000
G1 X18.466 Y76.521 Z-4.000 F600.000
G1 X19.412 Y76.713 Z-4.000 F600.000
G3 X20.193 Y77.892 Z-4.000 I-0.199 J0.980 K0.000 F600.000
G1 X18.768 Y84.935 Z-4.000 F600.000
G1 X19.425 Y85.066 Z-4.000 F600.000
G1 X18.768 Y84.935 Z-4.000 F600.000
G1 X18.856 Y84.498 Z-4.000 F600.000
G1 X19.425 Y85.066 Z-4.000 F600.000
G1 X22.072 Y85.596 Z-4.000 F600.000
G3 X22.216 Y85.029 Z-4.000 I2.477 J0.325 K0.000 F600.000
G1 X19.332 Y82.145 Z-4.000 F600.000
G1 X19.808 Y79.793 Z-4.000 F600.000
G1 X24.226 Y84.210 Z-4.000 F600.000
G1 X26.586 Y83.742 Z-4.000 F600.000
G1 X24.675 Y81.831 Z-4.000 F600.000
G1 X24.220 Y81.922 Z-4.000 F600.000
G3 X23.029 Y81.019 Z-4.000 I-0.195 J-0.981 K0.000 F600.000
G3 X23.138 Y80.294 Z-4.000 I2.617 J0.022 K0.000 F600.000
G1 X20.106 Y77.262 Z-4.000 F600.000
G1 X20.106 Y77.262 Z-5.000 F600.000
G1 X23.138 Y80.294 Z-5.000 F600.000
G2 X23.029 Y81.019 Z-5.000 I2.508 J0.748 K0.000 F600.000
G2 X24.220 Y81.922 Z-5.000 I0.997 J-0.079 K0.000 F600.000
G1 X24.675 Y81.831 Z-5.000 F600.000
G1 X26.586 Y83.742 Z-5.000 F600.000
G1 X24.226 Y84.210 Z-5.000 F600.000
G1 X19.808 Y79.793 Z-5.000 F600.000
G1 X19.332 Y82.145 Z-5.000 F600.000
G1 X22.216 Y85.029 Z-5.000 F600.000
G2 X22.072 Y85.596 Z-5.000 I2.334 J0.892 K0.000 F600.000
G1 X19.425 Y85.066 Z-5.000 F600.000
G1 X18.856 Y84.498 Z-5.000 F600.000
G1 X18.768 Y84.935 Z-5.000 F600.000
G1 X19.425 Y85.066 Z-5.000 F600.000
G1 X18.768 Y84.935 Z-5.000 F600.000
G1 X20.193 Y77.892 Z-5.000 F600.000
G2 X19.412 Y76.713 Z-5.000 I-0.980 J-0.198 K0.000 F600.000
G1 X18.466 Y76.521 Z-5.000 F600.000
G1 X18.930 Y74.215 Z-5.000 F600.000
G2 X18.230 Y73.064 Z-5.000 I-0.966 J-0.200 K0.000 F600.000
G1 X18.106 Y71.017 Z-5.000 F600.000
G1 X35.968 Y69.963 Z-5.000 F600.000
G2 X36.909 Y68.964 Z-5.000 I-0.059 J-0.998 K0.000 F600.000
G1 X36.909 Y66.837 Z-5.000 F600.000
G2 X35.909 Y65.837 Z-5.000 I-1.000 J0.000 K0.000 F600.000
G1 X22.401 Y65.837 Z-5.000 F600.000
G2 X21.401 Y67.100 Z-5.000 I0.029 J1.050 K0.000 F600.000
G1 X17.927 Y67.100 Z-5.000 F600.000
G1 X17.927 Y63.595 Z-5.000 F600.000
G1 X40.380 Y63.595 Z-5.000 F600.000
G1 X40.380 Y68.639 Z-5.000 F600.000
G2 X41.439 Y69.638 Z-5.000 I1.000 J0.000 K0.000 F600.000
G1 X45.562 Y69.396 Z-5.000 F600.000
G1 X45.666 Y71.362 Z-5.000 F600.000
G1 X41.324 Y71.606 Z-5.000 F600.000
G2 X40.380 Y72.605 Z-5.000 I0.056 J0.998 K0.000 F600.000
G1 X40.380 Y73.717 Z-5.000 F600.000
G1 X37.292 Y73.717 Z-5.000 F600.000
G2 X36.909 Y73.802 Z-5.000 I-0.032 J0.758 K0.000 F600.000
G2 X36.872 Y72.666 Z-5.000 I-4.173 J-0.434 K0.000 F600.000
G2 X35.849 Y71.937 Z-5.000 I-0.963 J0.268 K0.000 F600.000
G1 X20.837 Y72.839 Z-5.000 F600.000
G2 X20.701 Y74.818 Z-5.000 I0.060 J0.998 K0.000 F600.000
G1 X28.925 Y76.463 Z-5.000 F600.000
G1 X28.508 Y78.531 Z-5.000 F600.000
G1 X24.673 Y77.764 Z-5.000 F600.000
G2 X23.497 Y78.543 Z-5.000 I-0.196 J0.981 K0.000 F600.000
G1 X23.046 Y80.740 Z-5.000 F600.000
G2 X24.220 Y81.922 Z-5.000 I0.980 J0.201 K0.000 F600.000
G1 X32.254 Y80.327 Z-5.000 F600.000
G2 X33.059 Y79.346 Z-5.000 I-0.195 J-0.981 K0.000 F600.000
G1 X33.059 Y75.439 Z-5.000 F600.000
G1 X35.909 Y75.439 Z-5.000 F600.000
G2 X36.292 Y75.353 Z-5.000 I0.032 J-0.758 K0.000 F600.000
G1 X36.292 Y86.042 Z-5.000 F600.000
G1 X33.059 Y86.042 Z-5.000 F600.000
G1 X33.059 Y83.675 Z-5.000 F600.000
G2 X31.864 Y82.694 Z-5.000 I-1.000 J0.000 K0.000 F600.000
G1 X22.928 Y84.468 Z-5.000 F600.000
G2 X22.143 Y85.249 Z-5.000 I0.195 J0.981 K0.000 F600.000
G1 X22.072 Y85.596 Z-5.000 F600.000
G1 X19.425 Y85.066 Z-5.000 F600.000
G0 Z5.000
G0 X18.197 Y72.525 Z5.000
G0 X18.197 Y72.525 Z3.000
G1 X18.197 Y72.525 Z-2.000 F600.000
G1 X20.072 Y74.400 Z-2.000 F600.000
G3 X20.580 Y72.889 Z-2.000 I0.823 J-0.564 K0.000 F600.000
G3 X21.311 Y72.811 Z-2.000 I0.662 J2.733 K0.000 F600.000
G1 X19.439 Y70.938 Z-2.000 F600.000
G1 X22.110 Y70.781 Z-2.000 F600.000
G1 X23.979 Y72.650 Z-2.000 F600.000
G1 X26.647 Y72.490 Z-2.000 F600.000
G1 X24.780 Y70.623 Z-2.000 F600.000
G1 X27.451 Y70.465 Z-2.000 F600.000
G1 X29.315 Y72.329 Z-2.000 F600.000
G1 X31.983 Y72.169 Z-2.000 F600.000
G1 X30.122 Y70.308 Z-2.000 F600.000
G1 X32.793 Y70.150 Z-2.000 F600.000
G1 X34.651 Y72.009 Z-2.000 F600.000
G1 X35.849 Y71.937 Z-2.000 F600.000
G3 X36.872 Y72.666 Z-2.000 I0.060 J0.998 K0.000 F600.000
G3 X36.909 Y73.802 Z-2.000 I-4.136 J0.702 K0.000 F600.000
G3 X37.292 Y73.717 Z-2.000 I0.352 J0.673 K0.000 F600.000
G1 X39.188 Y73.717 Z-2.000 F600.000
G1 X35.464 Y69.992 Z-2.000 F600.000
G1 X35.968 Y69.963 Z-2.000 F600.000
G2 X36.637 Y69.650 Z-2.000 I-0.059 J-0.998 K0.000 F600.000
G2 X36.909 Y68.609 Z-2.000 I-0.937 J-0.801 K0.000 F600.000
G1 X40.481 Y72.181 Z-2.000 F600.000
G3 X41.324 Y71.606 Z-2.000 I0.884 J0.390 K0.000 F600.000
G1 X42.659 Y71.531 Z-2.000 F600.000
G1 X34.723 Y63.595 Z-2.000 F600.000
G1 X37.552 Y63.595 Z-2.000 F600.000
G1 X40.380 Y66.424 Z-2.000 F600.000
G1 X40.380 Y68.639 Z-2.000 F600.000
G2 X41.439 Y69.638 Z-2.000 I1.000 J0.000 K0.000 F600.000
G1 X43.475 Y69.518 Z-2.000 F600.000
G1 X45.337 Y71.380 Z-2.000 F600.000
G1 X45.666 Y71.362 Z-2.000 F600.000
G1 X45.562 Y69.396 Z-2.000 F600.000
G1 X43.475 Y69.518 Z-2.000 F600.000
G1 X43.475 Y69.518 Z-4.000 F600.000
G1 X45.562 Y69.396 Z-4.000 F600.000
G1 X45.666 Y71.362 Z-4.000 F600.000
G1 X45.337 Y71.380 Z-4.000 F600.000
G1 X43.475 Y69.518 Z-4.000 F600.000
G1 X41.439 Y69.638 Z-4.000 F600.000
G3 X40.380 Y68.639 Z-4.000 I-0.059 J-0.998 K0.000 F600.000
G1 X40.380 Y66.424 Z-4.000 F600.000
G1 X37.552 Y63.595 Z-4.000 F600.000
G1 X34.723 Y63.595 Z-4.000 F600.000
G1 X42.659 Y71.531 Z-4.000 F600.000
G1 X41.324 Y71.606 Z-4.000 F600.000
G2 X40.481 Y72.181 Z-4.000 I0.041 J0.965 K0.000 F600.000
G1 X36.909 Y68.609 Z-4.000 F600.000
G3 X36.637 Y69.650 Z-4.000 I-1.209 J0.240 K0.000 F600.000
G3 X35.968 Y69.963 Z-4.000 I-0.728 J-0.686 K0.000 F600.000
G1 X35.464 Y69.992 Z-4.000 F600.000
G1 X39.188 Y73.717 Z-4.000 F600.000
G1 X37.292 Y73.717 Z-4.000 F600.000
G2 X36.909 Y73.802 Z-4.000 I-0.032 J0.758 K0.000 F600.000
G2 X36.872 Y72.666 Z-4.000 I-4.173 J-0.434 K0.000 F600.000
G2 X35.849 Y71.937 Z-4.000 I-0.963 J0.268 K0.000 F600.000
G1 X34.651 Y72.009 Z-4.000 F600.000
G1 X32.793 Y70.150 Z-4.000 F600.000
G1 X30.122 Y70.308 Z-4.000 F600.000
G1 X31.983 Y72.169 Z-4.000 F600.000
G1 X29.315 Y72.329 Z-4.000 F600.000
G1 X27.451 Y70.465 Z-4.000 F600.000
G1 X24.780 Y70.623 Z-4.000 F600.000
G1 X26.647 Y72.490 Z-4.000 F600.000
G1 X23.979 Y72.650 Z-4.000 F600.000
G1 X22.110 Y70.781 Z-4.000 F600.000
G1 X19.439 Y70.938 Z-4.000 F600.000
G1 X21.311 Y72.811 Z-4.000 F600.000
G2 X20.580 Y72.889 Z-4.000 I-0.069 J2.811 K0.000 F600.000
G2 X20.072 Y74.400 Z-4.000 I0.315 J0.947 K0.000 F600.000
G1 X18.197 Y72.525 Z-4.000 F600.000
G1 X18.197 Y72.525 Z-5.000 F600.000
G1 X20.072 Y74.400 Z-5.000 F600.000
G3 X20.580 Y72.889 Z-5.000 I0.823 J-0.564 K0.000 F600.000
G3 X21.311 Y72.811 Z-5.000 I0.662 J2.733 K0.000 F600.000
G1 X19.439 Y70.938 Z-5.000 F600.000
G1 X22.110 Y70.781 Z-5.000 F600.000
G1 X23.979 Y72.650 Z-5.000 F600.000
G1 X26.647 Y72.490 Z-5.000 F600.000
G1 X24.780 Y70.623 Z-5.000 F600.000
G1 X27.451 Y70.465 Z-5.000 F600.000
G1 X29.315 Y72.329 Z-5.000 F600.000
G1 X31.983 Y72.169 Z-5.000 F600.000
G1 X30.122 Y70.308 Z-5.000 F600.000
G1 X32.793 Y70.150 Z-5.000 F600.000
G1 X34.651 Y72.009 Z-5.000 F600.000
G1 X35.849 Y71.937 Z-5.000 F600.000
G3 X36.872 Y72.666 Z-5.000 I0.060 J0.998 K0.000 F600.000
G3 X36.909 Y73.802 Z-5.000 I-4.136 J0.702 K0.000 F600.000
G3 X37.292 Y73.717 Z-5.000 I0.352 J0.673 K0.000 F600.000
G1 X39.188 Y73.717 Z-5.000 F600.000
G1 X35.464 Y69.992 Z-5.000 F600.000
G1 X35.968 Y69.963 Z-5.000 F600.000
G2 X36.637 Y69.650 Z-5.000 I-0.059 J-0.998 K0.000 F600.000
G2 X36.909 Y68.609 Z-5.000 I-0.937 J-0.801 K0.000 F600.000
G1 X40.481 Y72.181 Z-5.000 F600.000
G3 X41.324 Y71.606 Z-5.000 I0.884 J0.390 K0.000 F600.000
G1 X42.659 Y71.531 Z-5.000 F600.000
G1 X34.723 Y63.595 Z-5.000 F600.000
G1 X37.552 Y63.595 Z-5.000 F600.000
G1 X40.380 Y66.424 Z-5.000 F600.000
G1 X40.380 Y68.639 Z-5.000 F600.000
G2 X41.439 Y69.638 Z-5.000 I1.000 J0.000 K0.000 F600.000
G1 X43.475 Y69.518 Z-5.000 F600.000
G1 X45.337 Y71.380 Z-5.000 F600.000
G1 X45.666 Y71.362 Z-5.000 F600.000
G1 X45.562 Y69.396 Z-5.000 F600.000
G1 X43.475 Y69.518 Z-5.000 F600.000
G0 Z5.000
G0 X40.380 Y63.595 Z5.000
G0 X40.380 Y63.595 Z3.000
G1 X40.380 Y63.595 Z-2.000 F600.000
G1 X40.380 Y66.424 Z-2.000 F600.000
G1 X37.552 Y63.595 Z-2.000 F600.000
G1 X37.552 Y63.595 Z-4.000 F600.000
G1 X40.380 Y66.424 Z-4.000 F600.000
G1 X40.380 Y63.595 Z-4.000 F600.000
G1 X40.380 Y63.595 Z-5.000 F600.000
G1 X40.380 Y66.424 Z-5.000 F600.000
G1 X37.552 Y63.595 Z-5.000 F600.000
G0 Z5.000
G0 X34.136 Y65.837 Z5.000
G0 X34.136 Y65.837 Z3.000
G1 X34.136 Y65.837 Z-2.000 F600.000
G1 X31.895 Y63.595 Z-2.000 F600.000
G1 X29.067 Y63.595 Z-2.000 F600.000
G1 X31.308 Y65.837 Z-2.000 F600.000
G1 X28.480 Y65.837 Z-2.000 F600.000
G1 X26.238 Y63.595 Z-2.000 F600.000
G1 X23.410 Y63.595 Z-2.000 F600.000
G1 X25.651 Y65.837 Z-2.000 F600.000
G1 X22.823 Y65.837 Z-2.000 F600.000
G1 X20.581 Y63.595 Z-2.000 F600.000
G1 X17.927 Y63.595 Z-2.000 F600.000
G1 X17.927 Y63.769 Z-2.000 F600.000
G1 X21.257 Y67.100 Z-2.000 F600.000
G1 X18.429 Y67.100 Z-2.000 F600.000
G1 X17.927 Y66.598 Z-2.000 F600.000
G1 X17.927 Y67.100 Z-2.000 F600.000
G1 X18.429 Y67.100 Z-2.000 F600.000
G1 X18.429 Y67.100 Z-4.000 F600.000
G1 X17.927 Y67.100 Z-4.000 F600.000
G1 X17.927 Y66.598 Z-4.000 F600.000
G1 X18.429 Y67.100 Z-4.000 F600.000
G1 X21.257 Y67.100 Z-4.000 F600.000
G1 X17.927 Y63.769 Z-4.000 F600.000
G1 X17.927 Y63.595 Z-4.000 F600.000
G1 X20.581 Y63.595 Z-4.000 F600.000
G1 X22.823 Y65.837 Z-4.000 F600.000
G1 X25.651 Y65.837 Z-4.000 F600.000
G1 X23.410 Y63.595 Z-4.000 F600.000
G1 X26.238 Y63.595 Z-4.000 F600.000
G1 X28.480 Y65.837 Z-4.000 F600.000
G1 X31.308 Y65.837 Z-4.000 F600.000
G1 X29.067 Y63.595 Z-4.000 F600.000
G1 X31.895 Y63.595 Z-4.000 F600.000
G1 X34.136 Y65.837 Z-4.000 F600.000
G1 X34.136 Y65.837 Z-5.000 F600.000
G1 X31.895 Y63.595 Z-5.000 F600.000
G1 X29.067 Y63.595 Z-5.000 F600.000
G1 X31.308 Y65.837 Z-5.000 F600.000
G1 X28.480 Y65.837 Z-5.000 F600.000
G1 X26.238 Y63.595 Z-5.000 F600.000
G1 X23.410 Y63.595 Z-5.000 F600.000
G1 X25.651 Y65.837 Z-5.000 F600.000
G1 X22.823 Y65.837 Z-5.000 F600.000
G1 X20.581 Y63.595 Z-5.000 F600.000
G1 X17.927 Y63.595 Z-5.000 F600.000
G1 X17.927 Y63.769 Z-5.000 F600.000
G1 X21.257 Y67.100 Z-5.000 F600.000
G1 X18.429 Y67.100 Z-5.000 F600.000
G1 X17.927 Y66.598 Z-5.000 F600.000
G1 X17.927 Y67.100 Z-5.000 F600.000
G1 X18.429 Y67.100 Z-5.000 F600.000
G0 Z5.000
G0 Z5.000
G0 X18.429 Y67.100
G0 X25.562 Y91.897
G0 X25.562 Y91.897 Z3.000
G1 X25.562 Y91.897 Z-2.000 F600.000
G1 X29.607 Y95.942 Z-2.000 F600.000
G1 X29.607 Y93.114 Z-2.000 F600.000
G1 X28.390 Y91.897 Z-2.000 F600.000
G1 X29.607 Y91.897 Z-2.000 F600.000
G1 X29.607 Y93.114 Z-2.000 F600.000
G1 X29.607 Y93.114 Z-4.000 F600.000
G1 X29.607 Y91.897 Z-4.000 F600.000
G1 X28.390 Y91.897 Z-4.000 F600.000
G1 X29.607 Y93.114 Z-4.000 F600.000
G1 X29.607 Y95.942 Z-4.000 F600.000
G1 X25.562 Y91.897 Z-4.000 F600.000
G1 X25.562 Y91.897 Z-5.000 F600.000
G1 X29.607 Y95.942 Z-5.000 F600.000
G1 X29.607 Y93.114 Z-5.000 F600.000
G1 X28.390 Y91.897 Z-5.000 F600.000
G1 X29.607 Y91.897 Z-5.000 F600.000
G1 X29.607 Y93.114 Z-5.000 F600.000
G0 Z5.000
G0 X26.677 Y94.915 Z5.000
G0 X26.677 Y94.915 Z3.000
G1 X26.677 Y94.915 Z-2.000 F600.000
G3 X26.825 Y95.439 Z-2.000 I-0.852 J0.524 K0.000 F600.000
G1 X26.825 Y101.604 Z-2.000 F600.000
G3 X25.825 Y102.604 Z-2.000 I-1.000 J-0.000 K0.000 F600.000
G1 X22.692 Y102.604 Z-2.000 F600.000
G3 X21.692 Y101.604 Z-2.000 I0.000 J-1.000 K0.000 F600.000
G1 X21.692 Y95.439 Z-2.000 F600.000
G3 X22.692 Y94.439 Z-2.000 I1.000 J0.000 K0.000 F600.000
G1 X25.825 Y94.439 Z-2.000 F600.000
G3 X26.677 Y94.915 Z-2.000 I-0.000 J1.000 K0.000 F600.000
G1 X26.825 Y95.988 Z-2.000 F600.000
G1 X30.600 Y99.763 Z-2.000 F600.000
G2 X29.607 Y100.762 Z-2.000 I0.006 J0.998 K0.000 F600.000
G1 X29.607 Y101.599 Z-2.000 F600.000
G1 X26.825 Y98.817 Z-2.000 F600.000
G1 X26.825 Y101.604 Z-2.000 F600.000
G1 X26.820 Y101.641 Z-2.000 F600.000
G1 X29.607 Y104.427 Z-2.000 F600.000
G1 X29.607 Y105.026 Z-2.000 F600.000
G1 X27.377 Y105.026 Z-2.000 F600.000
G1 X24.955 Y102.604 Z-2.000 F600.000
G1 X22.692 Y102.604 Z-2.000 F600.000
G3 X21.692 Y101.604 Z-2.000 I0.000 J-1.000 K0.000 F600.000
G1 X21.692 Y99.341 Z-2.000 F600.000
G1 X18.459 Y96.107 Z-2.000 F600.000
G1 X18.459 Y98.936 Z-2.000 F600.000
G1 X24.549 Y105.026 Z-2.000 F600.000
G1 X21.720 Y105.026 Z-2.000 F600.000
G1 X18.459 Y101.764 Z-2.000 F600.000
G1 X18.459 Y104.593 Z-2.000 F600.000
G1 X18.892 Y105.026 Z-2.000 F600.000
G1 X18.459 Y105.026 Z-2.000 F600.000
G1 X18.459 Y91.897 Z-2.000 F600.000
G1 X29.607 Y91.897 Z-2.000 F600.000
G1 X29.607 Y96.130 Z-2.000 F600.000
G2 X30.607 Y97.130 Z-2.000 I1.000 J-0.000 K0.000 F600.000
G1 X33.026 Y97.130 Z-2.000 F600.000
G2 X34.026 Y96.130 Z-2.000 I-0.000 J-1.000 K0.000 F600.000
G1 X34.026 Y90.603 Z-2.000 F600.000
G1 X34.026 Y90.603 Z-2.000 F600.000
G1 X37.170 Y90.603 Z-2.000 F600.000
G1 X37.170 Y96.130 Z-2.000 F600.000
G2 X38.170 Y97.130 Z-2.000 I1.000 J0.000 K0.000 F600.000
G1 X41.028 Y97.130 Z-2.000 F600.000
G2 X42.023 Y96.228 Z-2.000 I0.000 J-1.000 K0.000 F600.000
G1 X42.466 Y91.746 Z-2.000 F600.000
G1 X45.501 Y92.037 Z-2.000 F600.000
G1 X44.248 Y105.146 Z-2.000 F600.000
G1 X41.210 Y104.855 Z-2.000 F600.000
G1 X41.572 Y100.852 Z-2.000 F600.000
G2 X40.576 Y99.762 Z-2.000 I-0.996 J-0.090 K0.000 F600.000
G1 X38.170 Y99.762 Z-2.000 F600.000
G2 X37.170 Y100.762 Z-2.000 I0.000 J1.000 K0.000 F600.000
G1 X37.170 Y105.898 Z-2.000 F600.000
G1 X34.026 Y105.898 Z-2.000 F600.000
G1 X34.026 Y100.762 Z-2.000 F600.000
G2 X33.026 Y99.762 Z-2.000 I-1.000 J0.000 K0.000 F600.000
G1 X30.607 Y99.762 Z-2.000 F600.000
G2 X29.607 Y100.762 Z-2.000 I0.000 J1.000 K0.000 F600.000
G1 X29.607 Y105.026 Z-2.000 F600.000
G1 X18.459 Y105.026 Z-2.000 F600.000
G1 X18.459 Y104.593 Z-2.000 F600.000
G1 X18.459 Y104.593 Z-4.000 F600.000
G1 X18.459 Y105.026 Z-4.000 F600.000
G1 X29.607 Y105.026 Z-4.000 F600.000
G1 X29.607 Y100.762 Z-4.000 F600.000
G3 X30.607 Y99.762 Z-4.000 I1.000 J0.000 K0.000 F600.000
G1 X33.026 Y99.762 Z-4.000 F600.000
G3 X34.026 Y100.762 Z-4.000 I-0.000 J1.000 K0.000 F600.000
G1 X34.026 Y105.898 Z-4.000 F600.000
G1 X37.170 Y105.898 Z-4.000 F600.000
G1 X37.170 Y100.762 Z-4.000 F600.000
G3 X38.170 Y99.762 Z-4.000 I1.000 J0.000 K0.000 F600.000
G1 X40.576 Y99.762 Z-4.000 F600.000
G3 X41.572 Y100.852 Z-4.000 I-0.000 J1.000 K0.000 F600.000
G1 X41.210 Y104.855 Z-4.000 F600.000
G1 X44.248 Y105.146 Z-4.000 F600.000
G1 X45.501 Y92.037 Z-4.000 F600.000
G1 X42.466 Y91.746 Z-4.000 F600.000
G1 X42.023 Y96.228 Z-4.000 F600.000
G3 X41.028 Y97.130 Z-4.000 I-0.995 J-0.098 K0.000 F600.000
G1 X38.170 Y97.130 Z-4.000 F600.000
G3 X37.170 Y96.130 Z-4.000 I-0.000 J-1.000 K0.000 F600.000
G1 X37.170 Y90.603 Z-4.000 F600.000
G1 X34.026 Y90.603 Z-4.000 F600.000
G1 X34.026 Y90.603 Z-4.000 F600.000
G1 X34.026 Y96.130 Z-4.000 F600.000
G3 X33.026 Y97.130 Z-4.000 I-1.000 J-0.000 K0.000 F600.000
G1 X30.607 Y97.130 Z-4.000 F600.000
G3 X29.607 Y96.130 Z-4.000 I0.000 J-1.000 K0.000 F600.000
G1 X29.607 Y91.897 Z-4.000 F600.000
G1 X18.459 Y91.897 Z-4.000 F600.000
G1 X18.459 Y105.026 Z-4.000 F600.000
G1 X18.892 Y105.026 Z-4.000 F600.000
G1 X18.459 Y104.593 Z-4.000 F600.000
G1 X18.459 Y101.764 Z-4.000 F600.000
G1 X21.720 Y105.026 Z-4.000 F600.000
G1 X24.549 Y105.026 Z-4.000 F600.000
G1 X18.459 Y98.936 Z-4.000 F600.000
G1 X18.459 Y96.107 Z-4.000 F600.000
G1 X21.692 Y99.341 Z-4.000 F600.000
G1 X21.692 Y101.604 Z-4.000 F600.000
G2 X22.692 Y102.604 Z-4.000 I1.000 J-0.000 K0.000 F600.000
G1 X24.955 Y102.604 Z-4.000 F600.000
G1 X27.377 Y105.026 Z-4.000 F600.000
G1 X29.607 Y105.026 Z-4.000 F600.000
G1 X29.607 Y104.427 Z-4.000 F600.000
G1 X26.820 Y101.641 Z-4.000 F600.000
G1 X26.825 Y101.604 Z-4.000 F600.000
G1 X26.825 Y98.817 Z-4.000 F600.000
G1 X29.607 Y101.599 Z-4.000 F600.000
G1 X29.607 Y100.762 Z-4.000 F600.000
G3 X30.600 Y99.763 Z-4.000 I0.998 J-0.001 K0.000 F600.000
G1 X26.825 Y95.988 Z-4.000 F600.000
G1 X26.825 Y95.988 Z-4.000 F600.000
G1 X26.825 Y101.604 Z-4.000 F600.000
G3 X25.825 Y102.604 Z-4.000 I-1.000 J-0.000 K0.000 F600.000
G1 X22.692 Y102.604 Z-4.000 F600.000
G3 X21.692 Y101.604 Z-4.000 I0.000 J-1.000 K0.000 F600.000
G1 X21.692 Y95.439 Z-4.000 F600.000
G3 X22.692 Y94.439 Z-4.000 I1.000 J0.000 K0.000 F600.000
G1 X25.825 Y94.439 Z-4.000 F600.000
G3 X26.825 Y95.439 Z-4.000 I-0.000 J1.000 K0.000 F600.000
G1 X26.825 Y95.988 Z-4.000 F600.000
G1 X26.825 Y95.988 Z-5.000 F600.000
G1 X26.825 Y101.604 Z-5.000 F600.000
G3 X25.825 Y102.604 Z-5.000 I-1.000 J-0.000 K0.000 F600.000
G1 X22.692 Y102.604 Z-5.000 F600.000
G3 X21.692 Y101.604 Z-5.000 I0.000 J-1.000 K0.000 F600.000
G1 X21.692 Y95.439 Z-5.000 F600.000
G3 X22.692 Y94.439 Z-5.000 I1.000 J0.000 K0.000 F600.000
G1 X25.825 Y94.439 Z-5.000 F600.000
G3 X26.825 Y95.439 Z-5.000 I-0.000 J1.000 K0.000 F600.000
G1 X26.825 Y95.988 Z-5.000 F600.000
G1 X26.825 Y95.988 Z-5.000 F600.000
G1 X30.600 Y99.763 Z-5.000 F600.000
G2 X29.607 Y100.762 Z-5.000 I0.006 J0.998 K0.000 F600.000
G1 X29.607 Y101.599 Z-5.000 F600.000
G1 X26.825 Y98.817 Z-5.000 F600.000
G1 X26.825 Y101.604 Z-5.000 F600.000
G1 X26.820 Y101.641 Z-5.000 F600.000
G1 X29.607 Y104.427 Z-5.000 F600.000
G1 X29.607 Y105.026 Z-5.000 F600.000
G1 X27.377 Y105.026 Z-5.000 F600.000
G1 X24.955 Y102.604 Z-5.000 F600.000
G1 X22.692 Y102.604 Z-5.000 F600.000
G3 X21.692 Y101.604 Z-5.000 I0.000 J-1.000 K0.000 F600.000
G1 X21.692 Y99.341 Z-5.000 F600.000
G1 X18.459 Y96.107 Z-5.000 F600.000
G1 X18.459 Y98.936 Z-5.000 F600.000
G1 X24.549 Y105.026 Z-5.000 F600.000
G1 X21.720 Y105.026 Z-5.000 F600.000
G1 X18.459 Y101.764 Z-5.000 F600.000
G1 X18.459 Y104.593 Z-5.000 F600.000
G1 X18.892 Y105.026 Z-5.000 F600.000
G1 X18.459 Y105.026 Z-5.000 F600.000
G1 X18.459 Y91.897 Z-5.000 F600.000
G1 X29.607 Y91.897 Z-5.000 F600.000
G1 X29.607 Y96.130 Z-5.000 F600.000
G2 X30.607 Y97.130 Z-5.000 I1.000 J-0.000 K0.000 F600.000
G1 X33.026 Y97.130 Z-5.000 F600.000
G2 X34.026 Y96.130 Z-5.000 I-0.000 J-1.000 K0.000 F600.000
G1 X34.026 Y90.603 Z-5.000 F600.000
G1 X34.026 Y90.603 Z-5.000 F600.000
G1 X37.170 Y90.603 Z-5.000 F600.000
G1 X37.170 Y96.130 Z-5.000 F600.000
G2 X38.170 Y97.130 Z-5.000 I1.000 J0.000 K0.000 F600.000
G1 X41.028 Y97.130 Z-5.000 F600.000
G2 X42.023 Y96.228 Z-5.000 I0.000 J-1.000 K0.000 F600.000
G1 X42.466 Y91.746 Z-5.000 F600.000
G1 X45.501 Y92.037 Z-5.000 F600.000
G1 X44.248 Y105.146 Z-5.000 F600.000
G1 X41.210 Y104.855 Z-5.000 F600.000
G1 X41.572 Y100.852 Z-5.000 F600.000
G2 X40.576 Y99.762 Z-5.000 I-0.996 J-0.090 K0.000 F600.000
G1 X38.170 Y99.762 Z-5.000 F600.000
G2 X37.170 Y100.762 Z-5.000 I0.000 J1.000 K0.000 F600.000
G1 X37.170 Y105.898 Z-5.000 F600.000
G1 X34.026 Y105.898 Z-5.000 F600.000
G1 X34.026 Y100.762 Z-5.000 F600.000
G2 X33.026 Y99.762 Z-5.000 I-1.000 J0.000 K0.000 F600.000
G1 X30.607 Y99.762 Z-5.000 F600.000
G2 X29.607 Y100.762 Z-5.000 I0.000 J1.000 K0.000 F600.000
G1 X29.607 Y105.026 Z-5.000 F600.000
G1 X18.459 Y105.026 Z-5.000 F600.000
G1 X18.459 Y104.593 Z-5.000 F600.000
G0 Z5.000
G0 Y96.107 Z5.000
G0 Y96.107 Z3.000
G1 X18.459 Y96.107 Z-2.000 F600.000
G1 X21.692 Y99.341 Z-2.000 F600.000
G1 X21.692 Y96.512 Z-2.000 F600.000
G1 X18.459 Y93.279 Z-2.000 F600.000
G1 X18.459 Y91.897 Z-2.000 F600.000
G1 X19.905 Y91.897 Z-2.000 F600.000
G1 X22.475 Y94.467 Z-2.000 F600.000
G1 X22.692 Y94.439 Z-2.000 F600.000
G1 X25.275 Y94.439 Z-2.000 F600.000
G1 X22.733 Y91.897 Z-2.000 F600.000
G1 X25.562 Y91.897 Z-2.000 F600.000
G1 X29.607 Y95.942 Z-2.000 F600.000
G2 X30.795 Y97.130 Z-2.000 I1.029 J0.159 K0.000 F600.000
G1 X33.675 Y100.010 Z-2.000 F600.000
G1 X33.675 Y100.010 Z-4.000 F600.000
G1 X30.795 Y97.130 Z-4.000 F600.000
G3 X29.607 Y95.942 Z-4.000 I-0.159 J-1.029 K0.000 F600.000
G1 X25.562 Y91.897 Z-4.000 F600.000
G1 X22.733 Y91.897 Z-4.000 F600.000
G1 X25.275 Y94.439 Z-4.000 F600.000
G1 X22.692 Y94.439 Z-4.000 F600.000
G1 X22.475 Y94.467 Z-4.000 F600.000
G1 X19.905 Y91.897 Z-4.000 F600.000
G1 X18.459 Y91.897 Z-4.000 F600.000
G1 X18.459 Y93.279 Z-4.000 F600.000
G1 X21.692 Y96.512 Z-4.000 F600.000
G1 X21.692 Y99.341 Z-4.000 F600.000
G1 X18.459 Y96.107 Z-4.000 F600.000
G1 X18.459 Y96.107 Z-5.000 F600.000
G1 X21.692 Y99.341 Z-5.000 F600.000
G1 X21.692 Y96.512 Z-5.000 F600.000
G1 X18.459 Y93.279 Z-5.000 F600.000
G1 X18.459 Y91.897 Z-5.000 F600.000
G1 X19.905 Y91.897 Z-5.000 F600.000
G1 X22.475 Y94.467 Z-5.000 F600.000
G1 X22.692 Y94.439 Z-5.000 F600.000
G1 X25.275 Y94.439 Z-5.000 F600.000
G1 X22.733 Y91.897 Z-5.000 F600.000
G1 X25.562 Y91.897 Z-5.000 F600.000
G1 X29.607 Y95.942 Z-5.000 F600.000
G2 X30.795 Y97.130 Z-5.000 I1.029 J0.159 K0.000 F600.000
G1 X33.675 Y100.010 Z-5.000 F600.000
G0 Z5.000
G0 X34.026 Y103.190 Z5.000
G0 X34.026 Y103.190 Z3.000
G1 X34.026 Y103.190 Z-2.000 F600.000
G1 X36.735 Y105.898 Z-2.000 F600.000
G1 X34.026 Y105.898 Z-2.000 F600.000
G1 X34.026 Y103.190 Z-2.000 F600.000
G1 X34.026 Y100.762 Z-2.000 F600.000
G2 X33.778 Y100.113 Z-2.000 I-0.958 J-0.006 K0.000 F600.000
G1 X37.170 Y103.505 Z-2.000 F600.000
G1 X37.170 Y100.762 Z-2.000 F600.000
G1 X37.180 Y100.686 Z-2.000 F600.000
G1 X33.500 Y97.007 Z-2.000 F600.000
G2 X34.026 Y96.130 Z-2.000 I-0.454 J-0.868 K0.000 F600.000
G1 X34.026 Y94.705 Z-2.000 F600.000
G1 X39.084 Y99.762 Z-2.000 F600.000
G1 X39.084 Y99.762 Z-4.000 F600.000
G1 X34.026 Y94.705 Z-4.000 F600.000
G1 X34.026 Y96.130 Z-4.000 F600.000
G3 X33.500 Y97.007 Z-4.000 I-0.980 J0.008 K0.000 F600.000
G1 X37.180 Y100.686 Z-4.000 F600.000
G1 X37.170 Y100.762 Z-4.000 F600.000
G1 X37.170 Y103.505 Z-4.000 F600.000
G1 X33.778 Y100.113 Z-4.000 F600.000
G3 X34.026 Y100.762 Z-4.000 I-0.709 J0.643 K0.000 F600.000
G1 X34.026 Y103.190 Z-4.000 F600.000
G1 X34.026 Y105.898 Z-4.000 F600.000
G1 X36.735 Y105.898 Z-4.000 F600.000
G1 X34.026 Y103.190 Z-4.000 F600.000
G1 X34.026 Y103.190 Z-5.000 F600.000
G1 X36.735 Y105.898 Z-5.000 F600.000
G1 X34.026 Y105.898 Z-5.000 F600.000
G1 X34.026 Y103.190 Z-5.000 F600.000
G1 X34.026 Y100.762 Z-5.000 F600.000
G2 X33.778 Y100.113 Z-5.000 I-0.958 J-0.006 K0.000 F600.000
G1 X37.170 Y103.505 Z-5.000 F600.000
G1 X37.170 Y100.762 Z-5.000 F600.000
G1 X37.180 Y100.686 Z-5.000 F600.000
G1 X33.500 Y97.007 Z-5.000 F600.000
G2 X34.026 Y96.130 Z-5.000 I-0.454 J-0.868 K0.000 F600.000
G1 X34.026 Y94.705 Z-5.000 F600.000
G1 X39.084 Y99.762 Z-5.000 F600.000
G0 Z5.000
G0 X41.222 Y104.728 Z5.000
G0 X41.222 Y104.728 Z3.000
G1 X41.222 Y104.728 Z-2.000 F600.000
G1 X41.210 Y104.855 Z-2.000 F600.000
G1 X41.363 Y104.869 Z-2.000 F600.000
G1 X41.222 Y104.728 Z-2.000 F600.000
G1 X41.456 Y102.135 Z-2.000 F600.000
G1 X44.267 Y104.945 Z-2.000 F600.000
G1 X44.514 Y102.363 Z-2.000 F600.000
G1 X39.280 Y97.130 Z-2.000 F600.000
G1 X38.170 Y97.130 Z-2.000 F600.000
G3 X37.170 Y96.130 Z-2.000 I0.000 J-1.000 K0.000 F600.000
G1 X37.170 Y95.019 Z-2.000 F600.000
G1 X34.026 Y91.876 Z-2.000 F600.000
G1 X34.026 Y90.603 Z-2.000 F600.000
G1 X35.582 Y90.603 Z-2.000 F600.000
G1 X37.170 Y92.191 Z-2.000 F600.000
G1 X37.170 Y90.603 Z-2.000 F600.000
G1 X35.582 Y90.603 Z-2.000 F600.000
G1 X35.582 Y90.603 Z-4.000 F600.000
G1 X37.170 Y90.603 Z-4.000 F600.000
G1 X37.170 Y92.191 Z-4.000 F600.000
G1 X35.582 Y90.603 Z-4.000 F600.000
G1 X34.026 Y90.603 Z-4.000 F600.000
G1 X34.026 Y91.876 Z-4.000 F600.000
G1 X37.170 Y95.019 Z-4.000 F600.000
G1 X37.170 Y96.130 Z-4.000 F600.000
G2 X38.170 Y97.130 Z-4.000 I1.000 J-0.000 K0.000 F600.000
G1 X39.280 Y97.130 Z-4.000 F600.000
G1 X44.514 Y102.363 Z-4.000 F600.000
G1 X44.267 Y104.945 Z-4.000 F600.000
G1 X41.456 Y102.135 Z-4.000 F600.000
G1 X41.222 Y104.728 Z-4.000 F600.000
G1 X41.363 Y104.869 Z-4.000 F600.000
G1 X41.210 Y104.855 Z-4.000 F600.000
G1 X41.222 Y104.728 Z-4.000 F600.000
G1 X41.222 Y104.728 Z-5.000 F600.000
G1 X41.210 Y104.855 Z-5.000 F600.000
G1 X41.363 Y104.869 Z-5.000 F600.000
G1 X41.222 Y104.728 Z-5.000 F600.000
G1 X41.456 Y102.135 Z-5.000 F600.000
G1 X44.267 Y104.945 Z-5.000 F600.000
G1 X44.514 Y102.363 Z-5.000 F600.000
G1 X39.280 Y97.130 Z-5.000 F600.000
G1 X38.170 Y97.130 Z-5.000 F600.000
G3 X37.170 Y96.130 Z-5.000 I0.000 J-1.000 K0.000 F600.000
G1 X37.170 Y95.019 Z-5.000 F600.000
G1 X34.026 Y91.876 Z-5.000 F600.000
G1 X34.026 Y90.603 Z-5.000 F600.000
G1 X35.582 Y90.603 Z-5.000 F600.000
G1 X37.170 Y92.191 Z-5.000 F600.000
G1 X37.170 Y90.603 Z-5.000 F600.000
G1 X35.582 Y90.603 Z-5.000 F600.000
G0 Z5.000
G0 X45.501 Y92.037 Z5.000
G0 X45.501 Y92.037 Z3.000
G1 X45.501 Y92.037 Z-2.000 F600.000
G1 X45.254 Y94.619 Z-2.000 F600.000
G1 X42.459 Y91.823 Z-2.000 F600.000
G1 X42.204 Y94.397 Z-2.000 F600.000
G1 X45.008 Y97.200 Z-2.000 F600.000
G1 X44.761 Y99.782 Z-2.000 F600.000
G1 X41.769 Y96.790 Z-2.000 F600.000
G3 X41.028 Y97.130 Z-2.000 I-0.729 J-0.612 K0.000 F600.000
G1 X39.280 Y97.130 Z-2.000 F600.000
G1 X44.514 Y102.363 Z-2.000 F600.000
G1 X44.514 Y102.363 Z-4.000 F600.000
G1 X39.280 Y97.130 Z-4.000 F600.000
G1 X41.028 Y97.130 Z-4.000 F600.000
G2 X41.769 Y96.790 Z-4.000 I0.012 J-0.952 K0.000 F600.000
G1 X44.761 Y99.782 Z-4.000 F600.000
G1 X45.008 Y97.200 Z-4.000 F600.000
G1 X42.204 Y94.397 Z-4.000 F600.000
G1 X42.459 Y91.823 Z-4.000 F600.000
G1 X45.254 Y94.619 Z-4.000 F600.000
G1 X45.501 Y92.037 Z-4.000 F600.000
G1 X45.501 Y92.037 Z-5.000 F600.000
G1 X45.254 Y94.619 Z-5.000 F600.000
G1 X42.459 Y91.823 Z-5.000 F600.000
G1 X42.204 Y94.397 Z-5.000 F600.000
G1 X45.008 Y97.200 Z-5.000 F600.000
G1 X44.761 Y99.782 Z-5.000 F600.000
G1 X41.769 Y96.790 Z-5.000 F600.000
G3 X41.028 Y97.130 Z-5.000 I-0.729 J-0.612 K0.000 F600.000
G1 X39.280 Y97.130 Z-5.000 F600.000
G1 X44.514 Y102.363 Z-5.000 F600.000
G0 Z5.000
G0 Z5.000
G0 X44.514 Y102.363
G0 X45.193 Y110.220
G0 X45.193 Y110.220 Z3.000
G1 X45.193 Y110.220 Z-2.000 F600.000
G1 X43.977 Y111.832 Z-2.000 F600.000
G1 X41.853 Y109.709 Z-2.000 F600.000
G1 X40.641 Y111.325 Z-2.000 F600.000
G1 X42.761 Y113.445 Z-2.000 F600.000
G1 X42.514 Y113.771 Z-2.000 F600.000
G1 X40.141 Y111.991 Z-2.000 F600.000
G1 X42.819 Y108.422 Z-2.000 F600.000
G1 X45.193 Y110.220 Z-2.000 F600.000
G1 X42.514 Y113.771 Z-2.000 F600.000
G1 X40.141 Y111.991 Z-2.000 F600.000
G1 X40.641 Y111.325 Z-2.000 F600.000
G1 X40.641 Y111.325 Z-4.000 F600.000
G1 X40.141 Y111.991 Z-4.000 F600.000
G1 X42.514 Y113.771 Z-4.000 F600.000
G1 X45.193 Y110.220 Z-4.000 F600.000
G1 X42.819 Y108.422 Z-4.000 F600.000
G1 X40.141 Y111.991 Z-4.000 F600.000
G1 X42.514 Y113.771 Z-4.000 F600.000
G1 X42.761 Y113.445 Z-4.000 F600.000
G1 X40.641 Y111.325 Z-4.000 F600.000
G1 X41.853 Y109.709 Z-4.000 F600.000
G1 X43.977 Y111.832 Z-4.000 F600.000
G1 X45.193 Y110.220 Z-4.000 F600.000
G1 X45.193 Y110.220 Z-5.000 F600.000
G1 X43.977 Y111.832 Z-5.000 F600.000
G1 X41.853 Y109.709 Z-5.000 F600.000
G1 X40.641 Y111.325 Z-5.000 F600.000
G1 X42.761 Y113.445 Z-5.000 F600.000
G1 X42.514 Y113.771 Z-5.000 F600.000
G1 X40.141 Y111.991 Z-5.000 F600.000
G1 X42.819 Y108.422 Z-5.000 F600.000
G1 X45.193 Y110.220 Z-5.000 F600.000
G1 X42.514 Y113.771 Z-5.000 F600.000
G1 X40.141 Y111.991 Z-5.000 F600.000
G1 X40.641 Y111.325 Z-5.000 F600.000
G0 Z5.000
G0 Z5.000
G0 X40.641 Y111.325
G0 X36.771 Y110.517
G0 X36.771 Y110.517 Z3.000
G1 X36.771 Y110.517 Z-2.000 F600.000
G1 X35.551 Y112.126 Z-2.000 F600.000
G1 X33.434 Y110.008 Z-2.000 F600.000
G1 X32.209 Y111.612 Z-2.000 F600.000
G1 X34.331 Y113.734 Z-2.000 F600.000
G1 X33.981 Y114.196 Z-2.000 F600.000
G1 X31.595 Y112.416 Z-2.000 F600.000
G1 X34.418 Y108.721 Z-2.000 F600.000
G1 X36.771 Y110.517 Z-2.000 F600.000
G1 X33.981 Y114.196 Z-2.000 F600.000
G1 X31.595 Y112.416 Z-2.000 F600.000
G1 X32.209 Y111.612 Z-2.000 F600.000
G1 X32.209 Y111.612 Z-4.000 F600.000
G1 X31.595 Y112.416 Z-4.000 F600.000
G1 X33.981 Y114.196 Z-4.000 F600.000
G1 X36.771 Y110.517 Z-4.000 F600.000
G1 X34.418 Y108.721 Z-4.000 F600.000
G1 X31.595 Y112.416 Z-4.000 F600.000
G1 X33.981 Y114.196 Z-4.000 F600.000
G1 X34.331 Y113.734 Z-4.000 F600.000
G1 X32.209 Y111.612 Z-4.000 F600.000
G1 X33.434 Y110.008 Z-4.000 F600.000
G1 X35.551 Y112.126 Z-4.000 F600.000
G1 X36.771 Y110.517 Z-4.000 F600.000
G1 X36.771 Y110.517 Z-5.000 F600.000
G1 X35.551 Y112.126 Z-5.000 F600.000
G1 X33.434 Y110.008 Z-5.000 F600.000
G1 X32.209 Y111.612 Z-5.000 F600.000
G1 X34.331 Y113.734 Z-5.000 F600.000
G1 X33.981 Y114.196 Z-5.000 F600.000
G1 X31.595 Y112.416 Z-5.000 F600.000
G1 X34.418 Y108.721 Z-5.000 F600.000
G1 X36.771 Y110.517 Z-5.000 F600.000
G1 X33.981 Y114.196 Z-5.000 F600.000
G1 X31.595 Y112.416 Z-5.000 F600.000
G1 X32.209 Y111.612 Z-5.000 F600.000
G0 Z5.000
G0 Z5.000
G0 X32.209 Y111.612
G0 X27.053 Y108.311
G0 X27.053 Y108.311 Z3.000
G1 X27.053 Y108.311 Z-2.000 F600.000
G1 X27.724 Y110.742 Z-2.000 F600.000
G1 X26.887 Y110.974 Z-2.000 F600.000
G1 X24.842 Y108.929 Z-2.000 F600.000
G1 X22.632 Y109.547 Z-2.000 F600.000
G1 X24.671 Y111.587 Z-2.000 F600.000
G1 X22.456 Y112.199 Z-2.000 F600.000
G1 X20.421 Y110.165 Z-2.000 F600.000
G1 X18.327 Y110.750 Z-2.000 F600.000
G1 X18.385 Y110.957 Z-2.000 F600.000
G1 X20.240 Y112.812 Z-2.000 F600.000
G1 X18.994 Y113.157 Z-2.000 F600.000
G2 X18.327 Y110.750 Z-2.000 I-3196701.464 J885884.061 K0.000 F600.000
G1 X27.053 Y108.311 Z-2.000 F600.000
G1 X27.724 Y110.742 Z-2.000 F600.000
G1 X18.994 Y113.157 Z-2.000 F600.000
G1 X18.385 Y110.957 Z-2.000 F600.000
G1 X18.385 Y110.957 Z-4.000 F600.000
G1 X18.994 Y113.157 Z-4.000 F600.000
G1 X27.724 Y110.742 Z-4.000 F600.000
G1 X27.053 Y108.311 Z-4.000 F600.000
G1 X18.327 Y110.750 Z-4.000 F600.000
G3 X18.994 Y113.157 Z-4.000 I-3196700.797 J885886.468 K0.000 F600.000
G1 X20.240 Y112.812 Z-4.000 F600.000
G1 X18.385 Y110.957 Z-4.000 F600.000
G1 X18.327 Y110.750 Z-4.000 F600.000
G1 X20.421 Y110.165 Z-4.000 F600.000
G1 X22.456 Y112.199 Z-4.000 F600.000
G1 X24.671 Y111.587 Z-4.000 F600.000
G1 X22.632 Y109.547 Z-4.000 F600.000
G1 X24.842 Y108.929 Z-4.000 F600.000
G1 X26.887 Y110.974 Z-4.000 F600.000
G1 X27.724 Y110.742 Z-4.000 F600.000
G1 X27.053 Y108.311 Z-4.000 F600.000
G1 X27.053 Y108.311 Z-5.000 F600.000
G1 X27.724 Y110.742 Z-5.000 F600.000
G1 X26.887 Y110.974 Z-5.000 F600.000
G1 X24.842 Y108.929 Z-5.000 F600.000
G1 X22.632 Y109.547 Z-5.000 F600.000
G1 X24.671 Y111.587 Z-5.000 F600.000
G1 X22.456 Y112.199 Z-5.000 F600.000
G1 X20.421 Y110.165 Z-5.000 F600.000
G1 X18.327 Y110.750 Z-5.000 F600.000
G1 X18.385 Y110.957 Z-5.000 F600.000
G1 X20.240 Y112.812 Z-5.000 F600.000
G1 X18.994 Y113.157 Z-5.000 F600.000
G2 X18.327 Y110.750 Z-5.000 I-3196701.464 J885884.061 K0.000 F600.000
G1 X27.053 Y108.311 Z-5.000 F600.000
G1 X27.724 Y110.742 Z-5.000 F600.000
G1 X18.994 Y113.157 Z-5.000 F600.000
G1 X18.385 Y110.957 Z-5.000 F600.000
G0 Z5.000
G0 Z5.000
G0 X18.385 Y110.957
G0 X18.063 Y118.907
G0 X18.063 Y118.907 Z3.000
G1 X18.063 Y118.907 Z-2.000 F600.000
G1 X20.337 Y118.561 Z-2.000 F600.000
G1 X20.789 Y121.633 Z-2.000 F600.000
G1 X18.063 Y118.907 Z-2.000 F600.000
G1 X17.955 Y118.924 Z-2.000 F600.000
G1 X18.427 Y122.099 Z-2.000 F600.000
G1 X21.331 Y125.004 Z-2.000 F600.000
G2 X21.815 Y125.488 Z-2.000 I0.854 J-0.370 K0.000 F600.000
G1 X25.836 Y129.508 Z-2.000 F600.000
G1 X25.836 Y132.336 Z-2.000 F600.000
G1 X24.256 Y130.757 Z-2.000 F600.000
G3 X24.219 Y131.557 Z-2.000 I-2.938 J0.266 K0.000 F600.000
G3 X22.878 Y132.208 Z-2.000 I-0.954 J-0.259 K0.000 F600.000
G1 X23.823 Y133.152 Z-2.000 F600.000
G1 X23.547 Y132.245 Z-2.000 F600.000
G3 X22.266 Y131.432 Z-2.000 I-0.291 J-0.957 K0.000 F600.000
G1 X21.876 Y128.756 Z-2.000 F600.000
G3 X22.394 Y127.730 Z-2.000 I0.990 J-0.144 K0.000 F600.000
G3 X23.256 Y127.612 Z-2.000 I0.608 J1.239 K0.000 F600.000
G3 X24.256 Y128.612 Z-2.000 I-0.000 J1.000 K0.000 F600.000
G1 X24.256 Y131.288 Z-2.000 F600.000
G3 X23.547 Y132.245 Z-2.000 I-1.000 J0.000 K0.000 F600.000
G1 X23.547 Y132.245 Z-4.000 F600.000
G3 X22.266 Y131.432 Z-4.000 I-0.291 J-0.957 K0.000 F600.000
G1 X21.876 Y128.756 Z-4.000 F600.000
G3 X22.394 Y127.730 Z-4.000 I0.990 J-0.144 K0.000 F600.000
G3 X23.256 Y127.612 Z-4.000 I0.608 J1.239 K0.000 F600.000
G3 X24.256 Y128.612 Z-4.000 I-0.000 J1.000 K0.000 F600.000
G1 X24.256 Y131.288 Z-4.000 F600.000
G3 X23.547 Y132.245 Z-4.000 I-1.000 J0.000 K0.000 F600.000
G1 X23.823 Y133.152 Z-4.000 F600.000
G1 X22.878 Y132.208 Z-4.000 F600.000
G2 X24.219 Y131.557 Z-4.000 I0.387 J-0.910 K0.000 F600.000
G2 X24.256 Y130.757 Z-4.000 I-2.901 J-0.535 K0.000 F600.000
G1 X25.836 Y132.336 Z-4.000 F600.000
G1 X25.836 Y129.508 Z-4.000 F600.000
G1 X21.815 Y125.488 Z-4.000 F600.000
G3 X21.331 Y125.004 Z-4.000 I0.370 J-0.854 K0.000 F600.000
G1 X18.427 Y122.099 Z-4.000 F600.000
G1 X17.955 Y118.924 Z-4.000 F600.000
G1 X18.063 Y118.907 Z-4.000 F600.000
G1 X20.789 Y121.633 Z-4.000 F600.000
G1 X20.337 Y118.561 Z-4.000 F600.000
G1 X18.063 Y118.907 Z-4.000 F600.000
G1 X17.955 Y118.924 Z-4.000 F600.000
G1 X20.786 Y137.975 Z-4.000 F600.000
G3 X20.099 Y139.075 Z-4.000 I-0.989 J0.147 K0.000 F600.000
G1 X17.923 Y139.766 Z-4.000 F600.000
G1 X18.404 Y141.291 Z-4.000 F600.000
G1 X20.039 Y140.778 Z-4.000 F600.000
G3 X21.260 Y141.345 Z-4.000 I0.299 J0.954 K0.000 F600.000
G3 X21.447 Y142.369 Z-4.000 I-4.045 J1.268 K0.000 F600.000
G1 X21.689 Y142.332 Z-4.000 F600.000
G1 X21.397 Y142.040 Z-4.000 F600.000
G1 X21.397 Y142.040 Z-4.000 F600.000
G1 X21.447 Y142.369 Z-4.000 F600.000
G1 X23.855 Y142.006 Z-4.000 F600.000
G1 X23.622 Y140.534 Z-4.000 F600.000
G3 X24.306 Y139.425 Z-4.000 I0.988 J-0.156 K0.000 F600.000
G1 X32.306 Y136.869 Z-4.000 F600.000
G3 X33.610 Y137.821 Z-4.000 I0.304 J0.953 K0.000 F600.000
G1 X33.610 Y140.732 Z-4.000 F600.000
G1 X36.424 Y140.732 Z-4.000 F600.000
G1 X40.719 Y137.641 Z-4.000 F600.000
G3 X42.303 Y138.453 Z-4.000 I0.584 J0.812 K0.000 F600.000
G1 X42.303 Y140.732 Z-4.000 F600.000
G1 X44.874 Y140.732 Z-4.000 F600.000
G1 X44.874 Y135.000 Z-4.000 F600.000
G1 X41.625 Y135.000 Z-4.000 F600.000
G1 X37.330 Y138.092 Z-4.000 F600.000
G3 X35.746 Y137.280 Z-4.000 I-0.584 J-0.812 K0.000 F600.000
G1 X35.746 Y135.031 Z-4.000 F600.000
G1 X32.767 Y135.031 Z-4.000 F600.000
G1 X24.374 Y137.721 Z-4.000 F600.000
G3 X23.080 Y136.917 Z-4.000 I-0.305 J-0.952 K0.000 F600.000
G1 X22.688 Y134.300 Z-4.000 F600.000
G3 X23.677 Y133.152 Z-4.000 I0.989 J-0.148 K0.000 F600.000
G1 X25.836 Y133.152 Z-4.000 F600.000
G1 X25.836 Y128.612 Z-4.000 F600.000
G3 X26.836 Y127.612 Z-4.000 I1.000 J0.000 K0.000 F600.000
G1 X28.206 Y127.612 Z-4.000 F600.000
G3 X29.206 Y128.612 Z-4.000 I-0.000 J1.000 K0.000 F600.000
G1 X29.206 Y132.279 Z-4.000 F600.000
G1 X30.394 Y132.279 Z-4.000 F600.000
G1 X30.394 Y128.612 Z-4.000 F600.000
G3 X31.394 Y127.612 Z-4.000 I1.000 J0.000 K0.000 F600.000
G1 X32.641 Y127.612 Z-4.000 F600.000
G3 X33.641 Y128.612 Z-4.000 I-0.000 J1.000 K0.000 F600.000
G1 X33.641 Y132.001 Z-4.000 F600.000
G1 X34.678 Y132.001 Z-4.000 F600.000
G1 X34.678 Y128.612 Z-4.000 F600.000
G3 X35.678 Y127.612 Z-4.000 I1.000 J-0.000 K0.000 F600.000
G1 X37.017 Y127.612 Z-4.000 F600.000
G3 X38.017 Y128.612 Z-4.000 I-0.000 J1.000 K0.000 F600.000
G1 X38.017 Y132.843 Z-4.000 F600.000
G1 X39.536 Y132.843 Z-4.000 F600.000
G1 X39.536 Y128.612 Z-4.000 F600.000
G3 X40.536 Y127.612 Z-4.000 I1.000 J-0.000 K0.000 F600.000
G1 X41.844 Y127.612 Z-4.000 F600.000
G3 X42.844 Y128.612 Z-4.000 I-0.000 J1.000 K0.000 F600.000
G1 X42.844 Y131.971 Z-4.000 F600.000
G1 X44.484 Y131.971 Z-4.000 F600.000
G1 X44.484 Y128.612 Z-4.000 F600.000
G3 X45.225 Y127.646 Z-4.000 I1.000 J-0.000 K0.000 F600.000
G3 X45.957 Y127.612 Z-4.000 I0.496 J2.764 K0.000 F600.000
G1 X45.957 Y125.584 Z-4.000 F600.000
G1 X45.484 Y125.584 Z-4.000 F600.000
G3 X44.484 Y124.584 Z-4.000 I-0.000 J-1.000 K0.000 F600.000
G1 X44.484 Y119.872 Z-4.000 F600.000
G1 X40.927 Y119.872 Z-4.000 F600.000
G3 X39.927 Y118.752 Z-4.000 I0.004 J-1.010 K0.000 F600.000
G1 X37.566 Y118.752 Z-4.000 F600.000
G3 X36.566 Y119.872 Z-4.000 I-1.008 J0.107 K0.000 F600.000
G1 X33.641 Y119.872 Z-4.000 F600.000
G1 X33.641 Y124.584 Z-4.000 F600.000
G3 X32.641 Y125.584 Z-4.000 I-1.000 J-0.000 K0.000 F600.000
G1 X31.394 Y125.584 Z-4.000 F600.000
G3 X30.394 Y124.584 Z-4.000 I0.000 J-1.000 K0.000 F600.000
G1 X30.394 Y119.661 Z-4.000 F600.000
G1 X29.206 Y119.661 Z-4.000 F600.000
G1 X29.206 Y124.584 Z-4.000 F600.000
