(Exported by FreeCAD)
(Post Processor: script_module)
(Output Time:2026-01-16 12:04:05.754291)
(Begin preamble)
G17 G90
G21
(Begin operation: Fixture)
(Path: Fixture)
G54
(Finish operation: Fixture)
(Begin operation: 2_5mmEndMill002)
(Path: 2_5mmEndMill002)
(2_5mmEndMill002)
(Begin toolchange)
( M6 T2 )
M3 S20000
(Finish operation: 2_5mmEndMill002)
(Begin operation: Profile)
(Path: Profile)
(Profile)
(Compensated Tool Path. Diameter: 2.5)
G0 Z5.000
G0 X-58.616 Y51.861
G0 Z3.000
G1 X-58.616 Y51.861 Z-2.500 F360.000
G1 X-56.329 Y48.920 Z-2.500 F360.000
G1 X-63.671 Y48.920 Z-2.500 F360.000
G1 X-60.000 Y53.640 Z-2.500 F360.000
G1 X-58.616 Y51.861 Z-2.500 F360.000
G1 X-58.616 Y51.861 Z-5.000 F360.000
G1 X-56.329 Y48.920 Z-5.000 F360.000
G1 X-63.671 Y48.920 Z-5.000 F360.000
G1 X-60.000 Y53.640 Z-5.000 F360.000
G1 X-58.616 Y51.861 Z-5.000 F360.000
G1 X-58.616 Y51.861 Z-6.000 F360.000
G1 X-56.329 Y48.920 Z-6.000 F360.000
G1 X-63.671 Y48.920 Z-6.000 F360.000
G1 X-60.000 Y53.640 Z-6.000 F360.000
G1 X-58.616 Y51.861 Z-6.000 F360.000
G0 Z5.000
G0 Z5.000
(Finish operation: Profile)
(Begin operation: Profile001)
(Path: Profile001)
(Profile001)
(Compensated Tool Path. Diameter: 2.5)
G0 Z5.000
G0 X-63.389 Y42.141
G0 Z3.000
G1 X-63.389 Y42.141 Z-2.500 F360.000
G1 X-63.389 Y36.763 Z-2.500 F360.000
G1 X-63.605 Y36.828 Z-2.500 F360.000
G1 X-65.233 Y37.699 Z-2.500 F360.000
G1 X-66.661 Y38.870 Z-2.500 F360.000
G1 X-67.804 Y40.263 Z-2.500 F360.000
G1 X-68.644 Y42.141 Z-2.500 F360.000
G1 X-63.389 Y42.141 Z-2.500 F360.000
G1 X-63.389 Y42.141 Z-5.000 F360.000
G1 X-63.389 Y36.763 Z-5.000 F360.000
G1 X-63.605 Y36.828 Z-5.000 F360.000
G1 X-65.233 Y37.699 Z-5.000 F360.000
G1 X-66.661 Y38.870 Z-5.000 F360.000
G1 X-67.804 Y40.263 Z-5.000 F360.000
G1 X-68.644 Y42.141 Z-5.000 F360.000
G1 X-63.389 Y42.141 Z-5.000 F360.000
G1 X-63.389 Y42.141 Z-6.000 F360.000
G1 X-63.389 Y36.763 Z-6.000 F360.000
G1 X-63.605 Y36.828 Z-6.000 F360.000
G1 X-65.233 Y37.699 Z-6.000 F360.000
G1 X-66.661 Y38.870 Z-6.000 F360.000
G1 X-67.804 Y40.263 Z-6.000 F360.000
G1 X-68.644 Y42.141 Z-6.000 F360.000
G1 X-63.389 Y42.141 Z-6.000 F360.000
G0 Z5.000
G0 Z5.000
(Finish operation: Profile001)
(Begin operation: Profile002)
(Path: Profile002)
(Profile002)
(Compensated Tool Path. Diameter: 2.5)
G0 Z5.000
G0 X-51.356 Y42.141
G0 Z3.000
G1 X-51.356 Y42.141 Z-2.500 F360.000
G1 X-52.196 Y40.263 Z-2.500 F360.000
G1 X-53.339 Y38.870 Z-2.500 F360.000
G1 X-54.767 Y37.699 Z-2.500 F360.000
G1 X-56.395 Y36.828 Z-2.500 F360.000
G1 X-56.611 Y36.763 Z-2.500 F360.000
G1 X-56.611 Y42.141 Z-2.500 F360.000
G1 X-51.356 Y42.141 Z-2.500 F360.000
G1 X-51.356 Y42.141 Z-5.000 F360.000
G1 X-52.196 Y40.263 Z-5.000 F360.000
G1 X-53.339 Y38.870 Z-5.000 F360.000
G1 X-54.767 Y37.699 Z-5.000 F360.000
G1 X-56.395 Y36.828 Z-5.000 F360.000
G1 X-56.611 Y36.763 Z-5.000 F360.000
G1 X-56.611 Y42.141 Z-5.000 F360.000
G1 X-51.356 Y42.141 Z-5.000 F360.000
G1 X-51.356 Y42.141 Z-6.000 F360.000
G1 X-52.196 Y40.263 Z-6.000 F360.000
G1 X-53.339 Y38.870 Z-6.000 F360.000
G1 X-54.767 Y37.699 Z-6.000 F360.000
G1 X-56.395 Y36.828 Z-6.000 F360.000
G1 X-56.611 Y36.763 Z-6.000 F360.000
G1 X-56.611 Y42.141 Z-6.000 F360.000
G1 X-51.356 Y42.141 Z-6.000 F360.000
G0 Z5.000
G0 Z5.000
(Finish operation: Profile002)
(Begin operation: Profile003)
(Path: Profile003)
(Profile003)
(Compensated Tool Path. Diameter: 2.5)
G0 Z5.000
G0 X-64.991 Y30.213
G0 Z3.000
G1 X-64.991 Y30.213 Z-2.500 F360.000
G1 X-63.389 Y29.799 Z-2.500 F360.000
G1 X-63.389 Y29.667 Z-2.500 F360.000
G1 X-78.646 Y29.667 Z-2.500 F360.000
G1 X-73.406 Y36.404 Z-2.500 F360.000
G1 X-71.555 Y34.149 Z-2.500 F360.000
G1 X-71.382 Y33.976 Z-2.500 F360.000
G1 X-69.113 Y32.113 Z-2.500 F360.000
G1 X-68.909 Y31.977 Z-2.500 F360.000
G1 X-66.320 Y30.593 Z-2.500 F360.000
G1 X-66.044 Y30.486 Z-2.500 F360.000
G1 X-64.991 Y30.213 Z-2.500 F360.000
G1 X-64.991 Y30.213 Z-5.000 F360.000
G1 X-63.389 Y29.799 Z-5.000 F360.000
G1 X-63.389 Y29.667 Z-5.000 F360.000
G1 X-78.646 Y29.667 Z-5.000 F360.000
G1 X-73.406 Y36.404 Z-5.000 F360.000
G1 X-71.555 Y34.149 Z-5.000 F360.000
G1 X-71.382 Y33.976 Z-5.000 F360.000
G1 X-69.113 Y32.113 Z-5.000 F360.000
G1 X-68.909 Y31.977 Z-5.000 F360.000
G1 X-66.320 Y30.593 Z-5.000 F360.000
G1 X-66.044 Y30.486 Z-5.000 F360.000
G1 X-64.991 Y30.213 Z-5.000 F360.000
G1 X-64.991 Y30.213 Z-6.000 F360.000
G1 X-63.389 Y29.799 Z-6.000 F360.000
G1 X-63.389 Y29.667 Z-6.000 F360.000
G1 X-78.646 Y29.667 Z-6.000 F360.000
G1 X-73.406 Y36.404 Z-6.000 F360.000
G1 X-71.555 Y34.149 Z-6.000 F360.000
G1 X-71.382 Y33.976 Z-6.000 F360.000
G1 X-69.113 Y32.113 Z-6.000 F360.000
G1 X-68.909 Y31.977 Z-6.000 F360.000
G1 X-66.320 Y30.593 Z-6.000 F360.000
G1 X-66.044 Y30.486 Z-6.000 F360.000
G1 X-64.991 Y30.213 Z-6.000 F360.000
G0 Z5.000
G0 Z5.000
(Finish operation: Profile003)
(Begin operation: Profile004)
(Path: Profile004)
(Profile004)
(Compensated Tool Path. Diameter: 2.5)
G0 Z5.000
G0 X-44.619 Y33.864
G0 Z3.000
G1 X-44.619 Y33.864 Z-2.500 F360.000
G1 X-41.354 Y29.667 Z-2.500 F360.000
G1 X-56.611 Y29.667 Z-2.500 F360.000
G1 X-56.611 Y29.799 Z-2.500 F360.000
G1 X-53.956 Y30.486 Z-2.500 F360.000
G1 X-53.680 Y30.593 Z-2.500 F360.000
G1 X-51.091 Y31.977 Z-2.500 F360.000
G1 X-50.887 Y32.113 Z-2.500 F360.000
G1 X-48.618 Y33.976 Z-2.500 F360.000
G1 X-48.445 Y34.149 Z-2.500 F360.000
G1 X-46.594 Y36.404 Z-2.500 F360.000
G1 X-44.619 Y33.864 Z-2.500 F360.000
G1 X-44.619 Y33.864 Z-5.000 F360.000
G1 X-41.354 Y29.667 Z-5.000 F360.000
G1 X-56.611 Y29.667 Z-5.000 F360.000
G1 X-56.611 Y29.799 Z-5.000 F360.000
G1 X-53.956 Y30.486 Z-5.000 F360.000
G1 X-53.680 Y30.593 Z-5.000 F360.000
G1 X-51.091 Y31.977 Z-5.000 F360.000
G1 X-50.887 Y32.113 Z-5.000 F360.000
G1 X-48.618 Y33.976 Z-5.000 F360.000
G1 X-48.445 Y34.149 Z-5.000 F360.000
G1 X-46.594 Y36.404 Z-5.000 F360.000
G1 X-44.619 Y33.864 Z-5.000 F360.000
G1 X-44.619 Y33.864 Z-6.000 F360.000
G1 X-41.354 Y29.667 Z-6.000 F360.000
G1 X-56.611 Y29.667 Z-6.000 F360.000
G1 X-56.611 Y29.799 Z-6.000 F360.000
G1 X-53.956 Y30.486 Z-6.000 F360.000
G1 X-53.680 Y30.593 Z-6.000 F360.000
G1 X-51.091 Y31.977 Z-6.000 F360.000
G1 X-50.887 Y32.113 Z-6.000 F360.000
G1 X-48.618 Y33.976 Z-6.000 F360.000
G1 X-48.445 Y34.149 Z-6.000 F360.000
G1 X-46.594 Y36.404 Z-6.000 F360.000
G1 X-44.619 Y33.864 Z-6.000 F360.000
G0 Z5.000
G0 Z5.000
(Finish operation: Profile004)
(Begin operation: Profile005)
(Path: Profile005)
(Profile005)
(Compensated Tool Path. Diameter: 2.5)
G0 Z5.000
G0 X-58.616 Y-3.139
G0 Z3.000
G1 X-58.616 Y-3.139 Z-2.500 F360.000
G1 X-56.329 Y-6.080 Z-2.500 F360.000
G1 X-63.671 Y-6.080 Z-2.500 F360.000
G1 X-60.000 Y-1.360 Z-2.500 F360.000
G1 X-58.616 Y-3.139 Z-2.500 F360.000
G1 X-58.616 Y-3.139 Z-5.000 F360.000
G1 X-56.329 Y-6.080 Z-5.000 F360.000
G1 X-63.671 Y-6.080 Z-5.000 F360.000
G1 X-60.000 Y-1.360 Z-5.000 F360.000
G1 X-58.616 Y-3.139 Z-5.000 F360.000
G1 X-58.616 Y-3.139 Z-6.000 F360.000
G1 X-56.329 Y-6.080 Z-6.000 F360.000
G1 X-63.671 Y-6.080 Z-6.000 F360.000
G1 X-60.000 Y-1.360 Z-6.000 F360.000
G1 X-58.616 Y-3.139 Z-6.000 F360.000
G0 Z5.000
G0 Z5.000
(Finish operation: Profile005)
(Begin operation: Profile006)
(Path: Profile006)
(Profile006)
(Compensated Tool Path. Diameter: 2.5)
G0 Z5.000
G0 X-63.389 Y-12.859
G0 Z3.000
G1 X-63.389 Y-12.859 Z-2.500 F360.000
G1 X-63.389 Y-18.237 Z-2.500 F360.000
G1 X-63.605 Y-18.172 Z-2.500 F360.000
G1 X-65.233 Y-17.301 Z-2.500 F360.000
G1 X-66.661 Y-16.130 Z-2.500 F360.000
G1 X-67.804 Y-14.737 Z-2.500 F360.000
G1 X-68.644 Y-12.859 Z-2.500 F360.000
G1 X-63.389 Y-12.859 Z-2.500 F360.000
G1 X-63.389 Y-12.859 Z-5.000 F360.000
G1 X-63.389 Y-18.237 Z-5.000 F360.000
G1 X-63.605 Y-18.172 Z-5.000 F360.000
G1 X-65.233 Y-17.301 Z-5.000 F360.000
G1 X-66.661 Y-16.130 Z-5.000 F360.000
G1 X-67.804 Y-14.737 Z-5.000 F360.000
G1 X-68.644 Y-12.859 Z-5.000 F360.000
G1 X-63.389 Y-12.859 Z-5.000 F360.000
G1 X-63.389 Y-12.859 Z-6.000 F360.000
G1 X-63.389 Y-18.237 Z-6.000 F360.000
G1 X-63.605 Y-18.172 Z-6.000 F360.000
G1 X-65.233 Y-17.301 Z-6.000 F360.000
G1 X-66.661 Y-16.130 Z-6.000 F360.000
G1 X-67.804 Y-14.737 Z-6.000 F360.000
G1 X-68.644 Y-12.859 Z-6.000 F360.000
G1 X-63.389 Y-12.859 Z-6.000 F360.000
G0 Z5.000
G0 Z5.000
(Finish operation: Profile006)
(Begin operation: Profile007)
(Path: Profile007)
(Profile007)
(Compensated Tool Path. Diameter: 2.5)
G0 Z5.000
G0 X-51.356 Y-12.859
G0 Z3.000
G1 X-51.356 Y-12.859 Z-2.500 F360.000
G1 X-52.196 Y-14.737 Z-2.500 F360.000
G1 X-53.339 Y-16.130 Z-2.500 F360.000
G1 X-54.767 Y-17.301 Z-2.500 F360.000
G1 X-56.395 Y-18.172 Z-2.500 F360.000
G1 X-56.611 Y-18.237 Z-2.500 F360.000
G1 X-56.611 Y-12.859 Z-2.500 F360.000
G1 X-51.356 Y-12.859 Z-2.500 F360.000
G1 X-51.356 Y-12.859 Z-5.000 F360.000
G1 X-52.196 Y-14.737 Z-5.000 F360.000
G1 X-53.339 Y-16.130 Z-5.000 F360.000
G1 X-54.767 Y-17.301 Z-5.000 F360.000
G1 X-56.395 Y-18.172 Z-5.000 F360.000
G1 X-56.611 Y-18.237 Z-5.000 F360.000
G1 X-56.611 Y-12.859 Z-5.000 F360.000
G1 X-51.356 Y-12.859 Z-5.000 F360.000
G1 X-51.356 Y-12.859 Z-6.000 F360.000
G1 X-52.196 Y-14.737 Z-6.000 F360.000
G1 X-53.339 Y-16.130 Z-6.000 F360.000
G1 X-54.767 Y-17.301 Z-6.000 F360.000
G1 X-56.395 Y-18.172 Z-6.000 F360.000
G1 X-56.611 Y-18.237 Z-6.000 F360.000
G1 X-56.611 Y-12.859 Z-6.000 F360.000
G1 X-51.356 Y-12.859 Z-6.000 F360.000
G0 Z5.000
G0 Z5.000
(Finish operation: Profile007)
(Begin operation: Profile008)
(Path: Profile008)
(Profile008)
(Compensated Tool Path. Diameter: 2.5)
G0 Z5.000
G0 X-64.991 Y-24.787
G0 Z3.000
G1 X-64.991 Y-24.787 Z-2.500 F360.000
G1 X-63.389 Y-25.201 Z-2.500 F360.000
G1 X-63.389 Y-25.333 Z-2.500 F360.000
G1 X-78.646 Y-25.333 Z-2.500 F360.000
G1 X-73.406 Y-18.596 Z-2.500 F360.000
G1 X-71.555 Y-20.851 Z-2.500 F360.000
G1 X-71.382 Y-21.024 Z-2.500 F360.000
G1 X-69.113 Y-22.887 Z-2.500 F360.000
G1 X-68.909 Y-23.023 Z-2.500 F360.000
G1 X-66.320 Y-24.407 Z-2.500 F360.000
G1 X-66.044 Y-24.514 Z-2.500 F360.000
G1 X-64.991 Y-24.787 Z-2.500 F360.000
G1 X-64.991 Y-24.787 Z-5.000 F360.000
G1 X-63.389 Y-25.201 Z-5.000 F360.000
G1 X-63.389 Y-25.333 Z-5.000 F360.000
G1 X-78.646 Y-25.333 Z-5.000 F360.000
G1 X-73.406 Y-18.596 Z-5.000 F360.000
G1 X-71.555 Y-20.851 Z-5.000 F360.000
G1 X-71.382 Y-21.024 Z-5.000 F360.000
G1 X-69.113 Y-22.887 Z-5.000 F360.000
G1 X-68.909 Y-23.023 Z-5.000 F360.000
G1 X-66.320 Y-24.407 Z-5.000 F360.000
G1 X-66.044 Y-24.514 Z-5.000 F360.000
G1 X-64.991 Y-24.787 Z-5.000 F360.000
G1 X-64.991 Y-24.787 Z-6.000 F360.000
G1 X-63.389 Y-25.201 Z-6.000 F360.000
G1 X-63.389 Y-25.333 Z-6.000 F360.000
G1 X-78.646 Y-25.333 Z-6.000 F360.000
G1 X-73.406 Y-18.596 Z-6.000 F360.000
G1 X-71.555 Y-20.851 Z-6.000 F360.000
G1 X-71.382 Y-21.024 Z-6.000 F360.000
G1 X-69.113 Y-22.887 Z-6.000 F360.000
G1 X-68.909 Y-23.023 Z-6.000 F360.000
G1 X-66.320 Y-24.407 Z-6.000 F360.000
G1 X-66.044 Y-24.514 Z-6.000 F360.000
G1 X-64.991 Y-24.787 Z-6.000 F360.000
G0 Z5.000
G0 Z5.000
(Finish operation: Profile008)
(Begin operation: Profile009)
(Path: Profile009)
(Profile009)
(Compensated Tool Path. Diameter: 2.5)
G0 Z5.000
G0 X-44.619 Y-21.136
G0 Z3.000
G1 X-44.619 Y-21.136 Z-2.500 F360.000
G1 X-41.354 Y-25.333 Z-2.500 F360.000
G1 X-56.611 Y-25.333 Z-2.500 F360.000
G1 X-56.611 Y-25.201 Z-2.500 F360.000
G1 X-53.956 Y-24.514 Z-2.500 F360.000
G1 X-53.680 Y-24.407 Z-2.500 F360.000
G1 X-51.091 Y-23.023 Z-2.500 F360.000
G1 X-50.887 Y-22.887 Z-2.500 F360.000
G1 X-48.618 Y-21.024 Z-2.500 F360.000
G1 X-48.445 Y-20.851 Z-2.500 F360.000
G1 X-46.594 Y-18.596 Z-2.500 F360.000
G1 X-44.619 Y-21.136 Z-2.500 F360.000
G1 X-44.619 Y-21.136 Z-5.000 F360.000
G1 X-41.354 Y-25.333 Z-5.000 F360.000
G1 X-56.611 Y-25.333 Z-5.000 F360.000
G1 X-56.611 Y-25.201 Z-5.000 F360.000
G1 X-53.956 Y-24.514 Z-5.000 F360.000
G1 X-53.680 Y-24.407 Z-5.000 F360.000
G1 X-51.091 Y-23.023 Z-5.000 F360.000
G1 X-50.887 Y-22.887 Z-5.000 F360.000
G1 X-48.618 Y-21.024 Z-5.000 F360.000
G1 X-48.445 Y-20.851 Z-5.000 F360.000
G1 X-46.594 Y-18.596 Z-5.000 F360.000
G1 X-44.619 Y-21.136 Z-5.000 F360.000
G1 X-44.619 Y-21.136 Z-6.000 F360.000
G1 X-41.354 Y-25.333 Z-6.000 F360.000
G1 X-56.611 Y-25.333 Z-6.000 F360.000
G1 X-56.611 Y-25.201 Z-6.000 F360.000
G1 X-53.956 Y-24.514 Z-6.000 F360.000
G1 X-53.680 Y-24.407 Z-6.000 F360.000
G1 X-51.091 Y-23.023 Z-6.000 F360.000
G1 X-50.887 Y-22.887 Z-6.000 F360.000
G1 X-48.618 Y-21.024 Z-6.000 F360.000
G1 X-48.445 Y-20.851 Z-6.000 F360.000
G1 X-46.594 Y-18.596 Z-6.000 F360.000
G1 X-44.619 Y-21.136 Z-6.000 F360.000
G0 Z5.000
G0 Z5.000
(Finish operation: Profile009)
(Begin operation: Profile010)
(Path: Profile010)
(Profile010)
(Compensated Tool Path. Diameter: 2.5)
G0 Z5.000
G0 X-58.616 Y-58.139
G0 Z3.000
G1 X-58.616 Y-58.139 Z-2.500 F360.000
G1 X-56.329 Y-61.080 Z-2.500 F360.000
G1 X-63.671 Y-61.080 Z-2.500 F360.000
G1 X-60.000 Y-56.360 Z-2.500 F360.000
G1 X-58.616 Y-58.139 Z-2.500 F360.000
G1 X-58.616 Y-58.139 Z-5.000 F360.000
G1 X-56.329 Y-61.080 Z-5.000 F360.000
G1 X-63.671 Y-61.080 Z-5.000 F360.000
G1 X-60.000 Y-56.360 Z-5.000 F360.000
G1 X-58.616 Y-58.139 Z-5.000 F360.000
G1 X-58.616 Y-58.139 Z-6.000 F360.000
G1 X-56.329 Y-61.080 Z-6.000 F360.000
G1 X-63.671 Y-61.080 Z-6.000 F360.000
G1 X-60.000 Y-56.360 Z-6.000 F360.000
G1 X-58.616 Y-58.139 Z-6.000 F360.000
G0 Z5.000
G0 Z5.000
(Finish operation: Profile010)
(Begin operation: Profile011)
(Path: Profile011)
(Profile011)
(Compensated Tool Path. Diameter: 2.5)
G0 Z5.000
G0 X-63.389 Y-67.859
G0 Z3.000
G1 X-63.389 Y-67.859 Z-2.500 F360.000
G1 X-63.389 Y-73.237 Z-2.500 F360.000
G1 X-63.605 Y-73.172 Z-2.500 F360.000
G1 X-65.233 Y-72.301 Z-2.500 F360.000
G1 X-66.661 Y-71.130 Z-2.500 F360.000
G1 X-67.804 Y-69.737 Z-2.500 F360.000
G1 X-68.644 Y-67.859 Z-2.500 F360.000
G1 X-63.389 Y-67.859 Z-2.500 F360.000
G1 X-63.389 Y-67.859 Z-5.000 F360.000
G1 X-63.389 Y-73.237 Z-5.000 F360.000
G1 X-63.605 Y-73.172 Z-5.000 F360.000
G1 X-65.233 Y-72.301 Z-5.000 F360.000
G1 X-66.661 Y-71.130 Z-5.000 F360.000
G1 X-67.804 Y-69.737 Z-5.000 F360.000
G1 X-68.644 Y-67.859 Z-5.000 F360.000
G1 X-63.389 Y-67.859 Z-5.000 F360.000
G1 X-63.389 Y-67.859 Z-6.000 F360.000
G1 X-63.389 Y-73.237 Z-6.000 F360.000
G1 X-63.605 Y-73.172 Z-6.000 F360.000
G1 X-65.233 Y-72.301 Z-6.000 F360.000
G1 X-66.661 Y-71.130 Z-6.000 F360.000
G1 X-67.804 Y-69.737 Z-6.000 F360.000
G1 X-68.644 Y-67.859 Z-6.000 F360.000
G1 X-63.389 Y-67.859 Z-6.000 F360.000
G0 Z5.000
G0 Z5.000
(Finish operation: Profile011)
(Begin operation: Profile012)
(Path: Profile012)
(Profile012)
(Compensated Tool Path. Diameter: 2.5)
G0 Z5.000
G0 X-51.356 Y-67.859
G0 Z3.000
G1 X-51.356 Y-67.859 Z-2.500 F360.000
G1 X-52.196 Y-69.737 Z-2.500 F360.000
G1 X-53.339 Y-71.130 Z-2.500 F360.000
G1 X-54.767 Y-72.301 Z-2.500 F360.000
G1 X-56.395 Y-73.172 Z-2.500 F360.000
G1 X-56.611 Y-73.237 Z-2.500 F360.000
G1 X-56.611 Y-67.859 Z-2.500 F360.000
G1 X-51.356 Y-67.859 Z-2.500 F360.000
G1 X-51.356 Y-67.859 Z-5.000 F360.000
G1 X-52.196 Y-69.737 Z-5.000 F360.000
G1 X-53.339 Y-71.130 Z-5.000 F360.000
G1 X-54.767 Y-72.301 Z-5.000 F360.000
G1 X-56.395 Y-73.172 Z-5.000 F360.000
G1 X-56.611 Y-73.237 Z-5.000 F360.000
G1 X-56.611 Y-67.859 Z-5.000 F360.000
G1 X-51.356 Y-67.859 Z-5.000 F360.000
G1 X-51.356 Y-67.859 Z-6.000 F360.000
G1 X-52.196 Y-69.737 Z-6.000 F360.000
G1 X-53.339 Y-71.130 Z-6.000 F360.000
G1 X-54.767 Y-72.301 Z-6.000 F360.000
G1 X-56.395 Y-73.172 Z-6.000 F360.000
G1 X-56.611 Y-73.237 Z-6.000 F360.000
G1 X-56.611 Y-67.859 Z-6.000 F360.000
G1 X-51.356 Y-67.859 Z-6.000 F360.000
G0 Z5.000
G0 Z5.000
(Finish operation: Profile012)
(Begin operation: Profile013)
(Path: Profile013)
(Profile013)
(Compensated Tool Path. Diameter: 2.5)
G0 Z5.000
G0 X-64.991 Y-79.787
G0 Z3.000
G1 X-64.991 Y-79.787 Z-2.500 F360.000
G1 X-63.389 Y-80.201 Z-2.500 F360.000
G1 X-63.389 Y-80.333 Z-2.500 F360.000
G1 X-78.646 Y-80.333 Z-2.500 F360.000
G1 X-73.406 Y-73.596 Z-2.500 F360.000
G1 X-71.555 Y-75.851 Z-2.500 F360.000
G1 X-71.382 Y-76.024 Z-2.500 F360.000
G1 X-69.113 Y-77.887 Z-2.500 F360.000
G1 X-68.909 Y-78.023 Z-2.500 F360.000
G1 X-66.320 Y-79.407 Z-2.500 F360.000
G1 X-66.044 Y-79.514 Z-2.500 F360.000
G1 X-64.991 Y-79.787 Z-2.500 F360.000
G1 X-64.991 Y-79.787 Z-5.000 F360.000
G1 X-63.389 Y-80.201 Z-5.000 F360.000
G1 X-63.389 Y-80.333 Z-5.000 F360.000
G1 X-78.646 Y-80.333 Z-5.000 F360.000
G1 X-73.406 Y-73.596 Z-5.000 F360.000
G1 X-71.555 Y-75.851 Z-5.000 F360.000
G1 X-71.382 Y-76.024 Z-5.000 F360.000
G1 X-69.113 Y-77.887 Z-5.000 F360.000
G1 X-68.909 Y-78.023 Z-5.000 F360.000
G1 X-66.320 Y-79.407 Z-5.000 F360.000
G1 X-66.044 Y-79.514 Z-5.000 F360.000
G1 X-64.991 Y-79.787 Z-5.000 F360.000
G1 X-64.991 Y-79.787 Z-6.000 F360.000
G1 X-63.389 Y-80.201 Z-6.000 F360.000
G1 X-63.389 Y-80.333 Z-6.000 F360.000
G1 X-78.646 Y-80.333 Z-6.000 F360.000
G1 X-73.406 Y-73.596 Z-6.000 F360.000
G1 X-71.555 Y-75.851 Z-6.000 F360.000
G1 X-71.382 Y-76.024 Z-6.000 F360.000
G1 X-69.113 Y-77.887 Z-6.000 F360.000
G1 X-68.909 Y-78.023 Z-6.000 F360.000
G1 X-66.320 Y-79.407 Z-6.000 F360.000
G1 X-66.044 Y-79.514 Z-6.000 F360.000
G1 X-64.991 Y-79.787 Z-6.000 F360.000
G0 Z5.000
G0 Z5.000
(Finish operation: Profile013)
(Begin operation: Profile014)
(Path: Profile014)
(Profile014)
(Compensated Tool Path. Diameter: 2.5)
G0 Z5.000
G0 X-44.619 Y-76.136
G0 Z3.000
G1 X-44.619 Y-76.136 Z-2.500 F360.000
G1 X-41.354 Y-80.333 Z-2.500 F360.000
G1 X-56.611 Y-80.333 Z-2.500 F360.000
G1 X-56.611 Y-80.201 Z-2.500 F360.000
G1 X-53.956 Y-79.514 Z-2.500 F360.000
G1 X-53.680 Y-79.407 Z-2.500 F360.000
G1 X-51.091 Y-78.023 Z-2.500 F360.000
G1 X-50.887 Y-77.887 Z-2.500 F360.000
G1 X-48.618 Y-76.024 Z-2.500 F360.000
G1 X-48.445 Y-75.851 Z-2.500 F360.000
G1 X-46.594 Y-73.596 Z-2.500 F360.000
G1 X-44.619 Y-76.136 Z-2.500 F360.000
G1 X-44.619 Y-76.136 Z-5.000 F360.000
G1 X-41.354 Y-80.333 Z-5.000 F360.000
G1 X-56.611 Y-80.333 Z-5.000 F360.000
G1 X-56.611 Y-80.201 Z-5.000 F360.000
G1 X-53.956 Y-79.514 Z-5.000 F360.000
G1 X-53.680 Y-79.407 Z-5.000 F360.000
G1 X-51.091 Y-78.023 Z-5.000 F360.000
G1 X-50.887 Y-77.887 Z-5.000 F360.000
G1 X-48.618 Y-76.024 Z-5.000 F360.000
G1 X-48.445 Y-75.851 Z-5.000 F360.000
G1 X-46.594 Y-73.596 Z-5.000 F360.000
G1 X-44.619 Y-76.136 Z-5.000 F360.000
G1 X-44.619 Y-76.136 Z-6.000 F360.000
G1 X-41.354 Y-80.333 Z-6.000 F360.000
G1 X-56.611 Y-80.333 Z-6.000 F360.000
G1 X-56.611 Y-80.201 Z-6.000 F360.000
G1 X-53.956 Y-79.514 Z-6.000 F360.000
G1 X-53.680 Y-79.407 Z-6.000 F360.000
G1 X-51.091 Y-78.023 Z-6.000 F360.000
G1 X-50.887 Y-77.887 Z-6.000 F360.000
G1 X-48.618 Y-76.024 Z-6.000 F360.000
G1 X-48.445 Y-75.851 Z-6.000 F360.000
G1 X-46.594 Y-73.596 Z-6.000 F360.000
G1 X-44.619 Y-76.136 Z-6.000 F360.000
G0 Z5.000
G0 Z5.000
(Finish operation: Profile014)
(Begin operation: Profile015)
(Path: Profile015)
(Profile015)
(Compensated Tool Path. Diameter: 2.5)
G0 Z5.000
G0 X-16.329 Y-58.920
G0 Z3.000
G1 X-16.329 Y-58.920 Z-2.500 F360.000
G1 X-20.000 Y-63.640 Z-2.500 F360.000
G1 X-23.671 Y-58.920 Z-2.500 F360.000
G1 X-16.329 Y-58.920 Z-2.500 F360.000
G1 X-16.329 Y-58.920 Z-5.000 F360.000
G1 X-20.000 Y-63.640 Z-5.000 F360.000
G1 X-23.671 Y-58.920 Z-5.000 F360.000
G1 X-16.329 Y-58.920 Z-5.000 F360.000
G1 X-16.329 Y-58.920 Z-6.000 F360.000
G1 X-20.000 Y-63.640 Z-6.000 F360.000
G1 X-23.671 Y-58.920 Z-6.000 F360.000
G1 X-16.329 Y-58.920 Z-6.000 F360.000
G0 Z5.000
G0 Z5.000
(Finish operation: Profile015)
(Begin operation: Profile016)
(Path: Profile016)
(Profile016)
(Compensated Tool Path. Diameter: 2.5)
G0 Z5.000
G0 X-23.389 Y-46.763
G0 Z3.000
G1 X-23.389 Y-46.763 Z-2.500 F360.000
G1 X-23.389 Y-52.141 Z-2.500 F360.000
G1 X-28.644 Y-52.141 Z-2.500 F360.000
G1 X-27.804 Y-50.263 Z-2.500 F360.000
G1 X-26.661 Y-48.870 Z-2.500 F360.000
G1 X-25.233 Y-47.699 Z-2.500 F360.000
G1 X-23.605 Y-46.828 Z-2.500 F360.000
G1 X-23.389 Y-46.763 Z-2.500 F360.000
G1 X-23.389 Y-46.763 Z-5.000 F360.000
G1 X-23.389 Y-52.141 Z-5.000 F360.000
G1 X-28.644 Y-52.141 Z-5.000 F360.000
G1 X-27.804 Y-50.263 Z-5.000 F360.000
G1 X-26.661 Y-48.870 Z-5.000 F360.000
G1 X-25.233 Y-47.699 Z-5.000 F360.000
G1 X-23.605 Y-46.828 Z-5.000 F360.000
G1 X-23.389 Y-46.763 Z-5.000 F360.000
G1 X-23.389 Y-46.763 Z-6.000 F360.000
G1 X-23.389 Y-52.141 Z-6.000 F360.000
G1 X-28.644 Y-52.141 Z-6.000 F360.000
G1 X-27.804 Y-50.263 Z-6.000 F360.000
G1 X-26.661 Y-48.870 Z-6.000 F360.000
G1 X-25.233 Y-47.699 Z-6.000 F360.000
G1 X-23.605 Y-46.828 Z-6.000 F360.000
G1 X-23.389 Y-46.763 Z-6.000 F360.000
G0 Z5.000
G0 Z5.000
(Finish operation: Profile016)
(Begin operation: Profile017)
(Path: Profile017)
(Profile017)
(Compensated Tool Path. Diameter: 2.5)
G0 Z5.000
G0 X-13.339 Y-48.870
G0 Z3.000
G1 X-13.339 Y-48.870 Z-2.500 F360.000
G1 X-12.196 Y-50.263 Z-2.500 F360.000
G1 X-11.356 Y-52.141 Z-2.500 F360.000
G1 X-16.611 Y-52.141 Z-2.500 F360.000
G1 X-16.611 Y-46.763 Z-2.500 F360.000
G1 X-16.395 Y-46.828 Z-2.500 F360.000
G1 X-14.767 Y-47.699 Z-2.500 F360.000
G1 X-13.339 Y-48.870 Z-2.500 F360.000
G1 X-13.339 Y-48.870 Z-5.000 F360.000
G1 X-12.196 Y-50.263 Z-5.000 F360.000
G1 X-11.356 Y-52.141 Z-5.000 F360.000
G1 X-16.611 Y-52.141 Z-5.000 F360.000
G1 X-16.611 Y-46.763 Z-5.000 F360.000
G1 X-16.395 Y-46.828 Z-5.000 F360.000
G1 X-14.767 Y-47.699 Z-5.000 F360.000
G1 X-13.339 Y-48.870 Z-5.000 F360.000
G1 X-13.339 Y-48.870 Z-6.000 F360.000
G1 X-12.196 Y-50.263 Z-6.000 F360.000
G1 X-11.356 Y-52.141 Z-6.000 F360.000
G1 X-16.611 Y-52.141 Z-6.000 F360.000
G1 X-16.611 Y-46.763 Z-6.000 F360.000
G1 X-16.395 Y-46.828 Z-6.000 F360.000
G1 X-14.767 Y-47.699 Z-6.000 F360.000
G1 X-13.339 Y-48.870 Z-6.000 F360.000
G0 Z5.000
G0 Z5.000
(Finish operation: Profile017)
(Begin operation: Profile018)
(Path: Profile018)
(Profile018)
(Compensated Tool Path. Diameter: 2.5)
G0 Z5.000
G0 X-23.389 Y-39.667
G0 Z3.000
G1 X-23.389 Y-39.667 Z-2.500 F360.000
G1 X-23.389 Y-39.799 Z-2.500 F360.000
G1 X-26.044 Y-40.486 Z-2.500 F360.000
G1 X-26.320 Y-40.593 Z-2.500 F360.000
G1 X-28.909 Y-41.977 Z-2.500 F360.000
G1 X-29.113 Y-42.113 Z-2.500 F360.000
G1 X-31.382 Y-43.976 Z-2.500 F360.000
G1 X-31.555 Y-44.149 Z-2.500 F360.000
G1 X-33.406 Y-46.404 Z-2.500 F360.000
G1 X-38.646 Y-39.667 Z-2.500 F360.000
G1 X-23.389 Y-39.667 Z-2.500 F360.000
G1 X-23.389 Y-39.667 Z-5.000 F360.000
G1 X-23.389 Y-39.799 Z-5.000 F360.000
G1 X-26.044 Y-40.486 Z-5.000 F360.000
G1 X-26.320 Y-40.593 Z-5.000 F360.000
G1 X-28.909 Y-41.977 Z-5.000 F360.000
G1 X-29.113 Y-42.113 Z-5.000 F360.000
G1 X-31.382 Y-43.976 Z-5.000 F360.000
G1 X-31.555 Y-44.149 Z-5.000 F360.000
G1 X-33.406 Y-46.404 Z-5.000 F360.000
G1 X-38.646 Y-39.667 Z-5.000 F360.000
G1 X-23.389 Y-39.667 Z-5.000 F360.000
G1 X-23.389 Y-39.667 Z-6.000 F360.000
G1 X-23.389 Y-39.799 Z-6.000 F360.000
G1 X-26.044 Y-40.486 Z-6.000 F360.000
G1 X-26.320 Y-40.593 Z-6.000 F360.000
G1 X-28.909 Y-41.977 Z-6.000 F360.000
G1 X-29.113 Y-42.113 Z-6.000 F360.000
G1 X-31.382 Y-43.976 Z-6.000 F360.000
G1 X-31.555 Y-44.149 Z-6.000 F360.000
G1 X-33.406 Y-46.404 Z-6.000 F360.000
G1 X-38.646 Y-39.667 Z-6.000 F360.000
G1 X-23.389 Y-39.667 Z-6.000 F360.000
G0 Z5.000
G0 Z5.000
(Finish operation: Profile018)
(Begin operation: Profile019)
(Path: Profile019)
(Profile019)
(Compensated Tool Path. Diameter: 2.5)
G0 Z5.000
G0 X-1.354 Y-39.667
G0 Z3.000
G1 X-1.354 Y-39.667 Z-2.500 F360.000
G1 X-6.594 Y-46.404 Z-2.500 F360.000
G1 X-8.445 Y-44.149 Z-2.500 F360.000
G1 X-8.618 Y-43.976 Z-2.500 F360.000
G1 X-10.887 Y-42.113 Z-2.500 F360.000
G1 X-11.091 Y-41.977 Z-2.500 F360.000
G1 X-13.680 Y-40.593 Z-2.500 F360.000
G1 X-13.956 Y-40.486 Z-2.500 F360.000
G1 X-16.611 Y-39.799 Z-2.500 F360.000
G1 X-16.611 Y-39.667 Z-2.500 F360.000
G1 X-1.354 Y-39.667 Z-2.500 F360.000
G1 X-1.354 Y-39.667 Z-5.000 F360.000
G1 X-6.594 Y-46.404 Z-5.000 F360.000
G1 X-8.445 Y-44.149 Z-5.000 F360.000
G1 X-8.618 Y-43.976 Z-5.000 F360.000
G1 X-10.887 Y-42.113 Z-5.000 F360.000
G1 X-11.091 Y-41.977 Z-5.000 F360.000
G1 X-13.680 Y-40.593 Z-5.000 F360.000
G1 X-13.956 Y-40.486 Z-5.000 F360.000
G1 X-16.611 Y-39.799 Z-5.000 F360.000
G1 X-16.611 Y-39.667 Z-5.000 F360.000
G1 X-1.354 Y-39.667 Z-5.000 F360.000
G1 X-1.354 Y-39.667 Z-6.000 F360.000
G1 X-6.594 Y-46.404 Z-6.000 F360.000
G1 X-8.445 Y-44.149 Z-6.000 F360.000
G1 X-8.618 Y-43.976 Z-6.000 F360.000
G1 X-10.887 Y-42.113 Z-6.000 F360.000
G1 X-11.091 Y-41.977 Z-6.000 F360.000
G1 X-13.680 Y-40.593 Z-6.000 F360.000
G1 X-13.956 Y-40.486 Z-6.000 F360.000
G1 X-16.611 Y-39.799 Z-6.000 F360.000
G1 X-16.611 Y-39.667 Z-6.000 F360.000
G1 X-1.354 Y-39.667 Z-6.000 F360.000
G0 Z5.000
G0 Z5.000
(Finish operation: Profile019)
(Begin operation: Profile020)
(Path: Profile020)
(Profile020)
(Compensated Tool Path. Diameter: 2.5)
G0 Z5.000
G0 X-16.329 Y-3.920
G0 Z3.000
G1 X-16.329 Y-3.920 Z-2.500 F360.000
G1 X-20.000 Y-8.640 Z-2.500 F360.000
G1 X-23.671 Y-3.920 Z-2.500 F360.000
G1 X-16.329 Y-3.920 Z-2.500 F360.000
G1 X-16.329 Y-3.920 Z-5.000 F360.000
G1 X-20.000 Y-8.640 Z-5.000 F360.000
G1 X-23.671 Y-3.920 Z-5.000 F360.000
G1 X-16.329 Y-3.920 Z-5.000 F360.000
G1 X-16.329 Y-3.920 Z-6.000 F360.000
G1 X-20.000 Y-8.640 Z-6.000 F360.000
G1 X-23.671 Y-3.920 Z-6.000 F360.000
G1 X-16.329 Y-3.920 Z-6.000 F360.000
G0 Z5.000
G0 Z5.000
(Finish operation: Profile020)
(Begin operation: Profile021)
(Path: Profile021)
(Profile021)
(Compensated Tool Path. Diameter: 2.5)
G0 Z5.000
G0 X-23.389 Y8.237
G0 Z3.000
G1 X-23.389 Y8.237 Z-2.500 F360.000
G1 X-23.389 Y2.859 Z-2.500 F360.000
G1 X-28.644 Y2.859 Z-2.500 F360.000
G1 X-27.804 Y4.737 Z-2.500 F360.000
G1 X-26.661 Y6.130 Z-2.500 F360.000
G1 X-25.233 Y7.301 Z-2.500 F360.000
G1 X-23.605 Y8.172 Z-2.500 F360.000
G1 X-23.389 Y8.237 Z-2.500 F360.000
G1 X-23.389 Y8.237 Z-5.000 F360.000
G1 X-23.389 Y2.859 Z-5.000 F360.000
G1 X-28.644 Y2.859 Z-5.000 F360.000
G1 X-27.804 Y4.737 Z-5.000 F360.000
G1 X-26.661 Y6.130 Z-5.000 F360.000
G1 X-25.233 Y7.301 Z-5.000 F360.000
G1 X-23.605 Y8.172 Z-5.000 F360.000
G1 X-23.389 Y8.237 Z-5.000 F360.000
G1 X-23.389 Y8.237 Z-6.000 F360.000
G1 X-23.389 Y2.859 Z-6.000 F360.000
G1 X-28.644 Y2.859 Z-6.000 F360.000
G1 X-27.804 Y4.737 Z-6.000 F360.000
G1 X-26.661 Y6.130 Z-6.000 F360.000
G1 X-25.233 Y7.301 Z-6.000 F360.000
G1 X-23.605 Y8.172 Z-6.000 F360.000
G1 X-23.389 Y8.237 Z-6.000 F360.000
G0 Z5.000
G0 Z5.000
(Finish operation: Profile021)
(Begin operation: Profile022)
(Path: Profile022)
(Profile022)
(Compensated Tool Path. Diameter: 2.5)
G0 Z5.000
G0 X-13.339 Y6.130
G0 Z3.000
G1 X-13.339 Y6.130 Z-2.500 F360.000
G1 X-12.196 Y4.737 Z-2.500 F360.000
G1 X-11.356 Y2.859 Z-2.500 F360.000
G1 X-16.611 Y2.859 Z-2.500 F360.000
G1 X-16.611 Y8.237 Z-2.500 F360.000
G1 X-16.395 Y8.172 Z-2.500 F360.000
G1 X-14.767 Y7.301 Z-2.500 F360.000
G1 X-13.339 Y6.130 Z-2.500 F360.000
G1 X-13.339 Y6.130 Z-5.000 F360.000
G1 X-12.196 Y4.737 Z-5.000 F360.000
G1 X-11.356 Y2.859 Z-5.000 F360.000
G1 X-16.611 Y2.859 Z-5.000 F360.000
G1 X-16.611 Y8.237 Z-5.000 F360.000
G1 X-16.395 Y8.172 Z-5.000 F360.000
G1 X-14.767 Y7.301 Z-5.000 F360.000
G1 X-13.339 Y6.130 Z-5.000 F360.000
G1 X-13.339 Y6.130 Z-6.000 F360.000
G1 X-12.196 Y4.737 Z-6.000 F360.000
G1 X-11.356 Y2.859 Z-6.000 F360.000
G1 X-16.611 Y2.859 Z-6.000 F360.000
G1 X-16.611 Y8.237 Z-6.000 F360.000
G1 X-16.395 Y8.172 Z-6.000 F360.000
G1 X-14.767 Y7.301 Z-6.000 F360.000
G1 X-13.339 Y6.130 Z-6.000 F360.000
G0 Z5.000
G0 Z5.000
(Finish operation: Profile022)
(Begin operation: Profile023)
(Path: Profile023)
(Profile023)
(Compensated Tool Path. Diameter: 2.5)
G0 Z5.000
G0 X-1.354 Y15.333
G0 Z3.000
G1 X-1.354 Y15.333 Z-2.500 F360.000
G1 X-6.594 Y8.596 Z-2.500 F360.000
G1 X-8.445 Y10.851 Z-2.500 F360.000
G1 X-8.618 Y11.024 Z-2.500 F360.000
G1 X-10.887 Y12.887 Z-2.500 F360.000
G1 X-11.091 Y13.023 Z-2.500 F360.000
G1 X-13.680 Y14.407 Z-2.500 F360.000
G1 X-13.956 Y14.514 Z-2.500 F360.000
G1 X-16.611 Y15.201 Z-2.500 F360.000
G1 X-16.611 Y15.333 Z-2.500 F360.000
G1 X-1.354 Y15.333 Z-2.500 F360.000
G1 X-1.354 Y15.333 Z-5.000 F360.000
G1 X-6.594 Y8.596 Z-5.000 F360.000
G1 X-8.445 Y10.851 Z-5.000 F360.000
G1 X-8.618 Y11.024 Z-5.000 F360.000
G1 X-10.887 Y12.887 Z-5.000 F360.000
G1 X-11.091 Y13.023 Z-5.000 F360.000
G1 X-13.680 Y14.407 Z-5.000 F360.000
G1 X-13.956 Y14.514 Z-5.000 F360.000
G1 X-16.611 Y15.201 Z-5.000 F360.000
G1 X-16.611 Y15.333 Z-5.000 F360.000
G1 X-1.354 Y15.333 Z-5.000 F360.000
G1 X-1.354 Y15.333 Z-6.000 F360.000
G1 X-6.594 Y8.596 Z-6.000 F360.000
G1 X-8.445 Y10.851 Z-6.000 F360.000
G1 X-8.618 Y11.024 Z-6.000 F360.000
G1 X-10.887 Y12.887 Z-6.000 F360.000
G1 X-11.091 Y13.023 Z-6.000 F360.000
G1 X-13.680 Y14.407 Z-6.000 F360.000
G1 X-13.956 Y14.514 Z-6.000 F360.000
G1 X-16.611 Y15.201 Z-6.000 F360.000
G1 X-16.611 Y15.333 Z-6.000 F360.000
G1 X-1.354 Y15.333 Z-6.000 F360.000
G0 Z5.000
G0 Z5.000
(Finish operation: Profile023)
(Begin operation: Profile024)
(Path: Profile024)
(Profile024)
(Compensated Tool Path. Diameter: 2.5)
G0 Z5.000
G0 X-23.389 Y15.333
G0 Z3.000
G1 X-23.389 Y15.333 Z-2.500 F360.000
G1 X-23.389 Y15.201 Z-2.500 F360.000
G1 X-26.044 Y14.514 Z-2.500 F360.000
G1 X-26.320 Y14.407 Z-2.500 F360.000
G1 X-28.909 Y13.023 Z-2.500 F360.000
G1 X-29.113 Y12.887 Z-2.500 F360.000
G1 X-31.382 Y11.024 Z-2.500 F360.000
G1 X-31.555 Y10.851 Z-2.500 F360.000
G1 X-33.406 Y8.596 Z-2.500 F360.000
G1 X-38.646 Y15.333 Z-2.500 F360.000
G1 X-23.389 Y15.333 Z-2.500 F360.000
G1 X-23.389 Y15.333 Z-5.000 F360.000
G1 X-23.389 Y15.201 Z-5.000 F360.000
G1 X-26.044 Y14.514 Z-5.000 F360.000
G1 X-26.320 Y14.407 Z-5.000 F360.000
G1 X-28.909 Y13.023 Z-5.000 F360.000
G1 X-29.113 Y12.887 Z-5.000 F360.000
G1 X-31.382 Y11.024 Z-5.000 F360.000
G1 X-31.555 Y10.851 Z-5.000 F360.000
G1 X-33.406 Y8.596 Z-5.000 F360.000
G1 X-38.646 Y15.333 Z-5.000 F360.000
G1 X-23.389 Y15.333 Z-5.000 F360.000
G1 X-23.389 Y15.333 Z-6.000 F360.000
G1 X-23.389 Y15.201 Z-6.000 F360.000
G1 X-26.044 Y14.514 Z-6.000 F360.000
G1 X-26.320 Y14.407 Z-6.000 F360.000
G1 X-28.909 Y13.023 Z-6.000 F360.000
G1 X-29.113 Y12.887 Z-6.000 F360.000
G1 X-31.382 Y11.024 Z-6.000 F360.000
G1 X-31.555 Y10.851 Z-6.000 F360.000
G1 X-33.406 Y8.596 Z-6.000 F360.000
G1 X-38.646 Y15.333 Z-6.000 F360.000
G1 X-23.389 Y15.333 Z-6.000 F360.000
G0 Z5.000
G0 Z5.000
(Finish operation: Profile024)
(Begin operation: Profile025)
(Path: Profile025)
(Profile025)
(Compensated Tool Path. Diameter: 2.5)
G0 Z5.000
G0 X-16.329 Y51.080
G0 Z3.000
G1 X-16.329 Y51.080 Z-2.500 F360.000
G1 X-20.000 Y46.360 Z-2.500 F360.000
G1 X-23.671 Y51.080 Z-2.500 F360.000
G1 X-16.329 Y51.080 Z-2.500 F360.000
G1 X-16.329 Y51.080 Z-5.000 F360.000
G1 X-20.000 Y46.360 Z-5.000 F360.000
G1 X-23.671 Y51.080 Z-5.000 F360.000
G1 X-16.329 Y51.080 Z-5.000 F360.000
G1 X-16.329 Y51.080 Z-6.000 F360.000
G1 X-20.000 Y46.360 Z-6.000 F360.000
G1 X-23.671 Y51.080 Z-6.000 F360.000
G1 X-16.329 Y51.080 Z-6.000 F360.000
G0 Z5.000
G0 Z5.000
(Finish operation: Profile025)
(Begin operation: Profile026)
(Path: Profile026)
(Profile026)
(Compensated Tool Path. Diameter: 2.5)
G0 Z5.000
G0 X-13.339 Y61.130
G0 Z3.000
G1 X-13.339 Y61.130 Z-2.500 F360.000
G1 X-12.196 Y59.737 Z-2.500 F360.000
G1 X-11.356 Y57.859 Z-2.500 F360.000
G1 X-16.611 Y57.859 Z-2.500 F360.000
G1 X-16.611 Y63.237 Z-2.500 F360.000
G1 X-16.395 Y63.172 Z-2.500 F360.000
G1 X-14.767 Y62.301 Z-2.500 F360.000
G1 X-13.339 Y61.130 Z-2.500 F360.000
G1 X-13.339 Y61.130 Z-5.000 F360.000
G1 X-12.196 Y59.737 Z-5.000 F360.000
G1 X-11.356 Y57.859 Z-5.000 F360.000
G1 X-16.611 Y57.859 Z-5.000 F360.000
G1 X-16.611 Y63.237 Z-5.000 F360.000
G1 X-16.395 Y63.172 Z-5.000 F360.000
G1 X-14.767 Y62.301 Z-5.000 F360.000
G1 X-13.339 Y61.130 Z-5.000 F360.000
G1 X-13.339 Y61.130 Z-6.000 F360.000
G1 X-12.196 Y59.737 Z-6.000 F360.000
G1 X-11.356 Y57.859 Z-6.000 F360.000
G1 X-16.611 Y57.859 Z-6.000 F360.000
G1 X-16.611 Y63.237 Z-6.000 F360.000
G1 X-16.395 Y63.172 Z-6.000 F360.000
G1 X-14.767 Y62.301 Z-6.000 F360.000
G1 X-13.339 Y61.130 Z-6.000 F360.000
G0 Z5.000
G0 Z5.000
(Finish operation: Profile026)
(Begin operation: Profile027)
(Path: Profile027)
(Profile027)
(Compensated Tool Path. Diameter: 2.5)
G0 Z5.000
G0 X-23.389 Y63.237
G0 Z3.000
G1 X-23.389 Y63.237 Z-2.500 F360.000
G1 X-23.389 Y57.859 Z-2.500 F360.000
G1 X-28.644 Y57.859 Z-2.500 F360.000
G1 X-27.804 Y59.737 Z-2.500 F360.000
G1 X-26.661 Y61.130 Z-2.500 F360.000
G1 X-25.233 Y62.301 Z-2.500 F360.000
G1 X-23.605 Y63.172 Z-2.500 F360.000
G1 X-23.389 Y63.237 Z-2.500 F360.000
G1 X-23.389 Y63.237 Z-5.000 F360.000
G1 X-23.389 Y57.859 Z-5.000 F360.000
G1 X-28.644 Y57.859 Z-5.000 F360.000
G1 X-27.804 Y59.737 Z-5.000 F360.000
G1 X-26.661 Y61.130 Z-5.000 F360.000
G1 X-25.233 Y62.301 Z-5.000 F360.000
G1 X-23.605 Y63.172 Z-5.000 F360.000
G1 X-23.389 Y63.237 Z-5.000 F360.000
G1 X-23.389 Y63.237 Z-6.000 F360.000
G1 X-23.389 Y57.859 Z-6.000 F360.000
G1 X-28.644 Y57.859 Z-6.000 F360.000
G1 X-27.804 Y59.737 Z-6.000 F360.000
G1 X-26.661 Y61.130 Z-6.000 F360.000
G1 X-25.233 Y62.301 Z-6.000 F360.000
G1 X-23.605 Y63.172 Z-6.000 F360.000
G1 X-23.389 Y63.237 Z-6.000 F360.000
G0 Z5.000
G0 Z5.000
(Finish operation: Profile027)
(Begin operation: Profile028)
(Path: Profile028)
(Profile028)
(Compensated Tool Path. Diameter: 2.5)
G0 Z5.000
G0 X-23.389 Y70.333
G0 Z3.000
G1 X-23.389 Y70.333 Z-2.500 F360.000
G1 X-23.389 Y70.201 Z-2.500 F360.000
G1 X-26.044 Y69.514 Z-2.500 F360.000
G1 X-26.320 Y69.407 Z-2.500 F360.000
G1 X-28.909 Y68.023 Z-2.500 F360.000
G1 X-29.113 Y67.887 Z-2.500 F360.000
G1 X-31.382 Y66.024 Z-2.500 F360.000
G1 X-31.555 Y65.851 Z-2.500 F360.000
G1 X-33.406 Y63.596 Z-2.500 F360.000
G1 X-38.646 Y70.333 Z-2.500 F360.000
G1 X-23.389 Y70.333 Z-2.500 F360.000
G1 X-23.389 Y70.333 Z-5.000 F360.000
G1 X-23.389 Y70.201 Z-5.000 F360.000
G1 X-26.044 Y69.514 Z-5.000 F360.000
G1 X-26.320 Y69.407 Z-5.000 F360.000
G1 X-28.909 Y68.023 Z-5.000 F360.000
G1 X-29.113 Y67.887 Z-5.000 F360.000
G1 X-31.382 Y66.024 Z-5.000 F360.000
G1 X-31.555 Y65.851 Z-5.000 F360.000
G1 X-33.406 Y63.596 Z-5.000 F360.000
G1 X-38.646 Y70.333 Z-5.000 F360.000
G1 X-23.389 Y70.333 Z-5.000 F360.000
G1 X-23.389 Y70.333 Z-6.000 F360.000
G1 X-23.389 Y70.201 Z-6.000 F360.000
G1 X-26.044 Y69.514 Z-6.000 F360.000
G1 X-26.320 Y69.407 Z-6.000 F360.000
G1 X-28.909 Y68.023 Z-6.000 F360.000
G1 X-29.113 Y67.887 Z-6.000 F360.000
G1 X-31.382 Y66.024 Z-6.000 F360.000
G1 X-31.555 Y65.851 Z-6.000 F360.000
G1 X-33.406 Y63.596 Z-6.000 F360.000
G1 X-38.646 Y70.333 Z-6.000 F360.000
G1 X-23.389 Y70.333 Z-6.000 F360.000
G0 Z5.000
G0 Z5.000
(Finish operation: Profile028)
(Begin operation: Profile029)
(Path: Profile029)
(Profile029)
(Compensated Tool Path. Diameter: 2.5)
G0 Z5.000
G0 X-1.354 Y70.333
G0 Z3.000
G1 X-1.354 Y70.333 Z-2.500 F360.000
G1 X-6.594 Y63.596 Z-2.500 F360.000
G1 X-8.445 Y65.851 Z-2.500 F360.000
G1 X-8.618 Y66.024 Z-2.500 F360.000
G1 X-10.887 Y67.887 Z-2.500 F360.000
G1 X-11.091 Y68.023 Z-2.500 F360.000
G1 X-13.680 Y69.407 Z-2.500 F360.000
G1 X-13.956 Y69.514 Z-2.500 F360.000
G1 X-16.611 Y70.201 Z-2.500 F360.000
G1 X-16.611 Y70.333 Z-2.500 F360.000
G1 X-1.354 Y70.333 Z-2.500 F360.000
G1 X-1.354 Y70.333 Z-5.000 F360.000
G1 X-6.594 Y63.596 Z-5.000 F360.000
G1 X-8.445 Y65.851 Z-5.000 F360.000
G1 X-8.618 Y66.024 Z-5.000 F360.000
G1 X-10.887 Y67.887 Z-5.000 F360.000
G1 X-11.091 Y68.023 Z-5.000 F360.000
G1 X-13.680 Y69.407 Z-5.000 F360.000
G1 X-13.956 Y69.514 Z-5.000 F360.000
G1 X-16.611 Y70.201 Z-5.000 F360.000
G1 X-16.611 Y70.333 Z-5.000 F360.000
G1 X-1.354 Y70.333 Z-5.000 F360.000
G1 X-1.354 Y70.333 Z-6.000 F360.000
G1 X-6.594 Y63.596 Z-6.000 F360.000
G1 X-8.445 Y65.851 Z-6.000 F360.000
G1 X-8.618 Y66.024 Z-6.000 F360.000
G1 X-10.887 Y67.887 Z-6.000 F360.000
G1 X-11.091 Y68.023 Z-6.000 F360.000
G1 X-13.680 Y69.407 Z-6.000 F360.000
G1 X-13.956 Y69.514 Z-6.000 F360.000
G1 X-16.611 Y70.201 Z-6.000 F360.000
G1 X-16.611 Y70.333 Z-6.000 F360.000
G1 X-1.354 Y70.333 Z-6.000 F360.000
G0 Z5.000
G0 Z5.000
(Finish operation: Profile029)
(Begin operation: Profile030)
(Path: Profile030)
(Profile030)
(Compensated Tool Path. Diameter: 2.5)
G0 Z5.000
G0 X21.384 Y51.861
G0 Z3.000
G1 X21.384 Y51.861 Z-2.500 F360.000
G1 X23.671 Y48.920 Z-2.500 F360.000
G1 X16.329 Y48.920 Z-2.500 F360.000
G1 X20.000 Y53.640 Z-2.500 F360.000
G1 X21.384 Y51.861 Z-2.500 F360.000
G1 X21.384 Y51.861 Z-5.000 F360.000
G1 X23.671 Y48.920 Z-5.000 F360.000
G1 X16.329 Y48.920 Z-5.000 F360.000
G1 X20.000 Y53.640 Z-5.000 F360.000
G1 X21.384 Y51.861 Z-5.000 F360.000
G1 X21.384 Y51.861 Z-6.000 F360.000
G1 X23.671 Y48.920 Z-6.000 F360.000
G1 X16.329 Y48.920 Z-6.000 F360.000
G1 X20.000 Y53.640 Z-6.000 F360.000
G1 X21.384 Y51.861 Z-6.000 F360.000
G0 Z5.000
G0 Z5.000
(Finish operation: Profile030)
(Begin operation: Profile031)
(Path: Profile031)
(Profile031)
(Compensated Tool Path. Diameter: 2.5)
G0 Z5.000
G0 X16.611 Y42.141
G0 Z3.000
G1 X16.611 Y42.141 Z-2.500 F360.000
G1 X16.611 Y36.763 Z-2.500 F360.000
G1 X16.395 Y36.828 Z-2.500 F360.000
G1 X14.767 Y37.699 Z-2.500 F360.000
G1 X13.339 Y38.870 Z-2.500 F360.000
G1 X12.196 Y40.263 Z-2.500 F360.000
G1 X11.356 Y42.141 Z-2.500 F360.000
G1 X16.611 Y42.141 Z-2.500 F360.000
G1 X16.611 Y42.141 Z-5.000 F360.000
G1 X16.611 Y36.763 Z-5.000 F360.000
G1 X16.395 Y36.828 Z-5.000 F360.000
G1 X14.767 Y37.699 Z-5.000 F360.000
G1 X13.339 Y38.870 Z-5.000 F360.000
G1 X12.196 Y40.263 Z-5.000 F360.000
G1 X11.356 Y42.141 Z-5.000 F360.000
G1 X16.611 Y42.141 Z-5.000 F360.000
G1 X16.611 Y42.141 Z-6.000 F360.000
G1 X16.611 Y36.763 Z-6.000 F360.000
G1 X16.395 Y36.828 Z-6.000 F360.000
G1 X14.767 Y37.699 Z-6.000 F360.000
G1 X13.339 Y38.870 Z-6.000 F360.000
G1 X12.196 Y40.263 Z-6.000 F360.000
G1 X11.356 Y42.141 Z-6.000 F360.000
G1 X16.611 Y42.141 Z-6.000 F360.000
G0 Z5.000
G0 Z5.000
(Finish operation: Profile031)
(Begin operation: Profile032)
(Path: Profile032)
(Profile032)
(Compensated Tool Path. Diameter: 2.5)
G0 Z5.000
G0 X28.644 Y42.141
G0 Z3.000
G1 X28.644 Y42.141 Z-2.500 F360.000
G1 X27.804 Y40.263 Z-2.500 F360.000
G1 X26.661 Y38.870 Z-2.500 F360.000
G1 X25.233 Y37.699 Z-2.500 F360.000
G1 X23.605 Y36.828 Z-2.500 F360.000
G1 X23.389 Y36.763 Z-2.500 F360.000
G1 X23.389 Y42.141 Z-2.500 F360.000
G1 X28.644 Y42.141 Z-2.500 F360.000
G1 X28.644 Y42.141 Z-5.000 F360.000
G1 X27.804 Y40.263 Z-5.000 F360.000
G1 X26.661 Y38.870 Z-5.000 F360.000
G1 X25.233 Y37.699 Z-5.000 F360.000
G1 X23.605 Y36.828 Z-5.000 F360.000
G1 X23.389 Y36.763 Z-5.000 F360.000
G1 X23.389 Y42.141 Z-5.000 F360.000
G1 X28.644 Y42.141 Z-5.000 F360.000
G1 X28.644 Y42.141 Z-6.000 F360.000
G1 X27.804 Y40.263 Z-6.000 F360.000
G1 X26.661 Y38.870 Z-6.000 F360.000
G1 X25.233 Y37.699 Z-6.000 F360.000
G1 X23.605 Y36.828 Z-6.000 F360.000
G1 X23.389 Y36.763 Z-6.000 F360.000
G1 X23.389 Y42.141 Z-6.000 F360.000
G1 X28.644 Y42.141 Z-6.000 F360.000
G0 Z5.000
G0 Z5.000
(Finish operation: Profile032)
(Begin operation: Profile033)
(Path: Profile033)
(Profile033)
(Compensated Tool Path. Diameter: 2.5)
G0 Z5.000
G0 X15.009 Y30.213
G0 Z3.000
G1 X15.009 Y30.213 Z-2.500 F360.000
G1 X16.611 Y29.799 Z-2.500 F360.000
G1 X16.611 Y29.667 Z-2.500 F360.000
G1 X1.354 Y29.667 Z-2.500 F360.000
G1 X6.594 Y36.404 Z-2.500 F360.000
G1 X8.445 Y34.149 Z-2.500 F360.000
G1 X8.618 Y33.976 Z-2.500 F360.000
G1 X10.887 Y32.113 Z-2.500 F360.000
G1 X11.091 Y31.977 Z-2.500 F360.000
G1 X13.680 Y30.593 Z-2.500 F360.000
G1 X13.956 Y30.486 Z-2.500 F360.000
G1 X15.009 Y30.213 Z-2.500 F360.000
G1 X15.009 Y30.213 Z-5.000 F360.000
G1 X16.611 Y29.799 Z-5.000 F360.000
G1 X16.611 Y29.667 Z-5.000 F360.000
G1 X1.354 Y29.667 Z-5.000 F360.000
G1 X6.594 Y36.404 Z-5.000 F360.000
G1 X8.445 Y34.149 Z-5.000 F360.000
G1 X8.618 Y33.976 Z-5.000 F360.000
G1 X10.887 Y32.113 Z-5.000 F360.000
G1 X11.091 Y31.977 Z-5.000 F360.000
G1 X13.680 Y30.593 Z-5.000 F360.000
G1 X13.956 Y30.486 Z-5.000 F360.000
G1 X15.009 Y30.213 Z-5.000 F360.000
G1 X15.009 Y30.213 Z-6.000 F360.000
G1 X16.611 Y29.799 Z-6.000 F360.000
G1 X16.611 Y29.667 Z-6.000 F360.000
G1 X1.354 Y29.667 Z-6.000 F360.000
G1 X6.594 Y36.404 Z-6.000 F360.000
G1 X8.445 Y34.149 Z-6.000 F360.000
G1 X8.618 Y33.976 Z-6.000 F360.000
G1 X10.887 Y32.113 Z-6.000 F360.000
G1 X11.091 Y31.977 Z-6.000 F360.000
G1 X13.680 Y30.593 Z-6.000 F360.000
G1 X13.956 Y30.486 Z-6.000 F360.000
G1 X15.009 Y30.213 Z-6.000 F360.000
G0 Z5.000
G0 Z5.000
(Finish operation: Profile033)
(Begin operation: Profile034)
(Path: Profile034)
(Profile034)
(Compensated Tool Path. Diameter: 2.5)
G0 Z5.000
G0 X35.381 Y33.864
G0 Z3.000
G1 X35.381 Y33.864 Z-2.500 F360.000
G1 X38.646 Y29.667 Z-2.500 F360.000
G1 X23.389 Y29.667 Z-2.500 F360.000
G1 X23.389 Y29.799 Z-2.500 F360.000
G1 X26.044 Y30.486 Z-2.500 F360.000
G1 X26.320 Y30.593 Z-2.500 F360.000
G1 X28.909 Y31.977 Z-2.500 F360.000
G1 X29.113 Y32.113 Z-2.500 F360.000
G1 X31.382 Y33.976 Z-2.500 F360.000
G1 X31.555 Y34.149 Z-2.500 F360.000
G1 X33.406 Y36.404 Z-2.500 F360.000
G1 X35.381 Y33.864 Z-2.500 F360.000
G1 X35.381 Y33.864 Z-5.000 F360.000
G1 X38.646 Y29.667 Z-5.000 F360.000
G1 X23.389 Y29.667 Z-5.000 F360.000
G1 X23.389 Y29.799 Z-5.000 F360.000
G1 X26.044 Y30.486 Z-5.000 F360.000
G1 X26.320 Y30.593 Z-5.000 F360.000
G1 X28.909 Y31.977 Z-5.000 F360.000
G1 X29.113 Y32.113 Z-5.000 F360.000
G1 X31.382 Y33.976 Z-5.000 F360.000
G1 X31.555 Y34.149 Z-5.000 F360.000
G1 X33.406 Y36.404 Z-5.000 F360.000
G1 X35.381 Y33.864 Z-5.000 F360.000
G1 X35.381 Y33.864 Z-6.000 F360.000
G1 X38.646 Y29.667 Z-6.000 F360.000
G1 X23.389 Y29.667 Z-6.000 F360.000
G1 X23.389 Y29.799 Z-6.000 F360.000
G1 X26.044 Y30.486 Z-6.000 F360.000
G1 X26.320 Y30.593 Z-6.000 F360.000
G1 X28.909 Y31.977 Z-6.000 F360.000
G1 X29.113 Y32.113 Z-6.000 F360.000
G1 X31.382 Y33.976 Z-6.000 F360.000
G1 X31.555 Y34.149 Z-6.000 F360.000
G1 X33.406 Y36.404 Z-6.000 F360.000
G1 X35.381 Y33.864 Z-6.000 F360.000
G0 Z5.000
G0 Z5.000
(Finish operation: Profile034)
(Begin operation: Profile035)
(Path: Profile035)
(Profile035)
(Compensated Tool Path. Diameter: 2.5)
G0 Z5.000
G0 X21.384 Y-3.139
G0 Z3.000
G1 X21.384 Y-3.139 Z-2.500 F360.000
G1 X23.671 Y-6.080 Z-2.500 F360.000
G1 X16.329 Y-6.080 Z-2.500 F360.000
G1 X20.000 Y-1.360 Z-2.500 F360.000
G1 X21.384 Y-3.139 Z-2.500 F360.000
G1 X21.384 Y-3.139 Z-5.000 F360.000
G1 X23.671 Y-6.080 Z-5.000 F360.000
G1 X16.329 Y-6.080 Z-5.000 F360.000
G1 X20.000 Y-1.360 Z-5.000 F360.000
G1 X21.384 Y-3.139 Z-5.000 F360.000
G1 X21.384 Y-3.139 Z-6.000 F360.000
G1 X23.671 Y-6.080 Z-6.000 F360.000
G1 X16.329 Y-6.080 Z-6.000 F360.000
G1 X20.000 Y-1.360 Z-6.000 F360.000
G1 X21.384 Y-3.139 Z-6.000 F360.000
G0 Z5.000
G0 Z5.000
(Finish operation: Profile035)
(Begin operation: Profile036)
(Path: Profile036)
(Profile036)
(Compensated Tool Path. Diameter: 2.5)
G0 Z5.000
G0 X16.611 Y-12.859
G0 Z3.000
G1 X16.611 Y-12.859 Z-2.500 F360.000
G1 X16.611 Y-18.237 Z-2.500 F360.000
G1 X16.395 Y-18.172 Z-2.500 F360.000
G1 X14.767 Y-17.301 Z-2.500 F360.000
G1 X13.339 Y-16.130 Z-2.500 F360.000
G1 X12.196 Y-14.737 Z-2.500 F360.000
G1 X11.356 Y-12.859 Z-2.500 F360.000
G1 X16.611 Y-12.859 Z-2.500 F360.000
G1 X16.611 Y-12.859 Z-5.000 F360.000
G1 X16.611 Y-18.237 Z-5.000 F360.000
G1 X16.395 Y-18.172 Z-5.000 F360.000
G1 X14.767 Y-17.301 Z-5.000 F360.000
G1 X13.339 Y-16.130 Z-5.000 F360.000
G1 X12.196 Y-14.737 Z-5.000 F360.000
G1 X11.356 Y-12.859 Z-5.000 F360.000
G1 X16.611 Y-12.859 Z-5.000 F360.000
G1 X16.611 Y-12.859 Z-6.000 F360.000
G1 X16.611 Y-18.237 Z-6.000 F360.000
G1 X16.395 Y-18.172 Z-6.000 F360.000
G1 X14.767 Y-17.301 Z-6.000 F360.000
G1 X13.339 Y-16.130 Z-6.000 F360.000
G1 X12.196 Y-14.737 Z-6.000 F360.000
G1 X11.356 Y-12.859 Z-6.000 F360.000
G1 X16.611 Y-12.859 Z-6.000 F360.000
G0 Z5.000
G0 Z5.000
(Finish operation: Profile036)
(Begin operation: Profile037)
(Path: Profile037)
(Profile037)
(Compensated Tool Path. Diameter: 2.5)
G0 Z5.000
G0 X28.644 Y-12.859
G0 Z3.000
G1 X28.644 Y-12.859 Z-2.500 F360.000
G1 X27.804 Y-14.737 Z-2.500 F360.000
G1 X26.661 Y-16.130 Z-2.500 F360.000
G1 X25.233 Y-17.301 Z-2.500 F360.000
G1 X23.605 Y-18.172 Z-2.500 F360.000
G1 X23.389 Y-18.237 Z-2.500 F360.000
G1 X23.389 Y-12.859 Z-2.500 F360.000
G1 X28.644 Y-12.859 Z-2.500 F360.000
G1 X28.644 Y-12.859 Z-5.000 F360.000
G1 X27.804 Y-14.737 Z-5.000 F360.000
G1 X26.661 Y-16.130 Z-5.000 F360.000
G1 X25.233 Y-17.301 Z-5.000 F360.000
G1 X23.605 Y-18.172 Z-5.000 F360.000
G1 X23.389 Y-18.237 Z-5.000 F360.000
G1 X23.389 Y-12.859 Z-5.000 F360.000
G1 X28.644 Y-12.859 Z-5.000 F360.000
G1 X28.644 Y-12.859 Z-6.000 F360.000
G1 X27.804 Y-14.737 Z-6.000 F360.000
G1 X26.661 Y-16.130 Z-6.000 F360.000
G1 X25.233 Y-17.301 Z-6.000 F360.000
G1 X23.605 Y-18.172 Z-6.000 F360.000
G1 X23.389 Y-18.237 Z-6.000 F360.000
G1 X23.389 Y-12.859 Z-6.000 F360.000
G1 X28.644 Y-12.859 Z-6.000 F360.000
G0 Z5.000
G0 Z5.000
(Finish operation: Profile037)
(Begin operation: Profile038)
(Path: Profile038)
(Profile038)
(Compensated Tool Path. Diameter: 2.5)
G0 Z5.000
G0 X15.009 Y-24.787
G0 Z3.000
G1 X15.009 Y-24.787 Z-2.500 F360.000
G1 X16.611 Y-25.201 Z-2.500 F360.000
G1 X16.611 Y-25.333 Z-2.500 F360.000
G1 X1.354 Y-25.333 Z-2.500 F360.000
G1 X6.594 Y-18.596 Z-2.500 F360.000
G1 X8.445 Y-20.851 Z-2.500 F360.000
G1 X8.618 Y-21.024 Z-2.500 F360.000
G1 X10.887 Y-22.887 Z-2.500 F360.000
G1 X11.091 Y-23.023 Z-2.500 F360.000
G1 X13.680 Y-24.407 Z-2.500 F360.000
G1 X13.956 Y-24.514 Z-2.500 F360.000
G1 X15.009 Y-24.787 Z-2.500 F360.000
G1 X15.009 Y-24.787 Z-5.000 F360.000
G1 X16.611 Y-25.201 Z-5.000 F360.000
G1 X16.611 Y-25.333 Z-5.000 F360.000
G1 X1.354 Y-25.333 Z-5.000 F360.000
G1 X6.594 Y-18.596 Z-5.000 F360.000
G1 X8.445 Y-20.851 Z-5.000 F360.000
G1 X8.618 Y-21.024 Z-5.000 F360.000
G1 X10.887 Y-22.887 Z-5.000 F360.000
G1 X11.091 Y-23.023 Z-5.000 F360.000
G1 X13.680 Y-24.407 Z-5.000 F360.000
G1 X13.956 Y-24.514 Z-5.000 F360.000
G1 X15.009 Y-24.787 Z-5.000 F360.000
G1 X15.009 Y-24.787 Z-6.000 F360.000
G1 X16.611 Y-25.201 Z-6.000 F360.000
G1 X16.611 Y-25.333 Z-6.000 F360.000
G1 X1.354 Y-25.333 Z-6.000 F360.000
G1 X6.594 Y-18.596 Z-6.000 F360.000
G1 X8.445 Y-20.851 Z-6.000 F360.000
G1 X8.618 Y-21.024 Z-6.000 F360.000
G1 X10.887 Y-22.887 Z-6.000 F360.000
G1 X11.091 Y-23.023 Z-6.000 F360.000
G1 X13.680 Y-24.407 Z-6.000 F360.000
G1 X13.956 Y-24.514 Z-6.000 F360.000
G1 X15.009 Y-24.787 Z-6.000 F360.000
G0 Z5.000
G0 Z5.000
(Finish operation: Profile038)
(Begin operation: Profile039)
(Path: Profile039)
(Profile039)
(Compensated Tool Path. Diameter: 2.5)
G0 Z5.000
G0 X35.381 Y-21.136
G0 Z3.000
G1 X35.381 Y-21.136 Z-2.500 F360.000
G1 X38.646 Y-25.333 Z-2.500 F360.000
G1 X23.389 Y-25.333 Z-2.500 F360.000
G1 X23.389 Y-25.201 Z-2.500 F360.000
G1 X26.044 Y-24.514 Z-2.500 F360.000
G1 X26.320 Y-24.407 Z-2.500 F360.000
G1 X28.909 Y-23.023 Z-2.500 F360.000
G1 X29.113 Y-22.887 Z-2.500 F360.000
G1 X31.382 Y-21.024 Z-2.500 F360.000
G1 X31.555 Y-20.851 Z-2.500 F360.000
G1 X33.406 Y-18.596 Z-2.500 F360.000
G1 X35.381 Y-21.136 Z-2.500 F360.000
G1 X35.381 Y-21.136 Z-5.000 F360.000
G1 X38.646 Y-25.333 Z-5.000 F360.000
G1 X23.389 Y-25.333 Z-5.000 F360.000
G1 X23.389 Y-25.201 Z-5.000 F360.000
G1 X26.044 Y-24.514 Z-5.000 F360.000
G1 X26.320 Y-24.407 Z-5.000 F360.000
G1 X28.909 Y-23.023 Z-5.000 F360.000
G1 X29.113 Y-22.887 Z-5.000 F360.000
G1 X31.382 Y-21.024 Z-5.000 F360.000
G1 X31.555 Y-20.851 Z-5.000 F360.000
G1 X33.406 Y-18.596 Z-5.000 F360.000
G1 X35.381 Y-21.136 Z-5.000 F360.000
G1 X35.381 Y-21.136 Z-6.000 F360.000
G1 X38.646 Y-25.333 Z-6.000 F360.000
G1 X23.389 Y-25.333 Z-6.000 F360.000
G1 X23.389 Y-25.201 Z-6.000 F360.000
G1 X26.044 Y-24.514 Z-6.000 F360.000
G1 X26.320 Y-24.407 Z-6.000 F360.000
G1 X28.909 Y-23.023 Z-6.000 F360.000
G1 X29.113 Y-22.887 Z-6.000 F360.000
G1 X31.382 Y-21.024 Z-6.000 F360.000
G1 X31.555 Y-20.851 Z-6.000 F360.000
G1 X33.406 Y-18.596 Z-6.000 F360.000
G1 X35.381 Y-21.136 Z-6.000 F360.000
G0 Z5.000
G0 Z5.000
(Finish operation: Profile039)
(Begin operation: Profile040)
(Path: Profile040)
(Profile040)
(Compensated Tool Path. Diameter: 2.5)
G0 Z5.000
G0 X21.384 Y-58.139
G0 Z3.000
G1 X21.384 Y-58.139 Z-2.500 F360.000
G1 X23.671 Y-61.080 Z-2.500 F360.000
G1 X16.329 Y-61.080 Z-2.500 F360.000
G1 X20.000 Y-56.360 Z-2.500 F360.000
G1 X21.384 Y-58.139 Z-2.500 F360.000
G1 X21.384 Y-58.139 Z-5.000 F360.000
G1 X23.671 Y-61.080 Z-5.000 F360.000
G1 X16.329 Y-61.080 Z-5.000 F360.000
G1 X20.000 Y-56.360 Z-5.000 F360.000
G1 X21.384 Y-58.139 Z-5.000 F360.000
G1 X21.384 Y-58.139 Z-6.000 F360.000
G1 X23.671 Y-61.080 Z-6.000 F360.000
G1 X16.329 Y-61.080 Z-6.000 F360.000
G1 X20.000 Y-56.360 Z-6.000 F360.000
G1 X21.384 Y-58.139 Z-6.000 F360.000
G0 Z5.000
G0 Z5.000
(Finish operation: Profile040)
(Begin operation: Profile041)
(Path: Profile041)
(Profile041)
(Compensated Tool Path. Diameter: 2.5)
G0 Z5.000
G0 X16.611 Y-67.859
G0 Z3.000
G1 X16.611 Y-67.859 Z-2.500 F360.000
G1 X16.611 Y-73.237 Z-2.500 F360.000
G1 X16.395 Y-73.172 Z-2.500 F360.000
G1 X14.767 Y-72.301 Z-2.500 F360.000
G1 X13.339 Y-71.130 Z-2.500 F360.000
G1 X12.196 Y-69.737 Z-2.500 F360.000
G1 X11.356 Y-67.859 Z-2.500 F360.000
G1 X16.611 Y-67.859 Z-2.500 F360.000
G1 X16.611 Y-67.859 Z-5.000 F360.000
G1 X16.611 Y-73.237 Z-5.000 F360.000
G1 X16.395 Y-73.172 Z-5.000 F360.000
G1 X14.767 Y-72.301 Z-5.000 F360.000
G1 X13.339 Y-71.130 Z-5.000 F360.000
G1 X12.196 Y-69.737 Z-5.000 F360.000
G1 X11.356 Y-67.859 Z-5.000 F360.000
G1 X16.611 Y-67.859 Z-5.000 F360.000
G1 X16.611 Y-67.859 Z-6.000 F360.000
G1 X16.611 Y-73.237 Z-6.000 F360.000
G1 X16.395 Y-73.172 Z-6.000 F360.000
G1 X14.767 Y-72.301 Z-6.000 F360.000
G1 X13.339 Y-71.130 Z-6.000 F360.000
G1 X12.196 Y-69.737 Z-6.000 F360.000
G1 X11.356 Y-67.859 Z-6.000 F360.000
G1 X16.611 Y-67.859 Z-6.000 F360.000
G0 Z5.000
G0 Z5.000
(Finish operation: Profile041)
(Begin operation: Profile042)
(Path: Profile042)
(Profile042)
(Compensated Tool Path. Diameter: 2.5)
G0 Z5.000
G0 X28.644 Y-67.859
G0 Z3.000
G1 X28.644 Y-67.859 Z-2.500 F360.000
G1 X27.804 Y-69.737 Z-2.500 F360.000
G1 X26.661 Y-71.130 Z-2.500 F360.000
G1 X25.233 Y-72.301 Z-2.500 F360.000
G1 X23.605 Y-73.172 Z-2.500 F360.000
G1 X23.389 Y-73.237 Z-2.500 F360.000
G1 X23.389 Y-67.859 Z-2.500 F360.000
G1 X28.644 Y-67.859 Z-2.500 F360.000
G1 X28.644 Y-67.859 Z-5.000 F360.000
G1 X27.804 Y-69.737 Z-5.000 F360.000
G1 X26.661 Y-71.130 Z-5.000 F360.000
G1 X25.233 Y-72.301 Z-5.000 F360.000
G1 X23.605 Y-73.172 Z-5.000 F360.000
G1 X23.389 Y-73.237 Z-5.000 F360.000
G1 X23.389 Y-67.859 Z-5.000 F360.000
G1 X28.644 Y-67.859 Z-5.000 F360.000
G1 X28.644 Y-67.859 Z-6.000 F360.000
G1 X27.804 Y-69.737 Z-6.000 F360.000
G1 X26.661 Y-71.130 Z-6.000 F360.000
G1 X25.233 Y-72.301 Z-6.000 F360.000
G1 X23.605 Y-73.172 Z-6.000 F360.000
G1 X23.389 Y-73.237 Z-6.000 F360.000
G1 X23.389 Y-67.859 Z-6.000 F360.000
G1 X28.644 Y-67.859 Z-6.000 F360.000
G0 Z5.000
G0 Z5.000
(Finish operation: Profile042)
(Begin operation: Profile043)
(Path: Profile043)
(Profile043)
(Compensated Tool Path. Diameter: 2.5)
G0 Z5.000
G0 X15.009 Y-79.787
G0 Z3.000
G1 X15.009 Y-79.787 Z-2.500 F360.000
G1 X16.611 Y-80.201 Z-2.500 F360.000
G1 X16.611 Y-80.333 Z-2.500 F360.000
G1 X1.354 Y-80.333 Z-2.500 F360.000
G1 X6.594 Y-73.596 Z-2.500 F360.000
G1 X8.445 Y-75.851 Z-2.500 F360.000
G1 X8.618 Y-76.024 Z-2.500 F360.000
G1 X10.887 Y-77.887 Z-2.500 F360.000
G1 X11.091 Y-78.023 Z-2.500 F360.000
G1 X13.680 Y-79.407 Z-2.500 F360.000
G1 X13.956 Y-79.514 Z-2.500 F360.000
G1 X15.009 Y-79.787 Z-2.500 F360.000
G1 X15.009 Y-79.787 Z-5.000 F360.000
G1 X16.611 Y-80.201 Z-5.000 F360.000
G1 X16.611 Y-80.333 Z-5.000 F360.000
G1 X1.354 Y-80.333 Z-5.000 F360.000
G1 X6.594 Y-73.596 Z-5.000 F360.000
G1 X8.445 Y-75.851 Z-5.000 F360.000
G1 X8.618 Y-76.024 Z-5.000 F360.000
G1 X10.887 Y-77.887 Z-5.000 F360.000
G1 X11.091 Y-78.023 Z-5.000 F360.000
G1 X13.680 Y-79.407 Z-5.000 F360.000
G1 X13.956 Y-79.514 Z-5.000 F360.000
G1 X15.009 Y-79.787 Z-5.000 F360.000
G1 X15.009 Y-79.787 Z-6.000 F360.000
G1 X16.611 Y-80.201 Z-6.000 F360.000
G1 X16.611 Y-80.333 Z-6.000 F360.000
G1 X1.354 Y-80.333 Z-6.000 F360.000
G1 X6.594 Y-73.596 Z-6.000 F360.000
G1 X8.445 Y-75.851 Z-6.000 F360.000
G1 X8.618 Y-76.024 Z-6.000 F360.000
G1 X10.887 Y-77.887 Z-6.000 F360.000
G1 X11.091 Y-78.023 Z-6.000 F360.000
G1 X13.680 Y-79.407 Z-6.000 F360.000
G1 X13.956 Y-79.514 Z-6.000 F360.000
G1 X15.009 Y-79.787 Z-6.000 F360.000
G0 Z5.000
G0 Z5.000
(Finish operation: Profile043)
(Begin operation: Profile044)
(Path: Profile044)
(Profile044)
(Compensated Tool Path. Diameter: 2.5)
G0 Z5.000
G0 X35.381 Y-76.136
G0 Z3.000
G1 X35.381 Y-76.136 Z-2.500 F360.000
G1 X38.646 Y-80.333 Z-2.500 F360.000
G1 X23.389 Y-80.333 Z-2.500 F360.000
G1 X23.389 Y-80.201 Z-2.500 F360.000
G1 X26.044 Y-79.514 Z-2.500 F360.000
G1 X26.320 Y-79.407 Z-2.500 F360.000
G1 X28.909 Y-78.023 Z-2.500 F360.000
G1 X29.113 Y-77.887 Z-2.500 F360.000
G1 X31.382 Y-76.024 Z-2.500 F360.000
G1 X31.555 Y-75.851 Z-2.500 F360.000
G1 X33.406 Y-73.596 Z-2.500 F360.000
G1 X35.381 Y-76.136 Z-2.500 F360.000
G1 X35.381 Y-76.136 Z-5.000 F360.000
G1 X38.646 Y-80.333 Z-5.000 F360.000
G1 X23.389 Y-80.333 Z-5.000 F360.000
G1 X23.389 Y-80.201 Z-5.000 F360.000
G1 X26.044 Y-79.514 Z-5.000 F360.000
G1 X26.320 Y-79.407 Z-5.000 F360.000
G1 X28.909 Y-78.023 Z-5.000 F360.000
G1 X29.113 Y-77.887 Z-5.000 F360.000
G1 X31.382 Y-76.024 Z-5.000 F360.000
G1 X31.555 Y-75.851 Z-5.000 F360.000
G1 X33.406 Y-73.596 Z-5.000 F360.000
G1 X35.381 Y-76.136 Z-5.000 F360.000
G1 X35.381 Y-76.136 Z-6.000 F360.000
G1 X38.646 Y-80.333 Z-6.000 F360.000
G1 X23.389 Y-80.333 Z-6.000 F360.000
G1 X23.389 Y-80.201 Z-6.000 F360.000
G1 X26.044 Y-79.514 Z-6.000 F360.000
G1 X26.320 Y-79.407 Z-6.000 F360.000
G1 X28.909 Y-78.023 Z-6.000 F360.000
G1 X29.113 Y-77.887 Z-6.000 F360.000
G1 X31.382 Y-76.024 Z-6.000 F360.000
G1 X31.555 Y-75.851 Z-6.000 F360.000
G1 X33.406 Y-73.596 Z-6.000 F360.000
G1 X35.381 Y-76.136 Z-6.000 F360.000
G0 Z5.000
G0 Z5.000
(Finish operation: Profile044)
(Begin operation: Profile045)
(Path: Profile045)
(Profile045)
(Compensated Tool Path. Diameter: 2.5)
G0 Z5.000
G0 X63.671 Y-58.920
G0 Z3.000
G1 X63.671 Y-58.920 Z-2.500 F360.000
G1 X60.000 Y-63.640 Z-2.500 F360.000
G1 X56.329 Y-58.920 Z-2.500 F360.000
G1 X63.671 Y-58.920 Z-2.500 F360.000
G1 X63.671 Y-58.920 Z-5.000 F360.000
G1 X60.000 Y-63.640 Z-5.000 F360.000
G1 X56.329 Y-58.920 Z-5.000 F360.000
G1 X63.671 Y-58.920 Z-5.000 F360.000
G1 X63.671 Y-58.920 Z-6.000 F360.000
G1 X60.000 Y-63.640 Z-6.000 F360.000
G1 X56.329 Y-58.920 Z-6.000 F360.000
G1 X63.671 Y-58.920 Z-6.000 F360.000
G0 Z5.000
G0 Z5.000
(Finish operation: Profile045)
(Begin operation: Profile046)
(Path: Profile046)
(Profile046)
(Compensated Tool Path. Diameter: 2.5)
G0 Z5.000
G0 X56.611 Y-46.763
G0 Z3.000
G1 X56.611 Y-46.763 Z-2.500 F360.000
G1 X56.611 Y-52.141 Z-2.500 F360.000
G1 X51.356 Y-52.141 Z-2.500 F360.000
G1 X52.196 Y-50.263 Z-2.500 F360.000
G1 X53.339 Y-48.870 Z-2.500 F360.000
G1 X54.767 Y-47.699 Z-2.500 F360.000
G1 X56.395 Y-46.828 Z-2.500 F360.000
G1 X56.611 Y-46.763 Z-2.500 F360.000
G1 X56.611 Y-46.763 Z-5.000 F360.000
G1 X56.611 Y-52.141 Z-5.000 F360.000
G1 X51.356 Y-52.141 Z-5.000 F360.000
G1 X52.196 Y-50.263 Z-5.000 F360.000
G1 X53.339 Y-48.870 Z-5.000 F360.000
G1 X54.767 Y-47.699 Z-5.000 F360.000
G1 X56.395 Y-46.828 Z-5.000 F360.000
G1 X56.611 Y-46.763 Z-5.000 F360.000
G1 X56.611 Y-46.763 Z-6.000 F360.000
G1 X56.611 Y-52.141 Z-6.000 F360.000
G1 X51.356 Y-52.141 Z-6.000 F360.000
G1 X52.196 Y-50.263 Z-6.000 F360.000
G1 X53.339 Y-48.870 Z-6.000 F360.000
G1 X54.767 Y-47.699 Z-6.000 F360.000
G1 X56.395 Y-46.828 Z-6.000 F360.000
G1 X56.611 Y-46.763 Z-6.000 F360.000
G0 Z5.000
G0 Z5.000
(Finish operation: Profile046)
(Begin operation: Profile047)
(Path: Profile047)
(Profile047)
(Compensated Tool Path. Diameter: 2.5)
G0 Z5.000
G0 X66.661 Y-48.870
G0 Z3.000
G1 X66.661 Y-48.870 Z-2.500 F360.000
G1 X67.804 Y-50.263 Z-2.500 F360.000
G1 X68.644 Y-52.141 Z-2.500 F360.000
G1 X63.389 Y-52.141 Z-2.500 F360.000
G1 X63.389 Y-46.763 Z-2.500 F360.000
G1 X63.605 Y-46.828 Z-2.500 F360.000
G1 X65.233 Y-47.699 Z-2.500 F360.000
G1 X66.661 Y-48.870 Z-2.500 F360.000
G1 X66.661 Y-48.870 Z-5.000 F360.000
G1 X67.804 Y-50.263 Z-5.000 F360.000
G1 X68.644 Y-52.141 Z-5.000 F360.000
G1 X63.389 Y-52.141 Z-5.000 F360.000
G1 X63.389 Y-46.763 Z-5.000 F360.000
G1 X63.605 Y-46.828 Z-5.000 F360.000
G1 X65.233 Y-47.699 Z-5.000 F360.000
G1 X66.661 Y-48.870 Z-5.000 F360.000
G1 X66.661 Y-48.870 Z-6.000 F360.000
G1 X67.804 Y-50.263 Z-6.000 F360.000
G1 X68.644 Y-52.141 Z-6.000 F360.000
G1 X63.389 Y-52.141 Z-6.000 F360.000
G1 X63.389 Y-46.763 Z-6.000 F360.000
G1 X63.605 Y-46.828 Z-6.000 F360.000
G1 X65.233 Y-47.699 Z-6.000 F360.000
G1 X66.661 Y-48.870 Z-6.000 F360.000
G0 Z5.000
G0 Z5.000
(Finish operation: Profile047)
(Begin operation: Profile048)
(Path: Profile048)
(Profile048)
(Compensated Tool Path. Diameter: 2.5)
G0 Z5.000
G0 X78.646 Y-39.667
G0 Z3.000
G1 X78.646 Y-39.667 Z-2.500 F360.000
G1 X73.406 Y-46.404 Z-2.500 F360.000
G1 X71.555 Y-44.149 Z-2.500 F360.000
G1 X71.382 Y-43.976 Z-2.500 F360.000
G1 X69.113 Y-42.113 Z-2.500 F360.000
G1 X68.909 Y-41.977 Z-2.500 F360.000
G1 X66.320 Y-40.593 Z-2.500 F360.000
G1 X66.044 Y-40.486 Z-2.500 F360.000
G1 X63.389 Y-39.799 Z-2.500 F360.000
G1 X63.389 Y-39.667 Z-2.500 F360.000
G1 X78.646 Y-39.667 Z-2.500 F360.000
G1 X78.646 Y-39.667 Z-5.000 F360.000
G1 X73.406 Y-46.404 Z-5.000 F360.000
G1 X71.555 Y-44.149 Z-5.000 F360.000
G1 X71.382 Y-43.976 Z-5.000 F360.000
G1 X69.113 Y-42.113 Z-5.000 F360.000
G1 X68.909 Y-41.977 Z-5.000 F360.000
G1 X66.320 Y-40.593 Z-5.000 F360.000
G1 X66.044 Y-40.486 Z-5.000 F360.000
G1 X63.389 Y-39.799 Z-5.000 F360.000
G1 X63.389 Y-39.667 Z-5.000 F360.000
G1 X78.646 Y-39.667 Z-5.000 F360.000
G1 X78.646 Y-39.667 Z-6.000 F360.000
G1 X73.406 Y-46.404 Z-6.000 F360.000
G1 X71.555 Y-44.149 Z-6.000 F360.000
G1 X71.382 Y-43.976 Z-6.000 F360.000
G1 X69.113 Y-42.113 Z-6.000 F360.000
G1 X68.909 Y-41.977 Z-6.000 F360.000
G1 X66.320 Y-40.593 Z-6.000 F360.000
G1 X66.044 Y-40.486 Z-6.000 F360.000
G1 X63.389 Y-39.799 Z-6.000 F360.000
G1 X63.389 Y-39.667 Z-6.000 F360.000
G1 X78.646 Y-39.667 Z-6.000 F360.000
G0 Z5.000
G0 Z5.000
(Finish operation: Profile048)
(Begin operation: Profile049)
(Path: Profile049)
(Profile049)
(Compensated Tool Path. Diameter: 2.5)
G0 Z5.000
G0 X56.611 Y-39.667
G0 Z3.000
G1 X56.611 Y-39.667 Z-2.500 F360.000
G1 X56.611 Y-39.799 Z-2.500 F360.000
G1 X53.956 Y-40.486 Z-2.500 F360.000
G1 X53.680 Y-40.593 Z-2.500 F360.000
G1 X51.091 Y-41.977 Z-2.500 F360.000
G1 X50.887 Y-42.113 Z-2.500 F360.000
G1 X48.618 Y-43.976 Z-2.500 F360.000
G1 X48.445 Y-44.149 Z-2.500 F360.000
G1 X46.594 Y-46.404 Z-2.500 F360.000
G1 X41.354 Y-39.667 Z-2.500 F360.000
G1 X56.611 Y-39.667 Z-2.500 F360.000
G1 X56.611 Y-39.667 Z-5.000 F360.000
G1 X56.611 Y-39.799 Z-5.000 F360.000
G1 X53.956 Y-40.486 Z-5.000 F360.000
G1 X53.680 Y-40.593 Z-5.000 F360.000
G1 X51.091 Y-41.977 Z-5.000 F360.000
G1 X50.887 Y-42.113 Z-5.000 F360.000
G1 X48.618 Y-43.976 Z-5.000 F360.000
G1 X48.445 Y-44.149 Z-5.000 F360.000
G1 X46.594 Y-46.404 Z-5.000 F360.000
G1 X41.354 Y-39.667 Z-5.000 F360.000
G1 X56.611 Y-39.667 Z-5.000 F360.000
G1 X56.611 Y-39.667 Z-6.000 F360.000
G1 X56.611 Y-39.799 Z-6.000 F360.000
G1 X53.956 Y-40.486 Z-6.000 F360.000
G1 X53.680 Y-40.593 Z-6.000 F360.000
G1 X51.091 Y-41.977 Z-6.000 F360.000
G1 X50.887 Y-42.113 Z-6.000 F360.000
G1 X48.618 Y-43.976 Z-6.000 F360.000
G1 X48.445 Y-44.149 Z-6.000 F360.000
G1 X46.594 Y-46.404 Z-6.000 F360.000
G1 X41.354 Y-39.667 Z-6.000 F360.000
G1 X56.611 Y-39.667 Z-6.000 F360.000
G0 Z5.000
G0 Z5.000
(Finish operation: Profile049)
(Begin operation: Profile050)
(Path: Profile050)
(Profile050)
(Compensated Tool Path. Diameter: 2.5)
G0 Z5.000
G0 X63.671 Y-3.920
G0 Z3.000
G1 X63.671 Y-3.920 Z-2.500 F360.000
G1 X60.000 Y-8.640 Z-2.500 F360.000
G1 X56.329 Y-3.920 Z-2.500 F360.000
G1 X63.671 Y-3.920 Z-2.500 F360.000
G1 X63.671 Y-3.920 Z-5.000 F360.000
G1 X60.000 Y-8.640 Z-5.000 F360.000
G1 X56.329 Y-3.920 Z-5.000 F360.000
G1 X63.671 Y-3.920 Z-5.000 F360.000
G1 X63.671 Y-3.920 Z-6.000 F360.000
G1 X60.000 Y-8.640 Z-6.000 F360.000
G1 X56.329 Y-3.920 Z-6.000 F360.000
G1 X63.671 Y-3.920 Z-6.000 F360.000
G0 Z5.000
G0 Z5.000
(Finish operation: Profile050)
(Begin operation: Profile051)
(Path: Profile051)
(Profile051)
(Compensated Tool Path. Diameter: 2.5)
G0 Z5.000
G0 X66.661 Y6.130
G0 Z3.000
G1 X66.661 Y6.130 Z-2.500 F360.000
G1 X67.804 Y4.737 Z-2.500 F360.000
G1 X68.644 Y2.859 Z-2.500 F360.000
G1 X63.389 Y2.859 Z-2.500 F360.000
G1 X63.389 Y8.237 Z-2.500 F360.000
G1 X63.605 Y8.172 Z-2.500 F360.000
G1 X65.233 Y7.301 Z-2.500 F360.000
G1 X66.661 Y6.130 Z-2.500 F360.000
G1 X66.661 Y6.130 Z-5.000 F360.000
G1 X67.804 Y4.737 Z-5.000 F360.000
G1 X68.644 Y2.859 Z-5.000 F360.000
G1 X63.389 Y2.859 Z-5.000 F360.000
G1 X63.389 Y8.237 Z-5.000 F360.000
G1 X63.605 Y8.172 Z-5.000 F360.000
G1 X65.233 Y7.301 Z-5.000 F360.000
G1 X66.661 Y6.130 Z-5.000 F360.000
G1 X66.661 Y6.130 Z-6.000 F360.000
G1 X67.804 Y4.737 Z-6.000 F360.000
G1 X68.644 Y2.859 Z-6.000 F360.000
G1 X63.389 Y2.859 Z-6.000 F360.000
G1 X63.389 Y8.237 Z-6.000 F360.000
G1 X63.605 Y8.172 Z-6.000 F360.000
G1 X65.233 Y7.301 Z-6.000 F360.000
G1 X66.661 Y6.130 Z-6.000 F360.000
G0 Z5.000
G0 Z5.000
(Finish operation: Profile051)
(Begin operation: Profile052)
(Path: Profile052)
(Profile052)
(Compensated Tool Path. Diameter: 2.5)
G0 Z5.000
G0 X56.611 Y8.237
G0 Z3.000
G1 X56.611 Y8.237 Z-2.500 F360.000
G1 X56.611 Y2.859 Z-2.500 F360.000
G1 X51.356 Y2.859 Z-2.500 F360.000
G1 X52.196 Y4.737 Z-2.500 F360.000
G1 X53.339 Y6.130 Z-2.500 F360.000
G1 X54.767 Y7.301 Z-2.500 F360.000
G1 X56.395 Y8.172 Z-2.500 F360.000
G1 X56.611 Y8.237 Z-2.500 F360.000
G1 X56.611 Y8.237 Z-5.000 F360.000
G1 X56.611 Y2.859 Z-5.000 F360.000
G1 X51.356 Y2.859 Z-5.000 F360.000
G1 X52.196 Y4.737 Z-5.000 F360.000
G1 X53.339 Y6.130 Z-5.000 F360.000
G1 X54.767 Y7.301 Z-5.000 F360.000
G1 X56.395 Y8.172 Z-5.000 F360.000
G1 X56.611 Y8.237 Z-5.000 F360.000
G1 X56.611 Y8.237 Z-6.000 F360.000
G1 X56.611 Y2.859 Z-6.000 F360.000
G1 X51.356 Y2.859 Z-6.000 F360.000
G1 X52.196 Y4.737 Z-6.000 F360.000
G1 X53.339 Y6.130 Z-6.000 F360.000
G1 X54.767 Y7.301 Z-6.000 F360.000
G1 X56.395 Y8.172 Z-6.000 F360.000
G1 X56.611 Y8.237 Z-6.000 F360.000
G0 Z5.000
G0 Z5.000
(Finish operation: Profile052)
(Begin operation: Profile053)
(Path: Profile053)
(Profile053)
(Compensated Tool Path. Diameter: 2.5)
G0 Z5.000
G0 X56.611 Y15.333
G0 Z3.000
G1 X56.611 Y15.333 Z-2.500 F360.000
G1 X56.611 Y15.201 Z-2.500 F360.000
G1 X53.956 Y14.514 Z-2.500 F360.000
G1 X53.680 Y14.407 Z-2.500 F360.000
G1 X51.091 Y13.023 Z-2.500 F360.000
G1 X50.887 Y12.887 Z-2.500 F360.000
G1 X48.618 Y11.024 Z-2.500 F360.000
G1 X48.445 Y10.851 Z-2.500 F360.000
G1 X46.594 Y8.596 Z-2.500 F360.000
G1 X41.354 Y15.333 Z-2.500 F360.000
G1 X56.611 Y15.333 Z-2.500 F360.000
G1 X56.611 Y15.333 Z-5.000 F360.000
G1 X56.611 Y15.201 Z-5.000 F360.000
G1 X53.956 Y14.514 Z-5.000 F360.000
G1 X53.680 Y14.407 Z-5.000 F360.000
G1 X51.091 Y13.023 Z-5.000 F360.000
G1 X50.887 Y12.887 Z-5.000 F360.000
G1 X48.618 Y11.024 Z-5.000 F360.000
G1 X48.445 Y10.851 Z-5.000 F360.000
G1 X46.594 Y8.596 Z-5.000 F360.000
G1 X41.354 Y15.333 Z-5.000 F360.000
G1 X56.611 Y15.333 Z-5.000 F360.000
G1 X56.611 Y15.333 Z-6.000 F360.000
G1 X56.611 Y15.201 Z-6.000 F360.000
G1 X53.956 Y14.514 Z-6.000 F360.000
G1 X53.680 Y14.407 Z-6.000 F360.000
G1 X51.091 Y13.023 Z-6.000 F360.000
G1 X50.887 Y12.887 Z-6.000 F360.000
G1 X48.618 Y11.024 Z-6.000 F360.000
G1 X48.445 Y10.851 Z-6.000 F360.000
G1 X46.594 Y8.596 Z-6.000 F360.000
G1 X41.354 Y15.333 Z-6.000 F360.000
G1 X56.611 Y15.333 Z-6.000 F360.000
G0 Z5.000
G0 Z5.000
(Finish operation: Profile053)
(Begin operation: Profile054)
(Path: Profile054)
(Profile054)
(Compensated Tool Path. Diameter: 2.5)
G0 Z5.000
G0 X78.646 Y15.333
G0 Z3.000
G1 X78.646 Y15.333 Z-2.500 F360.000
G1 X73.406 Y8.596 Z-2.500 F360.000
G1 X71.555 Y10.851 Z-2.500 F360.000
G1 X71.382 Y11.024 Z-2.500 F360.000
G1 X69.113 Y12.887 Z-2.500 F360.000
G1 X68.909 Y13.023 Z-2.500 F360.000
G1 X66.320 Y14.407 Z-2.500 F360.000
G1 X66.044 Y14.514 Z-2.500 F360.000
G1 X63.389 Y15.201 Z-2.500 F360.000
G1 X63.389 Y15.333 Z-2.500 F360.000
G1 X78.646 Y15.333 Z-2.500 F360.000
G1 X78.646 Y15.333 Z-5.000 F360.000
G1 X73.406 Y8.596 Z-5.000 F360.000
G1 X71.555 Y10.851 Z-5.000 F360.000
G1 X71.382 Y11.024 Z-5.000 F360.000
G1 X69.113 Y12.887 Z-5.000 F360.000
G1 X68.909 Y13.023 Z-5.000 F360.000
G1 X66.320 Y14.407 Z-5.000 F360.000
G1 X66.044 Y14.514 Z-5.000 F360.000
G1 X63.389 Y15.201 Z-5.000 F360.000
G1 X63.389 Y15.333 Z-5.000 F360.000
G1 X78.646 Y15.333 Z-5.000 F360.000
G1 X78.646 Y15.333 Z-6.000 F360.000
G1 X73.406 Y8.596 Z-6.000 F360.000
G1 X71.555 Y10.851 Z-6.000 F360.000
G1 X71.382 Y11.024 Z-6.000 F360.000
G1 X69.113 Y12.887 Z-6.000 F360.000
G1 X68.909 Y13.023 Z-6.000 F360.000
G1 X66.320 Y14.407 Z-6.000 F360.000
G1 X66.044 Y14.514 Z-6.000 F360.000
G1 X63.389 Y15.201 Z-6.000 F360.000
G1 X63.389 Y15.333 Z-6.000 F360.000
G1 X78.646 Y15.333 Z-6.000 F360.000
G0 Z5.000
G0 Z5.000
(Finish operation: Profile054)
(Begin operation: Profile055)
(Path: Profile055)
(Profile055)
(Compensated Tool Path. Diameter: 2.5)
G0 Z5.000
G0 X63.671 Y51.080
G0 Z3.000
G1 X63.671 Y51.080 Z-2.500 F360.000
G1 X60.000 Y46.360 Z-2.500 F360.000
G1 X56.329 Y51.080 Z-2.500 F360.000
G1 X63.671 Y51.080 Z-2.500 F360.000
G1 X63.671 Y51.080 Z-5.000 F360.000
G1 X60.000 Y46.360 Z-5.000 F360.000
G1 X56.329 Y51.080 Z-5.000 F360.000
G1 X63.671 Y51.080 Z-5.000 F360.000
G1 X63.671 Y51.080 Z-6.000 F360.000
G1 X60.000 Y46.360 Z-6.000 F360.000
G1 X56.329 Y51.080 Z-6.000 F360.000
G1 X63.671 Y51.080 Z-6.000 F360.000
G0 Z5.000
G0 Z5.000
(Finish operation: Profile055)
(Begin operation: Profile056)
(Path: Profile056)
(Profile056)
(Compensated Tool Path. Diameter: 2.5)
G0 Z5.000
G0 X56.611 Y63.237
G0 Z3.000
G1 X56.611 Y63.237 Z-2.500 F360.000
G1 X56.611 Y57.859 Z-2.500 F360.000
G1 X51.356 Y57.859 Z-2.500 F360.000
G1 X52.196 Y59.737 Z-2.500 F360.000
G1 X53.339 Y61.130 Z-2.500 F360.000
G1 X54.767 Y62.301 Z-2.500 F360.000
G1 X56.395 Y63.172 Z-2.500 F360.000
G1 X56.611 Y63.237 Z-2.500 F360.000
G1 X56.611 Y63.237 Z-5.000 F360.000
G1 X56.611 Y57.859 Z-5.000 F360.000
G1 X51.356 Y57.859 Z-5.000 F360.000
G1 X52.196 Y59.737 Z-5.000 F360.000
G1 X53.339 Y61.130 Z-5.000 F360.000
G1 X54.767 Y62.301 Z-5.000 F360.000
G1 X56.395 Y63.172 Z-5.000 F360.000
G1 X56.611 Y63.237 Z-5.000 F360.000
G1 X56.611 Y63.237 Z-6.000 F360.000
G1 X56.611 Y57.859 Z-6.000 F360.000
G1 X51.356 Y57.859 Z-6.000 F360.000
G1 X52.196 Y59.737 Z-6.000 F360.000
G1 X53.339 Y61.130 Z-6.000 F360.000
G1 X54.767 Y62.301 Z-6.000 F360.000
G1 X56.395 Y63.172 Z-6.000 F360.000
G1 X56.611 Y63.237 Z-6.000 F360.000
G0 Z5.000
G0 Z5.000
(Finish operation: Profile056)
(Begin operation: Profile057)
(Path: Profile057)
(Profile057)
(Compensated Tool Path. Diameter: 2.5)
G0 Z5.000
G0 X66.661 Y61.130
G0 Z3.000
G1 X66.661 Y61.130 Z-2.500 F360.000
G1 X67.804 Y59.737 Z-2.500 F360.000
G1 X68.644 Y57.859 Z-2.500 F360.000
G1 X63.389 Y57.859 Z-2.500 F360.000
G1 X63.389 Y63.237 Z-2.500 F360.000
G1 X63.605 Y63.172 Z-2.500 F360.000
G1 X65.233 Y62.301 Z-2.500 F360.000
G1 X66.661 Y61.130 Z-2.500 F360.000
G1 X66.661 Y61.130 Z-5.000 F360.000
G1 X67.804 Y59.737 Z-5.000 F360.000
G1 X68.644 Y57.859 Z-5.000 F360.000
G1 X63.389 Y57.859 Z-5.000 F360.000
G1 X63.389 Y63.237 Z-5.000 F360.000
G1 X63.605 Y63.172 Z-5.000 F360.000
G1 X65.233 Y62.301 Z-5.000 F360.000
G1 X66.661 Y61.130 Z-5.000 F360.000
G1 X66.661 Y61.130 Z-6.000 F360.000
G1 X67.804 Y59.737 Z-6.000 F360.000
G1 X68.644 Y57.859 Z-6.000 F360.000
G1 X63.389 Y57.859 Z-6.000 F360.000
G1 X63.389 Y63.237 Z-6.000 F360.000
G1 X63.605 Y63.172 Z-6.000 F360.000
G1 X65.233 Y62.301 Z-6.000 F360.000
G1 X66.661 Y61.130 Z-6.000 F360.000
G0 Z5.000
G0 Z5.000
(Finish operation: Profile057)
(Begin operation: Profile058)
(Path: Profile058)
(Profile058)
(Compensated Tool Path. Diameter: 2.5)
G0 Z5.000
G0 X78.646 Y70.333
G0 Z3.000
G1 X78.646 Y70.333 Z-2.500 F360.000
G1 X73.406 Y63.596 Z-2.500 F360.000
G1 X71.555 Y65.851 Z-2.500 F360.000
G1 X71.382 Y66.024 Z-2.500 F360.000
G1 X69.113 Y67.887 Z-2.500 F360.000
G1 X68.909 Y68.023 Z-2.500 F360.000
G1 X66.320 Y69.407 Z-2.500 F360.000
G1 X66.044 Y69.514 Z-2.500 F360.000
G1 X63.389 Y70.201 Z-2.500 F360.000
G1 X63.389 Y70.333 Z-2.500 F360.000
G1 X78.646 Y70.333 Z-2.500 F360.000
G1 X78.646 Y70.333 Z-5.000 F360.000
G1 X73.406 Y63.596 Z-5.000 F360.000
G1 X71.555 Y65.851 Z-5.000 F360.000
G1 X71.382 Y66.024 Z-5.000 F360.000
G1 X69.113 Y67.887 Z-5.000 F360.000
G1 X68.909 Y68.023 Z-5.000 F360.000
G1 X66.320 Y69.407 Z-5.000 F360.000
G1 X66.044 Y69.514 Z-5.000 F360.000
G1 X63.389 Y70.201 Z-5.000 F360.000
G1 X63.389 Y70.333 Z-5.000 F360.000
G1 X78.646 Y70.333 Z-5.000 F360.000
G1 X78.646 Y70.333 Z-6.000 F360.000
G1 X73.406 Y63.596 Z-6.000 F360.000
G1 X71.555 Y65.851 Z-6.000 F360.000
G1 X71.382 Y66.024 Z-6.000 F360.000
G1 X69.113 Y67.887 Z-6.000 F360.000
G1 X68.909 Y68.023 Z-6.000 F360.000
G1 X66.320 Y69.407 Z-6.000 F360.000
G1 X66.044 Y69.514 Z-6.000 F360.000
G1 X63.389 Y70.201 Z-6.000 F360.000
G1 X63.389 Y70.333 Z-6.000 F360.000
G1 X78.646 Y70.333 Z-6.000 F360.000
G0 Z5.000
G0 Z5.000
(Finish operation: Profile058)
(Begin operation: Profile059)
(Path: Profile059)
(Profile059)
(Compensated Tool Path. Diameter: 2.5)
G0 Z5.000
G0 X56.611 Y70.333
G0 Z3.000
G1 X56.611 Y70.333 Z-2.500 F360.000
G1 X56.611 Y70.201 Z-2.500 F360.000
G1 X53.956 Y69.514 Z-2.500 F360.000
G1 X53.680 Y69.407 Z-2.500 F360.000
G1 X51.091 Y68.023 Z-2.500 F360.000
G1 X50.887 Y67.887 Z-2.500 F360.000
G1 X48.618 Y66.024 Z-2.500 F360.000
G1 X48.445 Y65.851 Z-2.500 F360.000
G1 X46.594 Y63.596 Z-2.500 F360.000
G1 X41.354 Y70.333 Z-2.500 F360.000
G1 X56.611 Y70.333 Z-2.500 F360.000
G1 X56.611 Y70.333 Z-5.000 F360.000
G1 X56.611 Y70.201 Z-5.000 F360.000
G1 X53.956 Y69.514 Z-5.000 F360.000
G1 X53.680 Y69.407 Z-5.000 F360.000
G1 X51.091 Y68.023 Z-5.000 F360.000
G1 X50.887 Y67.887 Z-5.000 F360.000
G1 X48.618 Y66.024 Z-5.000 F360.000
G1 X48.445 Y65.851 Z-5.000 F360.000
G1 X46.594 Y63.596 Z-5.000 F360.000
G1 X41.354 Y70.333 Z-5.000 F360.000
G1 X56.611 Y70.333 Z-5.000 F360.000
G1 X56.611 Y70.333 Z-6.000 F360.000
G1 X56.611 Y70.201 Z-6.000 F360.000
G1 X53.956 Y69.514 Z-6.000 F360.000
G1 X53.680 Y69.407 Z-6.000 F360.000
G1 X51.091 Y68.023 Z-6.000 F360.000
G1 X50.887 Y67.887 Z-6.000 F360.000
G1 X48.618 Y66.024 Z-6.000 F360.000
G1 X48.445 Y65.851 Z-6.000 F360.000
G1 X46.594 Y63.596 Z-6.000 F360.000
G1 X41.354 Y70.333 Z-6.000 F360.000
G1 X56.611 Y70.333 Z-6.000 F360.000
G0 Z5.000
G0 Z5.000
(Finish operation: Profile059)
(Begin operation: Profile060)
(Path: Profile060)
(Profile060)
(Compensated Tool Path. Diameter: 2.5)
G0 Z5.000
G0 X90.834 Y76.746
G0 Z3.000
G1 X90.834 Y76.746 Z-2.500 F360.000
G2 X90.937 Y75.095 Z-2.500 I-0.884 J-0.884 K0.000 F360.000
G1 X77.531 Y57.859 Z-2.500 F360.000
G1 X85.671 Y57.859 Z-2.500 F360.000
G2 X86.921 Y56.609 Z-2.500 I0.000 J-1.250 K0.000 F360.000
G1 X86.921 Y52.330 Z-2.500 F360.000
G2 X85.671 Y51.080 Z-2.500 I-1.250 J-0.000 K0.000 F360.000
G1 X72.259 Y51.080 Z-2.500 F360.000
G1 X63.389 Y39.677 Z-2.500 F360.000
G1 X63.389 Y28.798 Z-2.500 F360.000
G2 X62.139 Y27.548 Z-2.500 I-1.250 J-0.000 K0.000 F360.000
G1 X57.861 Y27.548 Z-2.500 F360.000
G2 X56.611 Y28.798 Z-2.500 I-0.000 J1.250 K0.000 F360.000
G1 X56.611 Y39.677 Z-2.500 F360.000
G1 X47.741 Y51.080 Z-2.500 F360.000
G1 X34.329 Y51.080 Z-2.500 F360.000
G2 X33.079 Y52.330 Z-2.500 I-0.000 J1.250 K0.000 F360.000
G1 X33.079 Y56.609 Z-2.500 F360.000
G2 X34.329 Y57.859 Z-2.500 I1.250 J0.000 K0.000 F360.000
G1 X42.469 Y57.859 Z-2.500 F360.000
G1 X29.063 Y75.095 Z-2.500 F360.000
G2 X30.050 Y77.112 Z-2.500 I0.987 J0.767 K0.000 F360.000
G1 X89.950 Y77.112 Z-2.500 F360.000
G2 X90.834 Y76.746 Z-2.500 I0.000 J-1.250 K0.000 F360.000
G1 X90.834 Y76.746 Z-5.000 F360.000
G2 X90.937 Y75.095 Z-5.000 I-0.884 J-0.884 K0.000 F360.000
G1 X77.531 Y57.859 Z-5.000 F360.000
G1 X85.671 Y57.859 Z-5.000 F360.000
G2 X86.921 Y56.609 Z-5.000 I0.000 J-1.250 K0.000 F360.000
G1 X86.921 Y52.330 Z-5.000 F360.000
G2 X85.671 Y51.080 Z-5.000 I-1.250 J-0.000 K0.000 F360.000
G1 X72.259 Y51.080 Z-5.000 F360.000
G1 X63.389 Y39.677 Z-5.000 F360.000
G1 X63.389 Y28.798 Z-5.000 F360.000
G2 X62.139 Y27.548 Z-5.000 I-1.250 J-0.000 K0.000 F360.000
G1 X57.861 Y27.548 Z-5.000 F360.000
G2 X56.611 Y28.798 Z-5.000 I-0.000 J1.250 K0.000 F360.000
G1 X56.611 Y39.677 Z-5.000 F360.000
G1 X47.741 Y51.080 Z-5.000 F360.000
G1 X34.329 Y51.080 Z-5.000 F360.000
G2 X33.079 Y52.330 Z-5.000 I-0.000 J1.250 K0.000 F360.000
G1 X33.079 Y56.609 Z-5.000 F360.000
G2 X34.329 Y57.859 Z-5.000 I1.250 J0.000 K0.000 F360.000
G1 X42.469 Y57.859 Z-5.000 F360.000
G1 X29.063 Y75.095 Z-5.000 F360.000
G2 X30.050 Y77.112 Z-5.000 I0.987 J0.767 K0.000 F360.000
G1 X89.950 Y77.112 Z-5.000 F360.000
G2 X90.834 Y76.746 Z-5.000 I0.000 J-1.250 K0.000 F360.000
G1 X90.834 Y76.746 Z-6.000 F360.000
G2 X90.937 Y75.095 Z-6.000 I-0.884 J-0.884 K0.000 F360.000
G1 X77.531 Y57.859 Z-6.000 F360.000
G1 X85.671 Y57.859 Z-6.000 F360.000
G2 X86.921 Y56.609 Z-6.000 I0.000 J-1.250 K0.000 F360.000
G1 X86.921 Y52.330 Z-6.000 F360.000
G2 X85.671 Y51.080 Z-6.000 I-1.250 J-0.000 K0.000 F360.000
G1 X72.259 Y51.080 Z-6.000 F360.000
G1 X63.389 Y39.677 Z-6.000 F360.000
G1 X63.389 Y28.798 Z-6.000 F360.000
G2 X62.139 Y27.548 Z-6.000 I-1.250 J-0.000 K0.000 F360.000
G1 X57.861 Y27.548 Z-6.000 F360.000
G2 X56.611 Y28.798 Z-6.000 I-0.000 J1.250 K0.000 F360.000
G1 X56.611 Y39.677 Z-6.000 F360.000
G1 X47.741 Y51.080 Z-6.000 F360.000
G1 X34.329 Y51.080 Z-6.000 F360.000
G2 X33.079 Y52.330 Z-6.000 I-0.000 J1.250 K0.000 F360.000
G1 X33.079 Y56.609 Z-6.000 F360.000
G2 X34.329 Y57.859 Z-6.000 I1.250 J0.000 K0.000 F360.000
G1 X42.469 Y57.859 Z-6.000 F360.000
G1 X29.063 Y75.095 Z-6.000 F360.000
G2 X30.050 Y77.112 Z-6.000 I0.987 J0.767 K0.000 F360.000
G1 X89.950 Y77.112 Z-6.000 F360.000
G2 X90.834 Y76.746 Z-6.000 I0.000 J-1.250 K0.000 F360.000
G0 Z5.000
G0 Z5.000
(Finish operation: Profile060)
(Begin operation: Profile061)
(Path: Profile061)
(Profile061)
(Compensated Tool Path. Diameter: 2.5)
G0 Z5.000
G0 X45.944 Y48.890
G0 Z3.000
G1 X45.944 Y48.890 Z-2.500 F360.000
G2 X46.921 Y47.670 Z-2.500 I-0.272 J-1.220 K0.000 F360.000
G1 X46.921 Y43.391 Z-2.500 F360.000
G2 X45.671 Y42.141 Z-2.500 I-1.250 J-0.000 K0.000 F360.000
G1 X37.531 Y42.141 Z-2.500 F360.000
G1 X50.937 Y24.905 Z-2.500 F360.000
G2 X49.950 Y22.888 Z-2.500 I-0.987 J-0.767 K0.000 F360.000
G1 X-9.950 Y22.888 Z-2.500 F360.000
G2 X-10.937 Y24.905 Z-2.500 I-0.000 J1.250 K0.000 F360.000
G1 X2.469 Y42.141 Z-2.500 F360.000
G1 X-5.671 Y42.141 Z-2.500 F360.000
G2 X-6.921 Y43.391 Z-2.500 I-0.000 J1.250 K0.000 F360.000
G1 X-6.921 Y47.670 Z-2.500 F360.000
G2 X-5.671 Y48.920 Z-2.500 I1.250 J0.000 K0.000 F360.000
G1 X7.741 Y48.920 Z-2.500 F360.000
G1 X16.611 Y60.323 Z-2.500 F360.000
G1 X16.611 Y71.202 Z-2.500 F360.000
G2 X17.861 Y72.452 Z-2.500 I1.250 J0.000 K0.000 F360.000
G1 X22.139 Y72.452 Z-2.500 F360.000
G2 X23.389 Y71.202 Z-2.500 I0.000 J-1.250 K0.000 F360.000
G1 X23.389 Y60.323 Z-2.500 F360.000
G1 X32.259 Y48.920 Z-2.500 F360.000
G1 X45.671 Y48.920 Z-2.500 F360.000
G2 X45.944 Y48.890 Z-2.500 I0.000 J-1.250 K0.000 F360.000
G1 X45.944 Y48.890 Z-5.000 F360.000
G2 X46.921 Y47.670 Z-5.000 I-0.272 J-1.220 K0.000 F360.000
G1 X46.921 Y43.391 Z-5.000 F360.000
G2 X45.671 Y42.141 Z-5.000 I-1.250 J-0.000 K0.000 F360.000
G1 X37.531 Y42.141 Z-5.000 F360.000
G1 X50.937 Y24.905 Z-5.000 F360.000
G2 X49.950 Y22.888 Z-5.000 I-0.987 J-0.767 K0.000 F360.000
G1 X-9.950 Y22.888 Z-5.000 F360.000
G2 X-10.937 Y24.905 Z-5.000 I-0.000 J1.250 K0.000 F360.000
G1 X2.469 Y42.141 Z-5.000 F360.000
G1 X-5.671 Y42.141 Z-5.000 F360.000
G2 X-6.921 Y43.391 Z-5.000 I-0.000 J1.250 K0.000 F360.000
G1 X-6.921 Y47.670 Z-5.000 F360.000
G2 X-5.671 Y48.920 Z-5.000 I1.250 J0.000 K0.000 F360.000
G1 X7.741 Y48.920 Z-5.000 F360.000
G1 X16.611 Y60.323 Z-5.000 F360.000
G1 X16.611 Y71.202 Z-5.000 F360.000
G2 X17.861 Y72.452 Z-5.000 I1.250 J0.000 K0.000 F360.000
G1 X22.139 Y72.452 Z-5.000 F360.000
G2 X23.389 Y71.202 Z-5.000 I0.000 J-1.250 K0.000 F360.000
G1 X23.389 Y60.323 Z-5.000 F360.000
G1 X32.259 Y48.920 Z-5.000 F360.000
G1 X45.671 Y48.920 Z-5.000 F360.000
G2 X45.944 Y48.890 Z-5.000 I0.000 J-1.250 K0.000 F360.000
G1 X45.944 Y48.890 Z-6.000 F360.000
G2 X46.921 Y47.670 Z-6.000 I-0.272 J-1.220 K0.000 F360.000
G1 X46.921 Y43.391 Z-6.000 F360.000
G2 X45.671 Y42.141 Z-6.000 I-1.250 J-0.000 K0.000 F360.000
G1 X37.531 Y42.141 Z-6.000 F360.000
G1 X50.937 Y24.905 Z-6.000 F360.000
G2 X49.950 Y22.888 Z-6.000 I-0.987 J-0.767 K0.000 F360.000
G1 X-9.950 Y22.888 Z-6.000 F360.000
G2 X-10.937 Y24.905 Z-6.000 I-0.000 J1.250 K0.000 F360.000
G1 X2.469 Y42.141 Z-6.000 F360.000
G1 X-5.671 Y42.141 Z-6.000 F360.000
G2 X-6.921 Y43.391 Z-6.000 I-0.000 J1.250 K0.000 F360.000
G1 X-6.921 Y47.670 Z-6.000 F360.000
G2 X-5.671 Y48.920 Z-6.000 I1.250 J0.000 K0.000 F360.000
G1 X7.741 Y48.920 Z-6.000 F360.000
G1 X16.611 Y60.323 Z-6.000 F360.000
G1 X16.611 Y71.202 Z-6.000 F360.000
G2 X17.861 Y72.452 Z-6.000 I1.250 J0.000 K0.000 F360.000
G1 X22.139 Y72.452 Z-6.000 F360.000
G2 X23.389 Y71.202 Z-6.000 I0.000 J-1.250 K0.000 F360.000
G1 X23.389 Y60.323 Z-6.000 F360.000
G1 X32.259 Y48.920 Z-6.000 F360.000
G1 X45.671 Y48.920 Z-6.000 F360.000
G2 X45.944 Y48.890 Z-6.000 I0.000 J-1.250 K0.000 F360.000
G0 Z5.000
G0 Z5.000
(Finish operation: Profile061)
(Begin operation: Profile062)
(Path: Profile062)
(Profile062)
(Compensated Tool Path. Diameter: 2.5)
G0 Z5.000
G0 X10.834 Y76.746
G0 Z3.000
G1 X10.834 Y76.746 Z-2.500 F360.000
G2 X10.937 Y75.095 Z-2.500 I-0.884 J-0.884 K0.000 F360.000
G1 X-2.469 Y57.859 Z-2.500 F360.000
G1 X5.671 Y57.859 Z-2.500 F360.000
G2 X6.921 Y56.609 Z-2.500 I0.000 J-1.250 K0.000 F360.000
G1 X6.921 Y52.330 Z-2.500 F360.000
G2 X5.671 Y51.080 Z-2.500 I-1.250 J-0.000 K0.000 F360.000
G1 X-7.741 Y51.080 Z-2.500 F360.000
G1 X-16.611 Y39.677 Z-2.500 F360.000
G1 X-16.611 Y28.798 Z-2.500 F360.000
G2 X-17.861 Y27.548 Z-2.500 I-1.250 J-0.000 K0.000 F360.000
G1 X-22.139 Y27.548 Z-2.500 F360.000
G2 X-23.389 Y28.798 Z-2.500 I-0.000 J1.250 K0.000 F360.000
G1 X-23.389 Y39.677 Z-2.500 F360.000
G1 X-32.259 Y51.080 Z-2.500 F360.000
G1 X-45.671 Y51.080 Z-2.500 F360.000
G2 X-46.921 Y52.330 Z-2.500 I-0.000 J1.250 K0.000 F360.000
G1 X-46.921 Y56.609 Z-2.500 F360.000
G2 X-45.671 Y57.859 Z-2.500 I1.250 J0.000 K0.000 F360.000
G1 X-37.531 Y57.859 Z-2.500 F360.000
G1 X-50.937 Y75.095 Z-2.500 F360.000
G2 X-49.950 Y77.112 Z-2.500 I0.987 J0.767 K0.000 F360.000
G1 X9.950 Y77.112 Z-2.500 F360.000
G2 X10.834 Y76.746 Z-2.500 I0.000 J-1.250 K0.000 F360.000
G1 X10.834 Y76.746 Z-5.000 F360.000
G2 X10.937 Y75.095 Z-5.000 I-0.884 J-0.884 K0.000 F360.000
G1 X-2.469 Y57.859 Z-5.000 F360.000
G1 X5.671 Y57.859 Z-5.000 F360.000
G2 X6.921 Y56.609 Z-5.000 I0.000 J-1.250 K0.000 F360.000
G1 X6.921 Y52.330 Z-5.000 F360.000
G2 X5.671 Y51.080 Z-5.000 I-1.250 J-0.000 K0.000 F360.000
G1 X-7.741 Y51.080 Z-5.000 F360.000
G1 X-16.611 Y39.677 Z-5.000 F360.000
G1 X-16.611 Y28.798 Z-5.000 F360.000
G2 X-17.861 Y27.548 Z-5.000 I-1.250 J-0.000 K0.000 F360.000
G1 X-22.139 Y27.548 Z-5.000 F360.000
G2 X-23.389 Y28.798 Z-5.000 I-0.000 J1.250 K0.000 F360.000
G1 X-23.389 Y39.677 Z-5.000 F360.000
G1 X-32.259 Y51.080 Z-5.000 F360.000
G1 X-45.671 Y51.080 Z-5.000 F360.000
G2 X-46.921 Y52.330 Z-5.000 I-0.000 J1.250 K0.000 F360.000
G1 X-46.921 Y56.609 Z-5.000 F360.000
G2 X-45.671 Y57.859 Z-5.000 I1.250 J0.000 K0.000 F360.000
G1 X-37.531 Y57.859 Z-5.000 F360.000
G1 X-50.937 Y75.095 Z-5.000 F360.000
G2 X-49.950 Y77.112 Z-5.000 I0.987 J0.767 K0.000 F360.000
G1 X9.950 Y77.112 Z-5.000 F360.000
G2 X10.834 Y76.746 Z-5.000 I0.000 J-1.250 K0.000 F360.000
G1 X10.834 Y76.746 Z-6.000 F360.000
G2 X10.937 Y75.095 Z-6.000 I-0.884 J-0.884 K0.000 F360.000
G1 X-2.469 Y57.859 Z-6.000 F360.000
G1 X5.671 Y57.859 Z-6.000 F360.000
G2 X6.921 Y56.609 Z-6.000 I0.000 J-1.250 K0.000 F360.000
G1 X6.921 Y52.330 Z-6.000 F360.000
G2 X5.671 Y51.080 Z-6.000 I-1.250 J-0.000 K0.000 F360.000
G1 X-7.741 Y51.080 Z-6.000 F360.000
G1 X-16.611 Y39.677 Z-6.000 F360.000
G1 X-16.611 Y28.798 Z-6.000 F360.000
G2 X-17.861 Y27.548 Z-6.000 I-1.250 J-0.000 K0.000 F360.000
G1 X-22.139 Y27.548 Z-6.000 F360.000
G2 X-23.389 Y28.798 Z-6.000 I-0.000 J1.250 K0.000 F360.000
G1 X-23.389 Y39.677 Z-6.000 F360.000
G1 X-32.259 Y51.080 Z-6.000 F360.000
G1 X-45.671 Y51.080 Z-6.000 F360.000
G2 X-46.921 Y52.330 Z-6.000 I-0.000 J1.250 K0.000 F360.000
G1 X-46.921 Y56.609 Z-6.000 F360.000
G2 X-45.671 Y57.859 Z-6.000 I1.250 J0.000 K0.000 F360.000
G1 X-37.531 Y57.859 Z-6.000 F360.000
G1 X-50.937 Y75.095 Z-6.000 F360.000
G2 X-49.950 Y77.112 Z-6.000 I0.987 J0.767 K0.000 F360.000
G1 X9.950 Y77.112 Z-6.000 F360.000
G2 X10.834 Y76.746 Z-6.000 I0.000 J-1.250 K0.000 F360.000
G0 Z5.000
G0 Z5.000
(Finish operation: Profile062)
(Begin operation: Profile063)
(Path: Profile063)
(Profile063)
(Compensated Tool Path. Diameter: 2.5)
G0 Z5.000
G0 X10.834 Y76.746
G0 Z3.000
G1 X10.834 Y76.746 Z-2.500 F360.000
G2 X10.937 Y75.095 Z-2.500 I-0.884 J-0.884 K0.000 F360.000
G1 X-2.469 Y57.859 Z-2.500 F360.000
G1 X5.671 Y57.859 Z-2.500 F360.000
G2 X6.921 Y56.609 Z-2.500 I0.000 J-1.250 K0.000 F360.000
G1 X6.921 Y52.330 Z-2.500 F360.000
G2 X5.671 Y51.080 Z-2.500 I-1.250 J-0.000 K0.000 F360.000
G1 X-7.741 Y51.080 Z-2.500 F360.000
G1 X-16.611 Y39.677 Z-2.500 F360.000
G1 X-16.611 Y28.798 Z-2.500 F360.000
G2 X-17.861 Y27.548 Z-2.500 I-1.250 J-0.000 K0.000 F360.000
G1 X-22.139 Y27.548 Z-2.500 F360.000
G2 X-23.389 Y28.798 Z-2.500 I-0.000 J1.250 K0.000 F360.000
G1 X-23.389 Y39.677 Z-2.500 F360.000
G1 X-32.259 Y51.080 Z-2.500 F360.000
G1 X-45.671 Y51.080 Z-2.500 F360.000
G2 X-46.921 Y52.330 Z-2.500 I-0.000 J1.250 K0.000 F360.000
G1 X-46.921 Y56.609 Z-2.500 F360.000
G2 X-45.671 Y57.859 Z-2.500 I1.250 J0.000 K0.000 F360.000
G1 X-37.531 Y57.859 Z-2.500 F360.000
G1 X-50.937 Y75.095 Z-2.500 F360.000
G2 X-49.950 Y77.112 Z-2.500 I0.987 J0.767 K0.000 F360.000
G1 X9.950 Y77.112 Z-2.500 F360.000
G2 X10.834 Y76.746 Z-2.500 I0.000 J-1.250 K0.000 F360.000
G0 Z5.000
G0 X-33.278 Y48.347 Z5.000
G0 X-33.278 Y48.347 Z3.000
G1 X-33.278 Y48.347 Z-2.500 F360.000
G2 X-33.079 Y47.670 Z-2.500 I-1.051 J-0.677 K0.000 F360.000
G1 X-33.079 Y43.391 Z-2.500 F360.000
G2 X-34.329 Y42.141 Z-2.500 I-1.250 J-0.000 K0.000 F360.000
G1 X-42.469 Y42.141 Z-2.500 F360.000
G1 X-29.063 Y24.905 Z-2.500 F360.000
G2 X-30.050 Y22.888 Z-2.500 I-0.987 J-0.767 K0.000 F360.000
G1 X-89.950 Y22.888 Z-2.500 F360.000
G2 X-90.937 Y24.905 Z-2.500 I-0.000 J1.250 K0.000 F360.000
G1 X-77.531 Y42.141 Z-2.500 F360.000
G1 X-85.671 Y42.141 Z-2.500 F360.000
G2 X-86.921 Y43.391 Z-2.500 I-0.000 J1.250 K0.000 F360.000
G1 X-86.921 Y47.670 Z-2.500 F360.000
G2 X-85.671 Y48.920 Z-2.500 I1.250 J0.000 K0.000 F360.000
G1 X-72.259 Y48.920 Z-2.500 F360.000
G1 X-63.389 Y60.323 Z-2.500 F360.000
G1 X-63.389 Y71.202 Z-2.500 F360.000
G2 X-62.139 Y72.452 Z-2.500 I1.250 J0.000 K0.000 F360.000
G1 X-57.861 Y72.452 Z-2.500 F360.000
G2 X-56.611 Y71.202 Z-2.500 I0.000 J-1.250 K0.000 F360.000
G1 X-56.611 Y60.323 Z-2.500 F360.000
G1 X-47.741 Y48.920 Z-2.500 F360.000
G1 X-34.329 Y48.920 Z-2.500 F360.000
G2 X-33.278 Y48.347 Z-2.500 I0.000 J-1.250 K0.000 F360.000
G1 X-33.278 Y48.347 Z-5.000 F360.000
G2 X-33.079 Y47.670 Z-5.000 I-1.051 J-0.677 K0.000 F360.000
G1 X-33.079 Y43.391 Z-5.000 F360.000
G2 X-34.329 Y42.141 Z-5.000 I-1.250 J-0.000 K0.000 F360.000
G1 X-42.469 Y42.141 Z-5.000 F360.000
G1 X-29.063 Y24.905 Z-5.000 F360.000
G2 X-30.050 Y22.888 Z-5.000 I-0.987 J-0.767 K0.000 F360.000
G1 X-89.950 Y22.888 Z-5.000 F360.000
G2 X-90.937 Y24.905 Z-5.000 I-0.000 J1.250 K0.000 F360.000
G1 X-77.531 Y42.141 Z-5.000 F360.000
G1 X-85.671 Y42.141 Z-5.000 F360.000
G2 X-86.921 Y43.391 Z-5.000 I-0.000 J1.250 K0.000 F360.000
G1 X-86.921 Y47.670 Z-5.000 F360.000
G2 X-85.671 Y48.920 Z-5.000 I1.250 J0.000 K0.000 F360.000
G1 X-72.259 Y48.920 Z-5.000 F360.000
G1 X-63.389 Y60.323 Z-5.000 F360.000
G1 X-63.389 Y71.202 Z-5.000 F360.000
G2 X-62.139 Y72.452 Z-5.000 I1.250 J0.000 K0.000 F360.000
G1 X-57.861 Y72.452 Z-5.000 F360.000
G2 X-56.611 Y71.202 Z-5.000 I0.000 J-1.250 K0.000 F360.000
G1 X-56.611 Y60.323 Z-5.000 F360.000
G1 X-47.741 Y48.920 Z-5.000 F360.000
G1 X-34.329 Y48.920 Z-5.000 F360.000
G2 X-33.278 Y48.347 Z-5.000 I0.000 J-1.250 K0.000 F360.000
G0 Z5.000
G0 X-31.318 Y49.871 Z5.000
G0 X-31.318 Y49.871 Z3.000
G1 X-31.318 Y49.871 Z-5.000 F360.000
G1 X-32.259 Y51.080 Z-5.000 F360.000
G1 X-45.671 Y51.080 Z-5.000 F360.000
G2 X-46.921 Y52.330 Z-5.000 I-0.000 J1.250 K0.000 F360.000
G1 X-46.921 Y56.609 Z-5.000 F360.000
G2 X-45.671 Y57.859 Z-5.000 I1.250 J0.000 K0.000 F360.000
G1 X-37.531 Y57.859 Z-5.000 F360.000
G1 X-50.937 Y75.095 Z-5.000 F360.000
G2 X-49.950 Y77.112 Z-5.000 I0.987 J0.767 K0.000 F360.000
G1 X9.950 Y77.112 Z-5.000 F360.000
G2 X10.937 Y75.095 Z-5.000 I0.000 J-1.250 K0.000 F360.000
G1 X-2.469 Y57.859 Z-5.000 F360.000
G1 X5.671 Y57.859 Z-5.000 F360.000
G2 X6.921 Y56.609 Z-5.000 I0.000 J-1.250 K0.000 F360.000
G1 X6.921 Y52.330 Z-5.000 F360.000
G2 X5.671 Y51.080 Z-5.000 I-1.250 J-0.000 K0.000 F360.000
G1 X-7.741 Y51.080 Z-5.000 F360.000
G1 X-16.611 Y39.677 Z-5.000 F360.000
G1 X-16.611 Y28.798 Z-5.000 F360.000
G2 X-17.861 Y27.548 Z-5.000 I-1.250 J-0.000 K0.000 F360.000
G1 X-22.139 Y27.548 Z-5.000 F360.000
G2 X-23.389 Y28.798 Z-5.000 I-0.000 J1.250 K0.000 F360.000
G1 X-23.389 Y39.677 Z-5.000 F360.000
G1 X-31.318 Y49.871 Z-5.000 F360.000
G1 X-31.318 Y49.871 Z-6.000 F360.000
G1 X-32.259 Y51.080 Z-6.000 F360.000
G1 X-45.671 Y51.080 Z-6.000 F360.000
G2 X-46.921 Y52.330 Z-6.000 I-0.000 J1.250 K0.000 F360.000
G1 X-46.921 Y56.609 Z-6.000 F360.000
G2 X-45.671 Y57.859 Z-6.000 I1.250 J0.000 K0.000 F360.000
G1 X-37.531 Y57.859 Z-6.000 F360.000
G1 X-50.937 Y75.095 Z-6.000 F360.000
G2 X-49.950 Y77.112 Z-6.000 I0.987 J0.767 K0.000 F360.000
G1 X9.950 Y77.112 Z-6.000 F360.000
G2 X10.937 Y75.095 Z-6.000 I0.000 J-1.250 K0.000 F360.000
G1 X-2.469 Y57.859 Z-6.000 F360.000
G1 X5.671 Y57.859 Z-6.000 F360.000
G2 X6.921 Y56.609 Z-6.000 I0.000 J-1.250 K0.000 F360.000
G1 X6.921 Y52.330 Z-6.000 F360.000
G2 X5.671 Y51.080 Z-6.000 I-1.250 J-0.000 K0.000 F360.000
G1 X-7.741 Y51.080 Z-6.000 F360.000
G1 X-16.611 Y39.677 Z-6.000 F360.000
G1 X-16.611 Y28.798 Z-6.000 F360.000
G2 X-17.861 Y27.548 Z-6.000 I-1.250 J-0.000 K0.000 F360.000
G1 X-22.139 Y27.548 Z-6.000 F360.000
G2 X-23.389 Y28.798 Z-6.000 I-0.000 J1.250 K0.000 F360.000
G1 X-23.389 Y39.677 Z-6.000 F360.000
G1 X-31.318 Y49.871 Z-6.000 F360.000
G0 Z5.000
G0 X-33.320 Y48.408 Z5.000
G0 X-33.320 Y48.408 Z3.000
G1 X-33.320 Y48.408 Z-6.000 F360.000
G2 X-33.079 Y47.670 Z-6.000 I-1.009 J-0.738 K0.000 F360.000
G1 X-33.079 Y43.391 Z-6.000 F360.000
G2 X-34.329 Y42.141 Z-6.000 I-1.250 J-0.000 K0.000 F360.000
G1 X-42.469 Y42.141 Z-6.000 F360.000
G1 X-29.063 Y24.905 Z-6.000 F360.000
G2 X-30.050 Y22.888 Z-6.000 I-0.987 J-0.767 K0.000 F360.000
G1 X-89.950 Y22.888 Z-6.000 F360.000
G2 X-90.937 Y24.905 Z-6.000 I-0.000 J1.250 K0.000 F360.000
G1 X-77.531 Y42.141 Z-6.000 F360.000
G1 X-85.671 Y42.141 Z-6.000 F360.000
G2 X-86.921 Y43.391 Z-6.000 I-0.000 J1.250 K0.000 F360.000
G1 X-86.921 Y47.670 Z-6.000 F360.000
G2 X-85.671 Y48.920 Z-6.000 I1.250 J0.000 K0.000 F360.000
G1 X-72.259 Y48.920 Z-6.000 F360.000
G1 X-63.389 Y60.323 Z-6.000 F360.000
G1 X-63.389 Y71.202 Z-6.000 F360.000
G2 X-62.139 Y72.452 Z-6.000 I1.250 J0.000 K0.000 F360.000
G1 X-57.861 Y72.452 Z-6.000 F360.000
G2 X-56.611 Y71.202 Z-6.000 I0.000 J-1.250 K0.000 F360.000
G1 X-56.611 Y60.323 Z-6.000 F360.000
G1 X-47.741 Y48.920 Z-6.000 F360.000
G1 X-34.329 Y48.920 Z-6.000 F360.000
G2 X-33.320 Y48.408 Z-6.000 I0.000 J-1.250 K0.000 F360.000
G0 Z5.000
G0 Z5.000
(Finish operation: Profile063)
(Begin operation: Profile064)
(Path: Profile064)
(Profile064)
(Compensated Tool Path. Diameter: 2.5)
G0 Z5.000
G0 X-34.056 Y-6.110
G0 Z3.000
G1 X-34.056 Y-6.110 Z-2.500 F360.000
G2 X-33.079 Y-7.330 Z-2.500 I-0.272 J-1.220 K0.000 F360.000
G1 X-33.079 Y-11.609 Z-2.500 F360.000
G2 X-34.329 Y-12.859 Z-2.500 I-1.250 J-0.000 K0.000 F360.000
G1 X-42.469 Y-12.859 Z-2.500 F360.000
G1 X-29.063 Y-30.095 Z-2.500 F360.000
G2 X-30.050 Y-32.112 Z-2.500 I-0.987 J-0.767 K0.000 F360.000
G1 X-89.950 Y-32.112 Z-2.500 F360.000
G2 X-90.937 Y-30.095 Z-2.500 I-0.000 J1.250 K0.000 F360.000
G1 X-77.531 Y-12.859 Z-2.500 F360.000
G1 X-85.671 Y-12.859 Z-2.500 F360.000
G2 X-86.921 Y-11.609 Z-2.500 I-0.000 J1.250 K0.000 F360.000
G1 X-86.921 Y-7.330 Z-2.500 F360.000
G2 X-85.671 Y-6.080 Z-2.500 I1.250 J0.000 K0.000 F360.000
G1 X-72.259 Y-6.080 Z-2.500 F360.000
G1 X-63.389 Y5.323 Z-2.500 F360.000
G1 X-63.389 Y16.202 Z-2.500 F360.000
G2 X-62.139 Y17.452 Z-2.500 I1.250 J0.000 K0.000 F360.000
G1 X-57.861 Y17.452 Z-2.500 F360.000
G2 X-56.611 Y16.202 Z-2.500 I0.000 J-1.250 K0.000 F360.000
G1 X-56.611 Y5.323 Z-2.500 F360.000
G1 X-47.741 Y-6.080 Z-2.500 F360.000
G1 X-34.329 Y-6.080 Z-2.500 F360.000
G2 X-34.056 Y-6.110 Z-2.500 I0.000 J-1.250 K0.000 F360.000
G1 X-34.056 Y-6.110 Z-5.000 F360.000
G2 X-33.079 Y-7.330 Z-5.000 I-0.272 J-1.220 K0.000 F360.000
G1 X-33.079 Y-11.609 Z-5.000 F360.000
G2 X-34.329 Y-12.859 Z-5.000 I-1.250 J-0.000 K0.000 F360.000
G1 X-42.469 Y-12.859 Z-5.000 F360.000
G1 X-29.063 Y-30.095 Z-5.000 F360.000
G2 X-30.050 Y-32.112 Z-5.000 I-0.987 J-0.767 K0.000 F360.000
G1 X-89.950 Y-32.112 Z-5.000 F360.000
G2 X-90.937 Y-30.095 Z-5.000 I-0.000 J1.250 K0.000 F360.000
G1 X-77.531 Y-12.859 Z-5.000 F360.000
G1 X-85.671 Y-12.859 Z-5.000 F360.000
G2 X-86.921 Y-11.609 Z-5.000 I-0.000 J1.250 K0.000 F360.000
G1 X-86.921 Y-7.330 Z-5.000 F360.000
G2 X-85.671 Y-6.080 Z-5.000 I1.250 J0.000 K0.000 F360.000
G1 X-72.259 Y-6.080 Z-5.000 F360.000
G1 X-63.389 Y5.323 Z-5.000 F360.000
G1 X-63.389 Y16.202 Z-5.000 F360.000
G2 X-62.139 Y17.452 Z-5.000 I1.250 J0.000 K0.000 F360.000
G1 X-57.861 Y17.452 Z-5.000 F360.000
G2 X-56.611 Y16.202 Z-5.000 I0.000 J-1.250 K0.000 F360.000
G1 X-56.611 Y5.323 Z-5.000 F360.000
G1 X-47.741 Y-6.080 Z-5.000 F360.000
G1 X-34.329 Y-6.080 Z-5.000 F360.000
G2 X-34.056 Y-6.110 Z-5.000 I0.000 J-1.250 K0.000 F360.000
G1 X-34.056 Y-6.110 Z-6.000 F360.000
G2 X-33.079 Y-7.330 Z-6.000 I-0.272 J-1.220 K0.000 F360.000
G1 X-33.079 Y-11.609 Z-6.000 F360.000
G2 X-34.329 Y-12.859 Z-6.000 I-1.250 J-0.000 K0.000 F360.000
G1 X-42.469 Y-12.859 Z-6.000 F360.000
G1 X-29.063 Y-30.095 Z-6.000 F360.000
G2 X-30.050 Y-32.112 Z-6.000 I-0.987 J-0.767 K0.000 F360.000
G1 X-89.950 Y-32.112 Z-6.000 F360.000
G2 X-90.937 Y-30.095 Z-6.000 I-0.000 J1.250 K0.000 F360.000
G1 X-77.531 Y-12.859 Z-6.000 F360.000
G1 X-85.671 Y-12.859 Z-6.000 F360.000
G2 X-86.921 Y-11.609 Z-6.000 I-0.000 J1.250 K0.000 F360.000
G1 X-86.921 Y-7.330 Z-6.000 F360.000
G2 X-85.671 Y-6.080 Z-6.000 I1.250 J0.000 K0.000 F360.000
G1 X-72.259 Y-6.080 Z-6.000 F360.000
G1 X-63.389 Y5.323 Z-6.000 F360.000
G1 X-63.389 Y16.202 Z-6.000 F360.000
G2 X-62.139 Y17.452 Z-6.000 I1.250 J0.000 K0.000 F360.000
G1 X-57.861 Y17.452 Z-6.000 F360.000
G2 X-56.611 Y16.202 Z-6.000 I0.000 J-1.250 K0.000 F360.000
G1 X-56.611 Y5.323 Z-6.000 F360.000
G1 X-47.741 Y-6.080 Z-6.000 F360.000
G1 X-34.329 Y-6.080 Z-6.000 F360.000
G2 X-34.056 Y-6.110 Z-6.000 I0.000 J-1.250 K0.000 F360.000
G0 Z5.000
G0 Z5.000
(Finish operation: Profile064)
(Begin operation: Profile065)
(Path: Profile065)
(Profile065)
(Compensated Tool Path. Diameter: 2.5)
G0 Z5.000
G0 X10.834 Y21.746
G0 Z3.000
G1 X10.834 Y21.746 Z-2.500 F360.000
G2 X10.937 Y20.095 Z-2.500 I-0.884 J-0.884 K0.000 F360.000
G1 X-2.469 Y2.859 Z-2.500 F360.000
G1 X5.671 Y2.859 Z-2.500 F360.000
G2 X6.921 Y1.609 Z-2.500 I0.000 J-1.250 K0.000 F360.000
G1 X6.921 Y-2.670 Z-2.500 F360.000
G2 X5.671 Y-3.920 Z-2.500 I-1.250 J-0.000 K0.000 F360.000
G1 X-7.741 Y-3.920 Z-2.500 F360.000
G1 X-16.611 Y-15.323 Z-2.500 F360.000
G1 X-16.611 Y-26.202 Z-2.500 F360.000
G2 X-17.861 Y-27.452 Z-2.500 I-1.250 J-0.000 K0.000 F360.000
G1 X-22.139 Y-27.452 Z-2.500 F360.000
G2 X-23.389 Y-26.202 Z-2.500 I-0.000 J1.250 K0.000 F360.000
G1 X-23.389 Y-15.323 Z-2.500 F360.000
G1 X-32.259 Y-3.920 Z-2.500 F360.000
G1 X-45.671 Y-3.920 Z-2.500 F360.000
G2 X-46.921 Y-2.670 Z-2.500 I-0.000 J1.250 K0.000 F360.000
G1 X-46.921 Y1.609 Z-2.500 F360.000
G2 X-45.671 Y2.859 Z-2.500 I1.250 J0.000 K0.000 F360.000
G1 X-37.531 Y2.859 Z-2.500 F360.000
G1 X-50.937 Y20.095 Z-2.500 F360.000
G2 X-49.950 Y22.112 Z-2.500 I0.987 J0.767 K0.000 F360.000
G1 X9.950 Y22.112 Z-2.500 F360.000
G2 X10.834 Y21.746 Z-2.500 I0.000 J-1.250 K0.000 F360.000
G1 X10.834 Y21.746 Z-5.000 F360.000
G2 X10.937 Y20.095 Z-5.000 I-0.884 J-0.884 K0.000 F360.000
G1 X-2.469 Y2.859 Z-5.000 F360.000
G1 X5.671 Y2.859 Z-5.000 F360.000
G2 X6.921 Y1.609 Z-5.000 I0.000 J-1.250 K0.000 F360.000
G1 X6.921 Y-2.670 Z-5.000 F360.000
G2 X5.671 Y-3.920 Z-5.000 I-1.250 J-0.000 K0.000 F360.000
G1 X-7.741 Y-3.920 Z-5.000 F360.000
G1 X-16.611 Y-15.323 Z-5.000 F360.000
G1 X-16.611 Y-26.202 Z-5.000 F360.000
G2 X-17.861 Y-27.452 Z-5.000 I-1.250 J-0.000 K0.000 F360.000
G1 X-22.139 Y-27.452 Z-5.000 F360.000
G2 X-23.389 Y-26.202 Z-5.000 I-0.000 J1.250 K0.000 F360.000
G1 X-23.389 Y-15.323 Z-5.000 F360.000
G1 X-32.259 Y-3.920 Z-5.000 F360.000
G1 X-45.671 Y-3.920 Z-5.000 F360.000
G2 X-46.921 Y-2.670 Z-5.000 I-0.000 J1.250 K0.000 F360.000
G1 X-46.921 Y1.609 Z-5.000 F360.000
G2 X-45.671 Y2.859 Z-5.000 I1.250 J0.000 K0.000 F360.000
G1 X-37.531 Y2.859 Z-5.000 F360.000
G1 X-50.937 Y20.095 Z-5.000 F360.000
G2 X-49.950 Y22.112 Z-5.000 I0.987 J0.767 K0.000 F360.000
G1 X9.950 Y22.112 Z-5.000 F360.000
G2 X10.834 Y21.746 Z-5.000 I0.000 J-1.250 K0.000 F360.000
G1 X10.834 Y21.746 Z-6.000 F360.000
G2 X10.937 Y20.095 Z-6.000 I-0.884 J-0.884 K0.000 F360.000
G1 X-2.469 Y2.859 Z-6.000 F360.000
G1 X5.671 Y2.859 Z-6.000 F360.000
G2 X6.921 Y1.609 Z-6.000 I0.000 J-1.250 K0.000 F360.000
G1 X6.921 Y-2.670 Z-6.000 F360.000
G2 X5.671 Y-3.920 Z-6.000 I-1.250 J-0.000 K0.000 F360.000
G1 X-7.741 Y-3.920 Z-6.000 F360.000
G1 X-16.611 Y-15.323 Z-6.000 F360.000
G1 X-16.611 Y-26.202 Z-6.000 F360.000
G2 X-17.861 Y-27.452 Z-6.000 I-1.250 J-0.000 K0.000 F360.000
G1 X-22.139 Y-27.452 Z-6.000 F360.000
G2 X-23.389 Y-26.202 Z-6.000 I-0.000 J1.250 K0.000 F360.000
G1 X-23.389 Y-15.323 Z-6.000 F360.000
G1 X-32.259 Y-3.920 Z-6.000 F360.000
G1 X-45.671 Y-3.920 Z-6.000 F360.000
G2 X-46.921 Y-2.670 Z-6.000 I-0.000 J1.250 K0.000 F360.000
G1 X-46.921 Y1.609 Z-6.000 F360.000
G2 X-45.671 Y2.859 Z-6.000 I1.250 J0.000 K0.000 F360.000
G1 X-37.531 Y2.859 Z-6.000 F360.000
G1 X-50.937 Y20.095 Z-6.000 F360.000
G2 X-49.950 Y22.112 Z-6.000 I0.987 J0.767 K0.000 F360.000
G1 X9.950 Y22.112 Z-6.000 F360.000
G2 X10.834 Y21.746 Z-6.000 I0.000 J-1.250 K0.000 F360.000
G0 Z5.000
G0 Z5.000
(Finish operation: Profile065)
(Begin operation: Profile066)
(Path: Profile066)
(Profile066)
(Compensated Tool Path. Diameter: 2.5)
G0 Z5.000
G0 X45.944 Y-6.110
G0 Z3.000
G1 X45.944 Y-6.110 Z-2.500 F360.000
G2 X46.921 Y-7.330 Z-2.500 I-0.272 J-1.220 K0.000 F360.000
G1 X46.921 Y-11.609 Z-2.500 F360.000
G2 X45.671 Y-12.859 Z-2.500 I-1.250 J-0.000 K0.000 F360.000
G1 X37.531 Y-12.859 Z-2.500 F360.000
G1 X50.937 Y-30.095 Z-2.500 F360.000
G2 X49.950 Y-32.112 Z-2.500 I-0.987 J-0.767 K0.000 F360.000
G1 X-9.950 Y-32.112 Z-2.500 F360.000
G2 X-10.937 Y-30.095 Z-2.500 I-0.000 J1.250 K0.000 F360.000
G1 X2.469 Y-12.859 Z-2.500 F360.000
G1 X-5.671 Y-12.859 Z-2.500 F360.000
G2 X-6.921 Y-11.609 Z-2.500 I-0.000 J1.250 K0.000 F360.000
G1 X-6.921 Y-7.330 Z-2.500 F360.000
G2 X-5.671 Y-6.080 Z-2.500 I1.250 J0.000 K0.000 F360.000
G1 X7.741 Y-6.080 Z-2.500 F360.000
G1 X16.611 Y5.323 Z-2.500 F360.000
G1 X16.611 Y16.202 Z-2.500 F360.000
G2 X17.861 Y17.452 Z-2.500 I1.250 J0.000 K0.000 F360.000
G1 X22.139 Y17.452 Z-2.500 F360.000
G2 X23.389 Y16.202 Z-2.500 I0.000 J-1.250 K0.000 F360.000
G1 X23.389 Y5.323 Z-2.500 F360.000
G1 X32.259 Y-6.080 Z-2.500 F360.000
G1 X45.671 Y-6.080 Z-2.500 F360.000
G2 X45.944 Y-6.110 Z-2.500 I0.000 J-1.250 K0.000 F360.000
G1 X45.944 Y-6.110 Z-5.000 F360.000
G2 X46.921 Y-7.330 Z-5.000 I-0.272 J-1.220 K0.000 F360.000
G1 X46.921 Y-11.609 Z-5.000 F360.000
G2 X45.671 Y-12.859 Z-5.000 I-1.250 J-0.000 K0.000 F360.000
G1 X37.531 Y-12.859 Z-5.000 F360.000
G1 X50.937 Y-30.095 Z-5.000 F360.000
G2 X49.950 Y-32.112 Z-5.000 I-0.987 J-0.767 K0.000 F360.000
G1 X-9.950 Y-32.112 Z-5.000 F360.000
G2 X-10.937 Y-30.095 Z-5.000 I-0.000 J1.250 K0.000 F360.000
G1 X2.469 Y-12.859 Z-5.000 F360.000
G1 X-5.671 Y-12.859 Z-5.000 F360.000
G2 X-6.921 Y-11.609 Z-5.000 I-0.000 J1.250 K0.000 F360.000
G1 X-6.921 Y-7.330 Z-5.000 F360.000
G2 X-5.671 Y-6.080 Z-5.000 I1.250 J0.000 K0.000 F360.000
G1 X7.741 Y-6.080 Z-5.000 F360.000
G1 X16.611 Y5.323 Z-5.000 F360.000
G1 X16.611 Y16.202 Z-5.000 F360.000
G2 X17.861 Y17.452 Z-5.000 I1.250 J0.000 K0.000 F360.000
G1 X22.139 Y17.452 Z-5.000 F360.000
G2 X23.389 Y16.202 Z-5.000 I0.000 J-1.250 K0.000 F360.000
G1 X23.389 Y5.323 Z-5.000 F360.000
G1 X32.259 Y-6.080 Z-5.000 F360.000
G1 X45.671 Y-6.080 Z-5.000 F360.000
G2 X45.944 Y-6.110 Z-5.000 I0.000 J-1.250 K0.000 F360.000
G1 X45.944 Y-6.110 Z-6.000 F360.000
G2 X46.921 Y-7.330 Z-6.000 I-0.272 J-1.220 K0.000 F360.000
G1 X46.921 Y-11.609 Z-6.000 F360.000
G2 X45.671 Y-12.859 Z-6.000 I-1.250 J-0.000 K0.000 F360.000
G1 X37.531 Y-12.859 Z-6.000 F360.000
G1 X50.937 Y-30.095 Z-6.000 F360.000
G2 X49.950 Y-32.112 Z-6.000 I-0.987 J-0.767 K0.000 F360.000
G1 X-9.950 Y-32.112 Z-6.000 F360.000
G2 X-10.937 Y-30.095 Z-6.000 I-0.000 J1.250 K0.000 F360.000
G1 X2.469 Y-12.859 Z-6.000 F360.000
G1 X-5.671 Y-12.859 Z-6.000 F360.000
G2 X-6.921 Y-11.609 Z-6.000 I-0.000 J1.250 K0.000 F360.000
G1 X-6.921 Y-7.330 Z-6.000 F360.000
G2 X-5.671 Y-6.080 Z-6.000 I1.250 J0.000 K0.000 F360.000
G1 X7.741 Y-6.080 Z-6.000 F360.000
G1 X16.611 Y5.323 Z-6.000 F360.000
G1 X16.611 Y16.202 Z-6.000 F360.000
G2 X17.861 Y17.452 Z-6.000 I1.250 J0.000 K0.000 F360.000
G1 X22.139 Y17.452 Z-6.000 F360.000
G2 X23.389 Y16.202 Z-6.000 I0.000 J-1.250 K0.000 F360.000
G1 X23.389 Y5.323 Z-6.000 F360.000
G1 X32.259 Y-6.080 Z-6.000 F360.000
G1 X45.671 Y-6.080 Z-6.000 F360.000
G2 X45.944 Y-6.110 Z-6.000 I0.000 J-1.250 K0.000 F360.000
G0 Z5.000
G0 Z5.000
(Finish operation: Profile066)
(Begin operation: Profile067)
(Path: Profile067)
(Profile067)
(Compensated Tool Path. Diameter: 2.5)
G0 Z5.000
G0 X90.834 Y21.746
G0 Z3.000
G1 X90.834 Y21.746 Z-2.500 F360.000
G2 X90.937 Y20.095 Z-2.500 I-0.884 J-0.884 K0.000 F360.000
G1 X77.531 Y2.859 Z-2.500 F360.000
G1 X85.671 Y2.859 Z-2.500 F360.000
G2 X86.921 Y1.609 Z-2.500 I0.000 J-1.250 K0.000 F360.000
G1 X86.921 Y-2.670 Z-2.500 F360.000
G2 X85.671 Y-3.920 Z-2.500 I-1.250 J-0.000 K0.000 F360.000
G1 X72.259 Y-3.920 Z-2.500 F360.000
G1 X63.389 Y-15.323 Z-2.500 F360.000
G1 X63.389 Y-26.202 Z-2.500 F360.000
G2 X62.139 Y-27.452 Z-2.500 I-1.250 J-0.000 K0.000 F360.000
G1 X57.861 Y-27.452 Z-2.500 F360.000
G2 X56.611 Y-26.202 Z-2.500 I-0.000 J1.250 K0.000 F360.000
G1 X56.611 Y-15.323 Z-2.500 F360.000
G1 X47.741 Y-3.920 Z-2.500 F360.000
G1 X34.329 Y-3.920 Z-2.500 F360.000
G2 X33.079 Y-2.670 Z-2.500 I-0.000 J1.250 K0.000 F360.000
G1 X33.079 Y1.609 Z-2.500 F360.000
G2 X34.329 Y2.859 Z-2.500 I1.250 J0.000 K0.000 F360.000
G1 X42.469 Y2.859 Z-2.500 F360.000
G1 X29.063 Y20.095 Z-2.500 F360.000
G2 X30.050 Y22.112 Z-2.500 I0.987 J0.767 K0.000 F360.000
G1 X89.950 Y22.112 Z-2.500 F360.000
G2 X90.834 Y21.746 Z-2.500 I0.000 J-1.250 K0.000 F360.000
G1 X90.834 Y21.746 Z-5.000 F360.000
G2 X90.937 Y20.095 Z-5.000 I-0.884 J-0.884 K0.000 F360.000
G1 X77.531 Y2.859 Z-5.000 F360.000
G1 X85.671 Y2.859 Z-5.000 F360.000
G2 X86.921 Y1.609 Z-5.000 I0.000 J-1.250 K0.000 F360.000
G1 X86.921 Y-2.670 Z-5.000 F360.000
G2 X85.671 Y-3.920 Z-5.000 I-1.250 J-0.000 K0.000 F360.000
G1 X72.259 Y-3.920 Z-5.000 F360.000
G1 X63.389 Y-15.323 Z-5.000 F360.000
G1 X63.389 Y-26.202 Z-5.000 F360.000
G2 X62.139 Y-27.452 Z-5.000 I-1.250 J-0.000 K0.000 F360.000
G1 X57.861 Y-27.452 Z-5.000 F360.000
G2 X56.611 Y-26.202 Z-5.000 I-0.000 J1.250 K0.000 F360.000
G1 X56.611 Y-15.323 Z-5.000 F360.000
G1 X47.741 Y-3.920 Z-5.000 F360.000
G1 X34.329 Y-3.920 Z-5.000 F360.000
G2 X33.079 Y-2.670 Z-5.000 I-0.000 J1.250 K0.000 F360.000
G1 X33.079 Y1.609 Z-5.000 F360.000
G2 X34.329 Y2.859 Z-5.000 I1.250 J0.000 K0.000 F360.000
G1 X42.469 Y2.859 Z-5.000 F360.000
G1 X29.063 Y20.095 Z-5.000 F360.000
G2 X30.050 Y22.112 Z-5.000 I0.987 J0.767 K0.000 F360.000
G1 X89.950 Y22.112 Z-5.000 F360.000
G2 X90.834 Y21.746 Z-5.000 I0.000 J-1.250 K0.000 F360.000
G1 X90.834 Y21.746 Z-6.000 F360.000
G2 X90.937 Y20.095 Z-6.000 I-0.884 J-0.884 K0.000 F360.000
G1 X77.531 Y2.859 Z-6.000 F360.000
G1 X85.671 Y2.859 Z-6.000 F360.000
G2 X86.921 Y1.609 Z-6.000 I0.000 J-1.250 K0.000 F360.000
G1 X86.921 Y-2.670 Z-6.000 F360.000
G2 X85.671 Y-3.920 Z-6.000 I-1.250 J-0.000 K0.000 F360.000
G1 X72.259 Y-3.920 Z-6.000 F360.000
G1 X63.389 Y-15.323 Z-6.000 F360.000
G1 X63.389 Y-26.202 Z-6.000 F360.000
G2 X62.139 Y-27.452 Z-6.000 I-1.250 J-0.000 K0.000 F360.000
G1 X57.861 Y-27.452 Z-6.000 F360.000
G2 X56.611 Y-26.202 Z-6.000 I-0.000 J1.250 K0.000 F360.000
G1 X56.611 Y-15.323 Z-6.000 F360.000
G1 X47.741 Y-3.920 Z-6.000 F360.000
G1 X34.329 Y-3.920 Z-6.000 F360.000
G2 X33.079 Y-2.670 Z-6.000 I-0.000 J1.250 K0.000 F360.000
G1 X33.079 Y1.609 Z-6.000 F360.000
G2 X34.329 Y2.859 Z-6.000 I1.250 J0.000 K0.000 F360.000
G1 X42.469 Y2.859 Z-6.000 F360.000
