(Exported by FreeCAD)
(Post Processor: script_module)
(Output Time:2026-01-15 17:39:25.872613)
(Begin preamble)
G17 G90
G21
(Begin operation: Fixture)
(Path: Fixture)
G54
(Finish operation: Fixture)
(Begin operation: 2_5mmEndMill002)
(Path: 2_5mmEndMill002)
(2_5mmEndMill002)
(Begin toolchange)
( M6 T2 )
M3 S20000
(Finish operation: 2_5mmEndMill002)
(Begin operation: Pocket_Shape)
(Path: Pocket_Shape)
(Pocket_Shape)
G0 Z5.000
G0 X0.000 Y0.000
G0 X79.750
G0 X79.750 Z3.000
G1 X79.750 Y0.000 Z-2.500 F360.000
G1 X79.750 Y22.949 Z-2.500 F360.000
G2 X83.551 Y26.750 Z-2.500 I3.763 J0.037 K0.000 F360.000
G1 X96.449 Y26.750 Z-2.500 F360.000
G2 X100.250 Y22.949 Z-2.500 I0.037 J-3.763 K0.000 F360.000
G1 X100.250 Y-22.949 Z-2.500 F360.000
G2 X96.449 Y-26.750 Z-2.500 I-3.763 J-0.038 K0.000 F360.000
G1 X83.551 Y-26.750 Z-2.500 F360.000
G2 X79.750 Y-22.949 Z-2.500 I-0.038 J3.763 K0.000 F360.000
G1 X79.750 Y0.000 Z-2.500 F360.000
G1 X80.250 Y0.000 Z-2.500 F360.000
G1 X80.250 Y-18.964 Z-2.500 F360.000
G3 X86.621 Y-25.260 Z-2.500 I6.297 J0.000 K0.000 F360.000
G3 X86.902 Y-25.250 Z-2.500 I-0.064 J5.587 K0.000 F360.000
G1 X93.464 Y-25.250 Z-2.500 F360.000
G3 X99.750 Y-18.964 Z-2.500 I0.026 J6.260 K0.000 F360.000
G1 X99.750 Y18.964 Z-2.500 F360.000
G3 X93.464 Y25.250 Z-2.500 I-6.264 J0.022 K0.000 F360.000
G1 X86.536 Y25.250 Z-2.500 F360.000
G3 X80.250 Y18.938 Z-2.500 I-0.024 J-6.262 K0.000 F360.000
G1 X80.250 Y0.000 Z-2.500 F360.000
G1 X80.250 Y0.000 Z-5.000 F360.000
G1 X80.250 Y-18.964 Z-5.000 F360.000
G3 X86.621 Y-25.260 Z-5.000 I6.297 J0.000 K0.000 F360.000
G3 X86.902 Y-25.250 Z-5.000 I-0.064 J5.587 K0.000 F360.000
G1 X93.464 Y-25.250 Z-5.000 F360.000
G3 X99.750 Y-18.964 Z-5.000 I0.026 J6.260 K0.000 F360.000
G1 X99.750 Y18.964 Z-5.000 F360.000
G3 X93.464 Y25.250 Z-5.000 I-6.264 J0.022 K0.000 F360.000
G1 X86.536 Y25.250 Z-5.000 F360.000
G3 X80.250 Y18.938 Z-5.000 I-0.024 J-6.262 K0.000 F360.000
G1 X80.250 Y0.000 Z-5.000 F360.000
G1 X79.750 Y0.000 Z-5.000 F360.000
G1 X79.750 Y22.949 Z-5.000 F360.000
G2 X83.551 Y26.750 Z-5.000 I3.763 J0.037 K0.000 F360.000
G1 X96.449 Y26.750 Z-5.000 F360.000
G2 X100.250 Y22.949 Z-5.000 I0.037 J-3.763 K0.000 F360.000
G1 X100.250 Y-22.949 Z-5.000 F360.000
G2 X96.449 Y-26.750 Z-5.000 I-3.763 J-0.038 K0.000 F360.000
G1 X83.551 Y-26.750 Z-5.000 F360.000
G2 X79.750 Y-22.949 Z-5.000 I-0.038 J3.763 K0.000 F360.000
G1 X79.750 Y0.000 Z-5.000 F360.000
G1 X79.750 Y0.000 Z-6.000 F360.000
G1 X79.750 Y22.949 Z-6.000 F360.000
G2 X83.551 Y26.750 Z-6.000 I3.763 J0.037 K0.000 F360.000
G1 X96.449 Y26.750 Z-6.000 F360.000
G2 X100.250 Y22.949 Z-6.000 I0.037 J-3.763 K0.000 F360.000
G1 X100.250 Y-22.949 Z-6.000 F360.000
G2 X96.449 Y-26.750 Z-6.000 I-3.763 J-0.038 K0.000 F360.000
G1 X83.551 Y-26.750 Z-6.000 F360.000
G2 X79.750 Y-22.949 Z-6.000 I-0.038 J3.763 K0.000 F360.000
G1 X79.750 Y0.000 Z-6.000 F360.000
G1 X80.250 Y0.000 Z-6.000 F360.000
G1 X80.250 Y-18.964 Z-6.000 F360.000
G3 X86.621 Y-25.260 Z-6.000 I6.297 J0.000 K0.000 F360.000
G3 X86.902 Y-25.250 Z-6.000 I-0.064 J5.587 K0.000 F360.000
G1 X93.464 Y-25.250 Z-6.000 F360.000
G3 X99.750 Y-18.964 Z-6.000 I0.026 J6.260 K0.000 F360.000
G1 X99.750 Y18.964 Z-6.000 F360.000
G3 X93.464 Y25.250 Z-6.000 I-6.264 J0.022 K0.000 F360.000
G1 X86.536 Y25.250 Z-6.000 F360.000
G3 X80.250 Y18.938 Z-6.000 I-0.024 J-6.262 K0.000 F360.000
G1 X80.250 Y0.000 Z-6.000 F360.000
G0 Z5.000
G0 X84.371 Y26.750 Z5.000
G0 X84.371 Y26.750 Z3.000
G1 X84.371 Y26.750 Z-2.500 F360.000
G1 X79.750 Y22.130 Z-2.500 F360.000
G2 X79.755 Y23.167 Z-2.500 I24.406 J0.410 K0.000 F360.000
G2 X83.551 Y26.750 Z-2.500 I3.758 J-0.179 K0.000 F360.000
G1 X84.371 Y26.750 Z-2.500 F360.000
G1 X87.906 Y26.750 Z-2.500 F360.000
G1 X86.404 Y25.247 Z-2.500 F360.000
G3 X80.252 Y19.096 Z-2.500 I0.105 J-6.256 K0.000 F360.000
G1 X79.750 Y18.594 Z-2.500 F360.000
G1 X79.750 Y15.058 Z-2.500 F360.000
G1 X80.250 Y15.558 Z-2.500 F360.000
G1 X80.250 Y12.023 Z-2.500 F360.000
G1 X79.750 Y11.523 Z-2.500 F360.000
G1 X79.750 Y7.987 Z-2.500 F360.000
G1 X80.250 Y8.487 Z-2.500 F360.000
G1 X80.250 Y4.952 Z-2.500 F360.000
G1 X79.750 Y4.452 Z-2.500 F360.000
G1 X79.750 Y0.916 Z-2.500 F360.000
G1 X80.250 Y1.416 Z-2.500 F360.000
G1 X80.250 Y-2.119 Z-2.500 F360.000
G1 X79.750 Y-2.619 Z-2.500 F360.000
G1 X79.750 Y-6.155 Z-2.500 F360.000
G1 X80.250 Y-5.655 Z-2.500 F360.000
G1 X80.250 Y-9.190 Z-2.500 F360.000
G1 X79.750 Y-9.690 Z-2.500 F360.000
G1 X79.750 Y-13.226 Z-2.500 F360.000
G1 X80.250 Y-12.726 Z-2.500 F360.000
G1 X80.250 Y-16.261 Z-2.500 F360.000
G1 X79.750 Y-16.761 Z-2.500 F360.000
G1 X79.750 Y-20.297 Z-2.500 F360.000
G1 X80.301 Y-19.746 Z-2.500 F360.000
G3 X81.236 Y-22.346 Z-2.500 I6.215 J0.768 K0.000 F360.000
G1 X79.829 Y-23.753 Z-2.500 F360.000
G3 X81.180 Y-25.938 Z-2.500 I3.676 J0.762 K0.000 F360.000
G1 X82.971 Y-24.147 Z-2.500 F360.000
G3 X85.485 Y-25.169 Z-2.500 I3.558 J5.149 K0.000 F360.000
G1 X83.904 Y-26.750 Z-2.500 F360.000
G1 X87.439 Y-26.750 Z-2.500 F360.000
G1 X88.939 Y-25.250 Z-2.500 F360.000
G1 X92.475 Y-25.250 Z-2.500 F360.000
G1 X90.975 Y-26.750 Z-2.500 F360.000
G1 X94.510 Y-26.750 Z-2.500 F360.000
G1 X97.322 Y-23.938 Z-2.500 F360.000
G1 X97.322 Y-23.938 Z-5.000 F360.000
G1 X94.510 Y-26.750 Z-5.000 F360.000
G1 X90.975 Y-26.750 Z-5.000 F360.000
G1 X92.475 Y-25.250 Z-5.000 F360.000
G1 X88.939 Y-25.250 Z-5.000 F360.000
G1 X87.439 Y-26.750 Z-5.000 F360.000
G1 X83.904 Y-26.750 Z-5.000 F360.000
G1 X85.485 Y-25.169 Z-5.000 F360.000
G2 X82.971 Y-24.147 Z-5.000 I1.045 J6.171 K0.000 F360.000
G1 X81.180 Y-25.938 Z-5.000 F360.000
G2 X79.829 Y-23.753 Z-5.000 I2.325 J2.947 K0.000 F360.000
G1 X81.236 Y-22.346 Z-5.000 F360.000
G2 X80.301 Y-19.746 Z-5.000 I5.280 J3.368 K0.000 F360.000
G1 X79.750 Y-20.297 Z-5.000 F360.000
G1 X79.750 Y-16.761 Z-5.000 F360.000
G1 X80.250 Y-16.261 Z-5.000 F360.000
G1 X80.250 Y-12.726 Z-5.000 F360.000
G1 X79.750 Y-13.226 Z-5.000 F360.000
G1 X79.750 Y-9.690 Z-5.000 F360.000
G1 X80.250 Y-9.190 Z-5.000 F360.000
G1 X80.250 Y-5.655 Z-5.000 F360.000
G1 X79.750 Y-6.155 Z-5.000 F360.000
G1 X79.750 Y-2.619 Z-5.000 F360.000
G1 X80.250 Y-2.119 Z-5.000 F360.000
G1 X80.250 Y1.416 Z-5.000 F360.000
G1 X79.750 Y0.916 Z-5.000 F360.000
G1 X79.750 Y4.452 Z-5.000 F360.000
G1 X80.250 Y4.952 Z-5.000 F360.000
G1 X80.250 Y8.487 Z-5.000 F360.000
G1 X79.750 Y7.987 Z-5.000 F360.000
G1 X79.750 Y11.523 Z-5.000 F360.000
G1 X80.250 Y12.023 Z-5.000 F360.000
G1 X80.250 Y15.558 Z-5.000 F360.000
G1 X79.750 Y15.058 Z-5.000 F360.000
G1 X79.750 Y18.594 Z-5.000 F360.000
G1 X80.252 Y19.096 Z-5.000 F360.000
G2 X86.404 Y25.247 Z-5.000 I6.256 J-0.105 K0.000 F360.000
G1 X87.906 Y26.750 Z-5.000 F360.000
G1 X84.371 Y26.750 Z-5.000 F360.000
G1 X83.551 Y26.750 Z-5.000 F360.000
G3 X79.755 Y23.167 Z-5.000 I-0.038 J-3.762 K0.000 F360.000
G3 X79.750 Y22.130 Z-5.000 I24.402 J-0.628 K0.000 F360.000
G1 X84.371 Y26.750 Z-5.000 F360.000
G1 X84.371 Y26.750 Z-6.000 F360.000
G1 X79.750 Y22.130 Z-6.000 F360.000
G2 X79.755 Y23.167 Z-6.000 I24.406 J0.410 K0.000 F360.000
G2 X83.551 Y26.750 Z-6.000 I3.758 J-0.179 K0.000 F360.000
G1 X84.371 Y26.750 Z-6.000 F360.000
G1 X87.906 Y26.750 Z-6.000 F360.000
G1 X86.404 Y25.247 Z-6.000 F360.000
G3 X80.252 Y19.096 Z-6.000 I0.105 J-6.256 K0.000 F360.000
G1 X79.750 Y18.594 Z-6.000 F360.000
G1 X79.750 Y15.058 Z-6.000 F360.000
G1 X80.250 Y15.558 Z-6.000 F360.000
G1 X80.250 Y12.023 Z-6.000 F360.000
G1 X79.750 Y11.523 Z-6.000 F360.000
G1 X79.750 Y7.987 Z-6.000 F360.000
G1 X80.250 Y8.487 Z-6.000 F360.000
G1 X80.250 Y4.952 Z-6.000 F360.000
G1 X79.750 Y4.452 Z-6.000 F360.000
G1 X79.750 Y0.916 Z-6.000 F360.000
G1 X80.250 Y1.416 Z-6.000 F360.000
G1 X80.250 Y-2.119 Z-6.000 F360.000
G1 X79.750 Y-2.619 Z-6.000 F360.000
G1 X79.750 Y-6.155 Z-6.000 F360.000
G1 X80.250 Y-5.655 Z-6.000 F360.000
G1 X80.250 Y-9.190 Z-6.000 F360.000
G1 X79.750 Y-9.690 Z-6.000 F360.000
G1 X79.750 Y-13.226 Z-6.000 F360.000
G1 X80.250 Y-12.726 Z-6.000 F360.000
G1 X80.250 Y-16.261 Z-6.000 F360.000
G1 X79.750 Y-16.761 Z-6.000 F360.000
G1 X79.750 Y-20.297 Z-6.000 F360.000
G1 X80.301 Y-19.746 Z-6.000 F360.000
G3 X81.236 Y-22.346 Z-6.000 I6.215 J0.768 K0.000 F360.000
G1 X79.829 Y-23.753 Z-6.000 F360.000
G3 X81.180 Y-25.938 Z-6.000 I3.676 J0.762 K0.000 F360.000
G1 X82.971 Y-24.147 Z-6.000 F360.000
G3 X85.485 Y-25.169 Z-6.000 I3.558 J5.149 K0.000 F360.000
G1 X83.904 Y-26.750 Z-6.000 F360.000
G1 X87.439 Y-26.750 Z-6.000 F360.000
G1 X88.939 Y-25.250 Z-6.000 F360.000
G1 X92.475 Y-25.250 Z-6.000 F360.000
G1 X90.975 Y-26.750 Z-6.000 F360.000
G1 X94.510 Y-26.750 Z-6.000 F360.000
G1 X97.322 Y-23.938 Z-6.000 F360.000
G0 Z5.000
G0 X99.148 Y-25.648 Z5.000
G0 X99.148 Y-25.648 Z3.000
G1 X99.148 Y-25.648 Z-2.500 F360.000
G3 X100.250 Y-22.949 Z-2.500 I-2.663 J2.662 K0.000 F360.000
G1 X100.250 Y-21.010 Z-2.500 F360.000
G1 X98.438 Y-22.822 Z-2.500 F360.000
G3 X99.750 Y-18.964 Z-2.500 I-4.933 J3.830 K0.000 F360.000
G1 X99.750 Y-17.975 Z-2.500 F360.000
G1 X100.250 Y-17.475 Z-2.500 F360.000
G1 X100.250 Y-13.939 Z-2.500 F360.000
G1 X99.750 Y-14.439 Z-2.500 F360.000
G1 X99.750 Y-10.904 Z-2.500 F360.000
G1 X100.250 Y-10.404 Z-2.500 F360.000
G1 X100.250 Y-6.868 Z-2.500 F360.000
G1 X99.750 Y-7.368 Z-2.500 F360.000
G1 X99.750 Y-3.833 Z-2.500 F360.000
G1 X100.250 Y-3.333 Z-2.500 F360.000
G1 X100.250 Y0.203 Z-2.500 F360.000
G1 X99.750 Y-0.297 Z-2.500 F360.000
G1 X99.750 Y3.239 Z-2.500 F360.000
G1 X100.250 Y3.739 Z-2.500 F360.000
G1 X100.250 Y7.274 Z-2.500 F360.000
G1 X99.750 Y6.774 Z-2.500 F360.000
G1 X99.750 Y10.310 Z-2.500 F360.000
G1 X100.250 Y10.810 Z-2.500 F360.000
G1 X100.250 Y14.345 Z-2.500 F360.000
G1 X99.750 Y13.845 Z-2.500 F360.000
G1 X99.750 Y17.381 Z-2.500 F360.000
G1 X100.250 Y17.881 Z-2.500 F360.000
G1 X100.250 Y21.416 Z-2.500 F360.000
G1 X99.517 Y20.683 Z-2.500 F360.000
G3 X98.296 Y22.997 Z-2.500 I-6.037 J-1.705 K0.000 F360.000
G1 X99.889 Y24.591 Z-2.500 F360.000
G3 X98.133 Y26.370 Z-2.500 I-3.387 J-1.588 K0.000 F360.000
G1 X96.330 Y24.567 Z-2.500 F360.000
G3 X93.477 Y25.250 Z-2.500 I-2.844 J-5.586 K0.000 F360.000
G1 X94.977 Y26.750 Z-2.500 F360.000
G1 X91.442 Y26.750 Z-2.500 F360.000
G1 X89.942 Y25.250 Z-2.500 F360.000
G3 X86.529 Y25.250 Z-2.500 I-1.703 J-625.223 K0.000 F360.000
G3 X86.404 Y25.247 Z-2.500 I0.057 J-5.872 K0.000 F360.000
G1 X87.906 Y26.750 Z-2.500 F360.000
G1 X87.906 Y26.750 Z-5.000 F360.000
G1 X86.404 Y25.247 Z-5.000 F360.000
G2 X86.529 Y25.250 Z-5.000 I0.183 J-5.870 K0.000 F360.000
G2 X89.942 Y25.250 Z-5.000 I1.710 J-625.223 K0.000 F360.000
G1 X91.442 Y26.750 Z-5.000 F360.000
G1 X94.977 Y26.750 Z-5.000 F360.000
G1 X93.477 Y25.250 Z-5.000 F360.000
G2 X96.330 Y24.567 Z-5.000 I0.009 J-6.269 K0.000 F360.000
G1 X98.133 Y26.370 Z-5.000 F360.000
G2 X99.889 Y24.591 Z-5.000 I-1.630 J-3.367 K0.000 F360.000
G1 X98.296 Y22.997 Z-5.000 F360.000
G2 X99.517 Y20.683 Z-5.000 I-4.816 J-4.020 K0.000 F360.000
G1 X100.250 Y21.416 Z-5.000 F360.000
G1 X100.250 Y17.881 Z-5.000 F360.000
G1 X99.750 Y17.381 Z-5.000 F360.000
G1 X99.750 Y13.845 Z-5.000 F360.000
G1 X100.250 Y14.345 Z-5.000 F360.000
G1 X100.250 Y10.810 Z-5.000 F360.000
G1 X99.750 Y10.310 Z-5.000 F360.000
G1 X99.750 Y6.774 Z-5.000 F360.000
G1 X100.250 Y7.274 Z-5.000 F360.000
G1 X100.250 Y3.739 Z-5.000 F360.000
G1 X99.750 Y3.239 Z-5.000 F360.000
G1 X99.750 Y-0.297 Z-5.000 F360.000
G1 X100.250 Y0.203 Z-5.000 F360.000
G1 X100.250 Y-3.333 Z-5.000 F360.000
G1 X99.750 Y-3.833 Z-5.000 F360.000
G1 X99.750 Y-7.368 Z-5.000 F360.000
G1 X100.250 Y-6.868 Z-5.000 F360.000
G1 X100.250 Y-10.404 Z-5.000 F360.000
G1 X99.750 Y-10.904 Z-5.000 F360.000
G1 X99.750 Y-14.439 Z-5.000 F360.000
G1 X100.250 Y-13.939 Z-5.000 F360.000
G1 X100.250 Y-17.475 Z-5.000 F360.000
G1 X99.750 Y-17.975 Z-5.000 F360.000
G1 X99.750 Y-18.964 Z-5.000 F360.000
G2 X98.438 Y-22.822 Z-5.000 I-6.245 J-0.029 K0.000 F360.000
G1 X100.250 Y-21.010 Z-5.000 F360.000
G1 X100.250 Y-22.949 Z-5.000 F360.000
G2 X99.148 Y-25.648 Z-5.000 I-3.765 J-0.037 K0.000 F360.000
G1 X99.148 Y-25.648 Z-6.000 F360.000
G3 X100.250 Y-22.949 Z-6.000 I-2.663 J2.662 K0.000 F360.000
G1 X100.250 Y-21.010 Z-6.000 F360.000
G1 X98.438 Y-22.822 Z-6.000 F360.000
G3 X99.750 Y-18.964 Z-6.000 I-4.933 J3.830 K0.000 F360.000
G1 X99.750 Y-17.975 Z-6.000 F360.000
G1 X100.250 Y-17.475 Z-6.000 F360.000
G1 X100.250 Y-13.939 Z-6.000 F360.000
G1 X99.750 Y-14.439 Z-6.000 F360.000
G1 X99.750 Y-10.904 Z-6.000 F360.000
G1 X100.250 Y-10.404 Z-6.000 F360.000
G1 X100.250 Y-6.868 Z-6.000 F360.000
G1 X99.750 Y-7.368 Z-6.000 F360.000
G1 X99.750 Y-3.833 Z-6.000 F360.000
G1 X100.250 Y-3.333 Z-6.000 F360.000
G1 X100.250 Y0.203 Z-6.000 F360.000
G1 X99.750 Y-0.297 Z-6.000 F360.000
G1 X99.750 Y3.239 Z-6.000 F360.000
G1 X100.250 Y3.739 Z-6.000 F360.000
G1 X100.250 Y7.274 Z-6.000 F360.000
G1 X99.750 Y6.774 Z-6.000 F360.000
G1 X99.750 Y10.310 Z-6.000 F360.000
G1 X100.250 Y10.810 Z-6.000 F360.000
G1 X100.250 Y14.345 Z-6.000 F360.000
G1 X99.750 Y13.845 Z-6.000 F360.000
G1 X99.750 Y17.381 Z-6.000 F360.000
G1 X100.250 Y17.881 Z-6.000 F360.000
G1 X100.250 Y21.416 Z-6.000 F360.000
G1 X99.517 Y20.683 Z-6.000 F360.000
G3 X98.296 Y22.997 Z-6.000 I-6.037 J-1.705 K0.000 F360.000
G1 X99.889 Y24.591 Z-6.000 F360.000
G3 X98.133 Y26.370 Z-6.000 I-3.387 J-1.588 K0.000 F360.000
G1 X96.330 Y24.567 Z-6.000 F360.000
G3 X93.477 Y25.250 Z-6.000 I-2.844 J-5.586 K0.000 F360.000
G1 X94.977 Y26.750 Z-6.000 F360.000
G1 X91.442 Y26.750 Z-6.000 F360.000
G1 X89.942 Y25.250 Z-6.000 F360.000
G3 X86.529 Y25.250 Z-6.000 I-1.703 J-625.223 K0.000 F360.000
G3 X86.404 Y25.247 Z-6.000 I0.057 J-5.872 K0.000 F360.000
G1 X87.906 Y26.750 Z-6.000 F360.000
G0 Z5.000
G0 Z5.000
(Finish operation: Pocket_Shape)
(Begin operation: Profile002)
(Path: Profile002)
(Profile002)
(Compensated Tool Path. Diameter: 2.5)
G0 Z5.000
G0 X0.000 Y0.000
G0 X82.750
G0 X82.750 Z3.000
G1 X82.750 Y0.000 Z-2.000 F360.000
G1 X82.750 Y18.962 Z-2.000 F360.000
G2 X86.538 Y22.750 Z-2.000 I3.756 J0.032 K0.000 F360.000
G1 X93.462 Y22.750 Z-2.000 F360.000
G2 X97.250 Y18.962 Z-2.000 I0.032 J-3.756 K0.000 F360.000
G1 X97.250 Y-18.962 Z-2.000 F360.000
G2 X93.462 Y-22.750 Z-2.000 I-3.756 J-0.032 K0.000 F360.000
G1 X86.538 Y-22.750 Z-2.000 F360.000
G2 X82.750 Y-18.962 Z-2.000 I-0.032 J3.756 K0.000 F360.000
G1 X82.750 Y0.000 Z-2.000 F360.000
G1 X82.750 Y0.000 Z-4.000 F360.000
G1 X82.750 Y18.962 Z-4.000 F360.000
G2 X86.538 Y22.750 Z-4.000 I3.756 J0.032 K0.000 F360.000
G1 X93.462 Y22.750 Z-4.000 F360.000
G2 X97.250 Y18.962 Z-4.000 I0.032 J-3.756 K0.000 F360.000
G1 X97.250 Y-18.962 Z-4.000 F360.000
G2 X93.462 Y-22.750 Z-4.000 I-3.756 J-0.032 K0.000 F360.000
G1 X86.538 Y-22.750 Z-4.000 F360.000
G2 X82.750 Y-18.962 Z-4.000 I-0.032 J3.756 K0.000 F360.000
G1 X82.750 Y0.000 Z-4.000 F360.000
G1 X82.750 Y0.000 Z-6.000 F360.000
G1 X82.750 Y18.962 Z-6.000 F360.000
G2 X86.538 Y22.750 Z-6.000 I3.756 J0.032 K0.000 F360.000
G1 X93.462 Y22.750 Z-6.000 F360.000
G2 X97.250 Y18.962 Z-6.000 I0.032 J-3.756 K0.000 F360.000
G1 X97.250 Y-18.962 Z-6.000 F360.000
G2 X93.462 Y-22.750 Z-6.000 I-3.756 J-0.032 K0.000 F360.000
G1 X86.538 Y-22.750 Z-6.000 F360.000
G2 X82.750 Y-18.962 Z-6.000 I-0.032 J3.756 K0.000 F360.000
G1 X82.750 Y0.000 Z-6.000 F360.000
G1 X82.750 Y0.000 Z-8.000 F360.000
G1 X82.750 Y18.962 Z-8.000 F360.000
G2 X86.538 Y22.750 Z-8.000 I3.756 J0.032 K0.000 F360.000
G1 X93.462 Y22.750 Z-8.000 F360.000
G2 X97.250 Y18.962 Z-8.000 I0.032 J-3.756 K0.000 F360.000
G1 X97.250 Y-18.962 Z-8.000 F360.000
G2 X93.462 Y-22.750 Z-8.000 I-3.756 J-0.032 K0.000 F360.000
G1 X86.538 Y-22.750 Z-8.000 F360.000
G2 X82.750 Y-18.962 Z-8.000 I-0.032 J3.756 K0.000 F360.000
G1 X82.750 Y0.000 Z-8.000 F360.000
G1 X82.750 Y0.000 Z-10.000 F360.000
G1 X82.750 Y18.962 Z-10.000 F360.000
G2 X86.538 Y22.750 Z-10.000 I3.756 J0.032 K0.000 F360.000
G1 X93.462 Y22.750 Z-10.000 F360.000
G2 X97.250 Y18.962 Z-10.000 I0.032 J-3.756 K0.000 F360.000
G1 X97.250 Y-18.962 Z-10.000 F360.000
G2 X93.462 Y-22.750 Z-10.000 I-3.756 J-0.032 K0.000 F360.000
G1 X86.538 Y-22.750 Z-10.000 F360.000
G2 X82.750 Y-18.962 Z-10.000 I-0.032 J3.756 K0.000 F360.000
G1 X82.750 Y0.000 Z-10.000 F360.000
G1 X82.750 Y0.000 Z-12.000 F360.000
G1 X82.750 Y18.962 Z-12.000 F360.000
G2 X86.538 Y22.750 Z-12.000 I3.756 J0.032 K0.000 F360.000
G1 X93.462 Y22.750 Z-12.000 F360.000
G2 X97.250 Y18.962 Z-12.000 I0.032 J-3.756 K0.000 F360.000
G1 X97.250 Y-18.962 Z-12.000 F360.000
G2 X93.462 Y-22.750 Z-12.000 I-3.756 J-0.032 K0.000 F360.000
G1 X86.538 Y-22.750 Z-12.000 F360.000
G2 X82.750 Y-18.962 Z-12.000 I-0.032 J3.756 K0.000 F360.000
G1 X82.750 Y0.000 Z-12.000 F360.000
G0 Z5.000
G0 Z5.000
(Finish operation: Profile002)
(Begin operation: Profile003)
(Path: Profile003)
(Profile003)
(Compensated Tool Path. Diameter: 2.5)
G0 Z5.000
G0 X0.000 Y0.000
G0 X42.251 Y0.001
G0 X42.251 Y0.001 Z3.000
G1 X42.251 Y0.001 Z-2.000 F360.000
G1 X42.250 Y50.000 Z-2.000 F360.000
G2 X53.445 Y61.249 Z-2.000 I11.251 J-0.002 K0.000 F360.000
G1 X113.500 Y61.250 Z-2.000 F360.000
G2 X124.749 Y50.055 Z-2.000 I-0.002 J-11.251 K0.000 F360.000
G1 X124.750 Y-50.000 Z-2.000 F360.000
G2 X113.555 Y-61.249 Z-2.000 I-11.251 J0.002 K0.000 F360.000
G1 X53.500 Y-61.250 Z-2.000 F360.000
G2 X42.251 Y-50.055 Z-2.000 I0.002 J11.251 K0.000 F360.000
G1 X42.251 Y0.001 Z-2.000 F360.000
G1 X42.251 Y0.001 Z-4.000 F360.000
G1 X42.250 Y50.000 Z-4.000 F360.000
G2 X53.445 Y61.249 Z-4.000 I11.251 J-0.002 K0.000 F360.000
G1 X113.500 Y61.250 Z-4.000 F360.000
G2 X124.749 Y50.055 Z-4.000 I-0.002 J-11.251 K0.000 F360.000
G1 X124.750 Y-50.000 Z-4.000 F360.000
G2 X113.555 Y-61.249 Z-4.000 I-11.251 J0.002 K0.000 F360.000
G1 X53.500 Y-61.250 Z-4.000 F360.000
G2 X42.251 Y-50.055 Z-4.000 I0.002 J11.251 K0.000 F360.000
G1 X42.251 Y0.001 Z-4.000 F360.000
G1 X42.251 Y0.001 Z-6.000 F360.000
G1 X42.250 Y50.000 Z-6.000 F360.000
G2 X53.445 Y61.249 Z-6.000 I11.251 J-0.002 K0.000 F360.000
G1 X113.500 Y61.250 Z-6.000 F360.000
G2 X124.749 Y50.055 Z-6.000 I-0.002 J-11.251 K0.000 F360.000
G1 X124.750 Y-50.000 Z-6.000 F360.000
G2 X113.555 Y-61.249 Z-6.000 I-11.251 J0.002 K0.000 F360.000
G1 X53.500 Y-61.250 Z-6.000 F360.000
G2 X42.251 Y-50.055 Z-6.000 I0.002 J11.251 K0.000 F360.000
G1 X42.251 Y0.001 Z-6.000 F360.000
G1 X42.251 Y0.001 Z-8.000 F360.000
G1 X42.250 Y50.000 Z-8.000 F360.000
G2 X53.445 Y61.249 Z-8.000 I11.251 J-0.002 K0.000 F360.000
G1 X113.500 Y61.250 Z-8.000 F360.000
G2 X124.749 Y50.055 Z-8.000 I-0.002 J-11.251 K0.000 F360.000
G1 X124.750 Y-50.000 Z-8.000 F360.000
G2 X113.555 Y-61.249 Z-8.000 I-11.251 J0.002 K0.000 F360.000
G1 X53.500 Y-61.250 Z-8.000 F360.000
G2 X42.251 Y-50.055 Z-8.000 I0.002 J11.251 K0.000 F360.000
G1 X42.251 Y0.001 Z-8.000 F360.000
G1 X42.251 Y0.001 Z-10.000 F360.000
G1 X42.250 Y50.000 Z-10.000 F360.000
G2 X53.445 Y61.249 Z-10.000 I11.251 J-0.002 K0.000 F360.000
G1 X113.500 Y61.250 Z-10.000 F360.000
G2 X124.749 Y50.055 Z-10.000 I-0.002 J-11.251 K0.000 F360.000
G1 X124.750 Y-50.000 Z-10.000 F360.000
G2 X113.555 Y-61.249 Z-10.000 I-11.251 J0.002 K0.000 F360.000
G1 X53.500 Y-61.250 Z-10.000 F360.000
G2 X42.251 Y-50.055 Z-10.000 I0.002 J11.251 K0.000 F360.000
G1 X42.251 Y0.001 Z-10.000 F360.000
G1 X42.251 Y0.001 Z-12.000 F360.000
G1 X42.250 Y50.000 Z-12.000 F360.000
G2 X53.445 Y61.249 Z-12.000 I11.251 J-0.002 K0.000 F360.000
G1 X113.500 Y61.250 Z-12.000 F360.000
G2 X124.749 Y50.055 Z-12.000 I-0.002 J-11.251 K0.000 F360.000
G1 X124.750 Y-50.000 Z-12.000 F360.000
G2 X113.555 Y-61.249 Z-12.000 I-11.251 J0.002 K0.000 F360.000
G1 X53.500 Y-61.250 Z-12.000 F360.000
G2 X42.251 Y-50.055 Z-12.000 I0.002 J11.251 K0.000 F360.000
G1 X42.251 Y0.001 Z-12.000 F360.000
G0 Z5.000
G0 Z5.000
(Finish operation: Profile003)
(Begin operation: Profile)
(Path: Profile)
(Profile)
(Compensated Tool Path. Diameter: 2.5)
G0 Z5.000
G0 X0.000 Y0.000
G0 X10.750
G0 X10.750 Z3.000
G1 X10.750 Y-0.000 Z-2.000 F360.000
G1 X10.750 Y14.962 Z-2.000 F360.000
G3 X6.962 Y18.750 Z-2.000 I-3.756 J0.032 K0.000 F360.000
G1 X2.520 Y18.750 Z-2.000 F360.000
G2 X1.141 Y18.981 Z-2.000 I0.008 J4.280 K0.000 F360.000
G1 X-12.420 Y23.823 Z-2.000 F360.000
G2 X-13.250 Y25.024 Z-2.000 I0.420 J1.177 K0.000 F360.000
G3 X-13.254 Y27.110 Z-2.000 I-31.862 J0.973 K0.000 F360.000
G3 X-22.027 Y35.750 Z-2.000 I-8.746 J-0.107 K0.000 F360.000
G1 X-39.000 Y35.750 Z-2.000 F360.000
G2 X-41.250 Y38.000 Z-2.000 I0.012 J2.262 K0.000 F360.000
G1 X-41.250 Y50.000 Z-2.000 F360.000
G2 X-30.055 Y61.249 Z-2.000 I11.251 J-0.002 K0.000 F360.000
G1 X30.000 Y61.250 Z-2.000 F360.000
G2 X41.249 Y50.055 Z-2.000 I-0.002 J-11.251 K0.000 F360.000
G1 X41.250 Y-50.000 Z-2.000 F360.000
G2 X30.055 Y-61.249 Z-2.000 I-11.251 J0.002 K0.000 F360.000
G1 X-30.000 Y-61.250 Z-2.000 F360.000
G2 X-41.249 Y-50.055 Z-2.000 I0.002 J11.251 K0.000 F360.000
G1 X-41.250 Y-38.000 Z-2.000 F360.000
G2 X-39.000 Y-35.750 Z-2.000 I2.262 J-0.012 K0.000 F360.000
G1 X-22.027 Y-35.750 Z-2.000 F360.000
G3 X-13.284 Y-27.763 Z-2.000 I0.025 J8.751 K0.000 F360.000
G3 X-13.250 Y-25.000 Z-2.000 I-31.619 J1.776 K0.000 F360.000
G2 X-12.420 Y-23.823 Z-2.000 I1.250 J-0.000 K0.000 F360.000
G1 X1.090 Y-18.998 Z-2.000 F360.000
G2 X2.466 Y-18.751 Z-2.000 I1.433 J-4.034 K0.000 F360.000
G1 X6.962 Y-18.750 Z-2.000 F360.000
G3 X10.750 Y-14.962 Z-2.000 I0.032 J3.756 K0.000 F360.000
G1 X10.750 Y-0.000 Z-2.000 F360.000
G1 X10.750 Y-0.000 Z-4.000 F360.000
G1 X10.750 Y14.962 Z-4.000 F360.000
G3 X6.962 Y18.750 Z-4.000 I-3.756 J0.032 K0.000 F360.000
G1 X2.520 Y18.750 Z-4.000 F360.000
G2 X1.141 Y18.981 Z-4.000 I0.008 J4.280 K0.000 F360.000
G1 X-12.420 Y23.823 Z-4.000 F360.000
G2 X-13.250 Y25.024 Z-4.000 I0.420 J1.177 K0.000 F360.000
G3 X-13.254 Y27.110 Z-4.000 I-31.862 J0.973 K0.000 F360.000
G3 X-22.027 Y35.750 Z-4.000 I-8.746 J-0.107 K0.000 F360.000
G1 X-39.000 Y35.750 Z-4.000 F360.000
G2 X-41.250 Y38.000 Z-4.000 I0.012 J2.262 K0.000 F360.000
G1 X-41.250 Y50.000 Z-4.000 F360.000
G2 X-30.055 Y61.249 Z-4.000 I11.251 J-0.002 K0.000 F360.000
G1 X30.000 Y61.250 Z-4.000 F360.000
G2 X41.249 Y50.055 Z-4.000 I-0.002 J-11.251 K0.000 F360.000
G1 X41.250 Y-50.000 Z-4.000 F360.000
G2 X30.055 Y-61.249 Z-4.000 I-11.251 J0.002 K0.000 F360.000
G1 X-30.000 Y-61.250 Z-4.000 F360.000
G2 X-41.249 Y-50.055 Z-4.000 I0.002 J11.251 K0.000 F360.000
G1 X-41.250 Y-38.000 Z-4.000 F360.000
G2 X-39.000 Y-35.750 Z-4.000 I2.262 J-0.012 K0.000 F360.000
G1 X-22.027 Y-35.750 Z-4.000 F360.000
G3 X-13.284 Y-27.763 Z-4.000 I0.025 J8.751 K0.000 F360.000
G3 X-13.250 Y-25.000 Z-4.000 I-31.619 J1.776 K0.000 F360.000
G2 X-12.420 Y-23.823 Z-4.000 I1.250 J-0.000 K0.000 F360.000
G1 X1.090 Y-18.998 Z-4.000 F360.000
G2 X2.466 Y-18.751 Z-4.000 I1.433 J-4.034 K0.000 F360.000
G1 X6.962 Y-18.750 Z-4.000 F360.000
G3 X10.750 Y-14.962 Z-4.000 I0.032 J3.756 K0.000 F360.000
G1 X10.750 Y-0.000 Z-4.000 F360.000
G1 X10.750 Y-0.000 Z-6.000 F360.000
G1 X10.750 Y14.962 Z-6.000 F360.000
G3 X6.962 Y18.750 Z-6.000 I-3.756 J0.032 K0.000 F360.000
G1 X2.520 Y18.750 Z-6.000 F360.000
G2 X1.141 Y18.981 Z-6.000 I0.008 J4.280 K0.000 F360.000
G1 X-12.420 Y23.823 Z-6.000 F360.000
G2 X-13.250 Y25.024 Z-6.000 I0.420 J1.177 K0.000 F360.000
G3 X-13.254 Y27.110 Z-6.000 I-31.862 J0.973 K0.000 F360.000
G3 X-22.027 Y35.750 Z-6.000 I-8.746 J-0.107 K0.000 F360.000
G1 X-39.000 Y35.750 Z-6.000 F360.000
G2 X-41.250 Y38.000 Z-6.000 I0.012 J2.262 K0.000 F360.000
G1 X-41.250 Y50.000 Z-6.000 F360.000
G2 X-30.055 Y61.249 Z-6.000 I11.251 J-0.002 K0.000 F360.000
G1 X30.000 Y61.250 Z-6.000 F360.000
G2 X41.249 Y50.055 Z-6.000 I-0.002 J-11.251 K0.000 F360.000
G1 X41.250 Y-50.000 Z-6.000 F360.000
G2 X30.055 Y-61.249 Z-6.000 I-11.251 J0.002 K0.000 F360.000
G1 X-30.000 Y-61.250 Z-6.000 F360.000
G2 X-41.249 Y-50.055 Z-6.000 I0.002 J11.251 K0.000 F360.000
G1 X-41.250 Y-38.000 Z-6.000 F360.000
G2 X-39.000 Y-35.750 Z-6.000 I2.262 J-0.012 K0.000 F360.000
G1 X-22.027 Y-35.750 Z-6.000 F360.000
G3 X-13.284 Y-27.763 Z-6.000 I0.025 J8.751 K0.000 F360.000
G3 X-13.250 Y-25.000 Z-6.000 I-31.619 J1.776 K0.000 F360.000
G2 X-12.420 Y-23.823 Z-6.000 I1.250 J-0.000 K0.000 F360.000
G1 X1.090 Y-18.998 Z-6.000 F360.000
G2 X2.466 Y-18.751 Z-6.000 I1.433 J-4.034 K0.000 F360.000
G1 X6.962 Y-18.750 Z-6.000 F360.000
G3 X10.750 Y-14.962 Z-6.000 I0.032 J3.756 K0.000 F360.000
G1 X10.750 Y-0.000 Z-6.000 F360.000
G1 X10.750 Y-0.000 Z-8.000 F360.000
G1 X10.750 Y14.962 Z-8.000 F360.000
G3 X6.962 Y18.750 Z-8.000 I-3.756 J0.032 K0.000 F360.000
G1 X2.520 Y18.750 Z-8.000 F360.000
G2 X1.141 Y18.981 Z-8.000 I0.008 J4.280 K0.000 F360.000
G1 X-12.420 Y23.823 Z-8.000 F360.000
G2 X-13.250 Y25.024 Z-8.000 I0.420 J1.177 K0.000 F360.000
G3 X-13.254 Y27.110 Z-8.000 I-31.862 J0.973 K0.000 F360.000
G3 X-22.027 Y35.750 Z-8.000 I-8.746 J-0.107 K0.000 F360.000
G1 X-39.000 Y35.750 Z-8.000 F360.000
G2 X-41.250 Y38.000 Z-8.000 I0.012 J2.262 K0.000 F360.000
G1 X-41.250 Y50.000 Z-8.000 F360.000
G2 X-30.055 Y61.249 Z-8.000 I11.251 J-0.002 K0.000 F360.000
G1 X30.000 Y61.250 Z-8.000 F360.000
G2 X41.249 Y50.055 Z-8.000 I-0.002 J-11.251 K0.000 F360.000
G1 X41.250 Y-50.000 Z-8.000 F360.000
G2 X30.055 Y-61.249 Z-8.000 I-11.251 J0.002 K0.000 F360.000
G1 X-30.000 Y-61.250 Z-8.000 F360.000
G2 X-41.249 Y-50.055 Z-8.000 I0.002 J11.251 K0.000 F360.000
G1 X-41.250 Y-38.000 Z-8.000 F360.000
G2 X-39.000 Y-35.750 Z-8.000 I2.262 J-0.012 K0.000 F360.000
G1 X-22.027 Y-35.750 Z-8.000 F360.000
G3 X-13.284 Y-27.763 Z-8.000 I0.025 J8.751 K0.000 F360.000
G3 X-13.250 Y-25.000 Z-8.000 I-31.619 J1.776 K0.000 F360.000
G2 X-12.420 Y-23.823 Z-8.000 I1.250 J-0.000 K0.000 F360.000
G1 X1.090 Y-18.998 Z-8.000 F360.000
G2 X2.466 Y-18.751 Z-8.000 I1.433 J-4.034 K0.000 F360.000
G1 X6.962 Y-18.750 Z-8.000 F360.000
G3 X10.750 Y-14.962 Z-8.000 I0.032 J3.756 K0.000 F360.000
G1 X10.750 Y-0.000 Z-8.000 F360.000
G1 X10.750 Y-0.000 Z-10.000 F360.000
G1 X10.750 Y14.962 Z-10.000 F360.000
G3 X6.962 Y18.750 Z-10.000 I-3.756 J0.032 K0.000 F360.000
G1 X2.520 Y18.750 Z-10.000 F360.000
G2 X1.141 Y18.981 Z-10.000 I0.008 J4.280 K0.000 F360.000
G1 X-12.420 Y23.823 Z-10.000 F360.000
G2 X-13.250 Y25.024 Z-10.000 I0.420 J1.177 K0.000 F360.000
G3 X-13.254 Y27.110 Z-10.000 I-31.862 J0.973 K0.000 F360.000
G3 X-22.027 Y35.750 Z-10.000 I-8.746 J-0.107 K0.000 F360.000
G1 X-39.000 Y35.750 Z-10.000 F360.000
G2 X-41.250 Y38.000 Z-10.000 I0.012 J2.262 K0.000 F360.000
G1 X-41.250 Y50.000 Z-10.000 F360.000
G2 X-30.055 Y61.249 Z-10.000 I11.251 J-0.002 K0.000 F360.000
G1 X30.000 Y61.250 Z-10.000 F360.000
G2 X41.249 Y50.055 Z-10.000 I-0.002 J-11.251 K0.000 F360.000
G1 X41.250 Y-50.000 Z-10.000 F360.000
G2 X30.055 Y-61.249 Z-10.000 I-11.251 J0.002 K0.000 F360.000
G1 X-30.000 Y-61.250 Z-10.000 F360.000
G2 X-41.249 Y-50.055 Z-10.000 I0.002 J11.251 K0.000 F360.000
G1 X-41.250 Y-38.000 Z-10.000 F360.000
G2 X-39.000 Y-35.750 Z-10.000 I2.262 J-0.012 K0.000 F360.000
G1 X-22.027 Y-35.750 Z-10.000 F360.000
G3 X-13.284 Y-27.763 Z-10.000 I0.025 J8.751 K0.000 F360.000
G3 X-13.250 Y-25.000 Z-10.000 I-31.619 J1.776 K0.000 F360.000
G2 X-12.420 Y-23.823 Z-10.000 I1.250 J-0.000 K0.000 F360.000
G1 X1.090 Y-18.998 Z-10.000 F360.000
G2 X2.466 Y-18.751 Z-10.000 I1.433 J-4.034 K0.000 F360.000
G1 X6.962 Y-18.750 Z-10.000 F360.000
G3 X10.750 Y-14.962 Z-10.000 I0.032 J3.756 K0.000 F360.000
G1 X10.750 Y-0.000 Z-10.000 F360.000
G1 X10.750 Y-0.000 Z-12.000 F360.000
G1 X10.750 Y14.962 Z-12.000 F360.000
G3 X6.962 Y18.750 Z-12.000 I-3.756 J0.032 K0.000 F360.000
G1 X2.520 Y18.750 Z-12.000 F360.000
G2 X1.141 Y18.981 Z-12.000 I0.008 J4.280 K0.000 F360.000
G1 X-12.420 Y23.823 Z-12.000 F360.000
G2 X-13.250 Y25.024 Z-12.000 I0.420 J1.177 K0.000 F360.000
G3 X-13.254 Y27.110 Z-12.000 I-31.862 J0.973 K0.000 F360.000
G3 X-22.027 Y35.750 Z-12.000 I-8.746 J-0.107 K0.000 F360.000
G1 X-39.000 Y35.750 Z-12.000 F360.000
G2 X-41.250 Y38.000 Z-12.000 I0.012 J2.262 K0.000 F360.000
G1 X-41.250 Y50.000 Z-12.000 F360.000
G2 X-30.055 Y61.249 Z-12.000 I11.251 J-0.002 K0.000 F360.000
G1 X30.000 Y61.250 Z-12.000 F360.000
G2 X41.249 Y50.055 Z-12.000 I-0.002 J-11.251 K0.000 F360.000
G1 X41.250 Y-50.000 Z-12.000 F360.000
G2 X30.055 Y-61.249 Z-12.000 I-11.251 J0.002 K0.000 F360.000
G1 X-30.000 Y-61.250 Z-12.000 F360.000
G2 X-41.249 Y-50.055 Z-12.000 I0.002 J11.251 K0.000 F360.000
G1 X-41.250 Y-38.000 Z-12.000 F360.000
G2 X-39.000 Y-35.750 Z-12.000 I2.262 J-0.012 K0.000 F360.000
G1 X-22.027 Y-35.750 Z-12.000 F360.000
G3 X-13.284 Y-27.763 Z-12.000 I0.025 J8.751 K0.000 F360.000
G3 X-13.250 Y-25.000 Z-12.000 I-31.619 J1.776 K0.000 F360.000
G2 X-12.420 Y-23.823 Z-12.000 I1.250 J-0.000 K0.000 F360.000
G1 X1.090 Y-18.998 Z-12.000 F360.000
G2 X2.466 Y-18.751 Z-12.000 I1.433 J-4.034 K0.000 F360.000
G1 X6.962 Y-18.750 Z-12.000 F360.000
G3 X10.750 Y-14.962 Z-12.000 I0.032 J3.756 K0.000 F360.000
G1 X10.750 Y-0.000 Z-12.000 F360.000
G0 Z5.000
G0 Z5.000
(Finish operation: Profile)
(Begin operation: Profile001)
(Path: Profile001)
(Profile001)
(Compensated Tool Path. Diameter: 2.5)
G0 Z5.000
G0 X0.000 Y0.000
G0 X-41.251 Y-0.000
G0 X-41.251 Y-0.000 Z3.000
G1 X-41.251 Y-0.000 Z-2.000 F360.000
G1 X-41.250 Y-50.000 Z-2.000 F360.000
G2 X-52.445 Y-61.249 Z-2.000 I-11.251 J0.002 K0.000 F360.000
G1 X-112.500 Y-61.250 Z-2.000 F360.000
G2 X-123.749 Y-50.055 Z-2.000 I0.002 J11.251 K0.000 F360.000
G1 X-123.750 Y50.000 Z-2.000 F360.000
G2 X-112.555 Y61.249 Z-2.000 I11.251 J-0.002 K0.000 F360.000
G1 X-52.500 Y61.250 Z-2.000 F360.000
G2 X-41.251 Y50.055 Z-2.000 I-0.002 J-11.251 K0.000 F360.000
G1 X-41.251 Y-0.000 Z-2.000 F360.000
G1 X-41.251 Y-0.000 Z-4.000 F360.000
G1 X-41.250 Y-50.000 Z-4.000 F360.000
G2 X-52.445 Y-61.249 Z-4.000 I-11.251 J0.002 K0.000 F360.000
G1 X-112.500 Y-61.250 Z-4.000 F360.000
G2 X-123.749 Y-50.055 Z-4.000 I0.002 J11.251 K0.000 F360.000
G1 X-123.750 Y50.000 Z-4.000 F360.000
G2 X-112.555 Y61.249 Z-4.000 I11.251 J-0.002 K0.000 F360.000
G1 X-52.500 Y61.250 Z-4.000 F360.000
G2 X-41.251 Y50.055 Z-4.000 I-0.002 J-11.251 K0.000 F360.000
G1 X-41.251 Y-0.000 Z-4.000 F360.000
G1 X-41.251 Y-0.000 Z-6.000 F360.000
G1 X-41.250 Y-50.000 Z-6.000 F360.000
G2 X-52.445 Y-61.249 Z-6.000 I-11.251 J0.002 K0.000 F360.000
G1 X-112.500 Y-61.250 Z-6.000 F360.000
G2 X-123.749 Y-50.055 Z-6.000 I0.002 J11.251 K0.000 F360.000
G1 X-123.750 Y50.000 Z-6.000 F360.000
G2 X-112.555 Y61.249 Z-6.000 I11.251 J-0.002 K0.000 F360.000
G1 X-52.500 Y61.250 Z-6.000 F360.000
G2 X-41.251 Y50.055 Z-6.000 I-0.002 J-11.251 K0.000 F360.000
G1 X-41.251 Y-0.000 Z-6.000 F360.000
G1 X-41.251 Y-0.000 Z-8.000 F360.000
G1 X-41.250 Y-50.000 Z-8.000 F360.000
G2 X-52.445 Y-61.249 Z-8.000 I-11.251 J0.002 K0.000 F360.000
G1 X-112.500 Y-61.250 Z-8.000 F360.000
G2 X-123.749 Y-50.055 Z-8.000 I0.002 J11.251 K0.000 F360.000
G1 X-123.750 Y50.000 Z-8.000 F360.000
G2 X-112.555 Y61.249 Z-8.000 I11.251 J-0.002 K0.000 F360.000
G1 X-52.500 Y61.250 Z-8.000 F360.000
G2 X-41.251 Y50.055 Z-8.000 I-0.002 J-11.251 K0.000 F360.000
G1 X-41.251 Y-0.000 Z-8.000 F360.000
G1 X-41.251 Y-0.000 Z-10.000 F360.000
G1 X-41.250 Y-50.000 Z-10.000 F360.000
G2 X-52.445 Y-61.249 Z-10.000 I-11.251 J0.002 K0.000 F360.000
G1 X-112.500 Y-61.250 Z-10.000 F360.000
G2 X-123.749 Y-50.055 Z-10.000 I0.002 J11.251 K0.000 F360.000
G1 X-123.750 Y50.000 Z-10.000 F360.000
G2 X-112.555 Y61.249 Z-10.000 I11.251 J-0.002 K0.000 F360.000
G1 X-52.500 Y61.250 Z-10.000 F360.000
G2 X-41.251 Y50.055 Z-10.000 I-0.002 J-11.251 K0.000 F360.000
G1 X-41.251 Y-0.000 Z-10.000 F360.000
G1 X-41.251 Y-0.000 Z-12.000 F360.000
G1 X-41.250 Y-50.000 Z-12.000 F360.000
G2 X-52.445 Y-61.249 Z-12.000 I-11.251 J0.002 K0.000 F360.000
G1 X-112.500 Y-61.250 Z-12.000 F360.000
G2 X-123.749 Y-50.055 Z-12.000 I0.002 J11.251 K0.000 F360.000
G1 X-123.750 Y50.000 Z-12.000 F360.000
G2 X-112.555 Y61.249 Z-12.000 I11.251 J-0.002 K0.000 F360.000
G1 X-52.500 Y61.250 Z-12.000 F360.000
G2 X-41.251 Y50.055 Z-12.000 I-0.002 J-11.251 K0.000 F360.000
G1 X-41.251 Y-0.000 Z-12.000 F360.000
G0 Z5.000
G0 Z5.000
(Finish operation: Profile001)
(Begin postamble)
M5
G17 G90
M2
