(Exported by FreeCAD)
(Post Processor: script_module)
(Output Time:2026-01-15 18:09:50.368860)
(Begin preamble)
G17 G90
G21
(Begin operation: Fixture)
(Path: Fixture)
G54
(Finish operation: Fixture)
(Begin operation: 2_5mmEndMill004)
(Path: 2_5mmEndMill004)
(2_5mmEndMill004)
(Begin toolchange)
( M6 T2 )
M3 S20000
(Finish operation: 2_5mmEndMill004)
(Begin operation: Pocket_Shape001)
(Path: Pocket_Shape001)
(Pocket_Shape001)
G0 Z5.000
G0 X0.000 Y0.000
G0 X31.750
G0 X31.750 Z3.000
G1 X31.750 Y0.000 Z-2.500 F390.000
G1 X31.750 Y-30.949 Z-2.500 F390.000
G3 X35.551 Y-34.750 Z-2.500 I3.763 J-0.038 K0.000 F390.000
G1 X60.449 Y-34.750 Z-2.500 F390.000
G3 X64.250 Y-30.949 Z-2.500 I0.037 J3.763 K0.000 F390.000
G1 X64.250 Y30.949 Z-2.500 F390.000
G3 X60.449 Y34.750 Z-2.500 I-3.763 J0.038 K0.000 F390.000
G1 X35.551 Y34.750 Z-2.500 F390.000
G3 X31.750 Y30.949 Z-2.500 I-0.038 J-3.763 K0.000 F390.000
G1 X31.750 Y0.000 Z-2.500 F390.000
G1 X34.250 Y0.000 Z-2.500 F390.000
G1 X34.250 Y-30.923 Z-2.500 F390.000
G3 X35.577 Y-32.250 Z-2.500 I1.268 J-0.059 K0.000 F390.000
G1 X60.423 Y-32.250 Z-2.500 F390.000
G3 X61.750 Y-30.922 Z-2.500 I0.059 J1.268 K0.000 F390.000
G1 X61.750 Y30.923 Z-2.500 F390.000
G3 X60.423 Y32.250 Z-2.500 I-1.268 J0.059 K0.000 F390.000
G1 X35.577 Y32.250 Z-2.500 F390.000
G3 X34.250 Y30.922 Z-2.500 I-0.059 J-1.268 K0.000 F390.000
G1 X34.250 Y0.000 Z-2.500 F390.000
G1 X36.750 Y0.000 Z-2.500 F390.000
G1 X36.750 Y-29.750 Z-2.500 F390.000
G1 X59.250 Y-29.750 Z-2.500 F390.000
G1 X59.250 Y29.750 Z-2.500 F390.000
G1 X36.750 Y29.750 Z-2.500 F390.000
G1 X36.750 Y0.000 Z-2.500 F390.000
G1 X39.250 Y0.000 Z-2.500 F390.000
G1 X39.250 Y-27.250 Z-2.500 F390.000
G1 X56.750 Y-27.250 Z-2.500 F390.000
G1 X56.750 Y27.250 Z-2.500 F390.000
G1 X39.250 Y27.250 Z-2.500 F390.000
G1 X39.250 Y0.000 Z-2.500 F390.000
G1 X41.750 Y0.000 Z-2.500 F390.000
G1 X41.750 Y-24.750 Z-2.500 F390.000
G1 X54.250 Y-24.750 Z-2.500 F390.000
G1 X54.250 Y24.750 Z-2.500 F390.000
G1 X41.750 Y24.750 Z-2.500 F390.000
G1 X41.750 Y0.000 Z-2.500 F390.000
G1 X44.250 Y0.000 Z-2.500 F390.000
G1 X44.250 Y-22.250 Z-2.500 F390.000
G1 X51.750 Y-22.250 Z-2.500 F390.000
G1 X51.750 Y22.250 Z-2.500 F390.000
G1 X44.250 Y22.250 Z-2.500 F390.000
G1 X44.250 Y0.000 Z-2.500 F390.000
G1 X46.750 Y0.000 Z-2.500 F390.000
G1 X46.750 Y-19.750 Z-2.500 F390.000
G1 X49.250 Y-19.750 Z-2.500 F390.000
G1 X49.250 Y19.750 Z-2.500 F390.000
G1 X46.750 Y19.750 Z-2.500 F390.000
G1 X46.750 Y0.000 Z-2.500 F390.000
G1 X47.375 Y0.000 Z-2.500 F390.000
G1 X47.375 Y-19.125 Z-2.500 F390.000
G1 X48.625 Y-19.125 Z-2.500 F390.000
G1 X48.625 Y19.125 Z-2.500 F390.000
G1 X47.375 Y19.125 Z-2.500 F390.000
G1 X47.375 Y0.000 Z-2.500 F390.000
G1 X47.375 Y0.000 Z-5.000 F390.000
G1 X47.375 Y-19.125 Z-5.000 F390.000
G1 X48.625 Y-19.125 Z-5.000 F390.000
G1 X48.625 Y19.125 Z-5.000 F390.000
G1 X47.375 Y19.125 Z-5.000 F390.000
G1 X47.375 Y0.000 Z-5.000 F390.000
G1 X46.750 Y0.000 Z-5.000 F390.000
G1 X46.750 Y-19.750 Z-5.000 F390.000
G1 X49.250 Y-19.750 Z-5.000 F390.000
G1 X49.250 Y19.750 Z-5.000 F390.000
G1 X46.750 Y19.750 Z-5.000 F390.000
G1 X46.750 Y0.000 Z-5.000 F390.000
G1 X44.250 Y0.000 Z-5.000 F390.000
G1 X44.250 Y-22.250 Z-5.000 F390.000
G1 X51.750 Y-22.250 Z-5.000 F390.000
G1 X51.750 Y22.250 Z-5.000 F390.000
G1 X44.250 Y22.250 Z-5.000 F390.000
G1 X44.250 Y0.000 Z-5.000 F390.000
G1 X41.750 Y0.000 Z-5.000 F390.000
G1 X41.750 Y-24.750 Z-5.000 F390.000
G1 X54.250 Y-24.750 Z-5.000 F390.000
G1 X54.250 Y24.750 Z-5.000 F390.000
G1 X41.750 Y24.750 Z-5.000 F390.000
G1 X41.750 Y0.000 Z-5.000 F390.000
G1 X39.250 Y0.000 Z-5.000 F390.000
G1 X39.250 Y-27.250 Z-5.000 F390.000
G1 X56.750 Y-27.250 Z-5.000 F390.000
G1 X56.750 Y27.250 Z-5.000 F390.000
G1 X39.250 Y27.250 Z-5.000 F390.000
G1 X39.250 Y0.000 Z-5.000 F390.000
G1 X36.750 Y0.000 Z-5.000 F390.000
G1 X36.750 Y-29.750 Z-5.000 F390.000
G1 X59.250 Y-29.750 Z-5.000 F390.000
G1 X59.250 Y29.750 Z-5.000 F390.000
G1 X36.750 Y29.750 Z-5.000 F390.000
G1 X36.750 Y0.000 Z-5.000 F390.000
G1 X34.250 Y0.000 Z-5.000 F390.000
G1 X34.250 Y-30.923 Z-5.000 F390.000
G3 X35.577 Y-32.250 Z-5.000 I1.268 J-0.059 K0.000 F390.000
G1 X60.423 Y-32.250 Z-5.000 F390.000
G3 X61.750 Y-30.922 Z-5.000 I0.059 J1.268 K0.000 F390.000
G1 X61.750 Y30.923 Z-5.000 F390.000
G3 X60.423 Y32.250 Z-5.000 I-1.268 J0.059 K0.000 F390.000
G1 X35.577 Y32.250 Z-5.000 F390.000
G3 X34.250 Y30.922 Z-5.000 I-0.059 J-1.268 K0.000 F390.000
G1 X34.250 Y0.000 Z-5.000 F390.000
G1 X31.750 Y0.000 Z-5.000 F390.000
G1 X31.750 Y-30.949 Z-5.000 F390.000
G3 X35.551 Y-34.750 Z-5.000 I3.763 J-0.038 K0.000 F390.000
G1 X60.449 Y-34.750 Z-5.000 F390.000
G3 X64.250 Y-30.949 Z-5.000 I0.037 J3.763 K0.000 F390.000
G1 X64.250 Y30.949 Z-5.000 F390.000
G3 X60.449 Y34.750 Z-5.000 I-3.763 J0.038 K0.000 F390.000
G1 X35.551 Y34.750 Z-5.000 F390.000
G3 X31.750 Y30.949 Z-5.000 I-0.038 J-3.763 K0.000 F390.000
G1 X31.750 Y0.000 Z-5.000 F390.000
G1 X31.750 Y0.000 Z-6.000 F390.000
G1 X31.750 Y-30.949 Z-6.000 F390.000
G3 X35.551 Y-34.750 Z-6.000 I3.763 J-0.038 K0.000 F390.000
G1 X60.449 Y-34.750 Z-6.000 F390.000
G3 X64.250 Y-30.949 Z-6.000 I0.037 J3.763 K0.000 F390.000
G1 X64.250 Y30.949 Z-6.000 F390.000
G3 X60.449 Y34.750 Z-6.000 I-3.763 J0.038 K0.000 F390.000
G1 X35.551 Y34.750 Z-6.000 F390.000
G3 X31.750 Y30.949 Z-6.000 I-0.038 J-3.763 K0.000 F390.000
G1 X31.750 Y0.000 Z-6.000 F390.000
G1 X34.250 Y0.000 Z-6.000 F390.000
G1 X34.250 Y-30.923 Z-6.000 F390.000
G3 X35.577 Y-32.250 Z-6.000 I1.268 J-0.059 K0.000 F390.000
G1 X60.423 Y-32.250 Z-6.000 F390.000
G3 X61.750 Y-30.922 Z-6.000 I0.059 J1.268 K0.000 F390.000
G1 X61.750 Y30.923 Z-6.000 F390.000
G3 X60.423 Y32.250 Z-6.000 I-1.268 J0.059 K0.000 F390.000
G1 X35.577 Y32.250 Z-6.000 F390.000
G3 X34.250 Y30.922 Z-6.000 I-0.059 J-1.268 K0.000 F390.000
G1 X34.250 Y0.000 Z-6.000 F390.000
G1 X36.750 Y0.000 Z-6.000 F390.000
G1 X36.750 Y-29.750 Z-6.000 F390.000
G1 X59.250 Y-29.750 Z-6.000 F390.000
G1 X59.250 Y29.750 Z-6.000 F390.000
G1 X36.750 Y29.750 Z-6.000 F390.000
G1 X36.750 Y0.000 Z-6.000 F390.000
G1 X39.250 Y0.000 Z-6.000 F390.000
G1 X39.250 Y-27.250 Z-6.000 F390.000
G1 X56.750 Y-27.250 Z-6.000 F390.000
G1 X56.750 Y27.250 Z-6.000 F390.000
G1 X39.250 Y27.250 Z-6.000 F390.000
G1 X39.250 Y0.000 Z-6.000 F390.000
G1 X41.750 Y0.000 Z-6.000 F390.000
G1 X41.750 Y-24.750 Z-6.000 F390.000
G1 X54.250 Y-24.750 Z-6.000 F390.000
G1 X54.250 Y24.750 Z-6.000 F390.000
G1 X41.750 Y24.750 Z-6.000 F390.000
G1 X41.750 Y0.000 Z-6.000 F390.000
G1 X44.250 Y0.000 Z-6.000 F390.000
G1 X44.250 Y-22.250 Z-6.000 F390.000
G1 X51.750 Y-22.250 Z-6.000 F390.000
G1 X51.750 Y22.250 Z-6.000 F390.000
G1 X44.250 Y22.250 Z-6.000 F390.000
G1 X44.250 Y0.000 Z-6.000 F390.000
G1 X46.750 Y0.000 Z-6.000 F390.000
G1 X46.750 Y-19.750 Z-6.000 F390.000
G1 X49.250 Y-19.750 Z-6.000 F390.000
G1 X49.250 Y19.750 Z-6.000 F390.000
G1 X46.750 Y19.750 Z-6.000 F390.000
G1 X46.750 Y0.000 Z-6.000 F390.000
G1 X47.375 Y0.000 Z-6.000 F390.000
G1 X47.375 Y-19.125 Z-6.000 F390.000
G1 X48.625 Y-19.125 Z-6.000 F390.000
G1 X48.625 Y19.125 Z-6.000 F390.000
G1 X47.375 Y19.125 Z-6.000 F390.000
G1 X47.375 Y0.000 Z-6.000 F390.000
G0 Z5.000
G0 Z5.000
(Finish operation: Pocket_Shape001)
(Begin operation: Profile004)
(Path: Profile004)
(Profile004)
(Compensated Tool Path. Diameter: 2.5)
G0 Z5.000
G0 X60.650 Y29.650
G0 Z3.000
G1 X60.650 Y29.650 Z-2.500 F390.000
G2 X61.750 Y26.962 Z-2.500 I-2.656 J-2.656 K0.000 F390.000
G1 X61.750 Y-26.962 Z-2.500 F390.000
G2 X57.962 Y-30.750 Z-2.500 I-3.756 J-0.032 K0.000 F390.000
G1 X39.038 Y-30.750 Z-2.500 F390.000
G2 X35.250 Y-26.962 Z-2.500 I-0.032 J3.756 K0.000 F390.000
G1 X35.250 Y26.962 Z-2.500 F390.000
G2 X39.038 Y30.750 Z-2.500 I3.756 J0.032 K0.000 F390.000
G1 X57.962 Y30.750 Z-2.500 F390.000
G2 X60.650 Y29.650 Z-2.500 I0.032 J-3.756 K0.000 F390.000
G1 X60.650 Y29.650 Z-5.000 F390.000
G2 X61.750 Y26.962 Z-5.000 I-2.656 J-2.656 K0.000 F390.000
G1 X61.750 Y-26.962 Z-5.000 F390.000
G2 X57.962 Y-30.750 Z-5.000 I-3.756 J-0.032 K0.000 F390.000
G1 X39.038 Y-30.750 Z-5.000 F390.000
G2 X35.250 Y-26.962 Z-5.000 I-0.032 J3.756 K0.000 F390.000
G1 X35.250 Y26.962 Z-5.000 F390.000
G2 X39.038 Y30.750 Z-5.000 I3.756 J0.032 K0.000 F390.000
G1 X57.962 Y30.750 Z-5.000 F390.000
G2 X60.650 Y29.650 Z-5.000 I0.032 J-3.756 K0.000 F390.000
G1 X60.650 Y29.650 Z-7.500 F390.000
G2 X61.750 Y26.962 Z-7.500 I-2.656 J-2.656 K0.000 F390.000
G1 X61.750 Y-26.962 Z-7.500 F390.000
G2 X57.962 Y-30.750 Z-7.500 I-3.756 J-0.032 K0.000 F390.000
G1 X39.038 Y-30.750 Z-7.500 F390.000
G2 X35.250 Y-26.962 Z-7.500 I-0.032 J3.756 K0.000 F390.000
G1 X35.250 Y26.962 Z-7.500 F390.000
G2 X39.038 Y30.750 Z-7.500 I3.756 J0.032 K0.000 F390.000
G1 X57.962 Y30.750 Z-7.500 F390.000
G2 X60.650 Y29.650 Z-7.500 I0.032 J-3.756 K0.000 F390.000
G1 X60.650 Y29.650 Z-10.000 F390.000
G2 X61.750 Y26.962 Z-10.000 I-2.656 J-2.656 K0.000 F390.000
G1 X61.750 Y-26.962 Z-10.000 F390.000
G2 X57.962 Y-30.750 Z-10.000 I-3.756 J-0.032 K0.000 F390.000
G1 X39.038 Y-30.750 Z-10.000 F390.000
G2 X35.250 Y-26.962 Z-10.000 I-0.032 J3.756 K0.000 F390.000
G1 X35.250 Y26.962 Z-10.000 F390.000
G2 X39.038 Y30.750 Z-10.000 I3.756 J0.032 K0.000 F390.000
G1 X57.962 Y30.750 Z-10.000 F390.000
G2 X60.650 Y29.650 Z-10.000 I0.032 J-3.756 K0.000 F390.000
G1 X60.650 Y29.650 Z-12.000 F390.000
G2 X61.750 Y26.962 Z-12.000 I-2.656 J-2.656 K0.000 F390.000
G1 X61.750 Y-26.962 Z-12.000 F390.000
G2 X57.962 Y-30.750 Z-12.000 I-3.756 J-0.032 K0.000 F390.000
G1 X39.038 Y-30.750 Z-12.000 F390.000
G2 X35.250 Y-26.962 Z-12.000 I-0.032 J3.756 K0.000 F390.000
G1 X35.250 Y26.962 Z-12.000 F390.000
G2 X39.038 Y30.750 Z-12.000 I3.756 J0.032 K0.000 F390.000
G1 X57.962 Y30.750 Z-12.000 F390.000
G2 X60.650 Y29.650 Z-12.000 I0.032 J-3.756 K0.000 F390.000
G0 Z5.000
G0 Z5.000
(Finish operation: Profile004)
(Begin operation: Profile005)
(Path: Profile005)
(Profile005)
(Compensated Tool Path. Diameter: 2.5)
G0 Z5.000
G0 X79.954 Y57.954
G0 Z3.000
G1 X79.954 Y57.954 Z-2.500 F390.000
G2 X83.249 Y50.055 Z-2.500 I-7.956 J-7.955 K0.000 F390.000
G1 X83.250 Y-50.000 Z-2.500 F390.000
G2 X72.055 Y-61.249 Z-2.500 I-11.251 J0.002 K0.000 F390.000
G1 X12.000 Y-61.250 Z-2.500 F390.000
G2 X0.751 Y-50.055 Z-2.500 I0.002 J11.251 K0.000 F390.000
G1 X0.750 Y50.000 Z-2.500 F390.000
G2 X11.945 Y61.249 Z-2.500 I11.251 J-0.002 K0.000 F390.000
G1 X72.000 Y61.250 Z-2.500 F390.000
G2 X79.954 Y57.954 Z-2.500 I-0.002 J-11.251 K0.000 F390.000
G1 X79.954 Y57.954 Z-5.000 F390.000
G2 X83.249 Y50.055 Z-5.000 I-7.956 J-7.955 K0.000 F390.000
G1 X83.250 Y-50.000 Z-5.000 F390.000
G2 X72.055 Y-61.249 Z-5.000 I-11.251 J0.002 K0.000 F390.000
G1 X12.000 Y-61.250 Z-5.000 F390.000
G2 X0.751 Y-50.055 Z-5.000 I0.002 J11.251 K0.000 F390.000
G1 X0.750 Y50.000 Z-5.000 F390.000
G2 X11.945 Y61.249 Z-5.000 I11.251 J-0.002 K0.000 F390.000
G1 X72.000 Y61.250 Z-5.000 F390.000
G2 X79.954 Y57.954 Z-5.000 I-0.002 J-11.251 K0.000 F390.000
G1 X79.954 Y57.954 Z-7.500 F390.000
G2 X83.249 Y50.055 Z-7.500 I-7.956 J-7.955 K0.000 F390.000
G1 X83.250 Y-50.000 Z-7.500 F390.000
G2 X72.055 Y-61.249 Z-7.500 I-11.251 J0.002 K0.000 F390.000
G1 X12.000 Y-61.250 Z-7.500 F390.000
G2 X0.751 Y-50.055 Z-7.500 I0.002 J11.251 K0.000 F390.000
G1 X0.750 Y50.000 Z-7.500 F390.000
G2 X11.945 Y61.249 Z-7.500 I11.251 J-0.002 K0.000 F390.000
G1 X72.000 Y61.250 Z-7.500 F390.000
G2 X79.954 Y57.954 Z-7.500 I-0.002 J-11.251 K0.000 F390.000
G1 X79.954 Y57.954 Z-10.000 F390.000
G2 X83.249 Y50.055 Z-10.000 I-7.956 J-7.955 K0.000 F390.000
G1 X83.250 Y-50.000 Z-10.000 F390.000
G2 X72.055 Y-61.249 Z-10.000 I-11.251 J0.002 K0.000 F390.000
G1 X12.000 Y-61.250 Z-10.000 F390.000
G2 X0.751 Y-50.055 Z-10.000 I0.002 J11.251 K0.000 F390.000
G1 X0.750 Y50.000 Z-10.000 F390.000
G2 X11.945 Y61.249 Z-10.000 I11.251 J-0.002 K0.000 F390.000
G1 X72.000 Y61.250 Z-10.000 F390.000
G2 X79.954 Y57.954 Z-10.000 I-0.002 J-11.251 K0.000 F390.000
G1 X79.954 Y57.954 Z-12.000 F390.000
G2 X83.249 Y50.055 Z-12.000 I-7.956 J-7.955 K0.000 F390.000
G1 X83.250 Y-50.000 Z-12.000 F390.000
G2 X72.055 Y-61.249 Z-12.000 I-11.251 J0.002 K0.000 F390.000
G1 X12.000 Y-61.250 Z-12.000 F390.000
G2 X0.751 Y-50.055 Z-12.000 I0.002 J11.251 K0.000 F390.000
G1 X0.750 Y50.000 Z-12.000 F390.000
G2 X11.945 Y61.249 Z-12.000 I11.251 J-0.002 K0.000 F390.000
G1 X72.000 Y61.250 Z-12.000 F390.000
G2 X79.954 Y57.954 Z-12.000 I-0.002 J-11.251 K0.000 F390.000
G0 Z5.000
G0 Z5.000
(Finish operation: Profile005)
(Begin operation: Pocket_Shape002)
(Path: Pocket_Shape002)
(Pocket_Shape002)
G0 Z5.000
G0 X0.000 Y0.000
G0 X-14.250
G0 X-14.250 Z3.000
G1 X-14.250 Y0.000 Z-2.500 F390.000
G1 X-14.250 Y38.949 Z-2.500 F390.000
G3 X-18.051 Y42.750 Z-2.500 I-3.763 J0.038 K0.000 F390.000
G1 X-54.949 Y42.750 Z-2.500 F390.000
G3 X-58.750 Y38.949 Z-2.500 I-0.037 J-3.763 K0.000 F390.000
G1 X-58.750 Y-38.949 Z-2.500 F390.000
G3 X-54.949 Y-42.750 Z-2.500 I3.763 J-0.037 K0.000 F390.000
G1 X-18.051 Y-42.750 Z-2.500 F390.000
G3 X-14.250 Y-38.949 Z-2.500 I0.037 J3.764 K0.000 F390.000
G1 X-14.250 Y0.000 Z-2.500 F390.000
G1 X-14.750 Y0.000 Z-2.500 F390.000
G1 X-14.750 Y34.964 Z-2.500 F390.000
G3 X-21.009 Y41.250 Z-2.500 I-6.260 J0.025 K0.000 F390.000
G1 X-51.964 Y41.250 Z-2.500 F390.000
G3 X-58.250 Y34.991 Z-2.500 I-0.026 J-6.260 K0.000 F390.000
G1 X-58.250 Y-34.964 Z-2.500 F390.000
G3 X-51.991 Y-41.250 Z-2.500 I6.260 J-0.026 K0.000 F390.000
G1 X-21.036 Y-41.250 Z-2.500 F390.000
G3 X-14.750 Y-34.991 Z-2.500 I0.026 J6.260 K0.000 F390.000
G1 X-14.750 Y0.000 Z-2.500 F390.000
G1 X-14.750 Y0.000 Z-5.000 F390.000
G1 X-14.750 Y34.964 Z-5.000 F390.000
G3 X-21.009 Y41.250 Z-5.000 I-6.260 J0.025 K0.000 F390.000
G1 X-51.964 Y41.250 Z-5.000 F390.000
G3 X-58.250 Y34.991 Z-5.000 I-0.026 J-6.260 K0.000 F390.000
G1 X-58.250 Y-34.964 Z-5.000 F390.000
G3 X-51.991 Y-41.250 Z-5.000 I6.260 J-0.026 K0.000 F390.000
G1 X-21.036 Y-41.250 Z-5.000 F390.000
G3 X-14.750 Y-34.991 Z-5.000 I0.026 J6.260 K0.000 F390.000
G1 X-14.750 Y0.000 Z-5.000 F390.000
G1 X-14.250 Y0.000 Z-5.000 F390.000
G1 X-14.250 Y38.949 Z-5.000 F390.000
G3 X-18.051 Y42.750 Z-5.000 I-3.763 J0.038 K0.000 F390.000
G1 X-54.949 Y42.750 Z-5.000 F390.000
G3 X-58.750 Y38.949 Z-5.000 I-0.037 J-3.763 K0.000 F390.000
G1 X-58.750 Y-38.949 Z-5.000 F390.000
G3 X-54.949 Y-42.750 Z-5.000 I3.763 J-0.037 K0.000 F390.000
G1 X-18.051 Y-42.750 Z-5.000 F390.000
G3 X-14.250 Y-38.949 Z-5.000 I0.037 J3.764 K0.000 F390.000
G1 X-14.250 Y0.000 Z-5.000 F390.000
G1 X-14.250 Y0.000 Z-6.000 F390.000
G1 X-14.250 Y38.949 Z-6.000 F390.000
G3 X-18.051 Y42.750 Z-6.000 I-3.763 J0.038 K0.000 F390.000
G1 X-54.949 Y42.750 Z-6.000 F390.000
G3 X-58.750 Y38.949 Z-6.000 I-0.037 J-3.763 K0.000 F390.000
G1 X-58.750 Y-38.949 Z-6.000 F390.000
G3 X-54.949 Y-42.750 Z-6.000 I3.763 J-0.037 K0.000 F390.000
G1 X-18.051 Y-42.750 Z-6.000 F390.000
G3 X-14.250 Y-38.949 Z-6.000 I0.037 J3.764 K0.000 F390.000
G1 X-14.250 Y0.000 Z-6.000 F390.000
G1 X-14.750 Y0.000 Z-6.000 F390.000
G1 X-14.750 Y34.964 Z-6.000 F390.000
G3 X-21.009 Y41.250 Z-6.000 I-6.260 J0.025 K0.000 F390.000
G1 X-51.964 Y41.250 Z-6.000 F390.000
G3 X-58.250 Y34.991 Z-6.000 I-0.026 J-6.260 K0.000 F390.000
G1 X-58.250 Y-34.964 Z-6.000 F390.000
G3 X-51.991 Y-41.250 Z-6.000 I6.260 J-0.026 K0.000 F390.000
G1 X-21.036 Y-41.250 Z-6.000 F390.000
G3 X-14.750 Y-34.991 Z-6.000 I0.026 J6.260 K0.000 F390.000
G1 X-14.750 Y0.000 Z-6.000 F390.000
G0 Z5.000
G0 X-14.875 Y38.114 Z5.000
G0 X-14.875 Y38.114 Z3.000
G1 X-14.875 Y38.114 Z-2.500 F390.000
G3 X-14.879 Y39.137 Z-2.500 I-24.114 J0.414 K0.000 F390.000
G3 X-18.058 Y42.125 Z-2.500 I-3.134 J-0.150 K0.000 F390.000
G1 X-54.942 Y42.125 Z-2.500 F390.000
G3 X-58.125 Y38.942 Z-2.500 I-0.043 J-3.139 K0.000 F390.000
G1 X-58.125 Y38.114 Z-2.500 F390.000
G2 X-51.964 Y41.875 Z-2.500 I6.136 J-3.124 K0.000 F390.000
G1 X-20.996 Y41.875 Z-2.500 F390.000
G2 X-14.875 Y38.114 Z-2.500 I-0.014 J-6.884 K0.000 F390.000
G1 X-14.875 Y38.114 Z-5.000 F390.000
G3 X-14.879 Y39.137 Z-5.000 I-24.114 J0.414 K0.000 F390.000
G3 X-18.058 Y42.125 Z-5.000 I-3.134 J-0.150 K0.000 F390.000
G1 X-54.942 Y42.125 Z-5.000 F390.000
G3 X-58.125 Y38.942 Z-5.000 I-0.043 J-3.139 K0.000 F390.000
G1 X-58.125 Y38.114 Z-5.000 F390.000
G2 X-51.964 Y41.875 Z-5.000 I6.136 J-3.124 K0.000 F390.000
G1 X-20.996 Y41.875 Z-5.000 F390.000
G2 X-14.875 Y38.114 Z-5.000 I-0.014 J-6.884 K0.000 F390.000
G1 X-14.875 Y38.114 Z-6.000 F390.000
G3 X-14.879 Y39.137 Z-6.000 I-24.114 J0.414 K0.000 F390.000
G3 X-18.058 Y42.125 Z-6.000 I-3.134 J-0.150 K0.000 F390.000
G1 X-54.942 Y42.125 Z-6.000 F390.000
G3 X-58.125 Y38.942 Z-6.000 I-0.043 J-3.139 K0.000 F390.000
G1 X-58.125 Y38.114 Z-6.000 F390.000
G2 X-51.964 Y41.875 Z-6.000 I6.136 J-3.124 K0.000 F390.000
G1 X-20.996 Y41.875 Z-6.000 F390.000
G2 X-14.875 Y38.114 Z-6.000 I-0.014 J-6.884 K0.000 F390.000
G0 Z5.000
G0 Y-38.114 Z5.000
G0 Y-38.114 Z3.000
G1 X-14.875 Y-38.114 Z-2.500 F390.000
G2 X-21.036 Y-41.875 Z-2.500 I-6.136 J3.124 K0.000 F390.000
G1 X-52.004 Y-41.875 Z-2.500 F390.000
G2 X-58.125 Y-38.114 Z-2.500 I0.013 J6.884 K0.000 F390.000
G3 X-58.121 Y-39.137 Z-2.500 I24.079 J-0.414 K0.000 F390.000
G3 X-54.942 Y-42.125 Z-2.500 I3.135 J0.150 K0.000 F390.000
G1 X-18.058 Y-42.125 Z-2.500 F390.000
G3 X-14.875 Y-38.942 Z-2.500 I0.043 J3.139 K0.000 F390.000
G1 X-14.875 Y-38.114 Z-2.500 F390.000
G1 X-14.875 Y-38.114 Z-5.000 F390.000
G2 X-21.036 Y-41.875 Z-5.000 I-6.136 J3.124 K0.000 F390.000
G1 X-52.004 Y-41.875 Z-5.000 F390.000
G2 X-58.125 Y-38.114 Z-5.000 I0.013 J6.884 K0.000 F390.000
G3 X-58.121 Y-39.137 Z-5.000 I24.079 J-0.414 K0.000 F390.000
G3 X-54.942 Y-42.125 Z-5.000 I3.135 J0.150 K0.000 F390.000
G1 X-18.058 Y-42.125 Z-5.000 F390.000
G3 X-14.875 Y-38.942 Z-5.000 I0.043 J3.139 K0.000 F390.000
G1 X-14.875 Y-38.114 Z-5.000 F390.000
G1 X-14.875 Y-38.114 Z-6.000 F390.000
G2 X-21.036 Y-41.875 Z-6.000 I-6.136 J3.124 K0.000 F390.000
G1 X-52.004 Y-41.875 Z-6.000 F390.000
G2 X-58.125 Y-38.114 Z-6.000 I0.013 J6.884 K0.000 F390.000
G3 X-58.121 Y-39.137 Z-6.000 I24.079 J-0.414 K0.000 F390.000
G3 X-54.942 Y-42.125 Z-6.000 I3.135 J0.150 K0.000 F390.000
G1 X-18.058 Y-42.125 Z-6.000 F390.000
G3 X-14.875 Y-38.942 Z-6.000 I0.043 J3.139 K0.000 F390.000
G1 X-14.875 Y-38.114 Z-6.000 F390.000
G0 Z5.000
G0 Z5.000
(Finish operation: Pocket_Shape002)
(Begin operation: Profile006)
(Path: Profile006)
(Profile006)
(Compensated Tool Path. Diameter: 2.5)
G0 Z5.000
G0 X0.000 Y0.000
G0 X-17.250
G0 X-17.250 Z3.000
G1 X-17.250 Y0.000 Z-2.500 F390.000
G1 X-17.250 Y-34.962 Z-2.500 F390.000
G2 X-21.038 Y-38.750 Z-2.500 I-3.756 J-0.032 K0.000 F390.000
G1 X-51.962 Y-38.750 Z-2.500 F390.000
G2 X-55.750 Y-34.962 Z-2.500 I-0.032 J3.756 K0.000 F390.000
G1 X-55.750 Y34.962 Z-2.500 F390.000
G2 X-51.962 Y38.750 Z-2.500 I3.756 J0.032 K0.000 F390.000
G1 X-21.038 Y38.750 Z-2.500 F390.000
G2 X-17.250 Y34.962 Z-2.500 I0.032 J-3.756 K0.000 F390.000
G1 X-17.250 Y0.000 Z-2.500 F390.000
G1 X-17.250 Y0.000 Z-5.000 F390.000
G1 X-17.250 Y-34.962 Z-5.000 F390.000
G2 X-21.038 Y-38.750 Z-5.000 I-3.756 J-0.032 K0.000 F390.000
G1 X-51.962 Y-38.750 Z-5.000 F390.000
G2 X-55.750 Y-34.962 Z-5.000 I-0.032 J3.756 K0.000 F390.000
G1 X-55.750 Y34.962 Z-5.000 F390.000
G2 X-51.962 Y38.750 Z-5.000 I3.756 J0.032 K0.000 F390.000
G1 X-21.038 Y38.750 Z-5.000 F390.000
G2 X-17.250 Y34.962 Z-5.000 I0.032 J-3.756 K0.000 F390.000
G1 X-17.250 Y0.000 Z-5.000 F390.000
G1 X-17.250 Y0.000 Z-7.500 F390.000
G1 X-17.250 Y-34.962 Z-7.500 F390.000
G2 X-21.038 Y-38.750 Z-7.500 I-3.756 J-0.032 K0.000 F390.000
G1 X-51.962 Y-38.750 Z-7.500 F390.000
G2 X-55.750 Y-34.962 Z-7.500 I-0.032 J3.756 K0.000 F390.000
G1 X-55.750 Y34.962 Z-7.500 F390.000
G2 X-51.962 Y38.750 Z-7.500 I3.756 J0.032 K0.000 F390.000
G1 X-21.038 Y38.750 Z-7.500 F390.000
G2 X-17.250 Y34.962 Z-7.500 I0.032 J-3.756 K0.000 F390.000
G1 X-17.250 Y0.000 Z-7.500 F390.000
G1 X-17.250 Y0.000 Z-10.000 F390.000
G1 X-17.250 Y-34.962 Z-10.000 F390.000
G2 X-21.038 Y-38.750 Z-10.000 I-3.756 J-0.032 K0.000 F390.000
G1 X-51.962 Y-38.750 Z-10.000 F390.000
G2 X-55.750 Y-34.962 Z-10.000 I-0.032 J3.756 K0.000 F390.000
G1 X-55.750 Y34.962 Z-10.000 F390.000
G2 X-51.962 Y38.750 Z-10.000 I3.756 J0.032 K0.000 F390.000
G1 X-21.038 Y38.750 Z-10.000 F390.000
G2 X-17.250 Y34.962 Z-10.000 I0.032 J-3.756 K0.000 F390.000
G1 X-17.250 Y0.000 Z-10.000 F390.000
G1 X-17.250 Y0.000 Z-12.000 F390.000
G1 X-17.250 Y-34.962 Z-12.000 F390.000
G2 X-21.038 Y-38.750 Z-12.000 I-3.756 J-0.032 K0.000 F390.000
G1 X-51.962 Y-38.750 Z-12.000 F390.000
G2 X-55.750 Y-34.962 Z-12.000 I-0.032 J3.756 K0.000 F390.000
G1 X-55.750 Y34.962 Z-12.000 F390.000
G2 X-51.962 Y38.750 Z-12.000 I3.756 J0.032 K0.000 F390.000
G1 X-21.038 Y38.750 Z-12.000 F390.000
G2 X-17.250 Y34.962 Z-12.000 I0.032 J-3.756 K0.000 F390.000
G1 X-17.250 Y0.000 Z-12.000 F390.000
G0 Z5.000
G0 Z5.000
(Finish operation: Profile006)
(Begin operation: Profile007)
(Path: Profile007)
(Profile007)
(Compensated Tool Path. Diameter: 2.5)
G0 Z5.000
G0 X-4.046 Y57.954
G0 Z3.000
G1 X-4.046 Y57.954 Z-2.500 F390.000
G2 X-0.751 Y50.055 Z-2.500 I-7.956 J-7.955 K0.000 F390.000
G1 X-0.750 Y-50.000 Z-2.500 F390.000
G2 X-11.945 Y-61.249 Z-2.500 I-11.251 J0.002 K0.000 F390.000
G1 X-72.000 Y-61.250 Z-2.500 F390.000
G2 X-83.249 Y-50.055 Z-2.500 I0.002 J11.251 K0.000 F390.000
G1 X-83.250 Y50.000 Z-2.500 F390.000
G2 X-72.055 Y61.249 Z-2.500 I11.251 J-0.002 K0.000 F390.000
G1 X-12.000 Y61.250 Z-2.500 F390.000
G2 X-4.046 Y57.954 Z-2.500 I-0.002 J-11.251 K0.000 F390.000
G1 X-4.046 Y57.954 Z-5.000 F390.000
G2 X-0.751 Y50.055 Z-5.000 I-7.956 J-7.955 K0.000 F390.000
G1 X-0.750 Y-50.000 Z-5.000 F390.000
G2 X-11.945 Y-61.249 Z-5.000 I-11.251 J0.002 K0.000 F390.000
G1 X-72.000 Y-61.250 Z-5.000 F390.000
G2 X-83.249 Y-50.055 Z-5.000 I0.002 J11.251 K0.000 F390.000
G1 X-83.250 Y50.000 Z-5.000 F390.000
G2 X-72.055 Y61.249 Z-5.000 I11.251 J-0.002 K0.000 F390.000
G1 X-12.000 Y61.250 Z-5.000 F390.000
G2 X-4.046 Y57.954 Z-5.000 I-0.002 J-11.251 K0.000 F390.000
G1 X-4.046 Y57.954 Z-7.500 F390.000
G2 X-0.751 Y50.055 Z-7.500 I-7.956 J-7.955 K0.000 F390.000
G1 X-0.750 Y-50.000 Z-7.500 F390.000
G2 X-11.945 Y-61.249 Z-7.500 I-11.251 J0.002 K0.000 F390.000
G1 X-72.000 Y-61.250 Z-7.500 F390.000
G2 X-83.249 Y-50.055 Z-7.500 I0.002 J11.251 K0.000 F390.000
G1 X-83.250 Y50.000 Z-7.500 F390.000
G2 X-72.055 Y61.249 Z-7.500 I11.251 J-0.002 K0.000 F390.000
G1 X-12.000 Y61.250 Z-7.500 F390.000
G2 X-4.046 Y57.954 Z-7.500 I-0.002 J-11.251 K0.000 F390.000
G1 X-4.046 Y57.954 Z-10.000 F390.000
G2 X-0.751 Y50.055 Z-10.000 I-7.956 J-7.955 K0.000 F390.000
G1 X-0.750 Y-50.000 Z-10.000 F390.000
G2 X-11.945 Y-61.249 Z-10.000 I-11.251 J0.002 K0.000 F390.000
G1 X-72.000 Y-61.250 Z-10.000 F390.000
G2 X-83.249 Y-50.055 Z-10.000 I0.002 J11.251 K0.000 F390.000
G1 X-83.250 Y50.000 Z-10.000 F390.000
G2 X-72.055 Y61.249 Z-10.000 I11.251 J-0.002 K0.000 F390.000
G1 X-12.000 Y61.250 Z-10.000 F390.000
G2 X-4.046 Y57.954 Z-10.000 I-0.002 J-11.251 K0.000 F390.000
G1 X-4.046 Y57.954 Z-12.000 F390.000
G2 X-0.751 Y50.055 Z-12.000 I-7.956 J-7.955 K0.000 F390.000
G1 X-0.750 Y-50.000 Z-12.000 F390.000
G2 X-11.945 Y-61.249 Z-12.000 I-11.251 J0.002 K0.000 F390.000
G1 X-72.000 Y-61.250 Z-12.000 F390.000
G2 X-83.249 Y-50.055 Z-12.000 I0.002 J11.251 K0.000 F390.000
G1 X-83.250 Y50.000 Z-12.000 F390.000
G2 X-72.055 Y61.249 Z-12.000 I11.251 J-0.002 K0.000 F390.000
G1 X-12.000 Y61.250 Z-12.000 F390.000
G2 X-4.046 Y57.954 Z-12.000 I-0.002 J-11.251 K0.000 F390.000
G0 Z5.000
G0 Z5.000
(Finish operation: Profile007)
(Begin operation: Profile008)
(Path: Profile008)
(Profile008)
(Compensated Tool Path. Diameter: 2.5)
G0 Z5.000
G0 X79.954 Y57.954
G0 Z3.000
G1 X79.954 Y57.954 Z-2.500 F390.000
G2 X83.249 Y50.055 Z-2.500 I-7.956 J-7.955 K0.000 F390.000
G1 X83.250 Y-50.000 Z-2.500 F390.000
G2 X72.055 Y-61.249 Z-2.500 I-11.251 J0.002 K0.000 F390.000
G1 X12.000 Y-61.250 Z-2.500 F390.000
G2 X0.751 Y-50.055 Z-2.500 I0.002 J11.251 K0.000 F390.000
G1 X0.750 Y50.000 Z-2.500 F390.000
G2 X11.945 Y61.249 Z-2.500 I11.251 J-0.002 K0.000 F390.000
G1 X72.000 Y61.250 Z-2.500 F390.000
G2 X79.954 Y57.954 Z-2.500 I-0.002 J-11.251 K0.000 F390.000
G0 Z5.000
G0 X-0.793 Y50.969 Z5.000
G0 X-0.793 Y50.969 Z3.000
G1 X-0.793 Y50.969 Z-2.500 F390.000
G2 X-0.751 Y50.055 Z-2.500 I-11.209 J-0.970 K0.000 F390.000
G1 X-0.750 Y-50.000 Z-2.500 F390.000
G2 X-11.945 Y-61.249 Z-2.500 I-11.251 J0.002 K0.000 F390.000
G1 X-72.000 Y-61.250 Z-2.500 F390.000
G2 X-83.249 Y-50.055 Z-2.500 I0.002 J11.251 K0.000 F390.000
G1 X-83.250 Y50.000 Z-2.500 F390.000
G2 X-72.055 Y61.249 Z-2.500 I11.251 J-0.002 K0.000 F390.000
G1 X-12.000 Y61.250 Z-2.500 F390.000
G2 X-0.793 Y50.969 Z-2.500 I-0.002 J-11.251 K0.000 F390.000
G1 X-0.793 Y50.969 Z-5.000 F390.000
G2 X-0.751 Y50.055 Z-5.000 I-11.209 J-0.970 K0.000 F390.000
G1 X-0.750 Y-50.000 Z-5.000 F390.000
G2 X-11.945 Y-61.249 Z-5.000 I-11.251 J0.002 K0.000 F390.000
G1 X-72.000 Y-61.250 Z-5.000 F390.000
G2 X-83.249 Y-50.055 Z-5.000 I0.002 J11.251 K0.000 F390.000
G1 X-83.250 Y50.000 Z-5.000 F390.000
G2 X-72.055 Y61.249 Z-5.000 I11.251 J-0.002 K0.000 F390.000
G1 X-12.000 Y61.250 Z-5.000 F390.000
G2 X-0.793 Y50.969 Z-5.000 I-0.002 J-11.251 K0.000 F390.000
G0 Z5.000
G0 X0.782 Y50.849 Z5.000
G0 X0.782 Y50.849 Z3.000
G1 X0.782 Y50.849 Z-5.000 F390.000
G2 X11.945 Y61.249 Z-5.000 I11.219 J-0.851 K0.000 F390.000
G1 X72.000 Y61.250 Z-5.000 F390.000
G2 X83.249 Y50.055 Z-5.000 I-0.002 J-11.251 K0.000 F390.000
G1 X83.250 Y-50.000 Z-5.000 F390.000
G2 X72.055 Y-61.249 Z-5.000 I-11.251 J0.002 K0.000 F390.000
G1 X12.000 Y-61.250 Z-5.000 F390.000
G2 X0.751 Y-50.055 Z-5.000 I0.002 J11.251 K0.000 F390.000
G1 X0.750 Y50.000 Z-5.000 F390.000
G2 X0.782 Y50.849 Z-5.000 I11.251 J-0.002 K0.000 F390.000
G1 X0.782 Y50.849 Z-7.500 F390.000
G2 X11.945 Y61.249 Z-7.500 I11.219 J-0.851 K0.000 F390.000
G1 X72.000 Y61.250 Z-7.500 F390.000
G2 X83.249 Y50.055 Z-7.500 I-0.002 J-11.251 K0.000 F390.000
G1 X83.250 Y-50.000 Z-7.500 F390.000
G2 X72.055 Y-61.249 Z-7.500 I-11.251 J0.002 K0.000 F390.000
G1 X12.000 Y-61.250 Z-7.500 F390.000
G2 X0.751 Y-50.055 Z-7.500 I0.002 J11.251 K0.000 F390.000
G1 X0.750 Y50.000 Z-7.500 F390.000
G2 X0.782 Y50.849 Z-7.500 I11.251 J-0.002 K0.000 F390.000
G0 Z5.000
G0 X-0.776 Y50.746 Z5.000
G0 X-0.776 Y50.746 Z3.000
G1 X-0.776 Y50.746 Z-7.500 F390.000
G2 X-0.751 Y50.055 Z-7.500 I-11.226 J-0.747 K0.000 F390.000
G1 X-0.750 Y-50.000 Z-7.500 F390.000
G2 X-11.945 Y-61.249 Z-7.500 I-11.251 J0.002 K0.000 F390.000
G1 X-72.000 Y-61.250 Z-7.500 F390.000
G2 X-83.249 Y-50.055 Z-7.500 I0.002 J11.251 K0.000 F390.000
G1 X-83.250 Y50.000 Z-7.500 F390.000
G2 X-72.055 Y61.249 Z-7.500 I11.251 J-0.002 K0.000 F390.000
G1 X-12.000 Y61.250 Z-7.500 F390.000
G2 X-0.776 Y50.746 Z-7.500 I-0.002 J-11.251 K0.000 F390.000
G1 X-0.776 Y50.746 Z-10.000 F390.000
G2 X-0.751 Y50.055 Z-10.000 I-11.226 J-0.747 K0.000 F390.000
G1 X-0.750 Y-50.000 Z-10.000 F390.000
G2 X-11.945 Y-61.249 Z-10.000 I-11.251 J0.002 K0.000 F390.000
G1 X-72.000 Y-61.250 Z-10.000 F390.000
G2 X-83.249 Y-50.055 Z-10.000 I0.002 J11.251 K0.000 F390.000
G1 X-83.250 Y50.000 Z-10.000 F390.000
G2 X-72.055 Y61.249 Z-10.000 I11.251 J-0.002 K0.000 F390.000
G1 X-12.000 Y61.250 Z-10.000 F390.000
G2 X-0.776 Y50.746 Z-10.000 I-0.002 J-11.251 K0.000 F390.000
G0 Z5.000
G0 X0.769 Y50.655 Z5.000
G0 X0.769 Y50.655 Z3.000
G1 X0.769 Y50.655 Z-10.000 F390.000
G2 X11.945 Y61.249 Z-10.000 I11.232 J-0.657 K0.000 F390.000
G1 X72.000 Y61.250 Z-10.000 F390.000
G2 X83.249 Y50.055 Z-10.000 I-0.002 J-11.251 K0.000 F390.000
G1 X83.250 Y-50.000 Z-10.000 F390.000
G2 X72.055 Y-61.249 Z-10.000 I-11.251 J0.002 K0.000 F390.000
G1 X12.000 Y-61.250 Z-10.000 F390.000
G2 X0.751 Y-50.055 Z-10.000 I0.002 J11.251 K0.000 F390.000
G1 X0.750 Y50.000 Z-10.000 F390.000
G2 X0.769 Y50.655 Z-10.000 I11.251 J-0.002 K0.000 F390.000
G1 X0.769 Y50.655 Z-12.000 F390.000
G2 X11.945 Y61.249 Z-12.000 I11.232 J-0.657 K0.000 F390.000
G1 X72.000 Y61.250 Z-12.000 F390.000
G2 X83.249 Y50.055 Z-12.000 I-0.002 J-11.251 K0.000 F390.000
G1 X83.250 Y-50.000 Z-12.000 F390.000
G2 X72.055 Y-61.249 Z-12.000 I-11.251 J0.002 K0.000 F390.000
G1 X12.000 Y-61.250 Z-12.000 F390.000
G2 X0.751 Y-50.055 Z-12.000 I0.002 J11.251 K0.000 F390.000
G1 X0.750 Y50.000 Z-12.000 F390.000
G2 X0.769 Y50.655 Z-12.000 I11.251 J-0.002 K0.000 F390.000
G0 Z5.000
G0 X-0.766 Y50.577 Z5.000
G0 X-0.766 Y50.577 Z3.000
G1 X-0.766 Y50.577 Z-12.000 F390.000
G2 X-0.751 Y50.055 Z-12.000 I-11.236 J-0.577 K0.000 F390.000
G1 X-0.750 Y-50.000 Z-12.000 F390.000
G2 X-11.945 Y-61.249 Z-12.000 I-11.251 J0.002 K0.000 F390.000
G1 X-72.000 Y-61.250 Z-12.000 F390.000
G2 X-83.249 Y-50.055 Z-12.000 I0.002 J11.251 K0.000 F390.000
G1 X-83.250 Y50.000 Z-12.000 F390.000
G2 X-72.055 Y61.249 Z-12.000 I11.251 J-0.002 K0.000 F390.000
G1 X-12.000 Y61.250 Z-12.000 F390.000
G2 X-0.766 Y50.577 Z-12.000 I-0.002 J-11.251 K0.000 F390.000
G0 Z5.000
G0 Z5.000
(Finish operation: Profile008)
(Begin postamble)
M5
G17 G90
M2
