(Exported by FreeCAD)
(Post Processor: script_module)
(Output Time:2026-02-07 12:27:23.950840)
(Begin preamble)
G17 G90
G21
(Begin operation: Fixture)
(Path: Fixture)
G54
(Finish operation: Fixture)
(Begin operation: 2_5mmEndMill002)
(Path: 2_5mmEndMill002)
(2_5mmEndMill002)
(Begin toolchange)
( M6 T2 )
M3 S10000
(Finish operation: 2_5mmEndMill002)
(Begin operation: Pocket_Shape)
(Path: Pocket_Shape)
(Pocket_Shape)
G0 Z5.000
G0 X0.000 Y0.000
G0 X-19.588 Y14.398
G0 X-19.588 Y14.398 Z3.000
G1 X-19.588 Y14.398 Z-2.500 F360.000
G1 X-21.556 Y13.875 Z-2.500 F360.000
G1 X-23.705 Y12.664 Z-2.500 F360.000
G1 X-26.018 Y10.797 Z-2.500 F360.000
G1 X-27.630 Y9.063 Z-2.500 F360.000
G1 X-28.902 Y7.276 Z-2.500 F360.000
G1 X-30.594 Y3.695 Z-2.500 F360.000
G1 X-30.748 Y3.238 Z-2.500 F360.000
G1 X-19.588 Y14.398 Z-2.500 F360.000
G1 X-18.399 Y14.714 Z-2.500 F360.000
G1 X-15.642 Y14.960 Z-2.500 F360.000
G1 X-13.473 Y14.719 Z-2.500 F360.000
G1 X-10.899 Y14.263 Z-2.500 F360.000
G1 X-8.678 Y13.617 Z-2.500 F360.000
G1 X-6.922 Y12.797 Z-2.500 F360.000
G1 X-5.630 Y11.886 Z-2.500 F360.000
G2 X-3.478 Y9.700 Z-2.500 I-59.358 J-60.614 K0.000 F360.000
G3 X-1.677 Y9.701 Z-2.500 I0.900 J0.868 K0.000 F360.000
G2 X1.068 Y12.416 Z-2.500 I29.861 J-27.437 K0.000 F360.000
G1 X3.405 Y13.842 Z-2.500 F360.000
G1 X6.012 Y14.820 Z-2.500 F360.000
G1 X8.731 Y15.591 Z-2.500 F360.000
G1 X11.790 Y15.792 Z-2.500 F360.000
G1 X15.168 Y15.504 Z-2.500 F360.000
G1 X17.771 Y14.975 Z-2.500 F360.000
G1 X20.216 Y14.201 Z-2.500 F360.000
G1 X22.508 Y13.096 Z-2.500 F360.000
G1 X24.241 Y12.072 Z-2.500 F360.000
G1 X25.894 Y10.495 Z-2.500 F360.000
G1 X27.635 Y7.864 Z-2.500 F360.000
G1 X29.305 Y4.565 Z-2.500 F360.000
G1 X30.718 Y0.989 Z-2.500 F360.000
G1 X31.406 Y-2.411 Z-2.500 F360.000
G1 X31.406 Y-6.817 Z-2.500 F360.000
G1 X30.371 Y-11.496 Z-2.500 F360.000
G1 X28.697 Y-16.291 Z-2.500 F360.000
G1 X27.099 Y-19.322 Z-2.500 F360.000
G1 X24.825 Y-22.382 Z-2.500 F360.000
G1 X22.341 Y-24.990 Z-2.500 F360.000
G1 X20.024 Y-26.860 Z-2.500 F360.000
G1 X17.566 Y-28.230 Z-2.500 F360.000
G1 X15.143 Y-29.118 Z-2.500 F360.000
G1 X12.178 Y-29.777 Z-2.500 F360.000
G1 X8.978 Y-30.133 Z-2.500 F360.000
G1 X6.791 Y-30.257 Z-2.500 F360.000
G1 X5.402 Y-30.180 Z-2.500 F360.000
G1 X3.720 Y-29.819 Z-2.500 F360.000
G2 X1.261 Y-28.971 Z-2.500 I2.345 J10.781 K0.000 F360.000
G3 X0.783 Y-28.876 Z-2.500 I-0.478 J-1.155 K0.000 F360.000
G3 X-0.534 Y-29.290 Z-2.500 I-0.262 J-1.466 K0.000 F360.000
G2 X-1.896 Y-30.780 Z-2.500 I-38.928 J34.216 K0.000 F360.000
G1 X-2.696 Y-31.271 Z-2.500 F360.000
G1 X-4.092 Y-31.800 Z-2.500 F360.000
G1 X-6.091 Y-32.333 Z-2.500 F360.000
G2 X-10.644 Y-32.835 Z-2.500 I-6.317 J36.380 K0.000 F360.000
G2 X-14.242 Y-32.549 Z-2.500 I0.061 J23.516 K0.000 F360.000
G1 X-15.845 Y-32.091 Z-2.500 F360.000
G2 X-21.880 Y-28.442 Z-2.500 I19.820 J39.591 K0.000 F360.000
G2 X-25.454 Y-25.101 Z-2.500 I37.424 J43.624 K0.000 F360.000
G1 X-27.184 Y-23.038 Z-2.500 F360.000
G1 X-28.683 Y-20.468 Z-2.500 F360.000
G2 X-31.061 Y-14.506 Z-2.500 I134.897 J57.248 K0.000 F360.000
G1 X-31.975 Y-11.250 Z-2.500 F360.000
G1 X-32.345 Y-7.988 Z-2.500 F360.000
G1 X-32.345 Y-4.725 Z-2.500 F360.000
G1 X-32.039 Y-1.719 Z-2.500 F360.000
G1 X-31.500 Y1.010 Z-2.500 F360.000
G1 X-30.594 Y3.695 Z-2.500 F360.000
G1 X-28.902 Y7.276 Z-2.500 F360.000
G1 X-27.630 Y9.063 Z-2.500 F360.000
G1 X-26.018 Y10.797 Z-2.500 F360.000
G1 X-23.705 Y12.664 Z-2.500 F360.000
G1 X-21.556 Y13.875 Z-2.500 F360.000
G1 X-19.588 Y14.398 Z-2.500 F360.000
G1 X-18.399 Y14.714 Z-2.500 F360.000
G1 X-15.642 Y14.960 Z-2.500 F360.000
G1 X-15.505 Y14.945 Z-2.500 F360.000
G1 X-32.007 Y-1.556 Z-2.500 F360.000
G1 X-32.039 Y-1.719 Z-2.500 F360.000
G1 X-32.345 Y-4.725 Z-2.500 F360.000
G1 X-32.345 Y-5.430 Z-2.500 F360.000
G1 X-12.388 Y14.527 Z-2.500 F360.000
G2 X-9.518 Y13.861 Z-2.500 I-1.650 J-13.629 K0.000 F360.000
G1 X-32.246 Y-8.866 Z-2.500 F360.000
G1 X-31.975 Y-11.250 Z-2.500 F360.000
G1 X-31.782 Y-11.938 Z-2.500 F360.000
G1 X-7.007 Y12.837 Z-2.500 F360.000
G1 X-6.922 Y12.797 Z-2.500 F360.000
G1 X-5.630 Y11.886 Z-2.500 F360.000
G1 X-5.027 Y11.282 Z-2.500 F360.000
G1 X-30.992 Y-14.683 Z-2.500 F360.000
G1 X-30.005 Y-17.232 Z-2.500 F360.000
G1 X-3.256 Y9.517 Z-2.500 F360.000
G3 X-1.677 Y9.701 Z-2.500 I0.678 J1.050 K0.000 F360.000
G2 X1.068 Y12.416 Z-2.500 I29.861 J-27.437 K0.000 F360.000
G1 X3.405 Y13.842 Z-2.500 F360.000
G1 X5.325 Y14.563 Z-2.500 F360.000
G1 X-28.982 Y-19.744 Z-2.500 F360.000
G1 X-28.683 Y-20.468 Z-2.500 F360.000
G1 X-27.757 Y-22.055 Z-2.500 F360.000
G1 X9.971 Y15.673 Z-2.500 F360.000
G1 X11.790 Y15.792 Z-2.500 F360.000
G1 X13.482 Y15.648 Z-2.500 F360.000
G1 X-26.281 Y-24.115 Z-2.500 F360.000
G3 X-24.579 Y-25.948 Z-2.500 I9.661 J7.262 K0.000 F360.000
G1 X16.585 Y15.216 Z-2.500 F360.000
G1 X17.771 Y14.975 Z-2.500 F360.000
G1 X19.373 Y14.468 Z-2.500 F360.000
G1 X-22.757 Y-27.662 Z-2.500 F360.000
G1 X-21.880 Y-28.442 Z-2.500 F360.000
G1 X-20.760 Y-29.200 Z-2.500 F360.000
G1 X21.852 Y13.412 Z-2.500 F360.000
G1 X22.508 Y13.096 Z-2.500 F360.000
G1 X24.119 Y12.144 Z-2.500 F360.000
G1 X-18.593 Y-30.569 Z-2.500 F360.000
G3 X-16.325 Y-31.836 Z-2.500 I13.046 J20.688 K0.000 F360.000
G1 X25.939 Y10.428 Z-2.500 F360.000
G1 X27.347 Y8.300 Z-2.500 F360.000
G1 X-13.579 Y-32.626 Z-2.500 F360.000
G3 X-10.644 Y-32.835 Z-2.500 I2.827 J18.959 K0.000 F360.000
G1 X-10.220 Y-32.803 Z-2.500 F360.000
G1 X28.580 Y5.998 Z-2.500 F360.000
G2 X29.696 Y3.578 Z-2.500 I-12.496 J-7.227 K0.000 F360.000
G1 X-6.235 Y-32.353 Z-2.500 F360.000
G1 X-6.091 Y-32.333 Z-2.500 F360.000
G1 X-4.092 Y-31.800 Z-2.500 F360.000
G1 X-2.696 Y-31.271 Z-2.500 F360.000
G1 X-1.896 Y-30.780 Z-2.500 F360.000
G3 X-0.534 Y-29.290 Z-2.500 I-37.565 J35.707 K0.000 F360.000
G1 X-0.339 Y-29.115 Z-2.500 F360.000
G2 X0.778 Y-28.876 Z-2.500 I0.861 J-1.293 K0.000 F360.000
G1 X30.697 Y1.043 Z-2.500 F360.000
G1 X30.718 Y0.989 Z-2.500 F360.000
G1 X31.301 Y-1.888 Z-2.500 F360.000
G1 X3.447 Y-29.742 Z-2.500 F360.000
G1 X3.720 Y-29.819 Z-2.500 F360.000
G1 X5.402 Y-30.180 Z-2.500 F360.000
G1 X6.485 Y-30.240 Z-2.500 F360.000
G1 X31.406 Y-5.318 Z-2.500 F360.000
G1 X31.406 Y-6.817 Z-2.500 F360.000
G1 X30.828 Y-9.432 Z-2.500 F360.000
G1 X10.271 Y-29.989 Z-2.500 F360.000
G1 X12.178 Y-29.777 Z-2.500 F360.000
G1 X14.544 Y-29.252 Z-2.500 F360.000
G1 X29.336 Y-14.459 Z-2.500 F360.000
G1 X28.697 Y-16.291 Z-2.500 F360.000
G1 X27.099 Y-19.322 Z-2.500 F360.000
G1 X24.825 Y-22.382 Z-2.500 F360.000
G1 X22.341 Y-24.990 Z-2.500 F360.000
G1 X22.341 Y-24.990 Z-5.000 F360.000
G1 X24.825 Y-22.382 Z-5.000 F360.000
G1 X27.099 Y-19.322 Z-5.000 F360.000
G1 X28.697 Y-16.291 Z-5.000 F360.000
G1 X29.336 Y-14.459 Z-5.000 F360.000
G1 X14.544 Y-29.252 Z-5.000 F360.000
G1 X12.178 Y-29.777 Z-5.000 F360.000
G1 X10.271 Y-29.989 Z-5.000 F360.000
G1 X30.828 Y-9.432 Z-5.000 F360.000
G1 X31.406 Y-6.817 Z-5.000 F360.000
G1 X31.406 Y-5.318 Z-5.000 F360.000
G1 X6.485 Y-30.240 Z-5.000 F360.000
G1 X5.402 Y-30.180 Z-5.000 F360.000
G1 X3.720 Y-29.819 Z-5.000 F360.000
G1 X3.447 Y-29.742 Z-5.000 F360.000
G1 X31.301 Y-1.888 Z-5.000 F360.000
G1 X30.718 Y0.989 Z-5.000 F360.000
G1 X30.697 Y1.043 Z-5.000 F360.000
G1 X0.778 Y-28.876 Z-5.000 F360.000
G3 X-0.339 Y-29.115 Z-5.000 I-0.256 J-1.532 K0.000 F360.000
G1 X-0.534 Y-29.290 Z-5.000 F360.000
G2 X-1.896 Y-30.780 Z-5.000 I-38.928 J34.216 K0.000 F360.000
G1 X-2.696 Y-31.271 Z-5.000 F360.000
G1 X-4.092 Y-31.800 Z-5.000 F360.000
G1 X-6.091 Y-32.333 Z-5.000 F360.000
G1 X-6.235 Y-32.353 Z-5.000 F360.000
G1 X29.696 Y3.578 Z-5.000 F360.000
G3 X28.580 Y5.998 Z-5.000 I-13.611 J-4.807 K0.000 F360.000
G1 X-10.220 Y-32.803 Z-5.000 F360.000
G1 X-10.644 Y-32.835 Z-5.000 F360.000
G2 X-13.579 Y-32.626 Z-5.000 I-0.108 J19.168 K0.000 F360.000
G1 X27.347 Y8.300 Z-5.000 F360.000
G1 X25.939 Y10.428 Z-5.000 F360.000
G1 X-16.325 Y-31.836 Z-5.000 F360.000
G2 X-18.593 Y-30.569 Z-5.000 I10.778 J21.955 K0.000 F360.000
G1 X24.119 Y12.144 Z-5.000 F360.000
G1 X22.508 Y13.096 Z-5.000 F360.000
G1 X21.852 Y13.412 Z-5.000 F360.000
G1 X-20.760 Y-29.200 Z-5.000 F360.000
G1 X-21.880 Y-28.442 Z-5.000 F360.000
G1 X-22.757 Y-27.662 Z-5.000 F360.000
G1 X19.373 Y14.468 Z-5.000 F360.000
G1 X17.771 Y14.975 Z-5.000 F360.000
G1 X16.585 Y15.216 Z-5.000 F360.000
G1 X-24.579 Y-25.948 Z-5.000 F360.000
G2 X-26.281 Y-24.115 Z-5.000 I7.959 J9.096 K0.000 F360.000
G1 X13.482 Y15.648 Z-5.000 F360.000
G1 X11.790 Y15.792 Z-5.000 F360.000
G1 X9.971 Y15.673 Z-5.000 F360.000
G1 X-27.757 Y-22.055 Z-5.000 F360.000
G1 X-28.683 Y-20.468 Z-5.000 F360.000
G1 X-28.982 Y-19.744 Z-5.000 F360.000
G1 X5.325 Y14.563 Z-5.000 F360.000
G1 X3.405 Y13.842 Z-5.000 F360.000
G1 X1.068 Y12.416 Z-5.000 F360.000
G3 X-1.677 Y9.701 Z-5.000 I27.116 J-30.153 K0.000 F360.000
G2 X-3.256 Y9.517 Z-5.000 I-0.900 J0.867 K0.000 F360.000
G1 X-30.005 Y-17.232 Z-5.000 F360.000
G1 X-30.992 Y-14.683 Z-5.000 F360.000
G1 X-5.027 Y11.282 Z-5.000 F360.000
G1 X-5.630 Y11.886 Z-5.000 F360.000
G1 X-6.922 Y12.797 Z-5.000 F360.000
G1 X-7.007 Y12.837 Z-5.000 F360.000
G1 X-31.782 Y-11.938 Z-5.000 F360.000
G1 X-31.975 Y-11.250 Z-5.000 F360.000
G1 X-32.246 Y-8.866 Z-5.000 F360.000
G1 X-9.518 Y13.861 Z-5.000 F360.000
G3 X-12.388 Y14.527 Z-5.000 I-4.520 J-12.963 K0.000 F360.000
G1 X-32.345 Y-5.430 Z-5.000 F360.000
G1 X-32.345 Y-4.725 Z-5.000 F360.000
G1 X-32.039 Y-1.719 Z-5.000 F360.000
G1 X-32.007 Y-1.556 Z-5.000 F360.000
G1 X-15.505 Y14.945 Z-5.000 F360.000
G1 X-15.642 Y14.960 Z-5.000 F360.000
G1 X-18.399 Y14.714 Z-5.000 F360.000
G1 X-19.588 Y14.398 Z-5.000 F360.000
G1 X-21.556 Y13.875 Z-5.000 F360.000
G1 X-23.705 Y12.664 Z-5.000 F360.000
G1 X-26.018 Y10.797 Z-5.000 F360.000
G1 X-27.630 Y9.063 Z-5.000 F360.000
G1 X-28.902 Y7.276 Z-5.000 F360.000
G1 X-30.594 Y3.695 Z-5.000 F360.000
G1 X-31.500 Y1.010 Z-5.000 F360.000
G1 X-32.039 Y-1.719 Z-5.000 F360.000
G1 X-32.345 Y-4.725 Z-5.000 F360.000
G1 X-32.345 Y-7.988 Z-5.000 F360.000
G1 X-31.975 Y-11.250 Z-5.000 F360.000
G1 X-31.061 Y-14.506 Z-5.000 F360.000
G3 X-28.683 Y-20.468 Z-5.000 I137.275 J51.286 K0.000 F360.000
G1 X-27.184 Y-23.038 Z-5.000 F360.000
G1 X-25.454 Y-25.101 Z-5.000 F360.000
G3 X-21.880 Y-28.442 Z-5.000 I40.998 J40.283 K0.000 F360.000
G3 X-15.845 Y-32.091 Z-5.000 I25.855 J35.942 K0.000 F360.000
G1 X-14.242 Y-32.549 Z-5.000 F360.000
G3 X-10.644 Y-32.835 Z-5.000 I3.659 J23.229 K0.000 F360.000
G3 X-6.091 Y-32.333 Z-5.000 I-1.764 J36.882 K0.000 F360.000
G1 X-4.092 Y-31.800 Z-5.000 F360.000
G1 X-2.696 Y-31.271 Z-5.000 F360.000
G1 X-1.896 Y-30.780 Z-5.000 F360.000
G3 X-0.534 Y-29.290 Z-5.000 I-37.565 J35.707 K0.000 F360.000
G2 X0.783 Y-28.876 Z-5.000 I1.054 J-1.052 K0.000 F360.000
G2 X1.261 Y-28.971 Z-5.000 I0.000 J-1.250 K0.000 F360.000
G3 X3.720 Y-29.819 Z-5.000 I4.804 J9.932 K0.000 F360.000
G1 X5.402 Y-30.180 Z-5.000 F360.000
G1 X6.791 Y-30.257 Z-5.000 F360.000
G1 X8.978 Y-30.133 Z-5.000 F360.000
G1 X12.178 Y-29.777 Z-5.000 F360.000
G1 X15.143 Y-29.118 Z-5.000 F360.000
G1 X17.566 Y-28.230 Z-5.000 F360.000
G1 X20.024 Y-26.860 Z-5.000 F360.000
G1 X22.341 Y-24.990 Z-5.000 F360.000
G1 X24.825 Y-22.382 Z-5.000 F360.000
G1 X27.099 Y-19.322 Z-5.000 F360.000
G1 X28.697 Y-16.291 Z-5.000 F360.000
G1 X30.371 Y-11.496 Z-5.000 F360.000
G1 X31.406 Y-6.817 Z-5.000 F360.000
G1 X31.406 Y-2.411 Z-5.000 F360.000
G1 X30.718 Y0.989 Z-5.000 F360.000
G1 X29.305 Y4.565 Z-5.000 F360.000
G1 X27.635 Y7.864 Z-5.000 F360.000
G1 X25.894 Y10.495 Z-5.000 F360.000
G1 X24.241 Y12.072 Z-5.000 F360.000
G1 X22.508 Y13.096 Z-5.000 F360.000
G1 X20.216 Y14.201 Z-5.000 F360.000
G1 X17.771 Y14.975 Z-5.000 F360.000
G1 X15.168 Y15.504 Z-5.000 F360.000
G1 X11.790 Y15.792 Z-5.000 F360.000
G1 X8.731 Y15.591 Z-5.000 F360.000
G1 X6.012 Y14.820 Z-5.000 F360.000
G1 X3.405 Y13.842 Z-5.000 F360.000
G1 X1.068 Y12.416 Z-5.000 F360.000
G3 X-1.677 Y9.701 Z-5.000 I27.116 J-30.153 K0.000 F360.000
G2 X-3.478 Y9.700 Z-5.000 I-0.901 J0.867 K0.000 F360.000
G3 X-5.630 Y11.886 Z-5.000 I-61.511 J-58.428 K0.000 F360.000
G1 X-6.922 Y12.797 Z-5.000 F360.000
G1 X-8.678 Y13.617 Z-5.000 F360.000
G1 X-10.899 Y14.263 Z-5.000 F360.000
G1 X-13.473 Y14.719 Z-5.000 F360.000
G1 X-15.642 Y14.960 Z-5.000 F360.000
G1 X-18.399 Y14.714 Z-5.000 F360.000
G1 X-19.588 Y14.398 Z-5.000 F360.000
G1 X-30.748 Y3.238 Z-5.000 F360.000
G1 X-30.594 Y3.695 Z-5.000 F360.000
G1 X-28.902 Y7.276 Z-5.000 F360.000
G1 X-27.630 Y9.063 Z-5.000 F360.000
G1 X-26.018 Y10.797 Z-5.000 F360.000
G1 X-23.705 Y12.664 Z-5.000 F360.000
G1 X-21.556 Y13.875 Z-5.000 F360.000
G1 X-19.588 Y14.398 Z-5.000 F360.000
G0 Z5.000
G0 Z5.000
(Finish operation: Pocket_Shape)
(Begin operation: Profile)
(Path: Profile)
(Profile)
(Compensated Tool Path. Diameter: 2.5)
G0 Z5.000
G0 X29.927 Y23.492
G0 Z3.000
G1 X29.927 Y23.492 Z-2.500 F360.000
G1 X33.022 Y21.171 Z-2.500 F360.000
G2 X38.427 Y15.521 Z-2.500 I-103.168 J-104.112 K0.000 F360.000
G1 X38.595 Y15.292 Z-2.500 F360.000
G1 X40.917 Y11.230 Z-2.500 F360.000
G1 X41.021 Y10.994 Z-2.500 F360.000
G1 X42.311 Y6.996 Z-2.500 F360.000
G2 X43.266 Y0.632 Z-2.500 I-66.152 J-13.185 K0.000 F360.000
G1 X43.605 Y-4.789 Z-2.500 F360.000
G1 X43.605 Y-4.952 Z-2.500 F360.000
G1 X43.236 Y-10.337 Z-2.500 F360.000
G1 X43.197 Y-10.570 Z-2.500 F360.000
G1 X41.930 Y-15.375 Z-2.500 F360.000
G1 X41.865 Y-15.563 Z-2.500 F360.000
G1 X39.806 Y-20.209 Z-2.500 F360.000
G1 X39.708 Y-20.388 Z-2.500 F360.000
G1 X36.324 Y-25.545 Z-2.500 F360.000
G1 X36.205 Y-25.699 Z-2.500 F360.000
G1 X32.087 Y-30.240 Z-2.500 F360.000
G1 X28.107 Y-33.958 Z-2.500 F360.000
G1 X27.814 Y-34.162 Z-2.500 F360.000
G1 X23.590 Y-36.274 Z-2.500 F360.000
G1 X23.434 Y-36.340 Z-2.500 F360.000
G1 X18.312 Y-38.083 Z-2.500 F360.000
G1 X18.138 Y-38.128 Z-2.500 F360.000
G1 X13.529 Y-38.988 Z-2.500 F360.000
G1 X13.300 Y-39.009 Z-2.500 F360.000
G1 X9.604 Y-39.009 Z-2.500 F360.000
G2 X3.870 Y-38.581 Z-2.500 I1.718 J61.590 K0.000 F360.000
G1 X1.461 Y-38.146 Z-2.500 F360.000
G2 X0.246 Y-37.667 Z-2.500 I1.122 J4.620 K0.000 F360.000
G2 X-1.118 Y-38.534 Z-2.500 I-10.385 J14.825 K0.000 F360.000
G2 X-4.337 Y-40.452 Z-2.500 I-18.172 J26.833 K0.000 F360.000
G1 X-6.699 Y-41.379 Z-2.500 F360.000
G1 X-9.449 Y-42.131 Z-2.500 F360.000
G1 X-9.645 Y-42.167 Z-2.500 F360.000
G1 X-12.689 Y-42.486 Z-2.500 F360.000
G1 X-15.579 Y-42.493 Z-2.500 F360.000
G1 X-15.782 Y-42.477 Z-2.500 F360.000
G1 X-18.790 Y-41.982 Z-2.500 F360.000
G1 X-18.966 Y-41.940 Z-2.500 F360.000
G1 X-22.089 Y-40.948 Z-2.500 F360.000
G1 X-26.596 Y-38.980 Z-2.500 F360.000
G1 X-28.850 Y-37.669 Z-2.500 F360.000
G2 X-33.517 Y-34.184 Z-2.500 I79.881 J111.840 K0.000 F360.000
G1 X-33.690 Y-34.022 Z-2.500 F360.000
G1 X-35.494 Y-31.983 Z-2.500 F360.000
G1 X-37.336 Y-29.489 Z-2.500 F360.000
G1 X-38.809 Y-26.967 Z-2.500 F360.000
G1 X-40.579 Y-23.541 Z-2.500 F360.000
G1 X-42.722 Y-18.820 Z-2.500 F360.000
G1 X-42.781 Y-18.664 Z-2.500 F360.000
G1 X-44.144 Y-14.134 Z-2.500 F360.000
G1 X-45.019 Y-9.240 Z-2.500 F360.000
G1 X-45.299 Y-4.202 Z-2.500 F360.000
G1 X-45.296 Y-4.026 Z-2.500 F360.000
G1 X-45.006 Y-0.723 Z-2.500 F360.000
G1 X-44.447 Y3.033 Z-2.500 F360.000
G1 X-43.705 Y6.353 Z-2.500 F360.000
G1 X-43.646 Y6.543 Z-2.500 F360.000
G1 X-42.198 Y10.165 Z-2.500 F360.000
G1 X-42.125 Y10.317 Z-2.500 F360.000
G1 X-40.010 Y14.055 Z-2.500 F360.000
G1 X-38.047 Y16.767 Z-2.500 F360.000
G1 X-36.068 Y19.053 Z-2.500 F360.000
G1 X-35.844 Y19.256 Z-2.500 F360.000
G2 X-33.529 Y20.822 Z-2.500 I22.465 J-30.713 K0.000 F360.000
G2 X-27.570 Y23.682 Z-2.500 I13.892 J-21.305 K0.000 F360.000
G2 X-23.229 Y24.589 Z-2.500 I10.589 J-39.835 K0.000 F360.000
G2 X-13.735 Y24.112 Z-2.500 I3.683 J-21.400 K0.000 F360.000
G2 X-9.455 Y22.481 Z-2.500 I-6.037 J-22.269 K0.000 F360.000
G2 X-11.087 Y27.733 Z-2.500 I95.979 J32.706 K0.000 F360.000
G3 X-13.093 Y33.109 Z-2.500 I-33.812 J-9.557 K0.000 F360.000
G3 X-13.531 Y33.546 Z-2.500 I-1.530 J-1.096 K0.000 F360.000
G3 X-14.970 Y34.017 Z-2.500 I-2.063 J-3.861 K0.000 F360.000
G2 X-16.124 Y34.234 Z-2.500 I0.884 J7.910 K0.000 F360.000
G2 X-17.531 Y34.927 Z-2.500 I0.235 J2.252 K0.000 F360.000
G2 X-18.312 Y36.694 Z-2.500 I1.319 J1.638 K0.000 F360.000
G2 X-17.658 Y39.000 Z-2.500 I5.425 J-0.292 K0.000 F360.000
G2 X-16.972 Y40.244 Z-2.500 I3.435 J-1.083 K0.000 F360.000
G2 X-15.358 Y41.464 Z-2.500 I3.925 J-3.515 K0.000 F360.000
G2 X-12.716 Y42.649 Z-2.500 I15.730 J-31.552 K0.000 F360.000
G2 X-9.414 Y43.853 Z-2.500 I9.975 J-22.227 K0.000 F360.000
G2 X-7.773 Y44.012 Z-2.500 I1.092 J-2.705 K0.000 F360.000
G2 X-5.770 Y42.263 Z-2.500 I-1.016 J-3.183 K0.000 F360.000
G2 X-5.163 Y40.564 Z-2.500 I-5.743 J-3.011 K0.000 F360.000
G2 X-4.825 Y36.291 Z-2.500 I-246.982 J-21.678 K0.000 F360.000
G3 X-3.591 Y28.872 Z-2.500 I1373.137 J224.570 K0.000 F360.000
G1 X-3.508 Y29.051 Z-2.500 F360.000
G2 X-1.836 Y31.846 Z-2.500 I21.067 J-10.700 K0.000 F360.000
G2 X-0.783 Y33.222 Z-2.500 I6.763 J-4.088 K0.000 F360.000
G1 X-0.783 Y33.222 Z-2.500 F360.000
G3 X0.550 Y34.835 Z-2.500 I-35.082 J30.350 K0.000 F360.000
G2 X3.653 Y37.779 Z-2.500 I52.328 J-52.043 K0.000 F360.000
G1 X4.993 Y38.687 Z-2.500 F360.000
G2 X6.146 Y39.249 Z-2.500 I3.902 J-6.533 K0.000 F360.000
G2 X8.611 Y39.929 Z-2.500 I2.906 J-5.732 K0.000 F360.000
G2 X9.864 Y39.808 Z-2.500 I0.019 J-6.370 K0.000 F360.000
G2 X11.051 Y39.098 Z-2.500 I-1.363 J-3.624 K0.000 F360.000
G1 X11.653 Y38.438 Z-2.500 F360.000
G2 X11.908 Y38.011 Z-2.500 I-0.924 J-0.842 K0.000 F360.000
G1 X12.258 Y37.021 Z-2.500 F360.000
G1 X12.327 Y36.679 Z-2.500 F360.000
G2 X12.387 Y33.967 Z-2.500 I-27.808 J-1.976 K0.000 F360.000
G1 X12.151 Y32.059 Z-2.500 F360.000
G2 X10.632 Y28.430 Z-2.500 I-16.809 J4.902 K0.000 F360.000
G2 X8.171 Y24.983 Z-2.500 I-24.278 J14.732 K0.000 F360.000
G2 X10.479 Y25.766 Z-2.500 I8.406 J-20.988 K0.000 F360.000
G1 X12.709 Y26.282 Z-2.500 F360.000
G1 X12.989 Y26.313 Z-2.500 F360.000
G1 X18.794 Y26.313 Z-2.500 F360.000
G1 X18.960 Y26.302 Z-2.500 F360.000
G1 X22.765 Y25.793 Z-2.500 F360.000
G1 X26.330 Y25.070 Z-2.500 F360.000
G1 X26.582 Y24.990 Z-2.500 F360.000
G1 X29.678 Y23.637 Z-2.500 F360.000
G1 X29.927 Y23.492 Z-2.500 F360.000
G1 X29.927 Y23.492 Z-5.000 F360.000
G1 X33.022 Y21.171 Z-5.000 F360.000
G2 X38.427 Y15.521 Z-5.000 I-103.168 J-104.112 K0.000 F360.000
G1 X38.595 Y15.292 Z-5.000 F360.000
G1 X40.917 Y11.230 Z-5.000 F360.000
G1 X41.021 Y10.994 Z-5.000 F360.000
G1 X42.311 Y6.996 Z-5.000 F360.000
G2 X43.266 Y0.632 Z-5.000 I-66.152 J-13.185 K0.000 F360.000
G1 X43.605 Y-4.789 Z-5.000 F360.000
G1 X43.605 Y-4.952 Z-5.000 F360.000
G1 X43.236 Y-10.337 Z-5.000 F360.000
G1 X43.197 Y-10.570 Z-5.000 F360.000
G1 X41.930 Y-15.375 Z-5.000 F360.000
G1 X41.865 Y-15.563 Z-5.000 F360.000
G1 X39.806 Y-20.209 Z-5.000 F360.000
G1 X39.708 Y-20.388 Z-5.000 F360.000
G1 X36.324 Y-25.545 Z-5.000 F360.000
G1 X36.205 Y-25.699 Z-5.000 F360.000
G1 X32.087 Y-30.240 Z-5.000 F360.000
G1 X28.107 Y-33.958 Z-5.000 F360.000
G1 X27.814 Y-34.162 Z-5.000 F360.000
G1 X23.590 Y-36.274 Z-5.000 F360.000
G1 X23.434 Y-36.340 Z-5.000 F360.000
G1 X18.312 Y-38.083 Z-5.000 F360.000
G1 X18.138 Y-38.128 Z-5.000 F360.000
G1 X13.529 Y-38.988 Z-5.000 F360.000
G1 X13.300 Y-39.009 Z-5.000 F360.000
G1 X9.604 Y-39.009 Z-5.000 F360.000
G2 X3.870 Y-38.581 Z-5.000 I1.718 J61.590 K0.000 F360.000
G1 X1.461 Y-38.146 Z-5.000 F360.000
G2 X0.246 Y-37.667 Z-5.000 I1.122 J4.620 K0.000 F360.000
G2 X-1.118 Y-38.534 Z-5.000 I-10.385 J14.825 K0.000 F360.000
G2 X-4.337 Y-40.452 Z-5.000 I-18.172 J26.833 K0.000 F360.000
G1 X-6.699 Y-41.379 Z-5.000 F360.000
G1 X-9.449 Y-42.131 Z-5.000 F360.000
G1 X-9.645 Y-42.167 Z-5.000 F360.000
G1 X-12.689 Y-42.486 Z-5.000 F360.000
G1 X-15.579 Y-42.493 Z-5.000 F360.000
G1 X-15.782 Y-42.477 Z-5.000 F360.000
G1 X-18.790 Y-41.982 Z-5.000 F360.000
G1 X-18.966 Y-41.940 Z-5.000 F360.000
G1 X-22.089 Y-40.948 Z-5.000 F360.000
G1 X-26.596 Y-38.980 Z-5.000 F360.000
G1 X-28.850 Y-37.669 Z-5.000 F360.000
G2 X-33.517 Y-34.184 Z-5.000 I79.881 J111.840 K0.000 F360.000
G1 X-33.690 Y-34.022 Z-5.000 F360.000
G1 X-35.494 Y-31.983 Z-5.000 F360.000
G1 X-37.336 Y-29.489 Z-5.000 F360.000
G1 X-38.809 Y-26.967 Z-5.000 F360.000
G1 X-40.579 Y-23.541 Z-5.000 F360.000
G1 X-42.722 Y-18.820 Z-5.000 F360.000
G1 X-42.781 Y-18.664 Z-5.000 F360.000
G1 X-44.144 Y-14.134 Z-5.000 F360.000
G1 X-45.019 Y-9.240 Z-5.000 F360.000
G1 X-45.299 Y-4.202 Z-5.000 F360.000
G1 X-45.296 Y-4.026 Z-5.000 F360.000
G1 X-45.006 Y-0.723 Z-5.000 F360.000
G1 X-44.447 Y3.033 Z-5.000 F360.000
G1 X-43.705 Y6.353 Z-5.000 F360.000
G1 X-43.646 Y6.543 Z-5.000 F360.000
G1 X-42.198 Y10.165 Z-5.000 F360.000
G1 X-42.125 Y10.317 Z-5.000 F360.000
G1 X-40.010 Y14.055 Z-5.000 F360.000
G1 X-38.047 Y16.767 Z-5.000 F360.000
G1 X-36.068 Y19.053 Z-5.000 F360.000
G1 X-35.844 Y19.256 Z-5.000 F360.000
G2 X-33.529 Y20.822 Z-5.000 I22.465 J-30.713 K0.000 F360.000
G2 X-27.570 Y23.682 Z-5.000 I13.892 J-21.305 K0.000 F360.000
G2 X-23.229 Y24.589 Z-5.000 I10.589 J-39.835 K0.000 F360.000
G2 X-13.735 Y24.112 Z-5.000 I3.683 J-21.400 K0.000 F360.000
G2 X-9.455 Y22.481 Z-5.000 I-6.037 J-22.269 K0.000 F360.000
G2 X-11.087 Y27.733 Z-5.000 I95.979 J32.706 K0.000 F360.000
G3 X-13.093 Y33.109 Z-5.000 I-33.812 J-9.557 K0.000 F360.000
G3 X-13.531 Y33.546 Z-5.000 I-1.530 J-1.096 K0.000 F360.000
G3 X-14.970 Y34.017 Z-5.000 I-2.063 J-3.861 K0.000 F360.000
G2 X-16.124 Y34.234 Z-5.000 I0.884 J7.910 K0.000 F360.000
G2 X-17.531 Y34.927 Z-5.000 I0.235 J2.252 K0.000 F360.000
G2 X-18.312 Y36.694 Z-5.000 I1.319 J1.638 K0.000 F360.000
G2 X-17.658 Y39.000 Z-5.000 I5.425 J-0.292 K0.000 F360.000
G2 X-16.972 Y40.244 Z-5.000 I3.435 J-1.083 K0.000 F360.000
G2 X-15.358 Y41.464 Z-5.000 I3.925 J-3.515 K0.000 F360.000
G2 X-12.716 Y42.649 Z-5.000 I15.730 J-31.552 K0.000 F360.000
G2 X-9.414 Y43.853 Z-5.000 I9.975 J-22.227 K0.000 F360.000
G2 X-7.773 Y44.012 Z-5.000 I1.092 J-2.705 K0.000 F360.000
G2 X-5.770 Y42.263 Z-5.000 I-1.016 J-3.183 K0.000 F360.000
G2 X-5.163 Y40.564 Z-5.000 I-5.743 J-3.011 K0.000 F360.000
G2 X-4.825 Y36.291 Z-5.000 I-246.982 J-21.678 K0.000 F360.000
G3 X-3.591 Y28.872 Z-5.000 I1373.137 J224.570 K0.000 F360.000
G1 X-3.508 Y29.051 Z-5.000 F360.000
G2 X-1.836 Y31.846 Z-5.000 I21.067 J-10.700 K0.000 F360.000
G2 X-0.783 Y33.222 Z-5.000 I6.763 J-4.088 K0.000 F360.000
G1 X-0.783 Y33.222 Z-5.000 F360.000
G3 X0.550 Y34.835 Z-5.000 I-35.082 J30.350 K0.000 F360.000
G2 X3.653 Y37.779 Z-5.000 I52.328 J-52.043 K0.000 F360.000
G1 X4.993 Y38.687 Z-5.000 F360.000
G2 X6.146 Y39.249 Z-5.000 I3.902 J-6.533 K0.000 F360.000
G2 X8.611 Y39.929 Z-5.000 I2.906 J-5.732 K0.000 F360.000
G2 X9.864 Y39.808 Z-5.000 I0.019 J-6.370 K0.000 F360.000
G2 X11.051 Y39.098 Z-5.000 I-1.363 J-3.624 K0.000 F360.000
G1 X11.653 Y38.438 Z-5.000 F360.000
G2 X11.908 Y38.011 Z-5.000 I-0.924 J-0.842 K0.000 F360.000
G1 X12.258 Y37.021 Z-5.000 F360.000
G1 X12.327 Y36.679 Z-5.000 F360.000
G2 X12.387 Y33.967 Z-5.000 I-27.808 J-1.976 K0.000 F360.000
G1 X12.151 Y32.059 Z-5.000 F360.000
G2 X10.632 Y28.430 Z-5.000 I-16.809 J4.902 K0.000 F360.000
G2 X8.171 Y24.983 Z-5.000 I-24.278 J14.732 K0.000 F360.000
G2 X10.479 Y25.766 Z-5.000 I8.406 J-20.988 K0.000 F360.000
G1 X12.709 Y26.282 Z-5.000 F360.000
G1 X12.989 Y26.313 Z-5.000 F360.000
G1 X18.794 Y26.313 Z-5.000 F360.000
G1 X18.960 Y26.302 Z-5.000 F360.000
G1 X22.765 Y25.793 Z-5.000 F360.000
G1 X26.330 Y25.070 Z-5.000 F360.000
G1 X26.582 Y24.990 Z-5.000 F360.000
G1 X29.678 Y23.637 Z-5.000 F360.000
G1 X29.927 Y23.492 Z-5.000 F360.000
G1 X29.927 Y23.492 Z-7.500 F360.000
G1 X33.022 Y21.171 Z-7.500 F360.000
G2 X38.427 Y15.521 Z-7.500 I-103.168 J-104.112 K0.000 F360.000
G1 X38.595 Y15.292 Z-7.500 F360.000
G1 X40.917 Y11.230 Z-7.500 F360.000
G1 X41.021 Y10.994 Z-7.500 F360.000
G1 X42.311 Y6.996 Z-7.500 F360.000
G2 X43.266 Y0.632 Z-7.500 I-66.152 J-13.185 K0.000 F360.000
G1 X43.605 Y-4.789 Z-7.500 F360.000
G1 X43.605 Y-4.952 Z-7.500 F360.000
G1 X43.236 Y-10.337 Z-7.500 F360.000
G1 X43.197 Y-10.570 Z-7.500 F360.000
G1 X41.930 Y-15.375 Z-7.500 F360.000
G1 X41.865 Y-15.563 Z-7.500 F360.000
G1 X39.806 Y-20.209 Z-7.500 F360.000
G1 X39.708 Y-20.388 Z-7.500 F360.000
G1 X36.324 Y-25.545 Z-7.500 F360.000
G1 X36.205 Y-25.699 Z-7.500 F360.000
G1 X32.087 Y-30.240 Z-7.500 F360.000
G1 X28.107 Y-33.958 Z-7.500 F360.000
G1 X27.814 Y-34.162 Z-7.500 F360.000
G1 X23.590 Y-36.274 Z-7.500 F360.000
G1 X23.434 Y-36.340 Z-7.500 F360.000
G1 X18.312 Y-38.083 Z-7.500 F360.000
G1 X18.138 Y-38.128 Z-7.500 F360.000
G1 X13.529 Y-38.988 Z-7.500 F360.000
G1 X13.300 Y-39.009 Z-7.500 F360.000
G1 X9.604 Y-39.009 Z-7.500 F360.000
G2 X3.870 Y-38.581 Z-7.500 I1.718 J61.590 K0.000 F360.000
G1 X1.461 Y-38.146 Z-7.500 F360.000
G2 X0.246 Y-37.667 Z-7.500 I1.122 J4.620 K0.000 F360.000
G2 X-1.118 Y-38.534 Z-7.500 I-10.385 J14.825 K0.000 F360.000
G2 X-4.337 Y-40.452 Z-7.500 I-18.172 J26.833 K0.000 F360.000
G1 X-6.699 Y-41.379 Z-7.500 F360.000
G1 X-9.449 Y-42.131 Z-7.500 F360.000
G1 X-9.645 Y-42.167 Z-7.500 F360.000
G1 X-12.689 Y-42.486 Z-7.500 F360.000
G1 X-15.579 Y-42.493 Z-7.500 F360.000
G1 X-15.782 Y-42.477 Z-7.500 F360.000
G1 X-18.790 Y-41.982 Z-7.500 F360.000
G1 X-18.966 Y-41.940 Z-7.500 F360.000
G1 X-22.089 Y-40.948 Z-7.500 F360.000
G1 X-26.596 Y-38.980 Z-7.500 F360.000
G1 X-28.850 Y-37.669 Z-7.500 F360.000
G2 X-33.517 Y-34.184 Z-7.500 I79.881 J111.840 K0.000 F360.000
G1 X-33.690 Y-34.022 Z-7.500 F360.000
G1 X-35.494 Y-31.983 Z-7.500 F360.000
G1 X-37.336 Y-29.489 Z-7.500 F360.000
G1 X-38.809 Y-26.967 Z-7.500 F360.000
G1 X-40.579 Y-23.541 Z-7.500 F360.000
G1 X-42.722 Y-18.820 Z-7.500 F360.000
G1 X-42.781 Y-18.664 Z-7.500 F360.000
G1 X-44.144 Y-14.134 Z-7.500 F360.000
G1 X-45.019 Y-9.240 Z-7.500 F360.000
G1 X-45.299 Y-4.202 Z-7.500 F360.000
G1 X-45.296 Y-4.026 Z-7.500 F360.000
G1 X-45.006 Y-0.723 Z-7.500 F360.000
G1 X-44.447 Y3.033 Z-7.500 F360.000
G1 X-43.705 Y6.353 Z-7.500 F360.000
G1 X-43.646 Y6.543 Z-7.500 F360.000
G1 X-42.198 Y10.165 Z-7.500 F360.000
G1 X-42.125 Y10.317 Z-7.500 F360.000
G1 X-40.010 Y14.055 Z-7.500 F360.000
G1 X-38.047 Y16.767 Z-7.500 F360.000
G1 X-36.068 Y19.053 Z-7.500 F360.000
G1 X-35.844 Y19.256 Z-7.500 F360.000
G2 X-33.529 Y20.822 Z-7.500 I22.465 J-30.713 K0.000 F360.000
G2 X-27.570 Y23.682 Z-7.500 I13.892 J-21.305 K0.000 F360.000
G2 X-23.229 Y24.589 Z-7.500 I10.589 J-39.835 K0.000 F360.000
G2 X-13.735 Y24.112 Z-7.500 I3.683 J-21.400 K0.000 F360.000
G2 X-9.455 Y22.481 Z-7.500 I-6.037 J-22.269 K0.000 F360.000
G2 X-11.087 Y27.733 Z-7.500 I95.979 J32.706 K0.000 F360.000
G3 X-13.093 Y33.109 Z-7.500 I-33.812 J-9.557 K0.000 F360.000
G3 X-13.531 Y33.546 Z-7.500 I-1.530 J-1.096 K0.000 F360.000
G3 X-14.970 Y34.017 Z-7.500 I-2.063 J-3.861 K0.000 F360.000
G2 X-16.124 Y34.234 Z-7.500 I0.884 J7.910 K0.000 F360.000
G2 X-17.531 Y34.927 Z-7.500 I0.235 J2.252 K0.000 F360.000
G2 X-18.312 Y36.694 Z-7.500 I1.319 J1.638 K0.000 F360.000
G2 X-17.658 Y39.000 Z-7.500 I5.425 J-0.292 K0.000 F360.000
G2 X-16.972 Y40.244 Z-7.500 I3.435 J-1.083 K0.000 F360.000
G2 X-15.358 Y41.464 Z-7.500 I3.925 J-3.515 K0.000 F360.000
G2 X-12.716 Y42.649 Z-7.500 I15.730 J-31.552 K0.000 F360.000
G2 X-9.414 Y43.853 Z-7.500 I9.975 J-22.227 K0.000 F360.000
G2 X-7.773 Y44.012 Z-7.500 I1.092 J-2.705 K0.000 F360.000
G2 X-5.770 Y42.263 Z-7.500 I-1.016 J-3.183 K0.000 F360.000
G2 X-5.163 Y40.564 Z-7.500 I-5.743 J-3.011 K0.000 F360.000
G2 X-4.825 Y36.291 Z-7.500 I-246.982 J-21.678 K0.000 F360.000
G3 X-3.591 Y28.872 Z-7.500 I1373.137 J224.570 K0.000 F360.000
G1 X-3.508 Y29.051 Z-7.500 F360.000
G2 X-1.836 Y31.846 Z-7.500 I21.067 J-10.700 K0.000 F360.000
G2 X-0.783 Y33.222 Z-7.500 I6.763 J-4.088 K0.000 F360.000
G1 X-0.783 Y33.222 Z-7.500 F360.000
G3 X0.550 Y34.835 Z-7.500 I-35.082 J30.350 K0.000 F360.000
G2 X3.653 Y37.779 Z-7.500 I52.328 J-52.043 K0.000 F360.000
G1 X4.993 Y38.687 Z-7.500 F360.000
G2 X6.146 Y39.249 Z-7.500 I3.902 J-6.533 K0.000 F360.000
G2 X8.611 Y39.929 Z-7.500 I2.906 J-5.732 K0.000 F360.000
G2 X9.864 Y39.808 Z-7.500 I0.019 J-6.370 K0.000 F360.000
G2 X11.051 Y39.098 Z-7.500 I-1.363 J-3.624 K0.000 F360.000
G1 X11.653 Y38.438 Z-7.500 F360.000
G2 X11.908 Y38.011 Z-7.500 I-0.924 J-0.842 K0.000 F360.000
G1 X12.258 Y37.021 Z-7.500 F360.000
G1 X12.327 Y36.679 Z-7.500 F360.000
G2 X12.387 Y33.967 Z-7.500 I-27.808 J-1.976 K0.000 F360.000
G1 X12.151 Y32.059 Z-7.500 F360.000
G2 X10.632 Y28.430 Z-7.500 I-16.809 J4.902 K0.000 F360.000
G2 X8.171 Y24.983 Z-7.500 I-24.278 J14.732 K0.000 F360.000
G2 X10.479 Y25.766 Z-7.500 I8.406 J-20.988 K0.000 F360.000
G1 X12.709 Y26.282 Z-7.500 F360.000
G1 X12.989 Y26.313 Z-7.500 F360.000
G1 X18.794 Y26.313 Z-7.500 F360.000
G1 X18.960 Y26.302 Z-7.500 F360.000
G1 X22.765 Y25.793 Z-7.500 F360.000
G1 X26.330 Y25.070 Z-7.500 F360.000
G1 X26.582 Y24.990 Z-7.500 F360.000
G1 X29.678 Y23.637 Z-7.500 F360.000
G1 X29.927 Y23.492 Z-7.500 F360.000
G1 X29.927 Y23.492 Z-10.000 F360.000
G1 X33.022 Y21.171 Z-10.000 F360.000
G2 X38.427 Y15.521 Z-10.000 I-103.168 J-104.112 K0.000 F360.000
G1 X38.595 Y15.292 Z-10.000 F360.000
G1 X40.917 Y11.230 Z-10.000 F360.000
G1 X41.021 Y10.994 Z-10.000 F360.000
G1 X42.311 Y6.996 Z-10.000 F360.000
G2 X43.266 Y0.632 Z-10.000 I-66.152 J-13.185 K0.000 F360.000
G1 X43.605 Y-4.789 Z-10.000 F360.000
G1 X43.605 Y-4.952 Z-10.000 F360.000
G1 X43.236 Y-10.337 Z-10.000 F360.000
G1 X43.197 Y-10.570 Z-10.000 F360.000
G1 X41.930 Y-15.375 Z-10.000 F360.000
G1 X41.865 Y-15.563 Z-10.000 F360.000
G1 X39.806 Y-20.209 Z-10.000 F360.000
G1 X39.708 Y-20.388 Z-10.000 F360.000
G1 X36.324 Y-25.545 Z-10.000 F360.000
G1 X36.205 Y-25.699 Z-10.000 F360.000
G1 X32.087 Y-30.240 Z-10.000 F360.000
G1 X28.107 Y-33.958 Z-10.000 F360.000
G1 X27.814 Y-34.162 Z-10.000 F360.000
G1 X23.590 Y-36.274 Z-10.000 F360.000
G1 X23.434 Y-36.340 Z-10.000 F360.000
G1 X18.312 Y-38.083 Z-10.000 F360.000
G1 X18.138 Y-38.128 Z-10.000 F360.000
G1 X13.529 Y-38.988 Z-10.000 F360.000
G1 X13.300 Y-39.009 Z-10.000 F360.000
G1 X9.604 Y-39.009 Z-10.000 F360.000
G2 X3.870 Y-38.581 Z-10.000 I1.718 J61.590 K0.000 F360.000
G1 X1.461 Y-38.146 Z-10.000 F360.000
G2 X0.246 Y-37.667 Z-10.000 I1.122 J4.620 K0.000 F360.000
G2 X-1.118 Y-38.534 Z-10.000 I-10.385 J14.825 K0.000 F360.000
G2 X-4.337 Y-40.452 Z-10.000 I-18.172 J26.833 K0.000 F360.000
G1 X-6.699 Y-41.379 Z-10.000 F360.000
G1 X-9.449 Y-42.131 Z-10.000 F360.000
G1 X-9.645 Y-42.167 Z-10.000 F360.000
G1 X-12.689 Y-42.486 Z-10.000 F360.000
G1 X-15.579 Y-42.493 Z-10.000 F360.000
G1 X-15.782 Y-42.477 Z-10.000 F360.000
G1 X-18.790 Y-41.982 Z-10.000 F360.000
G1 X-18.966 Y-41.940 Z-10.000 F360.000
G1 X-22.089 Y-40.948 Z-10.000 F360.000
G1 X-26.596 Y-38.980 Z-10.000 F360.000
G1 X-28.850 Y-37.669 Z-10.000 F360.000
G2 X-33.517 Y-34.184 Z-10.000 I79.881 J111.840 K0.000 F360.000
G1 X-33.690 Y-34.022 Z-10.000 F360.000
G1 X-35.494 Y-31.983 Z-10.000 F360.000
G1 X-37.336 Y-29.489 Z-10.000 F360.000
G1 X-38.809 Y-26.967 Z-10.000 F360.000
G1 X-40.579 Y-23.541 Z-10.000 F360.000
G1 X-42.722 Y-18.820 Z-10.000 F360.000
G1 X-42.781 Y-18.664 Z-10.000 F360.000
G1 X-44.144 Y-14.134 Z-10.000 F360.000
G1 X-45.019 Y-9.240 Z-10.000 F360.000
G1 X-45.299 Y-4.202 Z-10.000 F360.000
G1 X-45.296 Y-4.026 Z-10.000 F360.000
G1 X-45.006 Y-0.723 Z-10.000 F360.000
G1 X-44.447 Y3.033 Z-10.000 F360.000
G1 X-43.705 Y6.353 Z-10.000 F360.000
G1 X-43.646 Y6.543 Z-10.000 F360.000
G1 X-42.198 Y10.165 Z-10.000 F360.000
G1 X-42.125 Y10.317 Z-10.000 F360.000
G1 X-40.010 Y14.055 Z-10.000 F360.000
G1 X-38.047 Y16.767 Z-10.000 F360.000
G1 X-36.068 Y19.053 Z-10.000 F360.000
G1 X-35.844 Y19.256 Z-10.000 F360.000
G2 X-33.529 Y20.822 Z-10.000 I22.465 J-30.713 K0.000 F360.000
G2 X-27.570 Y23.682 Z-10.000 I13.892 J-21.305 K0.000 F360.000
G2 X-23.229 Y24.589 Z-10.000 I10.589 J-39.835 K0.000 F360.000
G2 X-13.735 Y24.112 Z-10.000 I3.683 J-21.400 K0.000 F360.000
G2 X-9.455 Y22.481 Z-10.000 I-6.037 J-22.269 K0.000 F360.000
G2 X-11.087 Y27.733 Z-10.000 I95.979 J32.706 K0.000 F360.000
G3 X-13.093 Y33.109 Z-10.000 I-33.812 J-9.557 K0.000 F360.000
G3 X-13.531 Y33.546 Z-10.000 I-1.530 J-1.096 K0.000 F360.000
G3 X-14.970 Y34.017 Z-10.000 I-2.063 J-3.861 K0.000 F360.000
G2 X-16.124 Y34.234 Z-10.000 I0.884 J7.910 K0.000 F360.000
G2 X-17.531 Y34.927 Z-10.000 I0.235 J2.252 K0.000 F360.000
G2 X-18.312 Y36.694 Z-10.000 I1.319 J1.638 K0.000 F360.000
G2 X-17.658 Y39.000 Z-10.000 I5.425 J-0.292 K0.000 F360.000
G2 X-16.972 Y40.244 Z-10.000 I3.435 J-1.083 K0.000 F360.000
G2 X-15.358 Y41.464 Z-10.000 I3.925 J-3.515 K0.000 F360.000
G2 X-12.716 Y42.649 Z-10.000 I15.730 J-31.552 K0.000 F360.000
G2 X-9.414 Y43.853 Z-10.000 I9.975 J-22.227 K0.000 F360.000
G2 X-7.773 Y44.012 Z-10.000 I1.092 J-2.705 K0.000 F360.000
G2 X-5.770 Y42.263 Z-10.000 I-1.016 J-3.183 K0.000 F360.000
G2 X-5.163 Y40.564 Z-10.000 I-5.743 J-3.011 K0.000 F360.000
G2 X-4.825 Y36.291 Z-10.000 I-246.982 J-21.678 K0.000 F360.000
G3 X-3.591 Y28.872 Z-10.000 I1373.137 J224.570 K0.000 F360.000
G1 X-3.508 Y29.051 Z-10.000 F360.000
G2 X-1.836 Y31.846 Z-10.000 I21.067 J-10.700 K0.000 F360.000
G2 X-0.783 Y33.222 Z-10.000 I6.763 J-4.088 K0.000 F360.000
G1 X-0.783 Y33.222 Z-10.000 F360.000
G3 X0.550 Y34.835 Z-10.000 I-35.082 J30.350 K0.000 F360.000
G2 X3.653 Y37.779 Z-10.000 I52.328 J-52.043 K0.000 F360.000
G1 X4.993 Y38.687 Z-10.000 F360.000
G2 X6.146 Y39.249 Z-10.000 I3.902 J-6.533 K0.000 F360.000
G2 X8.611 Y39.929 Z-10.000 I2.906 J-5.732 K0.000 F360.000
G2 X9.864 Y39.808 Z-10.000 I0.019 J-6.370 K0.000 F360.000
G2 X11.051 Y39.098 Z-10.000 I-1.363 J-3.624 K0.000 F360.000
G1 X11.653 Y38.438 Z-10.000 F360.000
G2 X11.908 Y38.011 Z-10.000 I-0.924 J-0.842 K0.000 F360.000
G1 X12.258 Y37.021 Z-10.000 F360.000
G1 X12.327 Y36.679 Z-10.000 F360.000
G2 X12.387 Y33.967 Z-10.000 I-27.808 J-1.976 K0.000 F360.000
G1 X12.151 Y32.059 Z-10.000 F360.000
G2 X10.632 Y28.430 Z-10.000 I-16.809 J4.902 K0.000 F360.000
G2 X8.171 Y24.983 Z-10.000 I-24.278 J14.732 K0.000 F360.000
G2 X10.479 Y25.766 Z-10.000 I8.406 J-20.988 K0.000 F360.000
G1 X12.709 Y26.282 Z-10.000 F360.000
G1 X12.989 Y26.313 Z-10.000 F360.000
G1 X18.794 Y26.313 Z-10.000 F360.000
G1 X18.960 Y26.302 Z-10.000 F360.000
G1 X22.765 Y25.793 Z-10.000 F360.000
G1 X26.330 Y25.070 Z-10.000 F360.000
G1 X26.582 Y24.990 Z-10.000 F360.000
G1 X29.678 Y23.637 Z-10.000 F360.000
G1 X29.927 Y23.492 Z-10.000 F360.000
G1 X29.927 Y23.492 Z-12.000 F360.000
G1 X33.022 Y21.171 Z-12.000 F360.000
G2 X38.427 Y15.521 Z-12.000 I-103.168 J-104.112 K0.000 F360.000
G1 X38.595 Y15.292 Z-12.000 F360.000
G1 X40.917 Y11.230 Z-12.000 F360.000
G1 X41.021 Y10.994 Z-12.000 F360.000
G1 X42.311 Y6.996 Z-12.000 F360.000
G2 X43.266 Y0.632 Z-12.000 I-66.152 J-13.185 K0.000 F360.000
G1 X43.605 Y-4.789 Z-12.000 F360.000
G1 X43.605 Y-4.952 Z-12.000 F360.000
G1 X43.236 Y-10.337 Z-12.000 F360.000
G1 X43.197 Y-10.570 Z-12.000 F360.000
G1 X41.930 Y-15.375 Z-12.000 F360.000
G1 X41.865 Y-15.563 Z-12.000 F360.000
G1 X39.806 Y-20.209 Z-12.000 F360.000
G1 X39.708 Y-20.388 Z-12.000 F360.000
G1 X36.324 Y-25.545 Z-12.000 F360.000
G1 X36.205 Y-25.699 Z-12.000 F360.000
G1 X32.087 Y-30.240 Z-12.000 F360.000
G1 X28.107 Y-33.958 Z-12.000 F360.000
G1 X27.814 Y-34.162 Z-12.000 F360.000
G1 X23.590 Y-36.274 Z-12.000 F360.000
G1 X23.434 Y-36.340 Z-12.000 F360.000
G1 X18.312 Y-38.083 Z-12.000 F360.000
G1 X18.138 Y-38.128 Z-12.000 F360.000
G1 X13.529 Y-38.988 Z-12.000 F360.000
G1 X13.300 Y-39.009 Z-12.000 F360.000
G1 X9.604 Y-39.009 Z-12.000 F360.000
G2 X3.870 Y-38.581 Z-12.000 I1.718 J61.590 K0.000 F360.000
G1 X1.461 Y-38.146 Z-12.000 F360.000
G2 X0.246 Y-37.667 Z-12.000 I1.122 J4.620 K0.000 F360.000
G2 X-1.118 Y-38.534 Z-12.000 I-10.385 J14.825 K0.000 F360.000
G2 X-4.337 Y-40.452 Z-12.000 I-18.172 J26.833 K0.000 F360.000
G1 X-6.699 Y-41.379 Z-12.000 F360.000
G1 X-9.449 Y-42.131 Z-12.000 F360.000
G1 X-9.645 Y-42.167 Z-12.000 F360.000
G1 X-12.689 Y-42.486 Z-12.000 F360.000
G1 X-15.579 Y-42.493 Z-12.000 F360.000
G1 X-15.782 Y-42.477 Z-12.000 F360.000
G1 X-18.790 Y-41.982 Z-12.000 F360.000
G1 X-18.966 Y-41.940 Z-12.000 F360.000
G1 X-22.089 Y-40.948 Z-12.000 F360.000
G1 X-26.596 Y-38.980 Z-12.000 F360.000
G1 X-28.850 Y-37.669 Z-12.000 F360.000
G2 X-33.517 Y-34.184 Z-12.000 I79.881 J111.840 K0.000 F360.000
G1 X-33.690 Y-34.022 Z-12.000 F360.000
G1 X-35.494 Y-31.983 Z-12.000 F360.000
G1 X-37.336 Y-29.489 Z-12.000 F360.000
G1 X-38.809 Y-26.967 Z-12.000 F360.000
G1 X-40.579 Y-23.541 Z-12.000 F360.000
G1 X-42.722 Y-18.820 Z-12.000 F360.000
G1 X-42.781 Y-18.664 Z-12.000 F360.000
G1 X-44.144 Y-14.134 Z-12.000 F360.000
G1 X-45.019 Y-9.240 Z-12.000 F360.000
G1 X-45.299 Y-4.202 Z-12.000 F360.000
G1 X-45.296 Y-4.026 Z-12.000 F360.000
G1 X-45.006 Y-0.723 Z-12.000 F360.000
G1 X-44.447 Y3.033 Z-12.000 F360.000
G1 X-43.705 Y6.353 Z-12.000 F360.000
G1 X-43.646 Y6.543 Z-12.000 F360.000
G1 X-42.198 Y10.165 Z-12.000 F360.000
G1 X-42.125 Y10.317 Z-12.000 F360.000
G1 X-40.010 Y14.055 Z-12.000 F360.000
G1 X-38.047 Y16.767 Z-12.000 F360.000
G1 X-36.068 Y19.053 Z-12.000 F360.000
G1 X-35.844 Y19.256 Z-12.000 F360.000
G2 X-33.529 Y20.822 Z-12.000 I22.465 J-30.713 K0.000 F360.000
G2 X-27.570 Y23.682 Z-12.000 I13.892 J-21.305 K0.000 F360.000
G2 X-23.229 Y24.589 Z-12.000 I10.589 J-39.835 K0.000 F360.000
G2 X-13.735 Y24.112 Z-12.000 I3.683 J-21.400 K0.000 F360.000
G2 X-9.455 Y22.481 Z-12.000 I-6.037 J-22.269 K0.000 F360.000
G2 X-11.087 Y27.733 Z-12.000 I95.979 J32.706 K0.000 F360.000
G3 X-13.093 Y33.109 Z-12.000 I-33.812 J-9.557 K0.000 F360.000
G3 X-13.531 Y33.546 Z-12.000 I-1.530 J-1.096 K0.000 F360.000
G3 X-14.970 Y34.017 Z-12.000 I-2.063 J-3.861 K0.000 F360.000
G2 X-16.124 Y34.234 Z-12.000 I0.884 J7.910 K0.000 F360.000
G2 X-17.531 Y34.927 Z-12.000 I0.235 J2.252 K0.000 F360.000
G2 X-18.312 Y36.694 Z-12.000 I1.319 J1.638 K0.000 F360.000
G2 X-17.658 Y39.000 Z-12.000 I5.425 J-0.292 K0.000 F360.000
G2 X-16.972 Y40.244 Z-12.000 I3.435 J-1.083 K0.000 F360.000
G2 X-15.358 Y41.464 Z-12.000 I3.925 J-3.515 K0.000 F360.000
G2 X-12.716 Y42.649 Z-12.000 I15.730 J-31.552 K0.000 F360.000
G2 X-9.414 Y43.853 Z-12.000 I9.975 J-22.227 K0.000 F360.000
G2 X-7.773 Y44.012 Z-12.000 I1.092 J-2.705 K0.000 F360.000
G2 X-5.770 Y42.263 Z-12.000 I-1.016 J-3.183 K0.000 F360.000
G2 X-5.163 Y40.564 Z-12.000 I-5.743 J-3.011 K0.000 F360.000
G2 X-4.825 Y36.291 Z-12.000 I-246.982 J-21.678 K0.000 F360.000
G3 X-3.591 Y28.872 Z-12.000 I1373.137 J224.570 K0.000 F360.000
G1 X-3.508 Y29.051 Z-12.000 F360.000
G2 X-1.836 Y31.846 Z-12.000 I21.067 J-10.700 K0.000 F360.000
G2 X-0.783 Y33.222 Z-12.000 I6.763 J-4.088 K0.000 F360.000
G1 X-0.783 Y33.222 Z-12.000 F360.000
G3 X0.550 Y34.835 Z-12.000 I-35.082 J30.350 K0.000 F360.000
G2 X3.653 Y37.779 Z-12.000 I52.328 J-52.043 K0.000 F360.000
G1 X4.993 Y38.687 Z-12.000 F360.000
G2 X6.146 Y39.249 Z-12.000 I3.902 J-6.533 K0.000 F360.000
G2 X8.611 Y39.929 Z-12.000 I2.906 J-5.732 K0.000 F360.000
G2 X9.864 Y39.808 Z-12.000 I0.019 J-6.370 K0.000 F360.000
G2 X11.051 Y39.098 Z-12.000 I-1.363 J-3.624 K0.000 F360.000
G1 X11.653 Y38.438 Z-12.000 F360.000
G2 X11.908 Y38.011 Z-12.000 I-0.924 J-0.842 K0.000 F360.000
G1 X12.258 Y37.021 Z-12.000 F360.000
G1 X12.327 Y36.679 Z-12.000 F360.000
G2 X12.387 Y33.967 Z-12.000 I-27.808 J-1.976 K0.000 F360.000
G1 X12.151 Y32.059 Z-12.000 F360.000
G2 X10.632 Y28.430 Z-12.000 I-16.809 J4.902 K0.000 F360.000
G2 X8.171 Y24.983 Z-12.000 I-24.278 J14.732 K0.000 F360.000
G2 X10.479 Y25.766 Z-12.000 I8.406 J-20.988 K0.000 F360.000
G1 X12.709 Y26.282 Z-12.000 F360.000
G1 X12.989 Y26.313 Z-12.000 F360.000
G1 X18.794 Y26.313 Z-12.000 F360.000
G1 X18.960 Y26.302 Z-12.000 F360.000
G1 X22.765 Y25.793 Z-12.000 F360.000
G1 X26.330 Y25.070 Z-12.000 F360.000
G1 X26.582 Y24.990 Z-12.000 F360.000
G1 X29.678 Y23.637 Z-12.000 F360.000
G1 X29.927 Y23.492 Z-12.000 F360.000
G0 Z5.000
G0 Z5.000
(Finish operation: Profile)
(Begin postamble)
M5
G17 G90
M2
