(Exported by FreeCAD)
(Post Processor: script_module)
(Output Time:2026-01-01 18:13:48.932396)
(Begin preamble)
G17 G90
G21
(Begin operation: Fixture)
(Path: Fixture)
G54
(Finish operation: Fixture)
(Begin operation: 3mm_Endmill001)
(Path: 3mm_Endmill001)
(3mm_Endmill001)
(Begin toolchange)
( M6 T2 )
M3 S15000
(Finish operation: 3mm_Endmill001)
(Begin operation: Pocket_Shape)
(Path: Pocket_Shape)
(Pocket_Shape)
G0 Z5.000
G0 X0.000 Y0.000
G0 Y-0.500
G0 Y-0.500 Z3.000
G1 X0.000 Y-0.500 Z-3.000 F600.000
G1 X103.000 Y-0.500 Z-3.000 F600.000
G1 X103.000 Y0.500 Z-3.000 F600.000
G1 X-103.000 Y0.500 Z-3.000 F600.000
G1 X-103.000 Y-0.500 Z-3.000 F600.000
G1 X0.000 Y-0.500 Z-3.000 F600.000
G1 X0.000 Y-1.250 Z-3.000 F600.000
G1 X103.750 Y-1.250 Z-3.000 F600.000
G1 X103.750 Y1.250 Z-3.000 F600.000
G1 X-103.750 Y1.250 Z-3.000 F600.000
G1 X-103.750 Y-1.250 Z-3.000 F600.000
G1 X0.000 Y-1.250 Z-3.000 F600.000
G1 X0.000 Y-2.000 Z-3.000 F600.000
G1 X104.500 Y-2.000 Z-3.000 F600.000
G1 X104.500 Y2.000 Z-3.000 F600.000
G1 X-104.500 Y2.000 Z-3.000 F600.000
G1 X-104.500 Y-2.000 Z-3.000 F600.000
G1 X0.000 Y-2.000 Z-3.000 F600.000
G1 X0.000 Y-5.000 Z-3.000 F600.000
G1 X107.500 Y-5.000 Z-3.000 F600.000
G1 X107.500 Y5.000 Z-3.000 F600.000
G1 X-107.500 Y5.000 Z-3.000 F600.000
G1 X-107.500 Y-5.000 Z-3.000 F600.000
G1 X0.000 Y-5.000 Z-3.000 F600.000
G1 X0.000 Y-8.000 Z-3.000 F600.000
G1 X110.500 Y-8.000 Z-3.000 F600.000
G1 X110.500 Y8.000 Z-3.000 F600.000
G1 X-110.500 Y8.000 Z-3.000 F600.000
G1 X-110.500 Y-8.000 Z-3.000 F600.000
G1 X0.000 Y-8.000 Z-3.000 F600.000
G1 X0.000 Y-8.000 Z-6.000 F600.000
G1 X110.500 Y-8.000 Z-6.000 F600.000
G1 X110.500 Y8.000 Z-6.000 F600.000
G1 X-110.500 Y8.000 Z-6.000 F600.000
G1 X-110.500 Y-8.000 Z-6.000 F600.000
G1 X0.000 Y-8.000 Z-6.000 F600.000
G1 X0.000 Y-5.000 Z-6.000 F600.000
G1 X107.500 Y-5.000 Z-6.000 F600.000
G1 X107.500 Y5.000 Z-6.000 F600.000
G1 X-107.500 Y5.000 Z-6.000 F600.000
G1 X-107.500 Y-5.000 Z-6.000 F600.000
G1 X0.000 Y-5.000 Z-6.000 F600.000
G1 X0.000 Y-2.000 Z-6.000 F600.000
G1 X104.500 Y-2.000 Z-6.000 F600.000
G1 X104.500 Y2.000 Z-6.000 F600.000
G1 X-104.500 Y2.000 Z-6.000 F600.000
G1 X-104.500 Y-2.000 Z-6.000 F600.000
G1 X0.000 Y-2.000 Z-6.000 F600.000
G1 X0.000 Y-1.250 Z-6.000 F600.000
G1 X103.750 Y-1.250 Z-6.000 F600.000
G1 X103.750 Y1.250 Z-6.000 F600.000
G1 X-103.750 Y1.250 Z-6.000 F600.000
G1 X-103.750 Y-1.250 Z-6.000 F600.000
G1 X0.000 Y-1.250 Z-6.000 F600.000
G1 X0.000 Y-0.500 Z-6.000 F600.000
G1 X103.000 Y-0.500 Z-6.000 F600.000
G1 X103.000 Y0.500 Z-6.000 F600.000
G1 X-103.000 Y0.500 Z-6.000 F600.000
G1 X-103.000 Y-0.500 Z-6.000 F600.000
G1 X0.000 Y-0.500 Z-6.000 F600.000
G1 X0.000 Y-0.500 Z-9.000 F600.000
G1 X103.000 Y-0.500 Z-9.000 F600.000
G1 X103.000 Y0.500 Z-9.000 F600.000
G1 X-103.000 Y0.500 Z-9.000 F600.000
G1 X-103.000 Y-0.500 Z-9.000 F600.000
G1 X0.000 Y-0.500 Z-9.000 F600.000
G1 X0.000 Y-1.250 Z-9.000 F600.000
G1 X103.750 Y-1.250 Z-9.000 F600.000
G1 X103.750 Y1.250 Z-9.000 F600.000
G1 X-103.750 Y1.250 Z-9.000 F600.000
G1 X-103.750 Y-1.250 Z-9.000 F600.000
G1 X0.000 Y-1.250 Z-9.000 F600.000
G1 X0.000 Y-2.000 Z-9.000 F600.000
G1 X104.500 Y-2.000 Z-9.000 F600.000
G1 X104.500 Y2.000 Z-9.000 F600.000
G1 X-104.500 Y2.000 Z-9.000 F600.000
G1 X-104.500 Y-2.000 Z-9.000 F600.000
G1 X0.000 Y-2.000 Z-9.000 F600.000
G1 X0.000 Y-5.000 Z-9.000 F600.000
G1 X107.500 Y-5.000 Z-9.000 F600.000
G1 X107.500 Y5.000 Z-9.000 F600.000
G1 X-107.500 Y5.000 Z-9.000 F600.000
G1 X-107.500 Y-5.000 Z-9.000 F600.000
G1 X0.000 Y-5.000 Z-9.000 F600.000
G1 X0.000 Y-8.000 Z-9.000 F600.000
G1 X110.500 Y-8.000 Z-9.000 F600.000
G1 X110.500 Y8.000 Z-9.000 F600.000
G1 X-110.500 Y8.000 Z-9.000 F600.000
G1 X-110.500 Y-8.000 Z-9.000 F600.000
G1 X0.000 Y-8.000 Z-9.000 F600.000
G1 X0.000 Y-8.000 Z-12.000 F600.000
G1 X110.500 Y-8.000 Z-12.000 F600.000
G1 X110.500 Y8.000 Z-12.000 F600.000
G1 X-110.500 Y8.000 Z-12.000 F600.000
G1 X-110.500 Y-8.000 Z-12.000 F600.000
G1 X0.000 Y-8.000 Z-12.000 F600.000
G1 X0.000 Y-5.000 Z-12.000 F600.000
G1 X107.500 Y-5.000 Z-12.000 F600.000
G1 X107.500 Y5.000 Z-12.000 F600.000
G1 X-107.500 Y5.000 Z-12.000 F600.000
G1 X-107.500 Y-5.000 Z-12.000 F600.000
G1 X0.000 Y-5.000 Z-12.000 F600.000
G1 X0.000 Y-2.000 Z-12.000 F600.000
G1 X104.500 Y-2.000 Z-12.000 F600.000
G1 X104.500 Y2.000 Z-12.000 F600.000
G1 X-104.500 Y2.000 Z-12.000 F600.000
G1 X-104.500 Y-2.000 Z-12.000 F600.000
G1 X0.000 Y-2.000 Z-12.000 F600.000
G1 X0.000 Y-1.250 Z-12.000 F600.000
G1 X103.750 Y-1.250 Z-12.000 F600.000
G1 X103.750 Y1.250 Z-12.000 F600.000
G1 X-103.750 Y1.250 Z-12.000 F600.000
G1 X-103.750 Y-1.250 Z-12.000 F600.000
G1 X0.000 Y-1.250 Z-12.000 F600.000
G1 X0.000 Y-0.500 Z-12.000 F600.000
G1 X103.000 Y-0.500 Z-12.000 F600.000
G1 X103.000 Y0.500 Z-12.000 F600.000
G1 X-103.000 Y0.500 Z-12.000 F600.000
G1 X-103.000 Y-0.500 Z-12.000 F600.000
G1 X0.000 Y-0.500 Z-12.000 F600.000
G1 X0.000 Y-0.500 Z-15.000 F600.000
G1 X103.000 Y-0.500 Z-15.000 F600.000
G1 X103.000 Y0.500 Z-15.000 F600.000
G1 X-103.000 Y0.500 Z-15.000 F600.000
G1 X-103.000 Y-0.500 Z-15.000 F600.000
G1 X0.000 Y-0.500 Z-15.000 F600.000
G1 X0.000 Y-1.250 Z-15.000 F600.000
G1 X103.750 Y-1.250 Z-15.000 F600.000
G1 X103.750 Y1.250 Z-15.000 F600.000
G1 X-103.750 Y1.250 Z-15.000 F600.000
G1 X-103.750 Y-1.250 Z-15.000 F600.000
G1 X0.000 Y-1.250 Z-15.000 F600.000
G1 X0.000 Y-2.000 Z-15.000 F600.000
G1 X104.500 Y-2.000 Z-15.000 F600.000
G1 X104.500 Y2.000 Z-15.000 F600.000
G1 X-104.500 Y2.000 Z-15.000 F600.000
G1 X-104.500 Y-2.000 Z-15.000 F600.000
G1 X0.000 Y-2.000 Z-15.000 F600.000
G1 X0.000 Y-5.000 Z-15.000 F600.000
G1 X107.500 Y-5.000 Z-15.000 F600.000
G1 X107.500 Y5.000 Z-15.000 F600.000
G1 X-107.500 Y5.000 Z-15.000 F600.000
G1 X-107.500 Y-5.000 Z-15.000 F600.000
G1 X0.000 Y-5.000 Z-15.000 F600.000
G1 X0.000 Y-8.000 Z-15.000 F600.000
G1 X110.500 Y-8.000 Z-15.000 F600.000
G1 X110.500 Y8.000 Z-15.000 F600.000
G1 X-110.500 Y8.000 Z-15.000 F600.000
G1 X-110.500 Y-8.000 Z-15.000 F600.000
G1 X0.000 Y-8.000 Z-15.000 F600.000
G0 Z5.000
G0 Y-11.000 Z5.000
G0 Y-11.000 Z3.000
G1 X0.000 Y-11.000 Z-3.000 F600.000
G1 X113.500 Y-11.000 Z-3.000 F600.000
G1 X113.500 Y11.000 Z-3.000 F600.000
G1 X-113.500 Y11.000 Z-3.000 F600.000
G1 X-113.500 Y-11.000 Z-3.000 F600.000
G1 X0.000 Y-11.000 Z-3.000 F600.000
G1 X0.000 Y-11.000 Z-6.000 F600.000
G1 X113.500 Y-11.000 Z-6.000 F600.000
G1 X113.500 Y11.000 Z-6.000 F600.000
G1 X-113.500 Y11.000 Z-6.000 F600.000
G1 X-113.500 Y-11.000 Z-6.000 F600.000
G1 X0.000 Y-11.000 Z-6.000 F600.000
G1 X0.000 Y-11.000 Z-9.000 F600.000
G1 X113.500 Y-11.000 Z-9.000 F600.000
G1 X113.500 Y11.000 Z-9.000 F600.000
G1 X-113.500 Y11.000 Z-9.000 F600.000
G1 X-113.500 Y-11.000 Z-9.000 F600.000
G1 X0.000 Y-11.000 Z-9.000 F600.000
G1 X0.000 Y-11.000 Z-12.000 F600.000
G1 X113.500 Y-11.000 Z-12.000 F600.000
G1 X113.500 Y11.000 Z-12.000 F600.000
G1 X-113.500 Y11.000 Z-12.000 F600.000
G1 X-113.500 Y-11.000 Z-12.000 F600.000
G1 X0.000 Y-11.000 Z-12.000 F600.000
G1 X0.000 Y-11.000 Z-15.000 F600.000
G1 X113.500 Y-11.000 Z-15.000 F600.000
G1 X113.500 Y11.000 Z-15.000 F600.000
G1 X-113.500 Y11.000 Z-15.000 F600.000
G1 X-113.500 Y-11.000 Z-15.000 F600.000
G1 X0.000 Y-11.000 Z-15.000 F600.000
G0 Z5.000
G0 Z5.000
(Finish operation: Pocket_Shape)
(Begin postamble)
M5
G17 G90
M2
