(Exported by FreeCAD)
(Post Processor: script_module)
(Output Time:2025-11-28 18:46:23.554563)
(Begin preamble)
G17 G90
G21
(Begin operation: Fixture)
(Path: Fixture)
G54
(Finish operation: Fixture)
(Begin operation: 3mm_Endmill001)
(Path: 3mm_Endmill001)
(3mm_Endmill001)
(Begin toolchange)
( M6 T2 )
M3 S10000
(Finish operation: 3mm_Endmill001)
(Begin operation: Pocket_Shape)
(Path: Pocket_Shape)
(Pocket_Shape)
G0 Z5.000
G0 X0.000 Y0.000
G0 X-38.498 Y18.498
G0 X-38.498 Y18.498 Z3.000
G1 X-38.498 Y18.498 Z-3.000 F480.000
G1 X-38.500 Y18.465 Z-3.000 F480.000
G1 X-38.500 Y14.254 Z-3.000 F480.000
G1 X-34.254 Y18.500 Z-3.000 F480.000
G1 X-30.012 Y18.500 Z-3.000 F480.000
G1 X-38.500 Y10.012 Z-3.000 F480.000
G1 X-38.500 Y5.769 Z-3.000 F480.000
G1 X-25.769 Y18.500 Z-3.000 F480.000
G1 X-21.526 Y18.500 Z-3.000 F480.000
G1 X-38.500 Y1.526 Z-3.000 F480.000
G1 X-38.500 Y-2.716 Z-3.000 F480.000
G1 X-17.284 Y18.500 Z-3.000 F480.000
G1 X-13.041 Y18.500 Z-3.000 F480.000
G1 X-38.500 Y-6.959 Z-3.000 F480.000
G1 X-38.500 Y-11.201 Z-3.000 F480.000
G1 X-8.798 Y18.500 Z-3.000 F480.000
G1 X-4.556 Y18.500 Z-3.000 F480.000
G1 X-38.500 Y-15.444 Z-3.000 F480.000
G1 X-38.500 Y-19.687 Z-3.000 F480.000
G1 X-0.313 Y18.500 Z-3.000 F480.000
G1 X3.929 Y18.500 Z-3.000 F480.000
G1 X-38.500 Y-23.929 Z-3.000 F480.000
G1 X-38.500 Y-28.172 Z-3.000 F480.000
G1 X8.172 Y18.500 Z-3.000 F480.000
G1 X12.415 Y18.500 Z-3.000 F480.000
G1 X-34.585 Y-28.500 Z-3.000 F480.000
G1 X-30.343 Y-28.500 Z-3.000 F480.000
G1 X16.657 Y18.500 Z-3.000 F480.000
G1 X20.900 Y18.500 Z-3.000 F480.000
G1 X-26.100 Y-28.500 Z-3.000 F480.000
G1 X-21.857 Y-28.500 Z-3.000 F480.000
G1 X25.143 Y18.500 Z-3.000 F480.000
G1 X29.385 Y18.500 Z-3.000 F480.000
G1 X-17.615 Y-28.500 Z-3.000 F480.000
G1 X-13.372 Y-28.500 Z-3.000 F480.000
G1 X33.628 Y18.500 Z-3.000 F480.000
G1 X37.871 Y18.500 Z-3.000 F480.000
G1 X-9.129 Y-28.500 Z-3.000 F480.000
G1 X-4.887 Y-28.500 Z-3.000 F480.000
G1 X38.500 Y14.887 Z-3.000 F480.000
G1 X38.500 Y10.644 Z-3.000 F480.000
G1 X-0.644 Y-28.500 Z-3.000 F480.000
G1 X3.599 Y-28.500 Z-3.000 F480.000
G1 X38.500 Y6.401 Z-3.000 F480.000
G1 X38.500 Y2.159 Z-3.000 F480.000
G1 X7.841 Y-28.500 Z-3.000 F480.000
G1 X12.084 Y-28.500 Z-3.000 F480.000
G1 X38.500 Y-2.084 Z-3.000 F480.000
G1 X38.500 Y-6.326 Z-3.000 F480.000
G1 X16.326 Y-28.500 Z-3.000 F480.000
G1 X20.569 Y-28.500 Z-3.000 F480.000
G1 X38.500 Y-10.569 Z-3.000 F480.000
G1 X38.500 Y-14.812 Z-3.000 F480.000
G1 X24.812 Y-28.500 Z-3.000 F480.000
G1 X29.054 Y-28.500 Z-3.000 F480.000
G1 X38.500 Y-19.054 Z-3.000 F480.000
G1 X38.500 Y-23.297 Z-3.000 F480.000
G1 X33.297 Y-28.500 Z-3.000 F480.000
G1 X37.540 Y-28.500 Z-3.000 F480.000
G1 X38.465 Y-28.500 Z-3.000 F480.000
G1 X38.498 Y-28.498 Z-3.000 F480.000
G1 X38.500 Y-28.465 Z-3.000 F480.000
G1 X38.500 Y18.465 Z-3.000 F480.000
G1 X38.498 Y18.498 Z-3.000 F480.000
G1 X38.465 Y18.500 Z-3.000 F480.000
G1 X-38.465 Y18.500 Z-3.000 F480.000
G1 X-38.498 Y18.498 Z-3.000 F480.000
G1 X-38.500 Y18.465 Z-3.000 F480.000
G1 X-38.500 Y-28.465 Z-3.000 F480.000
G1 X-38.498 Y-28.498 Z-3.000 F480.000
G1 X-38.465 Y-28.500 Z-3.000 F480.000
G1 X37.540 Y-28.500 Z-3.000 F480.000
G1 X38.500 Y-27.540 Z-3.000 F480.000
G1 X38.500 Y-28.465 Z-3.000 F480.000
G1 X38.498 Y-28.498 Z-3.000 F480.000
G1 X38.465 Y-28.500 Z-3.000 F480.000
G1 X37.540 Y-28.500 Z-3.000 F480.000
G1 X37.540 Y-28.500 Z-6.000 F480.000
G1 X38.465 Y-28.500 Z-6.000 F480.000
G1 X38.498 Y-28.498 Z-6.000 F480.000
G1 X38.500 Y-28.465 Z-6.000 F480.000
G1 X38.500 Y-27.540 Z-6.000 F480.000
G1 X37.540 Y-28.500 Z-6.000 F480.000
G1 X-38.465 Y-28.500 Z-6.000 F480.000
G1 X-38.498 Y-28.498 Z-6.000 F480.000
G1 X-38.500 Y-28.465 Z-6.000 F480.000
G1 X-38.500 Y18.465 Z-6.000 F480.000
G1 X-38.498 Y18.498 Z-6.000 F480.000
G1 X-38.465 Y18.500 Z-6.000 F480.000
G1 X38.465 Y18.500 Z-6.000 F480.000
G1 X38.498 Y18.498 Z-6.000 F480.000
G1 X38.500 Y18.465 Z-6.000 F480.000
G1 X38.500 Y-28.465 Z-6.000 F480.000
G1 X38.498 Y-28.498 Z-6.000 F480.000
G1 X38.465 Y-28.500 Z-6.000 F480.000
G1 X37.540 Y-28.500 Z-6.000 F480.000
G1 X33.297 Y-28.500 Z-6.000 F480.000
G1 X38.500 Y-23.297 Z-6.000 F480.000
G1 X38.500 Y-19.054 Z-6.000 F480.000
G1 X29.054 Y-28.500 Z-6.000 F480.000
G1 X24.812 Y-28.500 Z-6.000 F480.000
G1 X38.500 Y-14.812 Z-6.000 F480.000
G1 X38.500 Y-10.569 Z-6.000 F480.000
G1 X20.569 Y-28.500 Z-6.000 F480.000
G1 X16.326 Y-28.500 Z-6.000 F480.000
G1 X38.500 Y-6.326 Z-6.000 F480.000
G1 X38.500 Y-2.084 Z-6.000 F480.000
G1 X12.084 Y-28.500 Z-6.000 F480.000
G1 X7.841 Y-28.500 Z-6.000 F480.000
G1 X38.500 Y2.159 Z-6.000 F480.000
G1 X38.500 Y6.401 Z-6.000 F480.000
G1 X3.599 Y-28.500 Z-6.000 F480.000
G1 X-0.644 Y-28.500 Z-6.000 F480.000
G1 X38.500 Y10.644 Z-6.000 F480.000
G1 X38.500 Y14.887 Z-6.000 F480.000
G1 X-4.887 Y-28.500 Z-6.000 F480.000
G1 X-9.129 Y-28.500 Z-6.000 F480.000
G1 X37.871 Y18.500 Z-6.000 F480.000
G1 X33.628 Y18.500 Z-6.000 F480.000
G1 X-13.372 Y-28.500 Z-6.000 F480.000
G1 X-17.615 Y-28.500 Z-6.000 F480.000
G1 X29.385 Y18.500 Z-6.000 F480.000
G1 X25.143 Y18.500 Z-6.000 F480.000
G1 X-21.857 Y-28.500 Z-6.000 F480.000
G1 X-26.100 Y-28.500 Z-6.000 F480.000
G1 X20.900 Y18.500 Z-6.000 F480.000
G1 X16.657 Y18.500 Z-6.000 F480.000
G1 X-30.343 Y-28.500 Z-6.000 F480.000
G1 X-34.585 Y-28.500 Z-6.000 F480.000
G1 X12.415 Y18.500 Z-6.000 F480.000
G1 X8.172 Y18.500 Z-6.000 F480.000
G1 X-38.500 Y-28.172 Z-6.000 F480.000
G1 X-38.500 Y-23.929 Z-6.000 F480.000
G1 X3.929 Y18.500 Z-6.000 F480.000
G1 X-0.313 Y18.500 Z-6.000 F480.000
G1 X-38.500 Y-19.687 Z-6.000 F480.000
G1 X-38.500 Y-15.444 Z-6.000 F480.000
G1 X-4.556 Y18.500 Z-6.000 F480.000
G1 X-8.798 Y18.500 Z-6.000 F480.000
G1 X-38.500 Y-11.201 Z-6.000 F480.000
G1 X-38.500 Y-6.959 Z-6.000 F480.000
G1 X-13.041 Y18.500 Z-6.000 F480.000
G1 X-17.284 Y18.500 Z-6.000 F480.000
G1 X-38.500 Y-2.716 Z-6.000 F480.000
G1 X-38.500 Y1.526 Z-6.000 F480.000
G1 X-21.526 Y18.500 Z-6.000 F480.000
G1 X-25.769 Y18.500 Z-6.000 F480.000
G1 X-38.500 Y5.769 Z-6.000 F480.000
G1 X-38.500 Y10.012 Z-6.000 F480.000
G1 X-30.012 Y18.500 Z-6.000 F480.000
G1 X-34.254 Y18.500 Z-6.000 F480.000
G1 X-38.500 Y14.254 Z-6.000 F480.000
G1 X-38.500 Y18.465 Z-6.000 F480.000
G1 X-38.498 Y18.498 Z-6.000 F480.000
G1 X-38.498 Y18.498 Z-9.000 F480.000
G1 X-38.500 Y18.465 Z-9.000 F480.000
G1 X-38.500 Y14.254 Z-9.000 F480.000
G1 X-34.254 Y18.500 Z-9.000 F480.000
G1 X-30.012 Y18.500 Z-9.000 F480.000
G1 X-38.500 Y10.012 Z-9.000 F480.000
G1 X-38.500 Y5.769 Z-9.000 F480.000
G1 X-25.769 Y18.500 Z-9.000 F480.000
G1 X-21.526 Y18.500 Z-9.000 F480.000
G1 X-38.500 Y1.526 Z-9.000 F480.000
G1 X-38.500 Y-2.716 Z-9.000 F480.000
G1 X-17.284 Y18.500 Z-9.000 F480.000
G1 X-13.041 Y18.500 Z-9.000 F480.000
G1 X-38.500 Y-6.959 Z-9.000 F480.000
G1 X-38.500 Y-11.201 Z-9.000 F480.000
G1 X-8.798 Y18.500 Z-9.000 F480.000
G1 X-4.556 Y18.500 Z-9.000 F480.000
G1 X-38.500 Y-15.444 Z-9.000 F480.000
G1 X-38.500 Y-19.687 Z-9.000 F480.000
G1 X-0.313 Y18.500 Z-9.000 F480.000
G1 X3.929 Y18.500 Z-9.000 F480.000
G1 X-38.500 Y-23.929 Z-9.000 F480.000
G1 X-38.500 Y-28.172 Z-9.000 F480.000
G1 X8.172 Y18.500 Z-9.000 F480.000
G1 X12.415 Y18.500 Z-9.000 F480.000
G1 X-34.585 Y-28.500 Z-9.000 F480.000
G1 X-30.343 Y-28.500 Z-9.000 F480.000
G1 X16.657 Y18.500 Z-9.000 F480.000
G1 X20.900 Y18.500 Z-9.000 F480.000
G1 X-26.100 Y-28.500 Z-9.000 F480.000
G1 X-21.857 Y-28.500 Z-9.000 F480.000
G1 X25.143 Y18.500 Z-9.000 F480.000
G1 X29.385 Y18.500 Z-9.000 F480.000
G1 X-17.615 Y-28.500 Z-9.000 F480.000
G1 X-13.372 Y-28.500 Z-9.000 F480.000
G1 X33.628 Y18.500 Z-9.000 F480.000
G1 X37.871 Y18.500 Z-9.000 F480.000
G1 X-9.129 Y-28.500 Z-9.000 F480.000
G1 X-4.887 Y-28.500 Z-9.000 F480.000
G1 X38.500 Y14.887 Z-9.000 F480.000
G1 X38.500 Y10.644 Z-9.000 F480.000
G1 X-0.644 Y-28.500 Z-9.000 F480.000
G1 X3.599 Y-28.500 Z-9.000 F480.000
G1 X38.500 Y6.401 Z-9.000 F480.000
G1 X38.500 Y2.159 Z-9.000 F480.000
G1 X7.841 Y-28.500 Z-9.000 F480.000
G1 X12.084 Y-28.500 Z-9.000 F480.000
G1 X38.500 Y-2.084 Z-9.000 F480.000
G1 X38.500 Y-6.326 Z-9.000 F480.000
G1 X16.326 Y-28.500 Z-9.000 F480.000
G1 X20.569 Y-28.500 Z-9.000 F480.000
G1 X38.500 Y-10.569 Z-9.000 F480.000
G1 X38.500 Y-14.812 Z-9.000 F480.000
G1 X24.812 Y-28.500 Z-9.000 F480.000
G1 X29.054 Y-28.500 Z-9.000 F480.000
G1 X38.500 Y-19.054 Z-9.000 F480.000
G1 X38.500 Y-23.297 Z-9.000 F480.000
G1 X33.297 Y-28.500 Z-9.000 F480.000
G1 X37.540 Y-28.500 Z-9.000 F480.000
G1 X38.465 Y-28.500 Z-9.000 F480.000
G1 X38.498 Y-28.498 Z-9.000 F480.000
G1 X38.500 Y-28.465 Z-9.000 F480.000
G1 X38.500 Y18.465 Z-9.000 F480.000
G1 X38.498 Y18.498 Z-9.000 F480.000
G1 X38.465 Y18.500 Z-9.000 F480.000
G1 X-38.465 Y18.500 Z-9.000 F480.000
G1 X-38.498 Y18.498 Z-9.000 F480.000
G1 X-38.500 Y18.465 Z-9.000 F480.000
G1 X-38.500 Y-28.465 Z-9.000 F480.000
G1 X-38.498 Y-28.498 Z-9.000 F480.000
G1 X-38.465 Y-28.500 Z-9.000 F480.000
G1 X37.540 Y-28.500 Z-9.000 F480.000
G1 X38.500 Y-27.540 Z-9.000 F480.000
G1 X38.500 Y-28.465 Z-9.000 F480.000
G1 X38.498 Y-28.498 Z-9.000 F480.000
G1 X38.465 Y-28.500 Z-9.000 F480.000
G1 X37.540 Y-28.500 Z-9.000 F480.000
G1 X37.540 Y-28.500 Z-12.000 F480.000
G1 X38.465 Y-28.500 Z-12.000 F480.000
G1 X38.498 Y-28.498 Z-12.000 F480.000
G1 X38.500 Y-28.465 Z-12.000 F480.000
G1 X38.500 Y-27.540 Z-12.000 F480.000
G1 X37.540 Y-28.500 Z-12.000 F480.000
G1 X-38.465 Y-28.500 Z-12.000 F480.000
G1 X-38.498 Y-28.498 Z-12.000 F480.000
G1 X-38.500 Y-28.465 Z-12.000 F480.000
G1 X-38.500 Y18.465 Z-12.000 F480.000
G1 X-38.498 Y18.498 Z-12.000 F480.000
G1 X-38.465 Y18.500 Z-12.000 F480.000
G1 X38.465 Y18.500 Z-12.000 F480.000
G1 X38.498 Y18.498 Z-12.000 F480.000
G1 X38.500 Y18.465 Z-12.000 F480.000
G1 X38.500 Y-28.465 Z-12.000 F480.000
G1 X38.498 Y-28.498 Z-12.000 F480.000
G1 X38.465 Y-28.500 Z-12.000 F480.000
G1 X37.540 Y-28.500 Z-12.000 F480.000
G1 X33.297 Y-28.500 Z-12.000 F480.000
G1 X38.500 Y-23.297 Z-12.000 F480.000
G1 X38.500 Y-19.054 Z-12.000 F480.000
G1 X29.054 Y-28.500 Z-12.000 F480.000
G1 X24.812 Y-28.500 Z-12.000 F480.000
G1 X38.500 Y-14.812 Z-12.000 F480.000
G1 X38.500 Y-10.569 Z-12.000 F480.000
G1 X20.569 Y-28.500 Z-12.000 F480.000
G1 X16.326 Y-28.500 Z-12.000 F480.000
G1 X38.500 Y-6.326 Z-12.000 F480.000
G1 X38.500 Y-2.084 Z-12.000 F480.000
G1 X12.084 Y-28.500 Z-12.000 F480.000
G1 X7.841 Y-28.500 Z-12.000 F480.000
G1 X38.500 Y2.159 Z-12.000 F480.000
G1 X38.500 Y6.401 Z-12.000 F480.000
G1 X3.599 Y-28.500 Z-12.000 F480.000
G1 X-0.644 Y-28.500 Z-12.000 F480.000
G1 X38.500 Y10.644 Z-12.000 F480.000
G1 X38.500 Y14.887 Z-12.000 F480.000
G1 X-4.887 Y-28.500 Z-12.000 F480.000
G1 X-9.129 Y-28.500 Z-12.000 F480.000
G1 X37.871 Y18.500 Z-12.000 F480.000
G1 X33.628 Y18.500 Z-12.000 F480.000
G1 X-13.372 Y-28.500 Z-12.000 F480.000
G1 X-17.615 Y-28.500 Z-12.000 F480.000
G1 X29.385 Y18.500 Z-12.000 F480.000
G1 X25.143 Y18.500 Z-12.000 F480.000
G1 X-21.857 Y-28.500 Z-12.000 F480.000
G1 X-26.100 Y-28.500 Z-12.000 F480.000
G1 X20.900 Y18.500 Z-12.000 F480.000
G1 X16.657 Y18.500 Z-12.000 F480.000
G1 X-30.343 Y-28.500 Z-12.000 F480.000
G1 X-34.585 Y-28.500 Z-12.000 F480.000
G1 X12.415 Y18.500 Z-12.000 F480.000
G1 X8.172 Y18.500 Z-12.000 F480.000
G1 X-38.500 Y-28.172 Z-12.000 F480.000
G1 X-38.500 Y-23.929 Z-12.000 F480.000
G1 X3.929 Y18.500 Z-12.000 F480.000
G1 X-0.313 Y18.500 Z-12.000 F480.000
G1 X-38.500 Y-19.687 Z-12.000 F480.000
G1 X-38.500 Y-15.444 Z-12.000 F480.000
G1 X-4.556 Y18.500 Z-12.000 F480.000
G1 X-8.798 Y18.500 Z-12.000 F480.000
G1 X-38.500 Y-11.201 Z-12.000 F480.000
G1 X-38.500 Y-6.959 Z-12.000 F480.000
G1 X-13.041 Y18.500 Z-12.000 F480.000
G1 X-17.284 Y18.500 Z-12.000 F480.000
G1 X-38.500 Y-2.716 Z-12.000 F480.000
G1 X-38.500 Y1.526 Z-12.000 F480.000
G1 X-21.526 Y18.500 Z-12.000 F480.000
G1 X-25.769 Y18.500 Z-12.000 F480.000
G1 X-38.500 Y5.769 Z-12.000 F480.000
G1 X-38.500 Y10.012 Z-12.000 F480.000
G1 X-30.012 Y18.500 Z-12.000 F480.000
G1 X-34.254 Y18.500 Z-12.000 F480.000
G1 X-38.500 Y14.254 Z-12.000 F480.000
G1 X-38.500 Y18.465 Z-12.000 F480.000
G1 X-38.498 Y18.498 Z-12.000 F480.000
G1 X-38.498 Y18.498 Z-15.000 F480.000
G1 X-38.500 Y18.465 Z-15.000 F480.000
G1 X-38.500 Y14.254 Z-15.000 F480.000
G1 X-34.254 Y18.500 Z-15.000 F480.000
G1 X-30.012 Y18.500 Z-15.000 F480.000
G1 X-38.500 Y10.012 Z-15.000 F480.000
G1 X-38.500 Y5.769 Z-15.000 F480.000
G1 X-25.769 Y18.500 Z-15.000 F480.000
G1 X-21.526 Y18.500 Z-15.000 F480.000
G1 X-38.500 Y1.526 Z-15.000 F480.000
G1 X-38.500 Y-2.716 Z-15.000 F480.000
G1 X-17.284 Y18.500 Z-15.000 F480.000
G1 X-13.041 Y18.500 Z-15.000 F480.000
G1 X-38.500 Y-6.959 Z-15.000 F480.000
G1 X-38.500 Y-11.201 Z-15.000 F480.000
G1 X-8.798 Y18.500 Z-15.000 F480.000
G1 X-4.556 Y18.500 Z-15.000 F480.000
G1 X-38.500 Y-15.444 Z-15.000 F480.000
G1 X-38.500 Y-19.687 Z-15.000 F480.000
G1 X-0.313 Y18.500 Z-15.000 F480.000
G1 X3.929 Y18.500 Z-15.000 F480.000
G1 X-38.500 Y-23.929 Z-15.000 F480.000
G1 X-38.500 Y-28.172 Z-15.000 F480.000
G1 X8.172 Y18.500 Z-15.000 F480.000
G1 X12.415 Y18.500 Z-15.000 F480.000
G1 X-34.585 Y-28.500 Z-15.000 F480.000
G1 X-30.343 Y-28.500 Z-15.000 F480.000
G1 X16.657 Y18.500 Z-15.000 F480.000
G1 X20.900 Y18.500 Z-15.000 F480.000
G1 X-26.100 Y-28.500 Z-15.000 F480.000
G1 X-21.857 Y-28.500 Z-15.000 F480.000
G1 X25.143 Y18.500 Z-15.000 F480.000
G1 X29.385 Y18.500 Z-15.000 F480.000
G1 X-17.615 Y-28.500 Z-15.000 F480.000
G1 X-13.372 Y-28.500 Z-15.000 F480.000
G1 X33.628 Y18.500 Z-15.000 F480.000
G1 X37.871 Y18.500 Z-15.000 F480.000
G1 X-9.129 Y-28.500 Z-15.000 F480.000
G1 X-4.887 Y-28.500 Z-15.000 F480.000
G1 X38.500 Y14.887 Z-15.000 F480.000
G1 X38.500 Y10.644 Z-15.000 F480.000
G1 X-0.644 Y-28.500 Z-15.000 F480.000
G1 X3.599 Y-28.500 Z-15.000 F480.000
G1 X38.500 Y6.401 Z-15.000 F480.000
G1 X38.500 Y2.159 Z-15.000 F480.000
G1 X7.841 Y-28.500 Z-15.000 F480.000
G1 X12.084 Y-28.500 Z-15.000 F480.000
G1 X38.500 Y-2.084 Z-15.000 F480.000
G1 X38.500 Y-6.326 Z-15.000 F480.000
G1 X16.326 Y-28.500 Z-15.000 F480.000
G1 X20.569 Y-28.500 Z-15.000 F480.000
G1 X38.500 Y-10.569 Z-15.000 F480.000
G1 X38.500 Y-14.812 Z-15.000 F480.000
G1 X24.812 Y-28.500 Z-15.000 F480.000
G1 X29.054 Y-28.500 Z-15.000 F480.000
G1 X38.500 Y-19.054 Z-15.000 F480.000
G1 X38.500 Y-23.297 Z-15.000 F480.000
G1 X33.297 Y-28.500 Z-15.000 F480.000
G1 X37.540 Y-28.500 Z-15.000 F480.000
G1 X38.465 Y-28.500 Z-15.000 F480.000
G1 X38.498 Y-28.498 Z-15.000 F480.000
G1 X38.500 Y-28.465 Z-15.000 F480.000
G1 X38.500 Y18.465 Z-15.000 F480.000
G1 X38.498 Y18.498 Z-15.000 F480.000
G1 X38.465 Y18.500 Z-15.000 F480.000
G1 X-38.465 Y18.500 Z-15.000 F480.000
G1 X-38.498 Y18.498 Z-15.000 F480.000
G1 X-38.500 Y18.465 Z-15.000 F480.000
G1 X-38.500 Y-28.465 Z-15.000 F480.000
G1 X-38.498 Y-28.498 Z-15.000 F480.000
G1 X-38.465 Y-28.500 Z-15.000 F480.000
G1 X37.540 Y-28.500 Z-15.000 F480.000
G1 X38.500 Y-27.540 Z-15.000 F480.000
G1 X38.500 Y-28.465 Z-15.000 F480.000
G1 X38.498 Y-28.498 Z-15.000 F480.000
G1 X38.465 Y-28.500 Z-15.000 F480.000
G1 X37.540 Y-28.500 Z-15.000 F480.000
G1 X37.540 Y-28.500 Z-18.000 F480.000
G1 X38.465 Y-28.500 Z-18.000 F480.000
G1 X38.498 Y-28.498 Z-18.000 F480.000
G1 X38.500 Y-28.465 Z-18.000 F480.000
G1 X38.500 Y-27.540 Z-18.000 F480.000
G1 X37.540 Y-28.500 Z-18.000 F480.000
G1 X-38.465 Y-28.500 Z-18.000 F480.000
G1 X-38.498 Y-28.498 Z-18.000 F480.000
G1 X-38.500 Y-28.465 Z-18.000 F480.000
G1 X-38.500 Y18.465 Z-18.000 F480.000
G1 X-38.498 Y18.498 Z-18.000 F480.000
G1 X-38.465 Y18.500 Z-18.000 F480.000
G1 X38.465 Y18.500 Z-18.000 F480.000
G1 X38.498 Y18.498 Z-18.000 F480.000
G1 X38.500 Y18.465 Z-18.000 F480.000
G1 X38.500 Y-28.465 Z-18.000 F480.000
G1 X38.498 Y-28.498 Z-18.000 F480.000
G1 X38.465 Y-28.500 Z-18.000 F480.000
G1 X37.540 Y-28.500 Z-18.000 F480.000
G1 X33.297 Y-28.500 Z-18.000 F480.000
G1 X38.500 Y-23.297 Z-18.000 F480.000
G1 X38.500 Y-19.054 Z-18.000 F480.000
G1 X29.054 Y-28.500 Z-18.000 F480.000
G1 X24.812 Y-28.500 Z-18.000 F480.000
G1 X38.500 Y-14.812 Z-18.000 F480.000
G1 X38.500 Y-10.569 Z-18.000 F480.000
G1 X20.569 Y-28.500 Z-18.000 F480.000
G1 X16.326 Y-28.500 Z-18.000 F480.000
G1 X38.500 Y-6.326 Z-18.000 F480.000
G1 X38.500 Y-2.084 Z-18.000 F480.000
G1 X12.084 Y-28.500 Z-18.000 F480.000
G1 X7.841 Y-28.500 Z-18.000 F480.000
G1 X38.500 Y2.159 Z-18.000 F480.000
G1 X38.500 Y6.401 Z-18.000 F480.000
G1 X3.599 Y-28.500 Z-18.000 F480.000
G1 X-0.644 Y-28.500 Z-18.000 F480.000
G1 X38.500 Y10.644 Z-18.000 F480.000
G1 X38.500 Y14.887 Z-18.000 F480.000
G1 X-4.887 Y-28.500 Z-18.000 F480.000
G1 X-9.129 Y-28.500 Z-18.000 F480.000
G1 X37.871 Y18.500 Z-18.000 F480.000
G1 X33.628 Y18.500 Z-18.000 F480.000
G1 X-13.372 Y-28.500 Z-18.000 F480.000
G1 X-17.615 Y-28.500 Z-18.000 F480.000
G1 X29.385 Y18.500 Z-18.000 F480.000
G1 X25.143 Y18.500 Z-18.000 F480.000
G1 X-21.857 Y-28.500 Z-18.000 F480.000
G1 X-26.100 Y-28.500 Z-18.000 F480.000
G1 X20.900 Y18.500 Z-18.000 F480.000
G1 X16.657 Y18.500 Z-18.000 F480.000
G1 X-30.343 Y-28.500 Z-18.000 F480.000
G1 X-34.585 Y-28.500 Z-18.000 F480.000
G1 X12.415 Y18.500 Z-18.000 F480.000
G1 X8.172 Y18.500 Z-18.000 F480.000
G1 X-38.500 Y-28.172 Z-18.000 F480.000
G1 X-38.500 Y-23.929 Z-18.000 F480.000
G1 X3.929 Y18.500 Z-18.000 F480.000
G1 X-0.313 Y18.500 Z-18.000 F480.000
G1 X-38.500 Y-19.687 Z-18.000 F480.000
G1 X-38.500 Y-15.444 Z-18.000 F480.000
G1 X-4.556 Y18.500 Z-18.000 F480.000
G1 X-8.798 Y18.500 Z-18.000 F480.000
G1 X-38.500 Y-11.201 Z-18.000 F480.000
G1 X-38.500 Y-6.959 Z-18.000 F480.000
G1 X-13.041 Y18.500 Z-18.000 F480.000
G1 X-17.284 Y18.500 Z-18.000 F480.000
G1 X-38.500 Y-2.716 Z-18.000 F480.000
G1 X-38.500 Y1.526 Z-18.000 F480.000
G1 X-21.526 Y18.500 Z-18.000 F480.000
G1 X-25.769 Y18.500 Z-18.000 F480.000
G1 X-38.500 Y5.769 Z-18.000 F480.000
G1 X-38.500 Y10.012 Z-18.000 F480.000
G1 X-30.012 Y18.500 Z-18.000 F480.000
G1 X-34.254 Y18.500 Z-18.000 F480.000
G1 X-38.500 Y14.254 Z-18.000 F480.000
G1 X-38.500 Y18.465 Z-18.000 F480.000
G1 X-38.498 Y18.498 Z-18.000 F480.000
G1 X-38.498 Y18.498 Z-20.000 F480.000
G1 X-38.500 Y18.465 Z-20.000 F480.000
G1 X-38.500 Y14.254 Z-20.000 F480.000
G1 X-34.254 Y18.500 Z-20.000 F480.000
G1 X-30.012 Y18.500 Z-20.000 F480.000
G1 X-38.500 Y10.012 Z-20.000 F480.000
G1 X-38.500 Y5.769 Z-20.000 F480.000
G1 X-25.769 Y18.500 Z-20.000 F480.000
G1 X-21.526 Y18.500 Z-20.000 F480.000
G1 X-38.500 Y1.526 Z-20.000 F480.000
G1 X-38.500 Y-2.716 Z-20.000 F480.000
G1 X-17.284 Y18.500 Z-20.000 F480.000
G1 X-13.041 Y18.500 Z-20.000 F480.000
G1 X-38.500 Y-6.959 Z-20.000 F480.000
G1 X-38.500 Y-11.201 Z-20.000 F480.000
G1 X-8.798 Y18.500 Z-20.000 F480.000
G1 X-4.556 Y18.500 Z-20.000 F480.000
G1 X-38.500 Y-15.444 Z-20.000 F480.000
G1 X-38.500 Y-19.687 Z-20.000 F480.000
G1 X-0.313 Y18.500 Z-20.000 F480.000
G1 X3.929 Y18.500 Z-20.000 F480.000
G1 X-38.500 Y-23.929 Z-20.000 F480.000
G1 X-38.500 Y-28.172 Z-20.000 F480.000
G1 X8.172 Y18.500 Z-20.000 F480.000
G1 X12.415 Y18.500 Z-20.000 F480.000
G1 X-34.585 Y-28.500 Z-20.000 F480.000
G1 X-30.343 Y-28.500 Z-20.000 F480.000
G1 X16.657 Y18.500 Z-20.000 F480.000
G1 X20.900 Y18.500 Z-20.000 F480.000
G1 X-26.100 Y-28.500 Z-20.000 F480.000
G1 X-21.857 Y-28.500 Z-20.000 F480.000
G1 X25.143 Y18.500 Z-20.000 F480.000
G1 X29.385 Y18.500 Z-20.000 F480.000
G1 X-17.615 Y-28.500 Z-20.000 F480.000
G1 X-13.372 Y-28.500 Z-20.000 F480.000
G1 X33.628 Y18.500 Z-20.000 F480.000
G1 X37.871 Y18.500 Z-20.000 F480.000
G1 X-9.129 Y-28.500 Z-20.000 F480.000
G1 X-4.887 Y-28.500 Z-20.000 F480.000
G1 X38.500 Y14.887 Z-20.000 F480.000
G1 X38.500 Y10.644 Z-20.000 F480.000
G1 X-0.644 Y-28.500 Z-20.000 F480.000
G1 X3.599 Y-28.500 Z-20.000 F480.000
G1 X38.500 Y6.401 Z-20.000 F480.000
G1 X38.500 Y2.159 Z-20.000 F480.000
G1 X7.841 Y-28.500 Z-20.000 F480.000
G1 X12.084 Y-28.500 Z-20.000 F480.000
G1 X38.500 Y-2.084 Z-20.000 F480.000
G1 X38.500 Y-6.326 Z-20.000 F480.000
G1 X16.326 Y-28.500 Z-20.000 F480.000
G1 X20.569 Y-28.500 Z-20.000 F480.000
G1 X38.500 Y-10.569 Z-20.000 F480.000
G1 X38.500 Y-14.812 Z-20.000 F480.000
G1 X24.812 Y-28.500 Z-20.000 F480.000
G1 X29.054 Y-28.500 Z-20.000 F480.000
G1 X38.500 Y-19.054 Z-20.000 F480.000
G1 X38.500 Y-23.297 Z-20.000 F480.000
G1 X33.297 Y-28.500 Z-20.000 F480.000
G1 X37.540 Y-28.500 Z-20.000 F480.000
G1 X38.465 Y-28.500 Z-20.000 F480.000
G1 X38.498 Y-28.498 Z-20.000 F480.000
G1 X38.500 Y-28.465 Z-20.000 F480.000
G1 X38.500 Y18.465 Z-20.000 F480.000
G1 X38.498 Y18.498 Z-20.000 F480.000
G1 X38.465 Y18.500 Z-20.000 F480.000
G1 X-38.465 Y18.500 Z-20.000 F480.000
G1 X-38.498 Y18.498 Z-20.000 F480.000
G1 X-38.500 Y18.465 Z-20.000 F480.000
G1 X-38.500 Y-28.465 Z-20.000 F480.000
G1 X-38.498 Y-28.498 Z-20.000 F480.000
G1 X-38.465 Y-28.500 Z-20.000 F480.000
G1 X37.540 Y-28.500 Z-20.000 F480.000
G1 X38.500 Y-27.540 Z-20.000 F480.000
G1 X38.500 Y-28.465 Z-20.000 F480.000
G1 X38.498 Y-28.498 Z-20.000 F480.000
G1 X38.465 Y-28.500 Z-20.000 F480.000
G1 X37.540 Y-28.500 Z-20.000 F480.000
G0 Z5.000
G0 Z5.000
(Finish operation: Pocket_Shape)
(Begin postamble)
M5
G17 G90
M2
