(Exported by FreeCAD)
(Post Processor: script_module)
(Output Time:2026-03-06 17:34:51.828362)
(Begin preamble)
G17 G90
G21
(Begin operation: Fixture)
(Path: Fixture)
G54
(Finish operation: Fixture)
(Begin operation: 2_5mmEndMill002)
(Path: 2_5mmEndMill002)
(2_5mmEndMill002)
(Begin toolchange)
( M6 T2 )
M3 S10000
(Finish operation: 2_5mmEndMill002)
(Begin operation: Profile001)
(Path: Profile001)
(Profile001)
(Compensated Tool Path. Diameter: 2.5)
G0 Z10.000
G0 X0.000 Y0.000
G0 X-26.643 Y17.091
G0 X-26.643 Y17.091 Z8.000
G1 X-26.643 Y17.091 Z3.000 F240.000
G1 X-29.143 Y17.091 Z3.000 F240.000
G1 X-29.143 Y58.591 Z3.000 F240.000
G1 X-26.643 Y58.591 Z3.000 F240.000
G1 X-26.643 Y17.091 Z3.000 F240.000
G1 X-26.643 Y17.091 Z1.000 F240.000
G1 X-29.143 Y17.091 Z1.000 F240.000
G1 X-29.143 Y58.591 Z1.000 F240.000
G1 X-26.643 Y58.591 Z1.000 F240.000
G1 X-26.643 Y17.091 Z1.000 F240.000
G1 X-26.643 Y17.091 Z0.000 F240.000
G1 X-29.143 Y17.091 Z0.000 F240.000
G1 X-29.143 Y58.591 Z0.000 F240.000
G1 X-26.643 Y58.591 Z0.000 F240.000
G1 X-26.643 Y17.091 Z0.000 F240.000
G0 Z10.000
G0 Z10.000
(Finish operation: Profile001)
(Begin operation: Profile)
(Path: Profile)
(Profile)
(Compensated Tool Path. Diameter: 2.5)
G0 Z10.000
G0 X0.000 Y0.000
G0 X4.683 Y-2.386
G0 X4.683 Y-2.386 Z8.000
G1 X4.683 Y-2.386 Z3.000 F240.000
G1 X5.351 Y-1.074 Z3.000 F240.000
G1 X5.581 Y-0.758 Z3.000 F240.000
G1 X8.899 Y2.561 Z3.000 F240.000
G1 X9.216 Y2.791 Z3.000 F240.000
G1 X13.397 Y4.921 Z3.000 F240.000
G1 X13.769 Y5.042 Z3.000 F240.000
G1 X18.404 Y5.776 Z3.000 F240.000
G1 X18.600 Y5.792 Z3.000 F240.000
G1 X63.350 Y5.792 Z3.000 F240.000
G1 X63.350 Y8.476 Z3.000 F240.000
G2 X64.303 Y10.511 Z3.000 I3.455 J-0.377 K0.000 F240.000
G2 X66.845 Y11.973 Z3.000 I4.571 J-5.007 K0.000 F240.000
G1 X68.223 Y12.206 Z3.000 F240.000
G2 X70.801 Y12.357 Z3.000 I3.684 J-40.966 K0.000 F240.000
G2 X75.788 Y12.360 Z3.000 I2.579 J-131.581 K0.000 F240.000
G1 X76.219 Y12.283 Z3.000 F240.000
G1 X77.799 Y11.702 Z3.000 F240.000
G1 X78.150 Y11.504 Z3.000 F240.000
G1 X79.382 Y10.517 Z3.000 F240.000
G2 X79.850 Y9.542 Z3.000 I-0.782 J-0.975 K0.000 F240.000
G1 X79.850 Y-1.822 Z3.000 F240.000
G2 X79.401 Y-2.781 Z3.000 I-1.250 J-0.000 K0.000 F240.000
G1 X78.633 Y-3.423 Z3.000 F240.000
G1 X78.214 Y-4.189 Z3.000 F240.000
G1 X78.012 Y-5.546 Z3.000 F240.000
G1 X77.874 Y-7.809 Z3.000 F240.000
G1 X77.917 Y-10.567 Z3.000 F240.000
G1 X77.918 Y-20.330 Z3.000 F240.000
G1 X77.874 Y-23.107 Z3.000 F240.000
G1 X78.012 Y-25.370 Z3.000 F240.000
G1 X78.214 Y-26.728 Z3.000 F240.000
G1 X78.633 Y-27.494 Z3.000 F240.000
G1 X79.401 Y-28.135 Z3.000 F240.000
G2 X79.850 Y-29.095 Z3.000 I-0.801 J-0.959 K0.000 F240.000
G1 X79.850 Y-40.458 Z3.000 F240.000
G2 X79.382 Y-41.434 Z3.000 I-1.250 J0.000 K0.000 F240.000
G1 X78.150 Y-42.421 Z3.000 F240.000
G1 X77.799 Y-42.619 Z3.000 F240.000
G1 X76.219 Y-43.200 Z3.000 F240.000
G1 X75.788 Y-43.277 Z3.000 F240.000
G1 X70.933 Y-43.277 Z3.000 F240.000
G1 X68.364 Y-43.139 Z3.000 F240.000
G1 X66.845 Y-42.889 Z3.000 F240.000
G2 X65.039 Y-42.017 Z3.000 I1.970 J6.383 K0.000 F240.000
G2 X63.350 Y-39.393 Z3.000 I1.788 J3.006 K0.000 F240.000
G1 X63.350 Y-36.708 Z3.000 F240.000
G1 X18.600 Y-36.708 Z3.000 F240.000
G1 X18.404 Y-36.693 Z3.000 F240.000
G1 X13.769 Y-35.959 Z3.000 F240.000
G1 X13.397 Y-35.838 Z3.000 F240.000
G1 X9.216 Y-33.707 Z3.000 F240.000
G1 X8.899 Y-33.477 Z3.000 F240.000
G1 X5.581 Y-30.159 Z3.000 F240.000
G1 X5.351 Y-29.843 Z3.000 F240.000
G1 X3.220 Y-25.661 Z3.000 F240.000
G1 X3.100 Y-25.289 Z3.000 F240.000
G1 X2.365 Y-20.654 Z3.000 F240.000
G1 X2.350 Y-20.458 Z3.000 F240.000
G1 X2.350 Y-10.458 Z3.000 F240.000
G1 X2.365 Y-10.263 Z3.000 F240.000
G1 X3.100 Y-5.628 Z3.000 F240.000
G1 X3.220 Y-5.256 Z3.000 F240.000
G1 X4.683 Y-2.386 Z3.000 F240.000
G0 Z10.000
G0 X2.687 Y6.725 Z10.000
G0 X2.687 Y6.725 Z8.000
G1 X2.687 Y6.725 Z3.000 F240.000
G1 X-3.798 Y5.304 Z3.000 F240.000
G1 X-19.021 Y2.939 Z3.000 F240.000
G1 X-28.953 Y2.235 Z3.000 F240.000
G1 X-36.775 Y2.378 Z3.000 F240.000
G1 X-37.002 Y2.403 Z3.000 F240.000
G1 X-43.403 Y3.712 Z3.000 F240.000
G1 X-43.568 Y3.758 Z3.000 F240.000
G1 X-48.514 Y5.504 Z3.000 F240.000
G2 X-49.138 Y5.989 Z3.000 I0.416 J1.179 K0.000 F240.000
G1 X-50.593 Y8.171 Z3.000 F240.000
G1 X-50.737 Y8.463 Z3.000 F240.000
G1 X-51.576 Y10.936 Z3.000 F240.000
G1 X-51.643 Y11.337 Z3.000 F240.000
G1 X-51.643 Y64.344 Z3.000 F240.000
G1 X-51.576 Y64.746 Z3.000 F240.000
G1 X-50.737 Y67.219 Z3.000 F240.000
G1 X-50.593 Y67.511 Z3.000 F240.000
G1 X-49.138 Y69.693 Z3.000 F240.000
G2 X-48.514 Y70.178 Z3.000 I1.040 J-0.693 K0.000 F240.000
G1 X-43.568 Y71.924 Z3.000 F240.000
G1 X-43.403 Y71.970 Z3.000 F240.000
G1 X-37.002 Y73.279 Z3.000 F240.000
G1 X-36.775 Y73.304 Z3.000 F240.000
G1 X-29.065 Y73.450 Z3.000 F240.000
G1 X-19.125 Y72.754 Z3.000 F240.000
G1 X-3.874 Y70.392 Z3.000 F240.000
G1 X12.010 Y66.916 Z3.000 F240.000
G1 X25.168 Y63.701 Z3.000 F240.000
G1 X33.322 Y61.553 Z3.000 F240.000
G1 X39.071 Y60.871 Z3.000 F240.000
G1 X41.036 Y60.872 Z3.000 F240.000
G3 X46.523 Y61.503 Z3.000 I-5.216 J69.608 K0.000 F240.000
G1 X50.345 Y61.632 Z3.000 F240.000
G1 X53.783 Y61.455 Z3.000 F240.000
G1 X53.985 Y61.428 Z3.000 F240.000
G1 X57.726 Y60.610 Z3.000 F240.000
G1 X57.888 Y60.563 Z3.000 F240.000
G1 X61.483 Y59.250 Z3.000 F240.000
G1 X64.797 Y58.576 Z3.000 F240.000
G1 X67.823 Y58.184 Z3.000 F240.000
G2 X73.948 Y58.065 Z3.000 I1.525 J-79.034 K0.000 F240.000
G1 X74.114 Y58.045 Z3.000 F240.000
G1 X77.154 Y57.485 Z3.000 F240.000
G1 X77.351 Y57.432 Z3.000 F240.000
G1 X78.627 Y56.972 Z3.000 F240.000
G2 X79.159 Y56.602 Z3.000 I-0.423 J-1.176 K0.000 F240.000
G2 X79.726 Y55.517 Z3.000 I-4.010 J-2.785 K0.000 F240.000
G2 X79.804 Y54.639 Z3.000 I-1.126 J-0.543 K0.000 F240.000
G2 X79.373 Y53.812 Z3.000 I-3.490 J1.294 K0.000 F240.000
G2 X76.207 Y49.938 Z3.000 I-20.385 J13.429 K0.000 F240.000
G3 X73.050 Y45.218 Z3.000 I20.990 J-17.455 K0.000 F240.000
G1 X72.541 Y43.183 Z3.000 F240.000
G1 X72.538 Y42.348 Z3.000 F240.000
G2 X72.610 Y36.876 Z3.000 I-305.449 J-6.758 K0.000 F240.000
G3 X72.542 Y32.496 Z3.000 I243.135 J-5.942 K0.000 F240.000
G1 X73.050 Y30.464 Z3.000 F240.000
G3 X76.210 Y25.740 Z3.000 I24.089 J12.696 K0.000 F240.000
G2 X77.608 Y24.218 Z3.000 I-19.905 J-19.680 K0.000 F240.000
G2 X79.667 Y21.359 Z3.000 I-14.555 J-12.654 K0.000 F240.000
G2 X79.826 Y20.462 Z3.000 I-1.067 J-0.652 K0.000 F240.000
G2 X79.330 Y19.343 Z3.000 I-4.676 J1.403 K0.000 F240.000
G2 X78.627 Y18.710 Z3.000 I-1.126 J0.543 K0.000 F240.000
G1 X77.351 Y18.250 Z3.000 F240.000
G1 X77.154 Y18.197 Z3.000 F240.000
G1 X74.114 Y17.636 Z3.000 F240.000
G2 X67.823 Y17.498 Z3.000 I-4.675 J69.407 K0.000 F240.000
G1 X64.797 Y17.106 Z3.000 F240.000
G1 X61.483 Y16.432 Z3.000 F240.000
G1 X57.888 Y15.119 Z3.000 F240.000
G1 X57.726 Y15.072 Z3.000 F240.000
G1 X53.985 Y14.254 Z3.000 F240.000
G1 X53.783 Y14.227 Z3.000 F240.000
G1 X50.451 Y14.051 Z3.000 F240.000
G1 X46.662 Y14.167 Z3.000 F240.000
G3 X41.036 Y14.809 Z3.000 I-11.408 J-74.941 K0.000 F240.000
G1 X39.071 Y14.811 Z3.000 F240.000
G1 X33.322 Y14.129 Z3.000 F240.000
G1 X25.190 Y11.986 Z3.000 F240.000
G1 X12.039 Y8.773 Z3.000 F240.000
G1 X2.687 Y6.725 Z3.000 F240.000
G0 Z10.000
G0 X-7.273 Y-6.286 Z10.000
G0 X-7.273 Y-6.286 Z8.000
G1 X-7.273 Y-6.286 Z3.000 F240.000
G1 X-5.000 Y-8.151 Z3.000 F240.000
G1 X-4.827 Y-8.325 Z3.000 F240.000
G1 X-2.962 Y-10.598 Z3.000 F240.000
G1 X-2.826 Y-10.801 Z3.000 F240.000
G1 X-1.439 Y-13.395 Z3.000 F240.000
G2 X-0.444 Y-16.675 Z3.000 I-42.932 J-14.814 K0.000 F240.000
G1 X-0.156 Y-19.602 Z3.000 F240.000
G1 X-0.156 Y-19.847 Z3.000 F240.000
G1 X-0.444 Y-22.773 Z3.000 F240.000
G1 X-0.492 Y-23.013 Z3.000 F240.000
G1 X-1.346 Y-25.827 Z3.000 F240.000
G1 X-1.439 Y-26.054 Z3.000 F240.000
G1 X-2.826 Y-28.647 Z3.000 F240.000
G1 X-2.962 Y-28.851 Z3.000 F240.000
G1 X-4.827 Y-31.124 Z3.000 F240.000
G1 X-5.000 Y-31.297 Z3.000 F240.000
G1 X-7.273 Y-33.162 Z3.000 F240.000
G1 X-7.477 Y-33.299 Z3.000 F240.000
G1 X-10.070 Y-34.685 Z3.000 F240.000
G1 X-10.297 Y-34.779 Z3.000 F240.000
G1 X-13.111 Y-35.632 Z3.000 F240.000
G1 X-13.351 Y-35.680 Z3.000 F240.000
G1 X-16.277 Y-35.968 Z3.000 F240.000
G1 X-16.523 Y-35.968 Z3.000 F240.000
G1 X-19.449 Y-35.680 Z3.000 F240.000
G1 X-19.689 Y-35.632 Z3.000 F240.000
G1 X-22.503 Y-34.779 Z3.000 F240.000
G1 X-22.729 Y-34.685 Z3.000 F240.000
G1 X-25.323 Y-33.299 Z3.000 F240.000
G1 X-25.527 Y-33.162 Z3.000 F240.000
G1 X-27.800 Y-31.297 Z3.000 F240.000
G1 X-27.973 Y-31.124 Z3.000 F240.000
G1 X-29.838 Y-28.851 Z3.000 F240.000
G1 X-29.974 Y-28.647 Z3.000 F240.000
G1 X-31.361 Y-26.054 Z3.000 F240.000
G1 X-31.454 Y-25.827 Z3.000 F240.000
G1 X-32.308 Y-23.013 Z3.000 F240.000
G1 X-32.356 Y-22.773 Z3.000 F240.000
G1 X-32.644 Y-19.847 Z3.000 F240.000
G1 X-32.644 Y-19.602 Z3.000 F240.000
G1 X-32.356 Y-16.675 Z3.000 F240.000
G1 X-32.308 Y-16.435 Z3.000 F240.000
G1 X-31.454 Y-13.621 Z3.000 F240.000
G1 X-31.361 Y-13.395 Z3.000 F240.000
G1 X-29.974 Y-10.801 Z3.000 F240.000
G2 X-27.800 Y-8.151 Z3.000 I48.362 J-37.472 K0.000 F240.000
G1 X-25.527 Y-6.286 Z3.000 F240.000
G1 X-25.323 Y-6.150 Z3.000 F240.000
G1 X-22.729 Y-4.764 Z3.000 F240.000
G1 X-22.503 Y-4.670 Z3.000 F240.000
G1 X-19.689 Y-3.816 Z3.000 F240.000
G1 X-19.449 Y-3.768 Z3.000 F240.000
G1 X-16.523 Y-3.480 Z3.000 F240.000
G1 X-16.277 Y-3.480 Z3.000 F240.000
G1 X-13.351 Y-3.768 Z3.000 F240.000
G1 X-13.111 Y-3.816 Z3.000 F240.000
G1 X-10.297 Y-4.670 Z3.000 F240.000
G1 X-10.071 Y-4.764 Z3.000 F240.000
G1 X-7.477 Y-6.150 Z3.000 F240.000
G1 X-7.273 Y-6.286 Z3.000 F240.000
G0 Z10.000
G0 X-35.933 Y-14.980 Z10.000
G0 X-35.933 Y-14.980 Z8.000
G1 X-35.933 Y-14.980 Z3.000 F240.000
G1 X-35.492 Y-16.435 Z3.000 F240.000
G1 X-35.444 Y-16.675 Z3.000 F240.000
G1 X-35.156 Y-19.602 Z3.000 F240.000
G1 X-35.156 Y-19.847 Z3.000 F240.000
G1 X-35.444 Y-22.773 Z3.000 F240.000
G1 X-35.492 Y-23.013 Z3.000 F240.000
G1 X-36.346 Y-25.827 Z3.000 F240.000
G1 X-36.439 Y-26.054 Z3.000 F240.000
G1 X-37.826 Y-28.647 Z3.000 F240.000
G1 X-37.962 Y-28.851 Z3.000 F240.000
G1 X-39.827 Y-31.124 Z3.000 F240.000
G1 X-40.000 Y-31.297 Z3.000 F240.000
G1 X-42.273 Y-33.162 Z3.000 F240.000
G1 X-42.477 Y-33.299 Z3.000 F240.000
G1 X-45.070 Y-34.685 Z3.000 F240.000
G1 X-45.297 Y-34.779 Z3.000 F240.000
G1 X-48.111 Y-35.632 Z3.000 F240.000
G1 X-48.351 Y-35.680 Z3.000 F240.000
G1 X-51.277 Y-35.968 Z3.000 F240.000
G1 X-51.523 Y-35.968 Z3.000 F240.000
G1 X-54.449 Y-35.680 Z3.000 F240.000
G1 X-54.689 Y-35.632 Z3.000 F240.000
G1 X-57.503 Y-34.779 Z3.000 F240.000
G1 X-57.729 Y-34.685 Z3.000 F240.000
G1 X-60.323 Y-33.299 Z3.000 F240.000
G1 X-60.527 Y-33.162 Z3.000 F240.000
G1 X-62.800 Y-31.297 Z3.000 F240.000
G1 X-62.973 Y-31.124 Z3.000 F240.000
G1 X-64.838 Y-28.851 Z3.000 F240.000
G1 X-64.974 Y-28.647 Z3.000 F240.000
G1 X-66.361 Y-26.054 Z3.000 F240.000
G1 X-66.454 Y-25.827 Z3.000 F240.000
G1 X-67.308 Y-23.013 Z3.000 F240.000
G1 X-67.356 Y-22.773 Z3.000 F240.000
G1 X-67.644 Y-19.847 Z3.000 F240.000
G1 X-67.644 Y-19.602 Z3.000 F240.000
G1 X-67.356 Y-16.675 Z3.000 F240.000
G1 X-67.308 Y-16.435 Z3.000 F240.000
G1 X-66.454 Y-13.621 Z3.000 F240.000
G1 X-66.361 Y-13.395 Z3.000 F240.000
G1 X-64.974 Y-10.801 Z3.000 F240.000
G1 X-64.838 Y-10.598 Z3.000 F240.000
G1 X-62.973 Y-8.325 Z3.000 F240.000
G1 X-62.800 Y-8.151 Z3.000 F240.000
G1 X-60.527 Y-6.286 Z3.000 F240.000
G1 X-60.323 Y-6.150 Z3.000 F240.000
G1 X-57.729 Y-4.764 Z3.000 F240.000
G1 X-57.503 Y-4.670 Z3.000 F240.000
G1 X-54.689 Y-3.816 Z3.000 F240.000
G1 X-54.449 Y-3.768 Z3.000 F240.000
G1 X-51.523 Y-3.480 Z3.000 F240.000
G1 X-51.400 Y-3.474 Z3.000 F240.000
G1 X-48.351 Y-3.768 Z3.000 F240.000
G1 X-48.111 Y-3.816 Z3.000 F240.000
G1 X-45.297 Y-4.670 Z3.000 F240.000
G1 X-45.071 Y-4.764 Z3.000 F240.000
G1 X-42.477 Y-6.150 Z3.000 F240.000
G1 X-42.273 Y-6.286 Z3.000 F240.000
G1 X-40.000 Y-8.151 Z3.000 F240.000
G1 X-39.827 Y-8.325 Z3.000 F240.000
G1 X-37.962 Y-10.598 Z3.000 F240.000
G1 X-37.826 Y-10.801 Z3.000 F240.000
G1 X-36.439 Y-13.395 Z3.000 F240.000
G1 X-36.346 Y-13.621 Z3.000 F240.000
G1 X-35.933 Y-14.980 Z3.000 F240.000
G1 X-35.933 Y-14.980 Z1.000 F240.000
G1 X-35.492 Y-16.435 Z1.000 F240.000
G1 X-35.444 Y-16.675 Z1.000 F240.000
G1 X-35.156 Y-19.602 Z1.000 F240.000
G1 X-35.156 Y-19.847 Z1.000 F240.000
G1 X-35.444 Y-22.773 Z1.000 F240.000
G1 X-35.492 Y-23.013 Z1.000 F240.000
G1 X-36.346 Y-25.827 Z1.000 F240.000
G1 X-36.439 Y-26.054 Z1.000 F240.000
G1 X-37.826 Y-28.647 Z1.000 F240.000
G1 X-37.962 Y-28.851 Z1.000 F240.000
G1 X-39.827 Y-31.124 Z1.000 F240.000
G1 X-40.000 Y-31.297 Z1.000 F240.000
G1 X-42.273 Y-33.162 Z1.000 F240.000
G1 X-42.477 Y-33.299 Z1.000 F240.000
G1 X-45.070 Y-34.685 Z1.000 F240.000
G1 X-45.297 Y-34.779 Z1.000 F240.000
G1 X-48.111 Y-35.632 Z1.000 F240.000
G1 X-48.351 Y-35.680 Z1.000 F240.000
G1 X-51.277 Y-35.968 Z1.000 F240.000
G1 X-51.523 Y-35.968 Z1.000 F240.000
G1 X-54.449 Y-35.680 Z1.000 F240.000
G1 X-54.689 Y-35.632 Z1.000 F240.000
G1 X-57.503 Y-34.779 Z1.000 F240.000
G1 X-57.729 Y-34.685 Z1.000 F240.000
G1 X-60.323 Y-33.299 Z1.000 F240.000
G1 X-60.527 Y-33.162 Z1.000 F240.000
G1 X-62.800 Y-31.297 Z1.000 F240.000
G1 X-62.973 Y-31.124 Z1.000 F240.000
G1 X-64.838 Y-28.851 Z1.000 F240.000
G1 X-64.974 Y-28.647 Z1.000 F240.000
G1 X-66.361 Y-26.054 Z1.000 F240.000
G1 X-66.454 Y-25.827 Z1.000 F240.000
G1 X-67.308 Y-23.013 Z1.000 F240.000
G1 X-67.356 Y-22.773 Z1.000 F240.000
G1 X-67.644 Y-19.847 Z1.000 F240.000
G1 X-67.644 Y-19.602 Z1.000 F240.000
G1 X-67.356 Y-16.675 Z1.000 F240.000
G1 X-67.308 Y-16.435 Z1.000 F240.000
G1 X-66.454 Y-13.621 Z1.000 F240.000
G1 X-66.361 Y-13.395 Z1.000 F240.000
G1 X-64.974 Y-10.801 Z1.000 F240.000
G1 X-64.838 Y-10.598 Z1.000 F240.000
G1 X-62.973 Y-8.325 Z1.000 F240.000
G1 X-62.800 Y-8.151 Z1.000 F240.000
G1 X-60.527 Y-6.286 Z1.000 F240.000
G1 X-60.323 Y-6.150 Z1.000 F240.000
G1 X-57.729 Y-4.764 Z1.000 F240.000
G1 X-57.503 Y-4.670 Z1.000 F240.000
G1 X-54.689 Y-3.816 Z1.000 F240.000
G1 X-54.449 Y-3.768 Z1.000 F240.000
G1 X-51.523 Y-3.480 Z1.000 F240.000
G1 X-51.400 Y-3.474 Z1.000 F240.000
G1 X-48.351 Y-3.768 Z1.000 F240.000
G1 X-48.111 Y-3.816 Z1.000 F240.000
G1 X-45.297 Y-4.670 Z1.000 F240.000
G1 X-45.071 Y-4.764 Z1.000 F240.000
G1 X-42.477 Y-6.150 Z1.000 F240.000
G1 X-42.273 Y-6.286 Z1.000 F240.000
G1 X-40.000 Y-8.151 Z1.000 F240.000
G1 X-39.827 Y-8.325 Z1.000 F240.000
G1 X-37.962 Y-10.598 Z1.000 F240.000
G1 X-37.826 Y-10.801 Z1.000 F240.000
G1 X-36.439 Y-13.395 Z1.000 F240.000
G1 X-36.346 Y-13.621 Z1.000 F240.000
G1 X-35.933 Y-14.980 Z1.000 F240.000
G0 Z10.000
G0 X-32.209 Y-16.109 Z10.000
G0 X-32.209 Y-16.109 Z8.000
G1 X-32.209 Y-16.109 Z1.000 F240.000
G1 X-31.454 Y-13.621 Z1.000 F240.000
G1 X-31.361 Y-13.395 Z1.000 F240.000
G1 X-29.974 Y-10.801 Z1.000 F240.000
G2 X-27.800 Y-8.151 Z1.000 I48.362 J-37.472 K0.000 F240.000
G1 X-25.527 Y-6.286 Z1.000 F240.000
G1 X-25.323 Y-6.150 Z1.000 F240.000
G1 X-22.729 Y-4.764 Z1.000 F240.000
G1 X-22.503 Y-4.670 Z1.000 F240.000
G1 X-19.689 Y-3.816 Z1.000 F240.000
G1 X-19.449 Y-3.768 Z1.000 F240.000
G1 X-16.523 Y-3.480 Z1.000 F240.000
G1 X-16.277 Y-3.480 Z1.000 F240.000
G1 X-13.351 Y-3.768 Z1.000 F240.000
G1 X-13.111 Y-3.816 Z1.000 F240.000
G1 X-10.297 Y-4.670 Z1.000 F240.000
G1 X-10.071 Y-4.764 Z1.000 F240.000
G1 X-7.477 Y-6.150 Z1.000 F240.000
G1 X-7.273 Y-6.286 Z1.000 F240.000
G1 X-5.000 Y-8.151 Z1.000 F240.000
G1 X-4.827 Y-8.325 Z1.000 F240.000
G1 X-2.962 Y-10.598 Z1.000 F240.000
G1 X-2.826 Y-10.801 Z1.000 F240.000
G1 X-1.439 Y-13.395 Z1.000 F240.000
G2 X-0.444 Y-16.675 Z1.000 I-42.932 J-14.814 K0.000 F240.000
G1 X-0.156 Y-19.602 Z1.000 F240.000
G1 X-0.156 Y-19.847 Z1.000 F240.000
G1 X-0.444 Y-22.773 Z1.000 F240.000
G1 X-0.492 Y-23.013 Z1.000 F240.000
G1 X-1.346 Y-25.827 Z1.000 F240.000
G1 X-1.439 Y-26.054 Z1.000 F240.000
G1 X-2.826 Y-28.647 Z1.000 F240.000
G1 X-2.962 Y-28.851 Z1.000 F240.000
G1 X-4.827 Y-31.124 Z1.000 F240.000
G1 X-5.000 Y-31.297 Z1.000 F240.000
G1 X-7.273 Y-33.162 Z1.000 F240.000
G1 X-7.477 Y-33.299 Z1.000 F240.000
G1 X-10.070 Y-34.685 Z1.000 F240.000
G1 X-10.297 Y-34.779 Z1.000 F240.000
G1 X-13.111 Y-35.632 Z1.000 F240.000
G1 X-13.351 Y-35.680 Z1.000 F240.000
G1 X-16.277 Y-35.968 Z1.000 F240.000
G1 X-16.523 Y-35.968 Z1.000 F240.000
G1 X-19.449 Y-35.680 Z1.000 F240.000
G1 X-19.689 Y-35.632 Z1.000 F240.000
G1 X-22.503 Y-34.779 Z1.000 F240.000
G1 X-22.729 Y-34.685 Z1.000 F240.000
G1 X-25.323 Y-33.299 Z1.000 F240.000
G1 X-25.527 Y-33.162 Z1.000 F240.000
G1 X-27.800 Y-31.297 Z1.000 F240.000
G1 X-27.973 Y-31.124 Z1.000 F240.000
G1 X-29.838 Y-28.851 Z1.000 F240.000
G1 X-29.974 Y-28.647 Z1.000 F240.000
G1 X-31.361 Y-26.054 Z1.000 F240.000
G1 X-31.454 Y-25.827 Z1.000 F240.000
G1 X-32.308 Y-23.013 Z1.000 F240.000
G1 X-32.356 Y-22.773 Z1.000 F240.000
G1 X-32.644 Y-19.847 Z1.000 F240.000
G1 X-32.644 Y-19.602 Z1.000 F240.000
G1 X-32.356 Y-16.675 Z1.000 F240.000
G1 X-32.308 Y-16.435 Z1.000 F240.000
G1 X-32.209 Y-16.109 Z1.000 F240.000
G0 Z10.000
G0 X-31.874 Y2.288 Z10.000
G0 X-31.874 Y2.288 Z8.000
G1 X-31.874 Y2.288 Z1.000 F240.000
G1 X-36.775 Y2.378 Z1.000 F240.000
G1 X-37.002 Y2.403 Z1.000 F240.000
G1 X-43.403 Y3.712 Z1.000 F240.000
G1 X-43.568 Y3.758 Z1.000 F240.000
G1 X-48.514 Y5.504 Z1.000 F240.000
G2 X-49.138 Y5.989 Z1.000 I0.416 J1.179 K0.000 F240.000
G1 X-50.593 Y8.171 Z1.000 F240.000
G1 X-50.737 Y8.463 Z1.000 F240.000
G1 X-51.576 Y10.936 Z1.000 F240.000
G1 X-51.643 Y11.337 Z1.000 F240.000
G1 X-51.643 Y64.344 Z1.000 F240.000
G1 X-51.576 Y64.746 Z1.000 F240.000
G1 X-50.737 Y67.219 Z1.000 F240.000
G1 X-50.593 Y67.511 Z1.000 F240.000
G1 X-49.138 Y69.693 Z1.000 F240.000
G2 X-48.514 Y70.178 Z1.000 I1.040 J-0.693 K0.000 F240.000
G1 X-43.568 Y71.924 Z1.000 F240.000
G1 X-43.403 Y71.970 Z1.000 F240.000
G1 X-37.002 Y73.279 Z1.000 F240.000
G1 X-36.775 Y73.304 Z1.000 F240.000
G1 X-29.065 Y73.450 Z1.000 F240.000
G1 X-19.125 Y72.754 Z1.000 F240.000
G1 X-3.874 Y70.392 Z1.000 F240.000
G1 X12.010 Y66.916 Z1.000 F240.000
G1 X25.168 Y63.701 Z1.000 F240.000
G1 X33.322 Y61.553 Z1.000 F240.000
G1 X39.071 Y60.871 Z1.000 F240.000
G1 X41.036 Y60.872 Z1.000 F240.000
G3 X46.523 Y61.503 Z1.000 I-5.216 J69.608 K0.000 F240.000
G1 X50.345 Y61.632 Z1.000 F240.000
G1 X53.783 Y61.455 Z1.000 F240.000
G1 X53.985 Y61.428 Z1.000 F240.000
G1 X57.726 Y60.610 Z1.000 F240.000
G1 X57.888 Y60.563 Z1.000 F240.000
G1 X61.483 Y59.250 Z1.000 F240.000
G1 X64.797 Y58.576 Z1.000 F240.000
G1 X67.823 Y58.184 Z1.000 F240.000
G2 X73.948 Y58.065 Z1.000 I1.525 J-79.034 K0.000 F240.000
G1 X74.114 Y58.045 Z1.000 F240.000
G1 X77.154 Y57.485 Z1.000 F240.000
G1 X77.351 Y57.432 Z1.000 F240.000
G1 X78.627 Y56.972 Z1.000 F240.000
G2 X79.159 Y56.602 Z1.000 I-0.423 J-1.176 K0.000 F240.000
G2 X79.726 Y55.517 Z1.000 I-4.010 J-2.785 K0.000 F240.000
G2 X79.804 Y54.639 Z1.000 I-1.126 J-0.543 K0.000 F240.000
G2 X79.373 Y53.812 Z1.000 I-3.490 J1.294 K0.000 F240.000
G2 X76.207 Y49.938 Z1.000 I-20.385 J13.429 K0.000 F240.000
G3 X73.050 Y45.218 Z1.000 I20.990 J-17.455 K0.000 F240.000
G1 X72.541 Y43.183 Z1.000 F240.000
G1 X72.538 Y42.348 Z1.000 F240.000
G2 X72.610 Y36.876 Z1.000 I-305.449 J-6.758 K0.000 F240.000
G3 X72.542 Y32.496 Z1.000 I243.135 J-5.942 K0.000 F240.000
G1 X73.050 Y30.464 Z1.000 F240.000
G3 X76.210 Y25.740 Z1.000 I24.089 J12.696 K0.000 F240.000
G2 X77.608 Y24.218 Z1.000 I-19.905 J-19.680 K0.000 F240.000
G2 X79.667 Y21.359 Z1.000 I-14.555 J-12.654 K0.000 F240.000
G2 X79.826 Y20.462 Z1.000 I-1.067 J-0.652 K0.000 F240.000
G2 X79.330 Y19.343 Z1.000 I-4.676 J1.403 K0.000 F240.000
G2 X78.627 Y18.710 Z1.000 I-1.126 J0.543 K0.000 F240.000
G1 X77.351 Y18.250 Z1.000 F240.000
G1 X77.154 Y18.197 Z1.000 F240.000
G1 X74.114 Y17.636 Z1.000 F240.000
G2 X67.823 Y17.498 Z1.000 I-4.675 J69.407 K0.000 F240.000
G1 X64.797 Y17.106 Z1.000 F240.000
G1 X61.483 Y16.432 Z1.000 F240.000
G1 X57.888 Y15.119 Z1.000 F240.000
G1 X57.726 Y15.072 Z1.000 F240.000
G1 X53.985 Y14.254 Z1.000 F240.000
G1 X53.783 Y14.227 Z1.000 F240.000
G1 X50.451 Y14.051 Z1.000 F240.000
G1 X46.662 Y14.167 Z1.000 F240.000
G3 X41.036 Y14.809 Z1.000 I-11.408 J-74.941 K0.000 F240.000
G1 X39.071 Y14.811 Z1.000 F240.000
G1 X33.322 Y14.129 Z1.000 F240.000
G1 X25.190 Y11.986 Z1.000 F240.000
G1 X12.039 Y8.773 Z1.000 F240.000
G1 X-3.798 Y5.304 Z1.000 F240.000
G1 X-19.021 Y2.939 Z1.000 F240.000
G1 X-28.953 Y2.235 Z1.000 F240.000
G1 X-31.874 Y2.288 Z1.000 F240.000
G0 Z10.000
G0 X3.100 Y-5.628 Z10.000
G0 X3.100 Y-5.628 Z8.000
G1 X3.100 Y-5.628 Z1.000 F240.000
G1 X3.220 Y-5.256 Z1.000 F240.000
G1 X5.351 Y-1.074 Z1.000 F240.000
G1 X5.581 Y-0.758 Z1.000 F240.000
G1 X8.899 Y2.561 Z1.000 F240.000
G1 X9.216 Y2.791 Z1.000 F240.000
G1 X13.397 Y4.921 Z1.000 F240.000
G1 X13.769 Y5.042 Z1.000 F240.000
G1 X18.404 Y5.776 Z1.000 F240.000
G1 X18.600 Y5.792 Z1.000 F240.000
G1 X63.350 Y5.792 Z1.000 F240.000
G1 X63.350 Y8.476 Z1.000 F240.000
G2 X64.303 Y10.511 Z1.000 I3.455 J-0.377 K0.000 F240.000
G2 X66.845 Y11.973 Z1.000 I4.571 J-5.007 K0.000 F240.000
G1 X68.223 Y12.206 Z1.000 F240.000
G2 X70.801 Y12.357 Z1.000 I3.684 J-40.966 K0.000 F240.000
G2 X75.788 Y12.360 Z1.000 I2.579 J-131.581 K0.000 F240.000
G1 X76.219 Y12.283 Z1.000 F240.000
G1 X77.799 Y11.702 Z1.000 F240.000
G1 X78.150 Y11.504 Z1.000 F240.000
G1 X79.382 Y10.517 Z1.000 F240.000
G2 X79.850 Y9.542 Z1.000 I-0.782 J-0.975 K0.000 F240.000
G1 X79.850 Y-1.822 Z1.000 F240.000
G2 X79.401 Y-2.781 Z1.000 I-1.250 J-0.000 K0.000 F240.000
G1 X78.633 Y-3.423 Z1.000 F240.000
G1 X78.214 Y-4.189 Z1.000 F240.000
G1 X78.012 Y-5.546 Z1.000 F240.000
G1 X77.874 Y-7.809 Z1.000 F240.000
G1 X77.917 Y-10.567 Z1.000 F240.000
G1 X77.918 Y-20.330 Z1.000 F240.000
G1 X77.874 Y-23.107 Z1.000 F240.000
G1 X78.012 Y-25.370 Z1.000 F240.000
G1 X78.214 Y-26.728 Z1.000 F240.000
G1 X78.633 Y-27.494 Z1.000 F240.000
G1 X79.401 Y-28.135 Z1.000 F240.000
G2 X79.850 Y-29.095 Z1.000 I-0.801 J-0.959 K0.000 F240.000
G1 X79.850 Y-40.458 Z1.000 F240.000
G2 X79.382 Y-41.434 Z1.000 I-1.250 J0.000 K0.000 F240.000
G1 X78.150 Y-42.421 Z1.000 F240.000
G1 X77.799 Y-42.619 Z1.000 F240.000
G1 X76.219 Y-43.200 Z1.000 F240.000
G1 X75.788 Y-43.277 Z1.000 F240.000
G1 X70.933 Y-43.277 Z1.000 F240.000
G1 X68.364 Y-43.139 Z1.000 F240.000
G1 X66.845 Y-42.889 Z1.000 F240.000
G2 X65.039 Y-42.017 Z1.000 I1.970 J6.383 K0.000 F240.000
G2 X63.350 Y-39.393 Z1.000 I1.788 J3.006 K0.000 F240.000
G1 X63.350 Y-36.708 Z1.000 F240.000
G1 X18.600 Y-36.708 Z1.000 F240.000
G1 X18.404 Y-36.693 Z1.000 F240.000
G1 X13.769 Y-35.959 Z1.000 F240.000
G1 X13.397 Y-35.838 Z1.000 F240.000
G1 X9.216 Y-33.707 Z1.000 F240.000
G1 X8.899 Y-33.477 Z1.000 F240.000
G1 X5.581 Y-30.159 Z1.000 F240.000
G1 X5.351 Y-29.843 Z1.000 F240.000
G1 X3.220 Y-25.661 Z1.000 F240.000
G1 X3.100 Y-25.289 Z1.000 F240.000
G1 X2.365 Y-20.654 Z1.000 F240.000
G1 X2.350 Y-20.458 Z1.000 F240.000
G1 X2.350 Y-10.458 Z1.000 F240.000
G1 X2.365 Y-10.263 Z1.000 F240.000
G1 X3.100 Y-5.628 Z1.000 F240.000
G1 X3.100 Y-5.628 Z-0.000 F240.000
G1 X3.220 Y-5.256 Z-0.000 F240.000
G1 X5.351 Y-1.074 Z-0.000 F240.000
G1 X5.581 Y-0.758 Z-0.000 F240.000
G1 X8.899 Y2.561 Z-0.000 F240.000
G1 X9.216 Y2.791 Z-0.000 F240.000
G1 X13.397 Y4.921 Z-0.000 F240.000
G1 X13.769 Y5.042 Z-0.000 F240.000
G1 X18.404 Y5.776 Z-0.000 F240.000
G1 X18.600 Y5.792 Z-0.000 F240.000
G1 X63.350 Y5.792 Z-0.000 F240.000
G1 X63.350 Y8.476 Z-0.000 F240.000
G2 X64.303 Y10.511 Z-0.000 I3.455 J-0.377 K0.000 F240.000
G2 X66.845 Y11.973 Z-0.000 I4.571 J-5.007 K0.000 F240.000
G1 X68.223 Y12.206 Z-0.000 F240.000
G2 X70.801 Y12.357 Z-0.000 I3.684 J-40.966 K0.000 F240.000
G2 X75.788 Y12.360 Z-0.000 I2.579 J-131.581 K0.000 F240.000
G1 X76.219 Y12.283 Z-0.000 F240.000
G1 X77.799 Y11.702 Z-0.000 F240.000
G1 X78.150 Y11.504 Z-0.000 F240.000
G1 X79.382 Y10.517 Z-0.000 F240.000
G2 X79.850 Y9.542 Z-0.000 I-0.782 J-0.975 K0.000 F240.000
G1 X79.850 Y-1.822 Z-0.000 F240.000
G2 X79.401 Y-2.781 Z-0.000 I-1.250 J-0.000 K0.000 F240.000
G1 X78.633 Y-3.423 Z-0.000 F240.000
G1 X78.214 Y-4.189 Z-0.000 F240.000
G1 X78.012 Y-5.546 Z-0.000 F240.000
G1 X77.874 Y-7.809 Z-0.000 F240.000
G1 X77.917 Y-10.567 Z-0.000 F240.000
G1 X77.918 Y-20.330 Z-0.000 F240.000
G1 X77.874 Y-23.107 Z-0.000 F240.000
G1 X78.012 Y-25.370 Z-0.000 F240.000
G1 X78.214 Y-26.728 Z-0.000 F240.000
G1 X78.633 Y-27.494 Z-0.000 F240.000
G1 X79.401 Y-28.135 Z-0.000 F240.000
G2 X79.850 Y-29.095 Z-0.000 I-0.801 J-0.959 K0.000 F240.000
G1 X79.850 Y-40.458 Z-0.000 F240.000
G2 X79.382 Y-41.434 Z-0.000 I-1.250 J0.000 K0.000 F240.000
G1 X78.150 Y-42.421 Z-0.000 F240.000
G1 X77.799 Y-42.619 Z-0.000 F240.000
G1 X76.219 Y-43.200 Z-0.000 F240.000
G1 X75.788 Y-43.277 Z-0.000 F240.000
G1 X70.933 Y-43.277 Z-0.000 F240.000
G1 X68.364 Y-43.139 Z-0.000 F240.000
G1 X66.845 Y-42.889 Z-0.000 F240.000
G2 X65.039 Y-42.017 Z-0.000 I1.970 J6.383 K0.000 F240.000
G2 X63.350 Y-39.393 Z-0.000 I1.788 J3.006 K0.000 F240.000
G1 X63.350 Y-36.708 Z-0.000 F240.000
G1 X18.600 Y-36.708 Z-0.000 F240.000
G1 X18.404 Y-36.693 Z-0.000 F240.000
G1 X13.769 Y-35.959 Z-0.000 F240.000
G1 X13.397 Y-35.838 Z-0.000 F240.000
G1 X9.216 Y-33.707 Z-0.000 F240.000
G1 X8.899 Y-33.477 Z-0.000 F240.000
G1 X5.581 Y-30.159 Z-0.000 F240.000
G1 X5.351 Y-29.843 Z-0.000 F240.000
G1 X3.220 Y-25.661 Z-0.000 F240.000
G1 X3.100 Y-25.289 Z-0.000 F240.000
G1 X2.365 Y-20.654 Z-0.000 F240.000
G1 X2.350 Y-20.458 Z-0.000 F240.000
G1 X2.350 Y-10.458 Z-0.000 F240.000
G1 X2.365 Y-10.263 Z-0.000 F240.000
G1 X3.100 Y-5.628 Z-0.000 F240.000
G0 Z10.000
G0 X-2.962 Y-10.598 Z10.000
G0 X-2.962 Y-10.598 Z8.000
G1 X-2.962 Y-10.598 Z-0.000 F240.000
G1 X-2.826 Y-10.801 Z-0.000 F240.000
G1 X-1.439 Y-13.395 Z-0.000 F240.000
G2 X-0.444 Y-16.675 Z-0.000 I-42.932 J-14.814 K0.000 F240.000
G1 X-0.156 Y-19.602 Z-0.000 F240.000
G1 X-0.156 Y-19.847 Z-0.000 F240.000
G1 X-0.444 Y-22.773 Z-0.000 F240.000
G1 X-0.492 Y-23.013 Z-0.000 F240.000
G1 X-1.346 Y-25.827 Z-0.000 F240.000
G1 X-1.439 Y-26.054 Z-0.000 F240.000
G1 X-2.826 Y-28.647 Z-0.000 F240.000
G1 X-2.962 Y-28.851 Z-0.000 F240.000
G1 X-4.827 Y-31.124 Z-0.000 F240.000
G1 X-5.000 Y-31.297 Z-0.000 F240.000
G1 X-7.273 Y-33.162 Z-0.000 F240.000
G1 X-7.477 Y-33.299 Z-0.000 F240.000
G1 X-10.070 Y-34.685 Z-0.000 F240.000
G1 X-10.297 Y-34.779 Z-0.000 F240.000
G1 X-13.111 Y-35.632 Z-0.000 F240.000
G1 X-13.351 Y-35.680 Z-0.000 F240.000
G1 X-16.277 Y-35.968 Z-0.000 F240.000
G1 X-16.523 Y-35.968 Z-0.000 F240.000
G1 X-19.449 Y-35.680 Z-0.000 F240.000
G1 X-19.689 Y-35.632 Z-0.000 F240.000
G1 X-22.503 Y-34.779 Z-0.000 F240.000
G1 X-22.729 Y-34.685 Z-0.000 F240.000
G1 X-25.323 Y-33.299 Z-0.000 F240.000
G1 X-25.527 Y-33.162 Z-0.000 F240.000
G1 X-27.800 Y-31.297 Z-0.000 F240.000
G1 X-27.973 Y-31.124 Z-0.000 F240.000
G1 X-29.838 Y-28.851 Z-0.000 F240.000
G1 X-29.974 Y-28.647 Z-0.000 F240.000
G1 X-31.361 Y-26.054 Z-0.000 F240.000
G1 X-31.454 Y-25.827 Z-0.000 F240.000
G1 X-32.308 Y-23.013 Z-0.000 F240.000
G1 X-32.356 Y-22.773 Z-0.000 F240.000
G1 X-32.644 Y-19.847 Z-0.000 F240.000
G1 X-32.644 Y-19.602 Z-0.000 F240.000
G1 X-32.356 Y-16.675 Z-0.000 F240.000
G1 X-32.308 Y-16.435 Z-0.000 F240.000
G1 X-31.454 Y-13.621 Z-0.000 F240.000
G1 X-31.361 Y-13.395 Z-0.000 F240.000
G1 X-29.974 Y-10.801 Z-0.000 F240.000
G2 X-27.800 Y-8.151 Z-0.000 I48.362 J-37.472 K0.000 F240.000
G1 X-25.527 Y-6.286 Z-0.000 F240.000
G1 X-25.323 Y-6.150 Z-0.000 F240.000
G1 X-22.729 Y-4.764 Z-0.000 F240.000
G1 X-22.503 Y-4.670 Z-0.000 F240.000
G1 X-19.689 Y-3.816 Z-0.000 F240.000
G1 X-19.449 Y-3.768 Z-0.000 F240.000
G1 X-16.523 Y-3.480 Z-0.000 F240.000
G1 X-16.277 Y-3.480 Z-0.000 F240.000
G1 X-13.351 Y-3.768 Z-0.000 F240.000
G1 X-13.111 Y-3.816 Z-0.000 F240.000
G1 X-10.297 Y-4.670 Z-0.000 F240.000
G1 X-10.071 Y-4.764 Z-0.000 F240.000
G1 X-7.477 Y-6.150 Z-0.000 F240.000
G1 X-7.273 Y-6.286 Z-0.000 F240.000
G1 X-5.000 Y-8.151 Z-0.000 F240.000
G1 X-4.827 Y-8.325 Z-0.000 F240.000
G1 X-2.962 Y-10.598 Z-0.000 F240.000
G0 Z10.000
G0 X-5.394 Y5.056 Z10.000
G0 X-5.394 Y5.056 Z8.000
G1 X-5.394 Y5.056 Z-0.000 F240.000
G1 X-19.021 Y2.939 Z-0.000 F240.000
G1 X-28.953 Y2.235 Z-0.000 F240.000
G1 X-36.775 Y2.378 Z-0.000 F240.000
G1 X-37.002 Y2.403 Z-0.000 F240.000
G1 X-43.403 Y3.712 Z-0.000 F240.000
G1 X-43.568 Y3.758 Z-0.000 F240.000
G1 X-48.514 Y5.504 Z-0.000 F240.000
G2 X-49.138 Y5.989 Z-0.000 I0.416 J1.179 K0.000 F240.000
G1 X-50.593 Y8.171 Z-0.000 F240.000
G1 X-50.737 Y8.463 Z-0.000 F240.000
G1 X-51.576 Y10.936 Z-0.000 F240.000
G1 X-51.643 Y11.337 Z-0.000 F240.000
G1 X-51.643 Y64.344 Z-0.000 F240.000
G1 X-51.576 Y64.746 Z-0.000 F240.000
G1 X-50.737 Y67.219 Z-0.000 F240.000
G1 X-50.593 Y67.511 Z-0.000 F240.000
G1 X-49.138 Y69.693 Z-0.000 F240.000
G2 X-48.514 Y70.178 Z-0.000 I1.040 J-0.693 K0.000 F240.000
G1 X-43.568 Y71.924 Z-0.000 F240.000
G1 X-43.403 Y71.970 Z-0.000 F240.000
G1 X-37.002 Y73.279 Z-0.000 F240.000
G1 X-36.775 Y73.304 Z-0.000 F240.000
G1 X-29.065 Y73.450 Z-0.000 F240.000
G1 X-19.125 Y72.754 Z-0.000 F240.000
G1 X-3.874 Y70.392 Z-0.000 F240.000
G1 X12.010 Y66.916 Z-0.000 F240.000
G1 X25.168 Y63.701 Z-0.000 F240.000
G1 X33.322 Y61.553 Z-0.000 F240.000
G1 X39.071 Y60.871 Z-0.000 F240.000
G1 X41.036 Y60.872 Z-0.000 F240.000
G3 X46.523 Y61.503 Z-0.000 I-5.216 J69.608 K0.000 F240.000
G1 X50.345 Y61.632 Z-0.000 F240.000
G1 X53.783 Y61.455 Z-0.000 F240.000
G1 X53.985 Y61.428 Z-0.000 F240.000
G1 X57.726 Y60.610 Z-0.000 F240.000
G1 X57.888 Y60.563 Z-0.000 F240.000
G1 X61.483 Y59.250 Z-0.000 F240.000
G1 X64.797 Y58.576 Z-0.000 F240.000
G1 X67.823 Y58.184 Z-0.000 F240.000
G2 X73.948 Y58.065 Z-0.000 I1.525 J-79.034 K0.000 F240.000
G1 X74.114 Y58.045 Z-0.000 F240.000
G1 X77.154 Y57.485 Z-0.000 F240.000
G1 X77.351 Y57.432 Z-0.000 F240.000
G1 X78.627 Y56.972 Z-0.000 F240.000
G2 X79.159 Y56.602 Z-0.000 I-0.423 J-1.176 K0.000 F240.000
G2 X79.726 Y55.517 Z-0.000 I-4.010 J-2.785 K0.000 F240.000
G2 X79.804 Y54.639 Z-0.000 I-1.126 J-0.543 K0.000 F240.000
G2 X79.373 Y53.812 Z-0.000 I-3.490 J1.294 K0.000 F240.000
G2 X76.207 Y49.938 Z-0.000 I-20.385 J13.429 K0.000 F240.000
G3 X73.050 Y45.218 Z-0.000 I20.990 J-17.455 K0.000 F240.000
G1 X72.541 Y43.183 Z-0.000 F240.000
G1 X72.538 Y42.348 Z-0.000 F240.000
G2 X72.610 Y36.876 Z-0.000 I-305.449 J-6.758 K0.000 F240.000
G3 X72.542 Y32.496 Z-0.000 I243.135 J-5.942 K0.000 F240.000
G1 X73.050 Y30.464 Z-0.000 F240.000
G3 X76.210 Y25.740 Z-0.000 I24.089 J12.696 K0.000 F240.000
G2 X77.608 Y24.218 Z-0.000 I-19.905 J-19.680 K0.000 F240.000
G2 X79.667 Y21.359 Z-0.000 I-14.555 J-12.654 K0.000 F240.000
G2 X79.826 Y20.462 Z-0.000 I-1.067 J-0.652 K0.000 F240.000
G2 X79.330 Y19.343 Z-0.000 I-4.676 J1.403 K0.000 F240.000
G2 X78.627 Y18.710 Z-0.000 I-1.126 J0.543 K0.000 F240.000
G1 X77.351 Y18.250 Z-0.000 F240.000
G1 X77.154 Y18.197 Z-0.000 F240.000
G1 X74.114 Y17.636 Z-0.000 F240.000
G2 X67.823 Y17.498 Z-0.000 I-4.675 J69.407 K0.000 F240.000
G1 X64.797 Y17.106 Z-0.000 F240.000
G1 X61.483 Y16.432 Z-0.000 F240.000
G1 X57.888 Y15.119 Z-0.000 F240.000
G1 X57.726 Y15.072 Z-0.000 F240.000
G1 X53.985 Y14.254 Z-0.000 F240.000
G1 X53.783 Y14.227 Z-0.000 F240.000
G1 X50.451 Y14.051 Z-0.000 F240.000
G1 X46.662 Y14.167 Z-0.000 F240.000
G3 X41.036 Y14.809 Z-0.000 I-11.408 J-74.941 K0.000 F240.000
G1 X39.071 Y14.811 Z-0.000 F240.000
G1 X33.322 Y14.129 Z-0.000 F240.000
G1 X25.190 Y11.986 Z-0.000 F240.000
G1 X12.039 Y8.773 Z-0.000 F240.000
G1 X-3.798 Y5.304 Z-0.000 F240.000
G1 X-5.394 Y5.056 Z-0.000 F240.000
G0 Z10.000
G0 X-37.211 Y-11.951 Z10.000
G0 X-37.211 Y-11.951 Z8.000
G1 X-37.211 Y-11.951 Z-0.000 F240.000
G1 X-36.439 Y-13.395 Z-0.000 F240.000
G1 X-36.346 Y-13.621 Z-0.000 F240.000
G1 X-35.492 Y-16.435 Z-0.000 F240.000
G1 X-35.444 Y-16.675 Z-0.000 F240.000
G1 X-35.156 Y-19.602 Z-0.000 F240.000
G1 X-35.156 Y-19.847 Z-0.000 F240.000
G1 X-35.444 Y-22.773 Z-0.000 F240.000
G1 X-35.492 Y-23.013 Z-0.000 F240.000
G1 X-36.346 Y-25.827 Z-0.000 F240.000
G1 X-36.439 Y-26.054 Z-0.000 F240.000
G1 X-37.826 Y-28.647 Z-0.000 F240.000
G1 X-37.962 Y-28.851 Z-0.000 F240.000
G1 X-39.827 Y-31.124 Z-0.000 F240.000
G1 X-40.000 Y-31.297 Z-0.000 F240.000
G1 X-42.273 Y-33.162 Z-0.000 F240.000
G1 X-42.477 Y-33.299 Z-0.000 F240.000
G1 X-45.070 Y-34.685 Z-0.000 F240.000
G1 X-45.297 Y-34.779 Z-0.000 F240.000
G1 X-48.111 Y-35.632 Z-0.000 F240.000
G1 X-48.351 Y-35.680 Z-0.000 F240.000
G1 X-51.277 Y-35.968 Z-0.000 F240.000
G1 X-51.523 Y-35.968 Z-0.000 F240.000
G1 X-54.449 Y-35.680 Z-0.000 F240.000
G1 X-54.689 Y-35.632 Z-0.000 F240.000
G1 X-57.503 Y-34.779 Z-0.000 F240.000
G1 X-57.729 Y-34.685 Z-0.000 F240.000
G1 X-60.323 Y-33.299 Z-0.000 F240.000
G1 X-60.527 Y-33.162 Z-0.000 F240.000
G1 X-62.800 Y-31.297 Z-0.000 F240.000
G1 X-62.973 Y-31.124 Z-0.000 F240.000
G1 X-64.838 Y-28.851 Z-0.000 F240.000
G1 X-64.974 Y-28.647 Z-0.000 F240.000
G1 X-66.361 Y-26.054 Z-0.000 F240.000
G1 X-66.454 Y-25.827 Z-0.000 F240.000
G1 X-67.308 Y-23.013 Z-0.000 F240.000
G1 X-67.356 Y-22.773 Z-0.000 F240.000
G1 X-67.644 Y-19.847 Z-0.000 F240.000
G1 X-67.644 Y-19.602 Z-0.000 F240.000
G1 X-67.356 Y-16.675 Z-0.000 F240.000
G1 X-67.308 Y-16.435 Z-0.000 F240.000
G1 X-66.454 Y-13.621 Z-0.000 F240.000
G1 X-66.361 Y-13.395 Z-0.000 F240.000
G1 X-64.974 Y-10.801 Z-0.000 F240.000
G1 X-64.838 Y-10.598 Z-0.000 F240.000
G1 X-62.973 Y-8.325 Z-0.000 F240.000
G1 X-62.800 Y-8.151 Z-0.000 F240.000
G1 X-60.527 Y-6.286 Z-0.000 F240.000
G1 X-60.323 Y-6.150 Z-0.000 F240.000
G1 X-57.729 Y-4.764 Z-0.000 F240.000
G1 X-57.503 Y-4.670 Z-0.000 F240.000
G1 X-54.689 Y-3.816 Z-0.000 F240.000
G1 X-54.449 Y-3.768 Z-0.000 F240.000
G1 X-51.523 Y-3.480 Z-0.000 F240.000
G1 X-51.400 Y-3.474 Z-0.000 F240.000
G1 X-48.351 Y-3.768 Z-0.000 F240.000
G1 X-48.111 Y-3.816 Z-0.000 F240.000
G1 X-45.297 Y-4.670 Z-0.000 F240.000
G1 X-45.071 Y-4.764 Z-0.000 F240.000
G1 X-42.477 Y-6.150 Z-0.000 F240.000
G1 X-42.273 Y-6.286 Z-0.000 F240.000
G1 X-40.000 Y-8.151 Z-0.000 F240.000
G1 X-39.827 Y-8.325 Z-0.000 F240.000
G1 X-37.962 Y-10.598 Z-0.000 F240.000
G1 X-37.826 Y-10.801 Z-0.000 F240.000
G1 X-37.211 Y-11.951 Z-0.000 F240.000
G0 Z10.000
G0 Z10.000
(Finish operation: Profile)
(Begin postamble)
M5
G17 G90
M2
