(Exported by FreeCAD)
(Post Processor: script_module)
(Output Time:2025-12-03 16:33:56.375368)
(Begin preamble)
G17 G90
G21
(Begin operation: Fixture)
(Path: Fixture)
G54
(Finish operation: Fixture)
(Begin operation: 3mm_Endmill001)
(Path: 3mm_Endmill001)
(3mm_Endmill001)
(Begin toolchange)
( M6 T2 )
M3 S10000
(Finish operation: 3mm_Endmill001)
(Begin operation: Pocket_Shape)
(Path: Pocket_Shape)
(Pocket_Shape)
G0 Z5.000
G0 X0.000 Y0.000
G0 X-68.500 Y49.588
G0 X-68.500 Y49.588 Z3.000
G1 X-68.500 Y49.588 Z-3.000 F600.000
G1 X-68.500 Y51.000 Z-3.000 F600.000
G1 X68.500 Y51.000 Z-3.000 F600.000
G1 X68.500 Y-51.000 Z-3.000 F600.000
G1 X-68.500 Y-51.000 Z-3.000 F600.000
G1 X-68.500 Y51.000 Z-3.000 F600.000
G1 X-67.088 Y51.000 Z-3.000 F600.000
G1 X-68.500 Y49.588 Z-3.000 F600.000
G1 X-68.500 Y45.345 Z-3.000 F600.000
G1 X-62.845 Y51.000 Z-3.000 F600.000
G1 X-58.603 Y51.000 Z-3.000 F600.000
G1 X-68.500 Y41.103 Z-3.000 F600.000
G1 X-68.500 Y36.860 Z-3.000 F600.000
G1 X-54.360 Y51.000 Z-3.000 F600.000
G1 X-50.117 Y51.000 Z-3.000 F600.000
G1 X-68.500 Y32.617 Z-3.000 F600.000
G1 X-68.500 Y28.375 Z-3.000 F600.000
G1 X-45.875 Y51.000 Z-3.000 F600.000
G1 X-41.632 Y51.000 Z-3.000 F600.000
G1 X-68.500 Y24.132 Z-3.000 F600.000
G1 X-68.500 Y19.889 Z-3.000 F600.000
G1 X-37.389 Y51.000 Z-3.000 F600.000
G1 X-33.147 Y51.000 Z-3.000 F600.000
G1 X-68.500 Y15.647 Z-3.000 F600.000
G1 X-68.500 Y11.404 Z-3.000 F600.000
G1 X-28.904 Y51.000 Z-3.000 F600.000
G1 X-24.661 Y51.000 Z-3.000 F600.000
G1 X-68.500 Y7.161 Z-3.000 F600.000
G1 X-68.500 Y2.919 Z-3.000 F600.000
G1 X-20.419 Y51.000 Z-3.000 F600.000
G1 X-16.176 Y51.000 Z-3.000 F600.000
G1 X-68.500 Y-1.324 Z-3.000 F600.000
G1 X-68.500 Y-5.566 Z-3.000 F600.000
G1 X-11.934 Y51.000 Z-3.000 F600.000
G1 X-7.691 Y51.000 Z-3.000 F600.000
G1 X-68.500 Y-9.809 Z-3.000 F600.000
G1 X-68.500 Y-14.052 Z-3.000 F600.000
G1 X-3.448 Y51.000 Z-3.000 F600.000
G1 X0.794 Y51.000 Z-3.000 F600.000
G1 X-68.500 Y-18.294 Z-3.000 F600.000
G1 X-68.500 Y-22.537 Z-3.000 F600.000
G1 X5.037 Y51.000 Z-3.000 F600.000
G1 X9.280 Y51.000 Z-3.000 F600.000
G1 X-68.500 Y-26.780 Z-3.000 F600.000
G1 X-68.500 Y-31.022 Z-3.000 F600.000
G1 X13.522 Y51.000 Z-3.000 F600.000
G1 X17.765 Y51.000 Z-3.000 F600.000
G1 X-68.500 Y-35.265 Z-3.000 F600.000
G1 X-68.500 Y-39.508 Z-3.000 F600.000
G1 X22.008 Y51.000 Z-3.000 F600.000
G1 X26.250 Y51.000 Z-3.000 F600.000
G1 X-68.500 Y-43.750 Z-3.000 F600.000
G1 X-68.500 Y-47.993 Z-3.000 F600.000
G1 X30.493 Y51.000 Z-3.000 F600.000
G1 X34.735 Y51.000 Z-3.000 F600.000
G1 X-67.265 Y-51.000 Z-3.000 F600.000
G1 X-63.022 Y-51.000 Z-3.000 F600.000
G1 X38.978 Y51.000 Z-3.000 F600.000
G1 X43.221 Y51.000 Z-3.000 F600.000
G1 X-58.779 Y-51.000 Z-3.000 F600.000
G1 X-54.537 Y-51.000 Z-3.000 F600.000
G1 X47.463 Y51.000 Z-3.000 F600.000
G1 X51.706 Y51.000 Z-3.000 F600.000
G1 X-50.294 Y-51.000 Z-3.000 F600.000
G1 X-46.051 Y-51.000 Z-3.000 F600.000
G1 X55.949 Y51.000 Z-3.000 F600.000
G1 X60.191 Y51.000 Z-3.000 F600.000
G1 X-41.809 Y-51.000 Z-3.000 F600.000
G1 X-37.566 Y-51.000 Z-3.000 F600.000
G1 X64.434 Y51.000 Z-3.000 F600.000
G1 X68.500 Y51.000 Z-3.000 F600.000
G1 X68.500 Y50.823 Z-3.000 F600.000
G1 X-33.323 Y-51.000 Z-3.000 F600.000
G1 X-29.081 Y-51.000 Z-3.000 F600.000
G1 X68.500 Y46.581 Z-3.000 F600.000
G1 X68.500 Y42.338 Z-3.000 F600.000
G1 X-24.838 Y-51.000 Z-3.000 F600.000
G1 X-20.595 Y-51.000 Z-3.000 F600.000
G1 X68.500 Y38.095 Z-3.000 F600.000
G1 X68.500 Y33.853 Z-3.000 F600.000
G1 X-16.353 Y-51.000 Z-3.000 F600.000
G1 X-12.110 Y-51.000 Z-3.000 F600.000
G1 X68.500 Y29.610 Z-3.000 F600.000
G1 X68.500 Y25.368 Z-3.000 F600.000
G1 X-7.868 Y-51.000 Z-3.000 F600.000
G1 X-3.625 Y-51.000 Z-3.000 F600.000
G1 X68.500 Y21.125 Z-3.000 F600.000
G1 X68.500 Y16.882 Z-3.000 F600.000
G1 X0.618 Y-51.000 Z-3.000 F600.000
G1 X4.860 Y-51.000 Z-3.000 F600.000
G1 X68.500 Y12.640 Z-3.000 F600.000
G1 X68.500 Y8.397 Z-3.000 F600.000
G1 X9.103 Y-51.000 Z-3.000 F600.000
G1 X13.346 Y-51.000 Z-3.000 F600.000
G1 X68.500 Y4.154 Z-3.000 F600.000
G1 X68.500 Y-0.088 Z-3.000 F600.000
G1 X17.588 Y-51.000 Z-3.000 F600.000
G1 X21.831 Y-51.000 Z-3.000 F600.000
G1 X68.500 Y-4.331 Z-3.000 F600.000
G1 X68.500 Y-8.574 Z-3.000 F600.000
G1 X26.074 Y-51.000 Z-3.000 F600.000
G1 X30.316 Y-51.000 Z-3.000 F600.000
G1 X68.500 Y-12.816 Z-3.000 F600.000
G1 X68.500 Y-17.059 Z-3.000 F600.000
G1 X34.559 Y-51.000 Z-3.000 F600.000
G1 X38.802 Y-51.000 Z-3.000 F600.000
G1 X68.500 Y-21.302 Z-3.000 F600.000
G1 X68.500 Y-25.544 Z-3.000 F600.000
G1 X43.044 Y-51.000 Z-3.000 F600.000
G1 X47.287 Y-51.000 Z-3.000 F600.000
G1 X68.500 Y-29.787 Z-3.000 F600.000
G1 X68.500 Y-34.029 Z-3.000 F600.000
G1 X51.529 Y-51.000 Z-3.000 F600.000
G1 X55.772 Y-51.000 Z-3.000 F600.000
G1 X68.500 Y-38.272 Z-3.000 F600.000
G1 X68.500 Y-42.515 Z-3.000 F600.000
G1 X60.015 Y-51.000 Z-3.000 F600.000
G1 X64.257 Y-51.000 Z-3.000 F600.000
G1 X68.500 Y-46.757 Z-3.000 F600.000
G1 X68.500 Y-51.000 Z-3.000 F600.000
G1 X68.500 Y-51.000 Z-6.000 F600.000
G1 X68.500 Y-46.757 Z-6.000 F600.000
G1 X64.257 Y-51.000 Z-6.000 F600.000
G1 X60.015 Y-51.000 Z-6.000 F600.000
G1 X68.500 Y-42.515 Z-6.000 F600.000
G1 X68.500 Y-38.272 Z-6.000 F600.000
G1 X55.772 Y-51.000 Z-6.000 F600.000
G1 X51.529 Y-51.000 Z-6.000 F600.000
G1 X68.500 Y-34.029 Z-6.000 F600.000
G1 X68.500 Y-29.787 Z-6.000 F600.000
G1 X47.287 Y-51.000 Z-6.000 F600.000
G1 X43.044 Y-51.000 Z-6.000 F600.000
G1 X68.500 Y-25.544 Z-6.000 F600.000
G1 X68.500 Y-21.302 Z-6.000 F600.000
G1 X38.802 Y-51.000 Z-6.000 F600.000
G1 X34.559 Y-51.000 Z-6.000 F600.000
G1 X68.500 Y-17.059 Z-6.000 F600.000
G1 X68.500 Y-12.816 Z-6.000 F600.000
G1 X30.316 Y-51.000 Z-6.000 F600.000
G1 X26.074 Y-51.000 Z-6.000 F600.000
G1 X68.500 Y-8.574 Z-6.000 F600.000
G1 X68.500 Y-4.331 Z-6.000 F600.000
G1 X21.831 Y-51.000 Z-6.000 F600.000
G1 X17.588 Y-51.000 Z-6.000 F600.000
G1 X68.500 Y-0.088 Z-6.000 F600.000
G1 X68.500 Y4.154 Z-6.000 F600.000
G1 X13.346 Y-51.000 Z-6.000 F600.000
G1 X9.103 Y-51.000 Z-6.000 F600.000
G1 X68.500 Y8.397 Z-6.000 F600.000
G1 X68.500 Y12.640 Z-6.000 F600.000
G1 X4.860 Y-51.000 Z-6.000 F600.000
G1 X0.618 Y-51.000 Z-6.000 F600.000
G1 X68.500 Y16.882 Z-6.000 F600.000
G1 X68.500 Y21.125 Z-6.000 F600.000
G1 X-3.625 Y-51.000 Z-6.000 F600.000
G1 X-7.868 Y-51.000 Z-6.000 F600.000
G1 X68.500 Y25.368 Z-6.000 F600.000
G1 X68.500 Y29.610 Z-6.000 F600.000
G1 X-12.110 Y-51.000 Z-6.000 F600.000
G1 X-16.353 Y-51.000 Z-6.000 F600.000
G1 X68.500 Y33.853 Z-6.000 F600.000
G1 X68.500 Y38.095 Z-6.000 F600.000
G1 X-20.595 Y-51.000 Z-6.000 F600.000
G1 X-24.838 Y-51.000 Z-6.000 F600.000
G1 X68.500 Y42.338 Z-6.000 F600.000
G1 X68.500 Y46.581 Z-6.000 F600.000
G1 X-29.081 Y-51.000 Z-6.000 F600.000
G1 X-33.323 Y-51.000 Z-6.000 F600.000
G1 X68.500 Y50.823 Z-6.000 F600.000
G1 X68.500 Y51.000 Z-6.000 F600.000
G1 X64.434 Y51.000 Z-6.000 F600.000
G1 X-37.566 Y-51.000 Z-6.000 F600.000
G1 X-41.809 Y-51.000 Z-6.000 F600.000
G1 X60.191 Y51.000 Z-6.000 F600.000
G1 X55.949 Y51.000 Z-6.000 F600.000
G1 X-46.051 Y-51.000 Z-6.000 F600.000
G1 X-50.294 Y-51.000 Z-6.000 F600.000
G1 X51.706 Y51.000 Z-6.000 F600.000
G1 X47.463 Y51.000 Z-6.000 F600.000
G1 X-54.537 Y-51.000 Z-6.000 F600.000
G1 X-58.779 Y-51.000 Z-6.000 F600.000
G1 X43.221 Y51.000 Z-6.000 F600.000
G1 X38.978 Y51.000 Z-6.000 F600.000
G1 X-63.022 Y-51.000 Z-6.000 F600.000
G1 X-67.265 Y-51.000 Z-6.000 F600.000
G1 X34.735 Y51.000 Z-6.000 F600.000
G1 X30.493 Y51.000 Z-6.000 F600.000
G1 X-68.500 Y-47.993 Z-6.000 F600.000
G1 X-68.500 Y-43.750 Z-6.000 F600.000
G1 X26.250 Y51.000 Z-6.000 F600.000
G1 X22.008 Y51.000 Z-6.000 F600.000
G1 X-68.500 Y-39.508 Z-6.000 F600.000
G1 X-68.500 Y-35.265 Z-6.000 F600.000
G1 X17.765 Y51.000 Z-6.000 F600.000
G1 X13.522 Y51.000 Z-6.000 F600.000
G1 X-68.500 Y-31.022 Z-6.000 F600.000
G1 X-68.500 Y-26.780 Z-6.000 F600.000
G1 X9.280 Y51.000 Z-6.000 F600.000
G1 X5.037 Y51.000 Z-6.000 F600.000
G1 X-68.500 Y-22.537 Z-6.000 F600.000
G1 X-68.500 Y-18.294 Z-6.000 F600.000
G1 X0.794 Y51.000 Z-6.000 F600.000
G1 X-3.448 Y51.000 Z-6.000 F600.000
G1 X-68.500 Y-14.052 Z-6.000 F600.000
G1 X-68.500 Y-9.809 Z-6.000 F600.000
G1 X-7.691 Y51.000 Z-6.000 F600.000
G1 X-11.934 Y51.000 Z-6.000 F600.000
G1 X-68.500 Y-5.566 Z-6.000 F600.000
G1 X-68.500 Y-1.324 Z-6.000 F600.000
G1 X-16.176 Y51.000 Z-6.000 F600.000
G1 X-20.419 Y51.000 Z-6.000 F600.000
G1 X-68.500 Y2.919 Z-6.000 F600.000
G1 X-68.500 Y7.161 Z-6.000 F600.000
G1 X-24.661 Y51.000 Z-6.000 F600.000
G1 X-28.904 Y51.000 Z-6.000 F600.000
G1 X-68.500 Y11.404 Z-6.000 F600.000
G1 X-68.500 Y15.647 Z-6.000 F600.000
G1 X-33.147 Y51.000 Z-6.000 F600.000
G1 X-37.389 Y51.000 Z-6.000 F600.000
G1 X-68.500 Y19.889 Z-6.000 F600.000
G1 X-68.500 Y24.132 Z-6.000 F600.000
G1 X-41.632 Y51.000 Z-6.000 F600.000
G1 X-45.875 Y51.000 Z-6.000 F600.000
G1 X-68.500 Y28.375 Z-6.000 F600.000
G1 X-68.500 Y32.617 Z-6.000 F600.000
G1 X-50.117 Y51.000 Z-6.000 F600.000
G1 X-54.360 Y51.000 Z-6.000 F600.000
G1 X-68.500 Y36.860 Z-6.000 F600.000
G1 X-68.500 Y41.103 Z-6.000 F600.000
G1 X-58.603 Y51.000 Z-6.000 F600.000
G1 X-62.845 Y51.000 Z-6.000 F600.000
G1 X-68.500 Y45.345 Z-6.000 F600.000
G1 X-68.500 Y49.588 Z-6.000 F600.000
G1 X-67.088 Y51.000 Z-6.000 F600.000
G1 X-68.500 Y51.000 Z-6.000 F600.000
G1 X-68.500 Y-51.000 Z-6.000 F600.000
G1 X68.500 Y-51.000 Z-6.000 F600.000
G1 X68.500 Y51.000 Z-6.000 F600.000
G1 X-68.500 Y51.000 Z-6.000 F600.000
G1 X-68.500 Y49.588 Z-6.000 F600.000
G1 X-68.500 Y49.588 Z-9.000 F600.000
G1 X-68.500 Y51.000 Z-9.000 F600.000
G1 X68.500 Y51.000 Z-9.000 F600.000
G1 X68.500 Y-51.000 Z-9.000 F600.000
G1 X-68.500 Y-51.000 Z-9.000 F600.000
G1 X-68.500 Y51.000 Z-9.000 F600.000
G1 X-67.088 Y51.000 Z-9.000 F600.000
G1 X-68.500 Y49.588 Z-9.000 F600.000
G1 X-68.500 Y45.345 Z-9.000 F600.000
G1 X-62.845 Y51.000 Z-9.000 F600.000
G1 X-58.603 Y51.000 Z-9.000 F600.000
G1 X-68.500 Y41.103 Z-9.000 F600.000
G1 X-68.500 Y36.860 Z-9.000 F600.000
G1 X-54.360 Y51.000 Z-9.000 F600.000
G1 X-50.117 Y51.000 Z-9.000 F600.000
G1 X-68.500 Y32.617 Z-9.000 F600.000
G1 X-68.500 Y28.375 Z-9.000 F600.000
G1 X-45.875 Y51.000 Z-9.000 F600.000
G1 X-41.632 Y51.000 Z-9.000 F600.000
G1 X-68.500 Y24.132 Z-9.000 F600.000
G1 X-68.500 Y19.889 Z-9.000 F600.000
G1 X-37.389 Y51.000 Z-9.000 F600.000
G1 X-33.147 Y51.000 Z-9.000 F600.000
G1 X-68.500 Y15.647 Z-9.000 F600.000
G1 X-68.500 Y11.404 Z-9.000 F600.000
G1 X-28.904 Y51.000 Z-9.000 F600.000
G1 X-24.661 Y51.000 Z-9.000 F600.000
G1 X-68.500 Y7.161 Z-9.000 F600.000
G1 X-68.500 Y2.919 Z-9.000 F600.000
G1 X-20.419 Y51.000 Z-9.000 F600.000
G1 X-16.176 Y51.000 Z-9.000 F600.000
G1 X-68.500 Y-1.324 Z-9.000 F600.000
G1 X-68.500 Y-5.566 Z-9.000 F600.000
G1 X-11.934 Y51.000 Z-9.000 F600.000
G1 X-7.691 Y51.000 Z-9.000 F600.000
G1 X-68.500 Y-9.809 Z-9.000 F600.000
G1 X-68.500 Y-14.052 Z-9.000 F600.000
G1 X-3.448 Y51.000 Z-9.000 F600.000
G1 X0.794 Y51.000 Z-9.000 F600.000
G1 X-68.500 Y-18.294 Z-9.000 F600.000
G1 X-68.500 Y-22.537 Z-9.000 F600.000
G1 X5.037 Y51.000 Z-9.000 F600.000
G1 X9.280 Y51.000 Z-9.000 F600.000
G1 X-68.500 Y-26.780 Z-9.000 F600.000
G1 X-68.500 Y-31.022 Z-9.000 F600.000
G1 X13.522 Y51.000 Z-9.000 F600.000
G1 X17.765 Y51.000 Z-9.000 F600.000
G1 X-68.500 Y-35.265 Z-9.000 F600.000
G1 X-68.500 Y-39.508 Z-9.000 F600.000
G1 X22.008 Y51.000 Z-9.000 F600.000
G1 X26.250 Y51.000 Z-9.000 F600.000
G1 X-68.500 Y-43.750 Z-9.000 F600.000
G1 X-68.500 Y-47.993 Z-9.000 F600.000
G1 X30.493 Y51.000 Z-9.000 F600.000
G1 X34.735 Y51.000 Z-9.000 F600.000
G1 X-67.265 Y-51.000 Z-9.000 F600.000
G1 X-63.022 Y-51.000 Z-9.000 F600.000
G1 X38.978 Y51.000 Z-9.000 F600.000
G1 X43.221 Y51.000 Z-9.000 F600.000
G1 X-58.779 Y-51.000 Z-9.000 F600.000
G1 X-54.537 Y-51.000 Z-9.000 F600.000
G1 X47.463 Y51.000 Z-9.000 F600.000
G1 X51.706 Y51.000 Z-9.000 F600.000
G1 X-50.294 Y-51.000 Z-9.000 F600.000
G1 X-46.051 Y-51.000 Z-9.000 F600.000
G1 X55.949 Y51.000 Z-9.000 F600.000
G1 X60.191 Y51.000 Z-9.000 F600.000
G1 X-41.809 Y-51.000 Z-9.000 F600.000
G1 X-37.566 Y-51.000 Z-9.000 F600.000
G1 X64.434 Y51.000 Z-9.000 F600.000
G1 X68.500 Y51.000 Z-9.000 F600.000
G1 X68.500 Y50.823 Z-9.000 F600.000
G1 X-33.323 Y-51.000 Z-9.000 F600.000
G1 X-29.081 Y-51.000 Z-9.000 F600.000
G1 X68.500 Y46.581 Z-9.000 F600.000
G1 X68.500 Y42.338 Z-9.000 F600.000
G1 X-24.838 Y-51.000 Z-9.000 F600.000
G1 X-20.595 Y-51.000 Z-9.000 F600.000
G1 X68.500 Y38.095 Z-9.000 F600.000
G1 X68.500 Y33.853 Z-9.000 F600.000
G1 X-16.353 Y-51.000 Z-9.000 F600.000
G1 X-12.110 Y-51.000 Z-9.000 F600.000
G1 X68.500 Y29.610 Z-9.000 F600.000
G1 X68.500 Y25.368 Z-9.000 F600.000
G1 X-7.868 Y-51.000 Z-9.000 F600.000
G1 X-3.625 Y-51.000 Z-9.000 F600.000
G1 X68.500 Y21.125 Z-9.000 F600.000
G1 X68.500 Y16.882 Z-9.000 F600.000
G1 X0.618 Y-51.000 Z-9.000 F600.000
G1 X4.860 Y-51.000 Z-9.000 F600.000
G1 X68.500 Y12.640 Z-9.000 F600.000
G1 X68.500 Y8.397 Z-9.000 F600.000
G1 X9.103 Y-51.000 Z-9.000 F600.000
G1 X13.346 Y-51.000 Z-9.000 F600.000
G1 X68.500 Y4.154 Z-9.000 F600.000
G1 X68.500 Y-0.088 Z-9.000 F600.000
G1 X17.588 Y-51.000 Z-9.000 F600.000
G1 X21.831 Y-51.000 Z-9.000 F600.000
G1 X68.500 Y-4.331 Z-9.000 F600.000
G1 X68.500 Y-8.574 Z-9.000 F600.000
G1 X26.074 Y-51.000 Z-9.000 F600.000
G1 X30.316 Y-51.000 Z-9.000 F600.000
G1 X68.500 Y-12.816 Z-9.000 F600.000
G1 X68.500 Y-17.059 Z-9.000 F600.000
G1 X34.559 Y-51.000 Z-9.000 F600.000
G1 X38.802 Y-51.000 Z-9.000 F600.000
G1 X68.500 Y-21.302 Z-9.000 F600.000
G1 X68.500 Y-25.544 Z-9.000 F600.000
G1 X43.044 Y-51.000 Z-9.000 F600.000
G1 X47.287 Y-51.000 Z-9.000 F600.000
G1 X68.500 Y-29.787 Z-9.000 F600.000
G1 X68.500 Y-34.029 Z-9.000 F600.000
G1 X51.529 Y-51.000 Z-9.000 F600.000
G1 X55.772 Y-51.000 Z-9.000 F600.000
G1 X68.500 Y-38.272 Z-9.000 F600.000
G1 X68.500 Y-42.515 Z-9.000 F600.000
G1 X60.015 Y-51.000 Z-9.000 F600.000
G1 X64.257 Y-51.000 Z-9.000 F600.000
G1 X68.500 Y-46.757 Z-9.000 F600.000
G1 X68.500 Y-51.000 Z-9.000 F600.000
G1 X68.500 Y-51.000 Z-10.000 F600.000
G1 X68.500 Y-46.757 Z-10.000 F600.000
G1 X64.257 Y-51.000 Z-10.000 F600.000
G1 X60.015 Y-51.000 Z-10.000 F600.000
G1 X68.500 Y-42.515 Z-10.000 F600.000
G1 X68.500 Y-38.272 Z-10.000 F600.000
G1 X55.772 Y-51.000 Z-10.000 F600.000
G1 X51.529 Y-51.000 Z-10.000 F600.000
G1 X68.500 Y-34.029 Z-10.000 F600.000
G1 X68.500 Y-29.787 Z-10.000 F600.000
G1 X47.287 Y-51.000 Z-10.000 F600.000
G1 X43.044 Y-51.000 Z-10.000 F600.000
G1 X68.500 Y-25.544 Z-10.000 F600.000
G1 X68.500 Y-21.302 Z-10.000 F600.000
G1 X38.802 Y-51.000 Z-10.000 F600.000
G1 X34.559 Y-51.000 Z-10.000 F600.000
G1 X68.500 Y-17.059 Z-10.000 F600.000
G1 X68.500 Y-12.816 Z-10.000 F600.000
G1 X30.316 Y-51.000 Z-10.000 F600.000
G1 X26.074 Y-51.000 Z-10.000 F600.000
G1 X68.500 Y-8.574 Z-10.000 F600.000
G1 X68.500 Y-4.331 Z-10.000 F600.000
G1 X21.831 Y-51.000 Z-10.000 F600.000
G1 X17.588 Y-51.000 Z-10.000 F600.000
G1 X68.500 Y-0.088 Z-10.000 F600.000
G1 X68.500 Y4.154 Z-10.000 F600.000
G1 X13.346 Y-51.000 Z-10.000 F600.000
G1 X9.103 Y-51.000 Z-10.000 F600.000
G1 X68.500 Y8.397 Z-10.000 F600.000
G1 X68.500 Y12.640 Z-10.000 F600.000
G1 X4.860 Y-51.000 Z-10.000 F600.000
G1 X0.618 Y-51.000 Z-10.000 F600.000
G1 X68.500 Y16.882 Z-10.000 F600.000
G1 X68.500 Y21.125 Z-10.000 F600.000
G1 X-3.625 Y-51.000 Z-10.000 F600.000
G1 X-7.868 Y-51.000 Z-10.000 F600.000
G1 X68.500 Y25.368 Z-10.000 F600.000
G1 X68.500 Y29.610 Z-10.000 F600.000
G1 X-12.110 Y-51.000 Z-10.000 F600.000
G1 X-16.353 Y-51.000 Z-10.000 F600.000
G1 X68.500 Y33.853 Z-10.000 F600.000
G1 X68.500 Y38.095 Z-10.000 F600.000
G1 X-20.595 Y-51.000 Z-10.000 F600.000
G1 X-24.838 Y-51.000 Z-10.000 F600.000
G1 X68.500 Y42.338 Z-10.000 F600.000
G1 X68.500 Y46.581 Z-10.000 F600.000
G1 X-29.081 Y-51.000 Z-10.000 F600.000
G1 X-33.323 Y-51.000 Z-10.000 F600.000
G1 X68.500 Y50.823 Z-10.000 F600.000
G1 X68.500 Y51.000 Z-10.000 F600.000
G1 X64.434 Y51.000 Z-10.000 F600.000
G1 X-37.566 Y-51.000 Z-10.000 F600.000
G1 X-41.809 Y-51.000 Z-10.000 F600.000
G1 X60.191 Y51.000 Z-10.000 F600.000
G1 X55.949 Y51.000 Z-10.000 F600.000
G1 X-46.051 Y-51.000 Z-10.000 F600.000
G1 X-50.294 Y-51.000 Z-10.000 F600.000
G1 X51.706 Y51.000 Z-10.000 F600.000
G1 X47.463 Y51.000 Z-10.000 F600.000
G1 X-54.537 Y-51.000 Z-10.000 F600.000
G1 X-58.779 Y-51.000 Z-10.000 F600.000
G1 X43.221 Y51.000 Z-10.000 F600.000
G1 X38.978 Y51.000 Z-10.000 F600.000
G1 X-63.022 Y-51.000 Z-10.000 F600.000
G1 X-67.265 Y-51.000 Z-10.000 F600.000
G1 X34.735 Y51.000 Z-10.000 F600.000
G1 X30.493 Y51.000 Z-10.000 F600.000
G1 X-68.500 Y-47.993 Z-10.000 F600.000
G1 X-68.500 Y-43.750 Z-10.000 F600.000
G1 X26.250 Y51.000 Z-10.000 F600.000
G1 X22.008 Y51.000 Z-10.000 F600.000
G1 X-68.500 Y-39.508 Z-10.000 F600.000
G1 X-68.500 Y-35.265 Z-10.000 F600.000
G1 X17.765 Y51.000 Z-10.000 F600.000
G1 X13.522 Y51.000 Z-10.000 F600.000
G1 X-68.500 Y-31.022 Z-10.000 F600.000
G1 X-68.500 Y-26.780 Z-10.000 F600.000
G1 X9.280 Y51.000 Z-10.000 F600.000
G1 X5.037 Y51.000 Z-10.000 F600.000
G1 X-68.500 Y-22.537 Z-10.000 F600.000
G1 X-68.500 Y-18.294 Z-10.000 F600.000
G1 X0.794 Y51.000 Z-10.000 F600.000
G1 X-3.448 Y51.000 Z-10.000 F600.000
G1 X-68.500 Y-14.052 Z-10.000 F600.000
G1 X-68.500 Y-9.809 Z-10.000 F600.000
G1 X-7.691 Y51.000 Z-10.000 F600.000
G1 X-11.934 Y51.000 Z-10.000 F600.000
G1 X-68.500 Y-5.566 Z-10.000 F600.000
G1 X-68.500 Y-1.324 Z-10.000 F600.000
G1 X-16.176 Y51.000 Z-10.000 F600.000
G1 X-20.419 Y51.000 Z-10.000 F600.000
G1 X-68.500 Y2.919 Z-10.000 F600.000
G1 X-68.500 Y7.161 Z-10.000 F600.000
G1 X-24.661 Y51.000 Z-10.000 F600.000
G1 X-28.904 Y51.000 Z-10.000 F600.000
G1 X-68.500 Y11.404 Z-10.000 F600.000
G1 X-68.500 Y15.647 Z-10.000 F600.000
G1 X-33.147 Y51.000 Z-10.000 F600.000
G1 X-37.389 Y51.000 Z-10.000 F600.000
G1 X-68.500 Y19.889 Z-10.000 F600.000
G1 X-68.500 Y24.132 Z-10.000 F600.000
G1 X-41.632 Y51.000 Z-10.000 F600.000
G1 X-45.875 Y51.000 Z-10.000 F600.000
G1 X-68.500 Y28.375 Z-10.000 F600.000
G1 X-68.500 Y32.617 Z-10.000 F600.000
G1 X-50.117 Y51.000 Z-10.000 F600.000
G1 X-54.360 Y51.000 Z-10.000 F600.000
G1 X-68.500 Y36.860 Z-10.000 F600.000
G1 X-68.500 Y41.103 Z-10.000 F600.000
G1 X-58.603 Y51.000 Z-10.000 F600.000
G1 X-62.845 Y51.000 Z-10.000 F600.000
G1 X-68.500 Y45.345 Z-10.000 F600.000
G1 X-68.500 Y49.588 Z-10.000 F600.000
G1 X-67.088 Y51.000 Z-10.000 F600.000
G1 X-68.500 Y51.000 Z-10.000 F600.000
G1 X-68.500 Y-51.000 Z-10.000 F600.000
G1 X68.500 Y-51.000 Z-10.000 F600.000
G1 X68.500 Y51.000 Z-10.000 F600.000
G1 X-68.500 Y51.000 Z-10.000 F600.000
G1 X-68.500 Y49.588 Z-10.000 F600.000
G0 Z5.000
G0 Z5.000
(Finish operation: Pocket_Shape)
(Begin operation: Pocket_Shape001)
(Path: Pocket_Shape001)
(Pocket_Shape001)
G0 Z5.000
G0 X0.000 Y0.000
G0 X-77.515 Y-47.805
G0 X-77.515 Y-47.805 Z3.000
G1 X-77.515 Y-47.805 Z-3.000 F600.000
G3 X-76.881 Y-42.929 Z-3.000 I-2.478 J2.801 K0.000 F600.000
G1 X-82.071 Y-48.119 Z-3.000 F600.000
G2 X-83.709 Y-45.513 Z-3.000 I2.039 J3.098 K0.000 F600.000
G1 X-79.487 Y-41.291 Z-3.000 F600.000
G3 X-80.897 Y-48.638 Z-3.000 I-0.515 J-3.710 K0.000 F600.000
G3 X-79.103 Y-41.362 Z-3.000 I0.897 J3.638 K0.000 F600.000
G3 X-83.709 Y-45.513 Z-3.000 I-0.898 J-3.634 K0.000 F600.000
G1 X-83.709 Y-45.513 Z-6.000 F600.000
G2 X-79.103 Y-41.362 Z-6.000 I3.707 J0.518 K0.000 F600.000
G2 X-80.897 Y-48.638 Z-6.000 I-0.897 J-3.638 K0.000 F600.000
G2 X-79.487 Y-41.291 Z-6.000 I0.895 J3.637 K0.000 F600.000
G1 X-83.709 Y-45.513 Z-6.000 F600.000
G3 X-82.071 Y-48.119 Z-6.000 I3.676 J0.493 K0.000 F600.000
G1 X-76.881 Y-42.929 Z-6.000 F600.000
G2 X-77.515 Y-47.805 Z-6.000 I-3.112 J-2.075 K0.000 F600.000
G1 X-77.515 Y-47.805 Z-9.000 F600.000
G3 X-76.881 Y-42.929 Z-9.000 I-2.478 J2.801 K0.000 F600.000
G1 X-82.071 Y-48.119 Z-9.000 F600.000
G2 X-83.709 Y-45.513 Z-9.000 I2.039 J3.098 K0.000 F600.000
G1 X-79.487 Y-41.291 Z-9.000 F600.000
G3 X-80.897 Y-48.638 Z-9.000 I-0.515 J-3.710 K0.000 F600.000
G3 X-79.103 Y-41.362 Z-9.000 I0.897 J3.638 K0.000 F600.000
G3 X-83.709 Y-45.513 Z-9.000 I-0.898 J-3.634 K0.000 F600.000
G1 X-83.709 Y-45.513 Z-10.000 F600.000
G2 X-79.103 Y-41.362 Z-10.000 I3.707 J0.518 K0.000 F600.000
G2 X-80.897 Y-48.638 Z-10.000 I-0.897 J-3.638 K0.000 F600.000
G2 X-79.487 Y-41.291 Z-10.000 I0.895 J3.637 K0.000 F600.000
G1 X-83.709 Y-45.513 Z-10.000 F600.000
G3 X-82.071 Y-48.119 Z-10.000 I3.676 J0.493 K0.000 F600.000
G1 X-76.881 Y-42.929 Z-10.000 F600.000
G2 X-77.515 Y-47.805 Z-10.000 I-3.112 J-2.075 K0.000 F600.000
G0 Z5.000
G0 Z5.000
G0 X-77.515 Y-47.805
G0 X-76.643 Y41.643
G0 X-76.643 Y41.643 Z3.000
G1 X-76.643 Y41.643 Z-3.000 F600.000
G3 X-75.648 Y46.880 Z-3.000 I-3.336 J3.347 K0.000 F600.000
G1 X-81.880 Y40.648 Z-3.000 F600.000
G2 X-84.119 Y42.653 Z-3.000 I1.790 J4.250 K0.000 F600.000
G1 X-77.653 Y49.119 Z-3.000 F600.000
G3 X-81.518 Y49.496 Z-3.000 I-2.347 J-4.063 K0.000 F600.000
G3 X-78.944 Y40.371 Z-3.000 I1.517 J-4.497 K0.000 F600.000
G3 X-75.371 Y46.056 Z-3.000 I-1.056 J4.629 K0.000 F600.000
G3 X-81.056 Y49.629 Z-3.000 I-4.629 J-1.056 K0.000 F600.000
G1 X-81.518 Y49.496 Z-3.000 F600.000
G1 X-84.496 Y46.518 Z-3.000 F600.000
G2 X-81.518 Y49.496 Z-3.000 I4.478 J-1.500 K0.000 F600.000
G1 X-81.518 Y49.496 Z-6.000 F600.000
G3 X-84.496 Y46.518 Z-6.000 I1.500 J-4.478 K0.000 F600.000
G1 X-81.518 Y49.496 Z-6.000 F600.000
G1 X-81.056 Y49.629 Z-6.000 F600.000
G2 X-75.371 Y46.056 Z-6.000 I1.056 J-4.629 K0.000 F600.000
G2 X-78.944 Y40.371 Z-6.000 I-4.629 J-1.056 K0.000 F600.000
G2 X-81.518 Y49.496 Z-6.000 I-1.057 J4.627 K0.000 F600.000
G2 X-77.653 Y49.119 Z-6.000 I1.518 J-4.440 K0.000 F600.000
G1 X-84.119 Y42.653 Z-6.000 F600.000
G3 X-81.880 Y40.648 Z-6.000 I4.028 J2.246 K0.000 F600.000
G1 X-75.648 Y46.880 Z-6.000 F600.000
G2 X-76.643 Y41.643 Z-6.000 I-4.330 J-1.891 K0.000 F600.000
G1 X-76.643 Y41.643 Z-9.000 F600.000
G3 X-75.648 Y46.880 Z-9.000 I-3.336 J3.347 K0.000 F600.000
G1 X-81.880 Y40.648 Z-9.000 F600.000
G2 X-84.119 Y42.653 Z-9.000 I1.790 J4.250 K0.000 F600.000
G1 X-77.653 Y49.119 Z-9.000 F600.000
G3 X-81.518 Y49.496 Z-9.000 I-2.347 J-4.063 K0.000 F600.000
G3 X-78.944 Y40.371 Z-9.000 I1.517 J-4.497 K0.000 F600.000
G3 X-75.371 Y46.056 Z-9.000 I-1.056 J4.629 K0.000 F600.000
G3 X-81.056 Y49.629 Z-9.000 I-4.629 J-1.056 K0.000 F600.000
G1 X-81.518 Y49.496 Z-9.000 F600.000
G1 X-84.496 Y46.518 Z-9.000 F600.000
G2 X-81.518 Y49.496 Z-9.000 I4.478 J-1.500 K0.000 F600.000
G1 X-81.518 Y49.496 Z-10.000 F600.000
G3 X-84.496 Y46.518 Z-10.000 I1.500 J-4.478 K0.000 F600.000
G1 X-81.518 Y49.496 Z-10.000 F600.000
G1 X-81.056 Y49.629 Z-10.000 F600.000
G2 X-75.371 Y46.056 Z-10.000 I1.056 J-4.629 K0.000 F600.000
G2 X-78.944 Y40.371 Z-10.000 I-4.629 J-1.056 K0.000 F600.000
G2 X-81.518 Y49.496 Z-10.000 I-1.057 J4.627 K0.000 F600.000
G2 X-77.653 Y49.119 Z-10.000 I1.518 J-4.440 K0.000 F600.000
G1 X-84.119 Y42.653 Z-10.000 F600.000
G3 X-81.880 Y40.648 Z-10.000 I4.028 J2.246 K0.000 F600.000
G1 X-75.648 Y46.880 Z-10.000 F600.000
G2 X-76.643 Y41.643 Z-10.000 I-4.330 J-1.891 K0.000 F600.000
G0 Z5.000
G0 Z5.000
G0 X-76.643 Y41.643
G0 X78.482 Y49.496
G0 X78.482 Y49.496 Z3.000
G1 X78.482 Y49.496 Z-3.000 F600.000
G3 X75.504 Y46.518 Z-3.000 I1.500 J-4.478 K0.000 F600.000
G1 X78.482 Y49.496 Z-3.000 F600.000
G1 X78.944 Y49.629 Z-3.000 F600.000
G2 X84.629 Y46.056 Z-3.000 I1.056 J-4.629 K0.000 F600.000
G2 X81.056 Y40.371 Z-3.000 I-4.629 J-1.056 K0.000 F600.000
G2 X78.482 Y49.496 Z-3.000 I-1.057 J4.627 K0.000 F600.000
G2 X82.347 Y49.119 Z-3.000 I1.518 J-4.440 K0.000 F600.000
G1 X75.881 Y42.653 Z-3.000 F600.000
G3 X78.120 Y40.648 Z-3.000 I4.028 J2.246 K0.000 F600.000
G1 X84.352 Y46.880 Z-3.000 F600.000
G2 X83.357 Y41.643 Z-3.000 I-4.330 J-1.891 K0.000 F600.000
G1 X83.357 Y41.643 Z-6.000 F600.000
G3 X84.352 Y46.880 Z-6.000 I-3.336 J3.347 K0.000 F600.000
G1 X78.120 Y40.648 Z-6.000 F600.000
G2 X75.881 Y42.653 Z-6.000 I1.790 J4.250 K0.000 F600.000
G1 X82.347 Y49.119 Z-6.000 F600.000
G3 X78.482 Y49.496 Z-6.000 I-2.347 J-4.063 K0.000 F600.000
G3 X81.056 Y40.371 Z-6.000 I1.517 J-4.497 K0.000 F600.000
G3 X84.629 Y46.056 Z-6.000 I-1.056 J4.629 K0.000 F600.000
G3 X78.944 Y49.629 Z-6.000 I-4.629 J-1.056 K0.000 F600.000
G1 X78.482 Y49.496 Z-6.000 F600.000
G1 X75.504 Y46.518 Z-6.000 F600.000
G2 X78.482 Y49.496 Z-6.000 I4.478 J-1.500 K0.000 F600.000
G1 X78.482 Y49.496 Z-9.000 F600.000
G3 X75.504 Y46.518 Z-9.000 I1.500 J-4.478 K0.000 F600.000
G1 X78.482 Y49.496 Z-9.000 F600.000
G1 X78.944 Y49.629 Z-9.000 F600.000
G2 X84.629 Y46.056 Z-9.000 I1.056 J-4.629 K0.000 F600.000
G2 X81.056 Y40.371 Z-9.000 I-4.629 J-1.056 K0.000 F600.000
G2 X78.482 Y49.496 Z-9.000 I-1.057 J4.627 K0.000 F600.000
G2 X82.347 Y49.119 Z-9.000 I1.518 J-4.440 K0.000 F600.000
G1 X75.881 Y42.653 Z-9.000 F600.000
G3 X78.120 Y40.648 Z-9.000 I4.028 J2.246 K0.000 F600.000
G1 X84.352 Y46.880 Z-9.000 F600.000
G2 X83.357 Y41.643 Z-9.000 I-4.330 J-1.891 K0.000 F600.000
G1 X83.357 Y41.643 Z-10.000 F600.000
G3 X84.352 Y46.880 Z-10.000 I-3.336 J3.347 K0.000 F600.000
G1 X78.120 Y40.648 Z-10.000 F600.000
G2 X75.881 Y42.653 Z-10.000 I1.790 J4.250 K0.000 F600.000
G1 X82.347 Y49.119 Z-10.000 F600.000
G3 X78.482 Y49.496 Z-10.000 I-2.347 J-4.063 K0.000 F600.000
G3 X81.056 Y40.371 Z-10.000 I1.517 J-4.497 K0.000 F600.000
G3 X84.629 Y46.056 Z-10.000 I-1.056 J4.629 K0.000 F600.000
G3 X78.944 Y49.629 Z-10.000 I-4.629 J-1.056 K0.000 F600.000
G1 X78.482 Y49.496 Z-10.000 F600.000
G1 X75.504 Y46.518 Z-10.000 F600.000
G2 X78.482 Y49.496 Z-10.000 I4.478 J-1.500 K0.000 F600.000
G0 Z5.000
G0 Z5.000
G0 X78.482 Y49.496
G0 X76.291 Y-45.513
G0 X76.291 Y-45.513 Z3.000
G1 X76.291 Y-45.513 Z-3.000 F600.000
G2 X80.897 Y-41.362 Z-3.000 I3.707 J0.518 K0.000 F600.000
G2 X79.103 Y-48.638 Z-3.000 I-0.897 J-3.638 K0.000 F600.000
G2 X80.513 Y-41.291 Z-3.000 I0.895 J3.637 K0.000 F600.000
G1 X76.291 Y-45.513 Z-3.000 F600.000
G3 X77.929 Y-48.119 Z-3.000 I3.676 J0.493 K0.000 F600.000
G1 X83.119 Y-42.929 Z-3.000 F600.000
G2 X82.485 Y-47.805 Z-3.000 I-3.112 J-2.075 K0.000 F600.000
G1 X82.485 Y-47.805 Z-6.000 F600.000
G3 X83.119 Y-42.929 Z-6.000 I-2.478 J2.801 K0.000 F600.000
G1 X77.929 Y-48.119 Z-6.000 F600.000
G2 X76.291 Y-45.513 Z-6.000 I2.039 J3.098 K0.000 F600.000
G1 X80.513 Y-41.291 Z-6.000 F600.000
G3 X79.103 Y-48.638 Z-6.000 I-0.515 J-3.710 K0.000 F600.000
G3 X80.897 Y-41.362 Z-6.000 I0.897 J3.638 K0.000 F600.000
G3 X76.291 Y-45.513 Z-6.000 I-0.898 J-3.634 K0.000 F600.000
G1 X76.291 Y-45.513 Z-9.000 F600.000
G2 X80.897 Y-41.362 Z-9.000 I3.707 J0.518 K0.000 F600.000
G2 X79.103 Y-48.638 Z-9.000 I-0.897 J-3.638 K0.000 F600.000
G2 X80.513 Y-41.291 Z-9.000 I0.895 J3.637 K0.000 F600.000
G1 X76.291 Y-45.513 Z-9.000 F600.000
G3 X77.929 Y-48.119 Z-9.000 I3.676 J0.493 K0.000 F600.000
G1 X83.119 Y-42.929 Z-9.000 F600.000
G2 X82.485 Y-47.805 Z-9.000 I-3.112 J-2.075 K0.000 F600.000
G1 X82.485 Y-47.805 Z-10.000 F600.000
G3 X83.119 Y-42.929 Z-10.000 I-2.478 J2.801 K0.000 F600.000
G1 X77.929 Y-48.119 Z-10.000 F600.000
G2 X76.291 Y-45.513 Z-10.000 I2.039 J3.098 K0.000 F600.000
G1 X80.513 Y-41.291 Z-10.000 F600.000
G3 X79.103 Y-48.638 Z-10.000 I-0.515 J-3.710 K0.000 F600.000
G3 X80.897 Y-41.362 Z-10.000 I0.897 J3.638 K0.000 F600.000
G3 X76.291 Y-45.513 Z-10.000 I-0.898 J-3.634 K0.000 F600.000
G0 Z5.000
G0 Z5.000
(Finish operation: Pocket_Shape001)
(Begin operation: Profile)
(Path: Profile)
(Profile)
(Compensated Tool Path. Diameter: 3.0)
G0 Z5.000
G0 X0.000 Y0.000
G0 Y-61.500
G0 Y-61.500 Z3.000
G1 X0.000 Y-61.500 Z-3.000 F600.000
G1 X-100.000 Y-61.500 Z-3.000 F600.000
G2 X-101.500 Y-60.000 Z-3.000 I0.000 J1.500 K0.000 F600.000
G1 X-101.500 Y60.000 Z-3.000 F600.000
G2 X-100.000 Y61.500 Z-3.000 I1.500 J-0.000 K0.000 F600.000
G1 X100.000 Y61.500 Z-3.000 F600.000
G2 X101.500 Y60.000 Z-3.000 I-0.000 J-1.500 K0.000 F600.000
G1 X101.500 Y-60.000 Z-3.000 F600.000
G2 X100.000 Y-61.500 Z-3.000 I-1.500 J0.000 K0.000 F600.000
G1 X0.000 Y-61.500 Z-3.000 F600.000
G1 X0.000 Y-61.500 Z-6.000 F600.000
G1 X-100.000 Y-61.500 Z-6.000 F600.000
G2 X-101.500 Y-60.000 Z-6.000 I0.000 J1.500 K0.000 F600.000
G1 X-101.500 Y60.000 Z-6.000 F600.000
G2 X-100.000 Y61.500 Z-6.000 I1.500 J-0.000 K0.000 F600.000
G1 X100.000 Y61.500 Z-6.000 F600.000
G2 X101.500 Y60.000 Z-6.000 I-0.000 J-1.500 K0.000 F600.000
G1 X101.500 Y-60.000 Z-6.000 F600.000
G2 X100.000 Y-61.500 Z-6.000 I-1.500 J0.000 K0.000 F600.000
G1 X0.000 Y-61.500 Z-6.000 F600.000
G1 X0.000 Y-61.500 Z-9.000 F600.000
G1 X-100.000 Y-61.500 Z-9.000 F600.000
G2 X-101.500 Y-60.000 Z-9.000 I0.000 J1.500 K0.000 F600.000
G1 X-101.500 Y60.000 Z-9.000 F600.000
G2 X-100.000 Y61.500 Z-9.000 I1.500 J-0.000 K0.000 F600.000
G1 X100.000 Y61.500 Z-9.000 F600.000
G2 X101.500 Y60.000 Z-9.000 I-0.000 J-1.500 K0.000 F600.000
G1 X101.500 Y-60.000 Z-9.000 F600.000
G2 X100.000 Y-61.500 Z-9.000 I-1.500 J0.000 K0.000 F600.000
G1 X0.000 Y-61.500 Z-9.000 F600.000
G1 X0.000 Y-61.500 Z-12.000 F600.000
G1 X-100.000 Y-61.500 Z-12.000 F600.000
G2 X-101.500 Y-60.000 Z-12.000 I0.000 J1.500 K0.000 F600.000
G1 X-101.500 Y60.000 Z-12.000 F600.000
G2 X-100.000 Y61.500 Z-12.000 I1.500 J-0.000 K0.000 F600.000
G1 X100.000 Y61.500 Z-12.000 F600.000
G2 X101.500 Y60.000 Z-12.000 I-0.000 J-1.500 K0.000 F600.000
G1 X101.500 Y-60.000 Z-12.000 F600.000
G2 X100.000 Y-61.500 Z-12.000 I-1.500 J0.000 K0.000 F600.000
G1 X0.000 Y-61.500 Z-12.000 F600.000
G1 X0.000 Y-61.500 Z-15.000 F600.000
G1 X-100.000 Y-61.500 Z-15.000 F600.000
G2 X-101.500 Y-60.000 Z-15.000 I0.000 J1.500 K0.000 F600.000
G1 X-101.500 Y60.000 Z-15.000 F600.000
G2 X-100.000 Y61.500 Z-15.000 I1.500 J-0.000 K0.000 F600.000
G1 X100.000 Y61.500 Z-15.000 F600.000
G2 X101.500 Y60.000 Z-15.000 I-0.000 J-1.500 K0.000 F600.000
G1 X101.500 Y-60.000 Z-15.000 F600.000
G2 X100.000 Y-61.500 Z-15.000 I-1.500 J0.000 K0.000 F600.000
G1 X0.000 Y-61.500 Z-15.000 F600.000
G1 X0.000 Y-61.500 Z-16.000 F600.000
G1 X-100.000 Y-61.500 Z-16.000 F600.000
G2 X-101.500 Y-60.000 Z-16.000 I0.000 J1.500 K0.000 F600.000
G1 X-101.500 Y60.000 Z-16.000 F600.000
G2 X-100.000 Y61.500 Z-16.000 I1.500 J-0.000 K0.000 F600.000
G1 X100.000 Y61.500 Z-16.000 F600.000
G2 X101.500 Y60.000 Z-16.000 I-0.000 J-1.500 K0.000 F600.000
G1 X101.500 Y-60.000 Z-16.000 F600.000
G2 X100.000 Y-61.500 Z-16.000 I-1.500 J0.000 K0.000 F600.000
G1 X0.000 Y-61.500 Z-16.000 F600.000
G0 Z5.000
G0 Z5.000
(Finish operation: Profile)
(Begin postamble)
M5
G17 G90
M2
