(Exported by FreeCAD)
(Post Processor: script_module)
(Output Time:2025-09-26 20:29:41.294132)
(Begin preamble)
G17 G90
G21
(Begin operation: Fixture)
(Path: Fixture)
G54
(Finish operation: Fixture)
(Begin operation: 3mm_Endmill001)
(Path: 3mm_Endmill001)
(3mm_Endmill001)
(Begin toolchange)
( M6 T4 )
M3 S10000
(Finish operation: 3mm_Endmill001)
(Begin operation: Profile)
(Path: Profile)
(Profile)
(Compensated Tool Path. Diameter: 3.0)
G0 Z5.000
G0 X0.000 Y0.000
G0 Y0.905
G0 Y0.905 Z3.000
G1 X0.000 Y0.905 Z-3.000 F600.000
G1 X-3.160 Y4.968 Z-3.000 F600.000
G1 X3.160 Y4.968 Z-3.000 F600.000
G1 X0.000 Y0.905 Z-3.000 F600.000
G0 Z5.000
G0 X3.639 Y12.246 Z5.000
G0 X3.639 Y12.246 Z3.000
G1 X3.639 Y12.246 Z-3.000 F600.000
G1 X3.639 Y17.008 Z-3.000 F600.000
G1 X5.094 Y16.230 Z-3.000 F600.000
G1 X6.483 Y15.090 Z-3.000 F600.000
G1 X7.589 Y13.742 Z-3.000 F600.000
G1 X8.259 Y12.246 Z-3.000 F600.000
G1 X3.639 Y12.246 Z-3.000 F600.000
G0 Z5.000
G0 X-3.639 Z5.000
G0 X-3.639 Z3.000
G1 X-3.639 Y12.246 Z-3.000 F600.000
G1 X-8.259 Y12.246 Z-3.000 F600.000
G1 X-7.589 Y13.742 Z-3.000 F600.000
G1 X-6.483 Y15.090 Z-3.000 F600.000
G1 X-5.094 Y16.230 Z-3.000 F600.000
G1 X-3.639 Y17.008 Z-3.000 F600.000
G1 X-3.639 Y12.246 Z-3.000 F600.000
G0 Z5.000
G0 X-12.360 Y19.403 Z5.000
G0 X-12.360 Y19.403 Z3.000
G1 X-12.360 Y19.403 Z-3.000 F600.000
G1 X-13.401 Y18.135 Z-3.000 F600.000
G1 X-18.135 Y24.221 Z-3.000 F600.000
G1 X-4.843 Y24.221 Z-3.000 F600.000
G1 X-6.106 Y23.894 Z-3.000 F600.000
G1 X-6.438 Y23.765 Z-3.000 F600.000
G1 X-9.027 Y22.381 Z-3.000 F600.000
G1 X-9.271 Y22.218 Z-3.000 F600.000
G1 X-11.540 Y20.356 Z-3.000 F600.000
G1 X-11.748 Y20.148 Z-3.000 F600.000
G1 X-12.360 Y19.403 Z-3.000 F600.000
G0 Z5.000
G0 X4.843 Y24.221 Z5.000
G0 X4.843 Y24.221 Z3.000
G1 X4.843 Y24.221 Z-3.000 F600.000
G1 X18.135 Y24.221 Z-3.000 F600.000
G1 X13.401 Y18.135 Z-3.000 F600.000
G1 X11.748 Y20.148 Z-3.000 F600.000
G1 X11.540 Y20.356 Z-3.000 F600.000
G1 X9.271 Y22.218 Z-3.000 F600.000
G1 X9.027 Y22.381 Z-3.000 F600.000
G1 X6.438 Y23.765 Z-3.000 F600.000
G1 X6.106 Y23.894 Z-3.000 F600.000
G1 X4.843 Y24.221 Z-3.000 F600.000
G1 X4.843 Y24.221 Z-4.000 F600.000
G1 X18.135 Y24.221 Z-4.000 F600.000
G1 X13.401 Y18.135 Z-4.000 F600.000
G1 X11.748 Y20.148 Z-4.000 F600.000
G1 X11.540 Y20.356 Z-4.000 F600.000
G1 X9.271 Y22.218 Z-4.000 F600.000
G1 X9.027 Y22.381 Z-4.000 F600.000
G1 X6.438 Y23.765 Z-4.000 F600.000
G1 X6.106 Y23.894 Z-4.000 F600.000
G1 X4.843 Y24.221 Z-4.000 F600.000
G0 Z5.000
G0 X3.639 Y17.008 Z5.000
G0 X3.639 Y17.008 Z3.000
G1 X3.639 Y17.008 Z-4.000 F600.000
G1 X5.094 Y16.230 Z-4.000 F600.000
G1 X6.483 Y15.090 Z-4.000 F600.000
G1 X7.589 Y13.742 Z-4.000 F600.000
G1 X8.259 Y12.246 Z-4.000 F600.000
G1 X3.639 Y12.246 Z-4.000 F600.000
G1 X3.639 Y17.008 Z-4.000 F600.000
G0 Z5.000
G0 X-3.639 Z5.000
G0 X-3.639 Z3.000
G1 X-3.639 Y17.008 Z-4.000 F600.000
G1 X-3.639 Y12.246 Z-4.000 F600.000
G1 X-8.259 Y12.246 Z-4.000 F600.000
G1 X-7.589 Y13.742 Z-4.000 F600.000
G1 X-6.483 Y15.090 Z-4.000 F600.000
G1 X-5.094 Y16.230 Z-4.000 F600.000
G1 X-3.639 Y17.008 Z-4.000 F600.000
G0 Z5.000
G0 X-7.070 Y23.427 Z5.000
G0 X-7.070 Y23.427 Z3.000
G1 X-7.070 Y23.427 Z-4.000 F600.000
G1 X-9.027 Y22.381 Z-4.000 F600.000
G1 X-9.271 Y22.218 Z-4.000 F600.000
G1 X-11.540 Y20.356 Z-4.000 F600.000
G1 X-11.748 Y20.148 Z-4.000 F600.000
G1 X-13.401 Y18.135 Z-4.000 F600.000
G1 X-18.135 Y24.221 Z-4.000 F600.000
G1 X-4.843 Y24.221 Z-4.000 F600.000
G1 X-6.106 Y23.894 Z-4.000 F600.000
G1 X-6.438 Y23.765 Z-4.000 F600.000
G1 X-7.070 Y23.427 Z-4.000 F600.000
G0 Z5.000
G0 X-3.160 Y4.968 Z5.000
G0 X-3.160 Y4.968 Z3.000
G1 X-3.160 Y4.968 Z-4.000 F600.000
G1 X3.160 Y4.968 Z-4.000 F600.000
G1 X0.000 Y0.905 Z-4.000 F600.000
G1 X-3.160 Y4.968 Z-4.000 F600.000
G0 Z5.000
G0 Z5.000
(Finish operation: Profile)
(Begin operation: Profile001)
(Path: Profile001)
(Profile001)
(Compensated Tool Path. Diameter: 3.0)
G0 Z5.000
G0 X0.000 Y0.000
G0 X-18.599 Y-18.135
G0 X-18.599 Y-18.135 Z3.000
G1 X-18.599 Y-18.135 Z-3.000 F600.000
G1 X-13.865 Y-24.221 Z-3.000 F600.000
G1 X-27.157 Y-24.221 Z-3.000 F600.000
G1 X-25.894 Y-23.894 Z-3.000 F600.000
G1 X-25.562 Y-23.765 Z-3.000 F600.000
G1 X-22.973 Y-22.381 Z-3.000 F600.000
G1 X-22.729 Y-22.218 Z-3.000 F600.000
G1 X-20.460 Y-20.356 Z-3.000 F600.000
G1 X-20.252 Y-20.148 Z-3.000 F600.000
G1 X-18.599 Y-18.135 Z-3.000 F600.000
G0 Z5.000
G0 X-24.411 Y-13.742 Z5.000
G0 X-24.411 Y-13.742 Z3.000
G1 X-24.411 Y-13.742 Z-3.000 F600.000
G1 X-25.517 Y-15.090 Z-3.000 F600.000
G1 X-26.906 Y-16.230 Z-3.000 F600.000
G1 X-28.361 Y-17.008 Z-3.000 F600.000
G1 X-28.361 Y-12.246 Z-3.000 F600.000
G1 X-23.741 Y-12.246 Z-3.000 F600.000
G1 X-24.411 Y-13.742 Z-3.000 F600.000
G0 Z5.000
G0 X-28.840 Y-4.968 Z5.000
G0 X-28.840 Y-4.968 Z3.000
G1 X-28.840 Y-4.968 Z-3.000 F600.000
G1 X-35.160 Y-4.968 Z-3.000 F600.000
G1 X-32.000 Y-0.905 Z-3.000 F600.000
G1 X-28.840 Y-4.968 Z-3.000 F600.000
G0 Z5.000
G0 X-35.639 Y-12.246 Z5.000
G0 X-35.639 Y-12.246 Z3.000
G1 X-35.639 Y-12.246 Z-3.000 F600.000
G1 X-35.639 Y-17.008 Z-3.000 F600.000
G1 X-37.094 Y-16.230 Z-3.000 F600.000
G1 X-38.483 Y-15.090 Z-3.000 F600.000
G1 X-39.589 Y-13.742 Z-3.000 F600.000
G1 X-40.259 Y-12.246 Z-3.000 F600.000
G1 X-35.639 Y-12.246 Z-3.000 F600.000
G0 Z5.000
G0 X-42.796 Y-20.967 Z5.000
G0 X-42.796 Y-20.967 Z3.000
G1 X-42.796 Y-20.967 Z-3.000 F600.000
G1 X-41.271 Y-22.218 Z-3.000 F600.000
G1 X-41.027 Y-22.381 Z-3.000 F600.000
G1 X-38.438 Y-23.765 Z-3.000 F600.000
G1 X-38.106 Y-23.894 Z-3.000 F600.000
G1 X-36.843 Y-24.221 Z-3.000 F600.000
G1 X-50.135 Y-24.221 Z-3.000 F600.000
G1 X-45.401 Y-18.135 Z-3.000 F600.000
G1 X-43.748 Y-20.148 Z-3.000 F600.000
G1 X-43.540 Y-20.356 Z-3.000 F600.000
G1 X-42.796 Y-20.967 Z-3.000 F600.000
G1 X-42.796 Y-20.967 Z-4.000 F600.000
G1 X-41.271 Y-22.218 Z-4.000 F600.000
G1 X-41.027 Y-22.381 Z-4.000 F600.000
G1 X-38.438 Y-23.765 Z-4.000 F600.000
G1 X-38.106 Y-23.894 Z-4.000 F600.000
G1 X-36.843 Y-24.221 Z-4.000 F600.000
G1 X-50.135 Y-24.221 Z-4.000 F600.000
G1 X-45.401 Y-18.135 Z-4.000 F600.000
G1 X-43.748 Y-20.148 Z-4.000 F600.000
G1 X-43.540 Y-20.356 Z-4.000 F600.000
G1 X-42.796 Y-20.967 Z-4.000 F600.000
G0 Z5.000
G0 X-38.178 Y-15.340 Z5.000
G0 X-38.178 Y-15.340 Z3.000
G1 X-38.178 Y-15.340 Z-4.000 F600.000
G1 X-38.483 Y-15.090 Z-4.000 F600.000
G1 X-39.589 Y-13.742 Z-4.000 F600.000
G1 X-40.259 Y-12.246 Z-4.000 F600.000
G1 X-35.639 Y-12.246 Z-4.000 F600.000
G1 X-35.639 Y-17.008 Z-4.000 F600.000
G1 X-37.094 Y-16.230 Z-4.000 F600.000
G1 X-38.178 Y-15.340 Z-4.000 F600.000
G0 Z5.000
G0 X-28.361 Y-15.340 Z5.000
G0 X-28.361 Y-15.340 Z3.000
G1 X-28.361 Y-15.340 Z-4.000 F600.000
G1 X-28.361 Y-12.246 Z-4.000 F600.000
G1 X-23.741 Y-12.246 Z-4.000 F600.000
G1 X-24.411 Y-13.742 Z-4.000 F600.000
G1 X-25.517 Y-15.090 Z-4.000 F600.000
G1 X-26.906 Y-16.230 Z-4.000 F600.000
G1 X-28.361 Y-17.008 Z-4.000 F600.000
G1 X-28.361 Y-15.340 Z-4.000 F600.000
G0 Z5.000
G0 X-24.236 Y-23.056 Z5.000
G0 X-24.236 Y-23.056 Z3.000
G1 X-24.236 Y-23.056 Z-4.000 F600.000
G1 X-22.973 Y-22.381 Z-4.000 F600.000
G1 X-22.729 Y-22.218 Z-4.000 F600.000
G1 X-20.460 Y-20.356 Z-4.000 F600.000
G1 X-20.252 Y-20.148 Z-4.000 F600.000
G1 X-18.599 Y-18.135 Z-4.000 F600.000
G1 X-13.865 Y-24.221 Z-4.000 F600.000
G1 X-27.157 Y-24.221 Z-4.000 F600.000
G1 X-25.894 Y-23.894 Z-4.000 F600.000
G1 X-25.562 Y-23.765 Z-4.000 F600.000
G1 X-24.236 Y-23.056 Z-4.000 F600.000
G0 Z5.000
G0 X-28.840 Y-4.968 Z5.000
G0 X-28.840 Y-4.968 Z3.000
G1 X-28.840 Y-4.968 Z-4.000 F600.000
G1 X-35.160 Y-4.968 Z-4.000 F600.000
G1 X-32.000 Y-0.905 Z-4.000 F600.000
G1 X-28.840 Y-4.968 Z-4.000 F600.000
G0 Z5.000
G0 Z5.000
(Finish operation: Profile001)
(Begin operation: Profile002)
(Path: Profile002)
(Profile002)
(Compensated Tool Path. Diameter: 3.0)
G0 Z5.000
G0 X0.000 Y0.000
G0 X18.599 Y-18.135
G0 X18.599 Y-18.135 Z3.000
G1 X18.599 Y-18.135 Z-3.000 F600.000
G1 X20.252 Y-20.148 Z-3.000 F600.000
G1 X20.460 Y-20.356 Z-3.000 F600.000
G1 X22.729 Y-22.218 Z-3.000 F600.000
G1 X22.973 Y-22.381 Z-3.000 F600.000
G1 X25.562 Y-23.765 Z-3.000 F600.000
G1 X25.894 Y-23.894 Z-3.000 F600.000
G1 X27.157 Y-24.221 Z-3.000 F600.000
G1 X13.865 Y-24.221 Z-3.000 F600.000
G1 X18.599 Y-18.135 Z-3.000 F600.000
G0 Z5.000
G0 X24.411 Y-13.742 Z5.000
G0 X24.411 Y-13.742 Z3.000
G1 X24.411 Y-13.742 Z-3.000 F600.000
G1 X23.741 Y-12.246 Z-3.000 F600.000
G1 X28.361 Y-12.246 Z-3.000 F600.000
G1 X28.361 Y-17.008 Z-3.000 F600.000
G1 X26.906 Y-16.230 Z-3.000 F600.000
G1 X25.517 Y-15.090 Z-3.000 F600.000
G1 X24.411 Y-13.742 Z-3.000 F600.000
G0 Z5.000
G0 X28.840 Y-4.968 Z5.000
G0 X28.840 Y-4.968 Z3.000
G1 X28.840 Y-4.968 Z-3.000 F600.000
G1 X32.000 Y-0.905 Z-3.000 F600.000
G1 X35.160 Y-4.968 Z-3.000 F600.000
G1 X28.840 Y-4.968 Z-3.000 F600.000
G0 Z5.000
G0 X35.639 Y-12.246 Z5.000
G0 X35.639 Y-12.246 Z3.000
G1 X35.639 Y-12.246 Z-3.000 F600.000
G1 X40.259 Y-12.246 Z-3.000 F600.000
G1 X39.589 Y-13.742 Z-3.000 F600.000
G1 X38.483 Y-15.090 Z-3.000 F600.000
G1 X37.094 Y-16.230 Z-3.000 F600.000
G1 X35.639 Y-17.008 Z-3.000 F600.000
G1 X35.639 Y-12.246 Z-3.000 F600.000
G0 Z5.000
G0 X42.796 Y-20.967 Z5.000
G0 X42.796 Y-20.967 Z3.000
G1 X42.796 Y-20.967 Z-3.000 F600.000
G1 X43.540 Y-20.356 Z-3.000 F600.000
G1 X43.748 Y-20.148 Z-3.000 F600.000
G1 X45.401 Y-18.135 Z-3.000 F600.000
G1 X50.135 Y-24.221 Z-3.000 F600.000
G1 X36.843 Y-24.221 Z-3.000 F600.000
G1 X38.106 Y-23.894 Z-3.000 F600.000
G1 X38.438 Y-23.765 Z-3.000 F600.000
G1 X41.027 Y-22.381 Z-3.000 F600.000
G1 X41.271 Y-22.218 Z-3.000 F600.000
G1 X42.796 Y-20.967 Z-3.000 F600.000
G1 X42.796 Y-20.967 Z-4.000 F600.000
G1 X43.540 Y-20.356 Z-4.000 F600.000
G1 X43.748 Y-20.148 Z-4.000 F600.000
G1 X45.401 Y-18.135 Z-4.000 F600.000
G1 X50.135 Y-24.221 Z-4.000 F600.000
G1 X36.843 Y-24.221 Z-4.000 F600.000
G1 X38.106 Y-23.894 Z-4.000 F600.000
G1 X38.438 Y-23.765 Z-4.000 F600.000
G1 X41.027 Y-22.381 Z-4.000 F600.000
G1 X41.271 Y-22.218 Z-4.000 F600.000
G1 X42.796 Y-20.967 Z-4.000 F600.000
G0 Z5.000
G0 X38.178 Y-15.340 Z5.000
G0 X38.178 Y-15.340 Z3.000
G1 X38.178 Y-15.340 Z-4.000 F600.000
G1 X37.094 Y-16.230 Z-4.000 F600.000
G1 X35.639 Y-17.008 Z-4.000 F600.000
G1 X35.639 Y-12.246 Z-4.000 F600.000
G1 X40.259 Y-12.246 Z-4.000 F600.000
G1 X39.589 Y-13.742 Z-4.000 F600.000
G1 X38.483 Y-15.090 Z-4.000 F600.000
G1 X38.178 Y-15.340 Z-4.000 F600.000
G0 Z5.000
G0 X28.361 Y-15.340 Z5.000
G0 X28.361 Y-15.340 Z3.000
G1 X28.361 Y-15.340 Z-4.000 F600.000
G1 X28.361 Y-17.008 Z-4.000 F600.000
G1 X26.906 Y-16.230 Z-4.000 F600.000
G1 X25.517 Y-15.090 Z-4.000 F600.000
G1 X24.411 Y-13.742 Z-4.000 F600.000
G1 X23.741 Y-12.246 Z-4.000 F600.000
G1 X28.361 Y-12.246 Z-4.000 F600.000
G1 X28.361 Y-15.340 Z-4.000 F600.000
G0 Z5.000
G0 X24.236 Y-23.056 Z5.000
G0 X24.236 Y-23.056 Z3.000
G1 X24.236 Y-23.056 Z-4.000 F600.000
G1 X25.562 Y-23.765 Z-4.000 F600.000
G1 X25.894 Y-23.894 Z-4.000 F600.000
G1 X27.157 Y-24.221 Z-4.000 F600.000
G1 X13.865 Y-24.221 Z-4.000 F600.000
G1 X18.599 Y-18.135 Z-4.000 F600.000
G1 X20.252 Y-20.148 Z-4.000 F600.000
G1 X20.460 Y-20.356 Z-4.000 F600.000
G1 X22.729 Y-22.218 Z-4.000 F600.000
G1 X22.973 Y-22.381 Z-4.000 F600.000
G1 X24.236 Y-23.056 Z-4.000 F600.000
G0 Z5.000
G0 X28.840 Y-4.968 Z5.000
G0 X28.840 Y-4.968 Z3.000
G1 X28.840 Y-4.968 Z-4.000 F600.000
G1 X32.000 Y-0.905 Z-4.000 F600.000
G1 X35.160 Y-4.968 Z-4.000 F600.000
G1 X28.840 Y-4.968 Z-4.000 F600.000
G0 Z5.000
G0 Z5.000
(Finish operation: Profile002)
(Begin operation: Profile003)
(Path: Profile003)
(Profile003)
(Compensated Tool Path. Diameter: 3.0)
G0 Z5.000
G0 X0.000 Y0.000
G0 X46.865 Y24.221
G0 X46.865 Y24.221 Z3.000
G1 X46.865 Y24.221 Z-3.000 F600.000
G1 X60.157 Y24.221 Z-3.000 F600.000
G1 X58.894 Y23.894 Z-3.000 F600.000
G1 X58.562 Y23.765 Z-3.000 F600.000
G1 X55.973 Y22.381 Z-3.000 F600.000
G1 X55.729 Y22.218 Z-3.000 F600.000
G1 X53.460 Y20.356 Z-3.000 F600.000
G1 X53.252 Y20.148 Z-3.000 F600.000
G1 X51.599 Y18.135 Z-3.000 F600.000
G1 X46.865 Y24.221 Z-3.000 F600.000
G0 Z5.000
G0 X58.305 Y14.833 Z5.000
G0 X58.305 Y14.833 Z3.000
G1 X58.305 Y14.833 Z-3.000 F600.000
G1 X58.517 Y15.090 Z-3.000 F600.000
G1 X59.906 Y16.230 Z-3.000 F600.000
G1 X61.361 Y17.008 Z-3.000 F600.000
G1 X61.361 Y12.246 Z-3.000 F600.000
G1 X56.741 Y12.246 Z-3.000 F600.000
G1 X57.411 Y13.742 Z-3.000 F600.000
G1 X58.305 Y14.833 Z-3.000 F600.000
G0 Z5.000
G0 X68.639 Z5.000
G0 X68.639 Z3.000
G1 X68.639 Y14.833 Z-3.000 F600.000
G1 X68.639 Y17.008 Z-3.000 F600.000
G1 X70.094 Y16.230 Z-3.000 F600.000
G1 X71.483 Y15.090 Z-3.000 F600.000
G1 X72.589 Y13.742 Z-3.000 F600.000
G1 X73.259 Y12.246 Z-3.000 F600.000
G1 X68.639 Y12.246 Z-3.000 F600.000
G1 X68.639 Y14.833 Z-3.000 F600.000
G0 Z5.000
G0 X72.975 Y22.944 Z5.000
G0 X72.975 Y22.944 Z3.000
G1 X72.975 Y22.944 Z-3.000 F600.000
G1 X71.438 Y23.765 Z-3.000 F600.000
G1 X71.106 Y23.894 Z-3.000 F600.000
G1 X69.843 Y24.221 Z-3.000 F600.000
G1 X83.135 Y24.221 Z-3.000 F600.000
G1 X78.401 Y18.135 Z-3.000 F600.000
G1 X76.748 Y20.148 Z-3.000 F600.000
G1 X76.540 Y20.356 Z-3.000 F600.000
G1 X74.271 Y22.218 Z-3.000 F600.000
G1 X74.027 Y22.381 Z-3.000 F600.000
G1 X72.975 Y22.944 Z-3.000 F600.000
G0 Z5.000
G0 X68.160 Y4.968 Z5.000
G0 X68.160 Y4.968 Z3.000
G1 X68.160 Y4.968 Z-3.000 F600.000
G1 X65.000 Y0.905 Z-3.000 F600.000
G1 X61.840 Y4.968 Z-3.000 F600.000
G1 X68.160 Y4.968 Z-3.000 F600.000
G1 X68.160 Y4.968 Z-4.000 F600.000
G1 X65.000 Y0.905 Z-4.000 F600.000
G1 X61.840 Y4.968 Z-4.000 F600.000
G1 X68.160 Y4.968 Z-4.000 F600.000
G0 Z5.000
G0 X68.639 Y12.246 Z5.000
G0 X68.639 Y12.246 Z3.000
G1 X68.639 Y12.246 Z-4.000 F600.000
G1 X68.639 Y17.008 Z-4.000 F600.000
G1 X70.094 Y16.230 Z-4.000 F600.000
G1 X71.483 Y15.090 Z-4.000 F600.000
G1 X72.589 Y13.742 Z-4.000 F600.000
G1 X73.259 Y12.246 Z-4.000 F600.000
G1 X68.639 Y12.246 Z-4.000 F600.000
G0 Z5.000
G0 X61.361 Z5.000
G0 X61.361 Z3.000
G1 X61.361 Y12.246 Z-4.000 F600.000
G1 X56.741 Y12.246 Z-4.000 F600.000
G1 X57.411 Y13.742 Z-4.000 F600.000
G1 X58.517 Y15.090 Z-4.000 F600.000
G1 X59.906 Y16.230 Z-4.000 F600.000
G1 X61.361 Y17.008 Z-4.000 F600.000
G1 X61.361 Y12.246 Z-4.000 F600.000
G0 Z5.000
G0 X52.640 Y19.403 Z5.000
G0 X52.640 Y19.403 Z3.000
G1 X52.640 Y19.403 Z-4.000 F600.000
G1 X51.599 Y18.135 Z-4.000 F600.000
G1 X46.865 Y24.221 Z-4.000 F600.000
G1 X60.157 Y24.221 Z-4.000 F600.000
G1 X58.894 Y23.894 Z-4.000 F600.000
G1 X58.562 Y23.765 Z-4.000 F600.000
G1 X55.973 Y22.381 Z-4.000 F600.000
G1 X55.729 Y22.218 Z-4.000 F600.000
G1 X53.460 Y20.356 Z-4.000 F600.000
G1 X53.252 Y20.148 Z-4.000 F600.000
G1 X52.640 Y19.403 Z-4.000 F600.000
G0 Z5.000
G0 X69.843 Y24.221 Z5.000
G0 X69.843 Y24.221 Z3.000
G1 X69.843 Y24.221 Z-4.000 F600.000
G1 X83.135 Y24.221 Z-4.000 F600.000
G1 X78.401 Y18.135 Z-4.000 F600.000
G1 X76.748 Y20.148 Z-4.000 F600.000
G1 X76.540 Y20.356 Z-4.000 F600.000
G1 X74.271 Y22.218 Z-4.000 F600.000
G1 X74.027 Y22.381 Z-4.000 F600.000
G1 X71.438 Y23.765 Z-4.000 F600.000
G1 X71.106 Y23.894 Z-4.000 F600.000
G1 X69.843 Y24.221 Z-4.000 F600.000
G0 Z5.000
G0 Z5.000
(Finish operation: Profile003)
(Begin operation: Profile004)
(Path: Profile004)
(Profile004)
(Compensated Tool Path. Diameter: 3.0)
G0 Z5.000
G0 X0.000 Y0.000
G0 X-46.865 Y24.221
G0 X-46.865 Y24.221 Z3.000
G1 X-46.865 Y24.221 Z-3.000 F600.000
G1 X-51.599 Y18.135 Z-3.000 F600.000
G1 X-53.252 Y20.148 Z-3.000 F600.000
G1 X-53.460 Y20.356 Z-3.000 F600.000
G1 X-55.729 Y22.218 Z-3.000 F600.000
G1 X-55.973 Y22.381 Z-3.000 F600.000
G1 X-58.562 Y23.765 Z-3.000 F600.000
G1 X-58.894 Y23.894 Z-3.000 F600.000
G1 X-60.157 Y24.221 Z-3.000 F600.000
G1 X-46.865 Y24.221 Z-3.000 F600.000
G0 Z5.000
G0 X-58.305 Y14.833 Z5.000
G0 X-58.305 Y14.833 Z3.000
G1 X-58.305 Y14.833 Z-3.000 F600.000
G1 X-57.411 Y13.742 Z-3.000 F600.000
G1 X-56.741 Y12.246 Z-3.000 F600.000
G1 X-61.361 Y12.246 Z-3.000 F600.000
G1 X-61.361 Y17.008 Z-3.000 F600.000
G1 X-59.906 Y16.230 Z-3.000 F600.000
G1 X-58.517 Y15.090 Z-3.000 F600.000
G1 X-58.305 Y14.833 Z-3.000 F600.000
G0 Z5.000
G0 X-68.639 Z5.000
G0 X-68.639 Z3.000
G1 X-68.639 Y14.833 Z-3.000 F600.000
G1 X-68.639 Y12.246 Z-3.000 F600.000
G1 X-73.259 Y12.246 Z-3.000 F600.000
G1 X-72.589 Y13.742 Z-3.000 F600.000
G1 X-71.483 Y15.090 Z-3.000 F600.000
G1 X-70.094 Y16.230 Z-3.000 F600.000
G1 X-68.639 Y17.008 Z-3.000 F600.000
G1 X-68.639 Y14.833 Z-3.000 F600.000
G0 Z5.000
G0 X-72.975 Y22.944 Z5.000
G0 X-72.975 Y22.944 Z3.000
G1 X-72.975 Y22.944 Z-3.000 F600.000
G1 X-74.027 Y22.381 Z-3.000 F600.000
G1 X-74.271 Y22.218 Z-3.000 F600.000
G1 X-76.540 Y20.356 Z-3.000 F600.000
G1 X-76.748 Y20.148 Z-3.000 F600.000
G1 X-78.401 Y18.135 Z-3.000 F600.000
G1 X-83.135 Y24.221 Z-3.000 F600.000
G1 X-69.843 Y24.221 Z-3.000 F600.000
G1 X-71.106 Y23.894 Z-3.000 F600.000
G1 X-71.438 Y23.765 Z-3.000 F600.000
G1 X-72.975 Y22.944 Z-3.000 F600.000
G0 Z5.000
G0 X-68.160 Y4.968 Z5.000
G0 X-68.160 Y4.968 Z3.000
G1 X-68.160 Y4.968 Z-3.000 F600.000
G1 X-61.840 Y4.968 Z-3.000 F600.000
G1 X-65.000 Y0.905 Z-3.000 F600.000
G1 X-68.160 Y4.968 Z-3.000 F600.000
G1 X-68.160 Y4.968 Z-4.000 F600.000
G1 X-61.840 Y4.968 Z-4.000 F600.000
G1 X-65.000 Y0.905 Z-4.000 F600.000
G1 X-68.160 Y4.968 Z-4.000 F600.000
G0 Z5.000
G0 X-68.639 Y12.246 Z5.000
G0 X-68.639 Y12.246 Z3.000
G1 X-68.639 Y12.246 Z-4.000 F600.000
G1 X-73.259 Y12.246 Z-4.000 F600.000
G1 X-72.589 Y13.742 Z-4.000 F600.000
G1 X-71.483 Y15.090 Z-4.000 F600.000
G1 X-70.094 Y16.230 Z-4.000 F600.000
G1 X-68.639 Y17.008 Z-4.000 F600.000
G1 X-68.639 Y12.246 Z-4.000 F600.000
G0 Z5.000
G0 X-61.361 Z5.000
G0 X-61.361 Z3.000
G1 X-61.361 Y12.246 Z-4.000 F600.000
G1 X-61.361 Y17.008 Z-4.000 F600.000
G1 X-59.906 Y16.230 Z-4.000 F600.000
G1 X-58.517 Y15.090 Z-4.000 F600.000
G1 X-57.411 Y13.742 Z-4.000 F600.000
G1 X-56.741 Y12.246 Z-4.000 F600.000
G1 X-61.361 Y12.246 Z-4.000 F600.000
G0 Z5.000
G0 X-52.640 Y19.403 Z5.000
G0 X-52.640 Y19.403 Z3.000
G1 X-52.640 Y19.403 Z-4.000 F600.000
G1 X-53.252 Y20.148 Z-4.000 F600.000
G1 X-53.460 Y20.356 Z-4.000 F600.000
G1 X-55.729 Y22.218 Z-4.000 F600.000
G1 X-55.973 Y22.381 Z-4.000 F600.000
G1 X-58.562 Y23.765 Z-4.000 F600.000
G1 X-58.894 Y23.894 Z-4.000 F600.000
G1 X-60.157 Y24.221 Z-4.000 F600.000
G1 X-46.865 Y24.221 Z-4.000 F600.000
G1 X-51.599 Y18.135 Z-4.000 F600.000
G1 X-52.640 Y19.403 Z-4.000 F600.000
G0 Z5.000
G0 X-69.843 Y24.221 Z5.000
G0 X-69.843 Y24.221 Z3.000
G1 X-69.843 Y24.221 Z-4.000 F600.000
G1 X-71.106 Y23.894 Z-4.000 F600.000
G1 X-71.438 Y23.765 Z-4.000 F600.000
G1 X-74.027 Y22.381 Z-4.000 F600.000
G1 X-74.271 Y22.218 Z-4.000 F600.000
G1 X-76.540 Y20.356 Z-4.000 F600.000
G1 X-76.748 Y20.148 Z-4.000 F600.000
G1 X-78.401 Y18.135 Z-4.000 F600.000
G1 X-83.135 Y24.221 Z-4.000 F600.000
G1 X-69.843 Y24.221 Z-4.000 F600.000
G0 Z5.000
G0 Z5.000
(Finish operation: Profile004)
(Begin operation: Profile005)
(Path: Profile005)
(Profile005)
(Compensated Tool Path. Diameter: 3.0)
G0 Z5.000
G0 X0.000 Y0.000
G0 X-5.307 Y-4.127
G0 X-5.307 Y-4.127 Z3.000
G1 X-5.307 Y-4.127 Z-3.000 F600.000
G1 X-12.381 Y4.968 Z-3.000 F600.000
G1 X-25.671 Y4.968 Z-3.000 F600.000
G2 X-27.171 Y6.468 Z-3.000 I0.000 J1.500 K0.000 F600.000
G1 X-27.171 Y10.746 Z-3.000 F600.000
G2 X-25.671 Y12.246 Z-3.000 I1.500 J0.000 K0.000 F600.000
G1 X-18.042 Y12.246 Z-3.000 F600.000
G1 X-31.134 Y29.079 Z-3.000 F600.000
G2 X-29.950 Y31.500 Z-3.000 I1.184 J0.921 K0.000 F600.000
G1 X29.950 Y31.500 Z-3.000 F600.000
G2 X31.134 Y29.079 Z-3.000 I0.000 J-1.500 K0.000 F600.000
G1 X18.042 Y12.246 Z-3.000 F600.000
G1 X25.671 Y12.246 Z-3.000 F600.000
G2 X27.171 Y10.746 Z-3.000 I0.000 J-1.500 K0.000 F600.000
G1 X27.171 Y6.468 Z-3.000 F600.000
G2 X25.671 Y4.968 Z-3.000 I-1.500 J0.000 K0.000 F600.000
G1 X12.381 Y4.968 Z-3.000 F600.000
G1 X3.639 Y-6.271 Z-3.000 F600.000
G1 X3.639 Y-17.064 Z-3.000 F600.000
G2 X2.139 Y-18.564 Z-3.000 I-1.500 J0.000 K0.000 F600.000
G1 X-2.139 Y-18.564 Z-3.000 F600.000
G2 X-3.639 Y-17.064 Z-3.000 I0.000 J1.500 K0.000 F600.000
G1 X-3.639 Y-6.271 Z-3.000 F600.000
G1 X-5.307 Y-4.127 Z-3.000 F600.000
G1 X-5.307 Y-4.127 Z-4.000 F600.000
G1 X-12.381 Y4.968 Z-4.000 F600.000
G1 X-25.671 Y4.968 Z-4.000 F600.000
G2 X-27.171 Y6.468 Z-4.000 I0.000 J1.500 K0.000 F600.000
G1 X-27.171 Y10.746 Z-4.000 F600.000
G2 X-25.671 Y12.246 Z-4.000 I1.500 J0.000 K0.000 F600.000
G1 X-18.042 Y12.246 Z-4.000 F600.000
G1 X-31.134 Y29.079 Z-4.000 F600.000
G2 X-29.950 Y31.500 Z-4.000 I1.184 J0.921 K0.000 F600.000
G1 X29.950 Y31.500 Z-4.000 F600.000
G2 X31.134 Y29.079 Z-4.000 I0.000 J-1.500 K0.000 F600.000
G1 X18.042 Y12.246 Z-4.000 F600.000
G1 X25.671 Y12.246 Z-4.000 F600.000
G2 X27.171 Y10.746 Z-4.000 I0.000 J-1.500 K0.000 F600.000
G1 X27.171 Y6.468 Z-4.000 F600.000
G2 X25.671 Y4.968 Z-4.000 I-1.500 J0.000 K0.000 F600.000
G1 X12.381 Y4.968 Z-4.000 F600.000
G1 X3.639 Y-6.271 Z-4.000 F600.000
G1 X3.639 Y-17.064 Z-4.000 F600.000
G2 X2.139 Y-18.564 Z-4.000 I-1.500 J0.000 K0.000 F600.000
G1 X-2.139 Y-18.564 Z-4.000 F600.000
G2 X-3.639 Y-17.064 Z-4.000 I0.000 J1.500 K0.000 F600.000
G1 X-3.639 Y-6.271 Z-4.000 F600.000
G1 X-5.307 Y-4.127 Z-4.000 F600.000
G0 Z5.000
G0 Z5.000
(Finish operation: Profile005)
(Begin operation: Profile006)
(Path: Profile006)
(Profile006)
(Compensated Tool Path. Diameter: 3.0)
G0 Z5.000
G0 X0.000 Y0.000
G0 X-5.307 Y-4.127
G0 X-5.307 Y-4.127 Z3.000
G1 X-5.307 Y-4.127 Z-3.000 F600.000
G1 X-12.381 Y4.968 Z-3.000 F600.000
G1 X-25.671 Y4.968 Z-3.000 F600.000
G2 X-27.171 Y6.468 Z-3.000 I0.000 J1.500 K0.000 F600.000
G1 X-27.171 Y10.746 Z-3.000 F600.000
G2 X-25.671 Y12.246 Z-3.000 I1.500 J0.000 K0.000 F600.000
G1 X-18.042 Y12.246 Z-3.000 F600.000
G1 X-31.134 Y29.079 Z-3.000 F600.000
G2 X-29.950 Y31.500 Z-3.000 I1.184 J0.921 K0.000 F600.000
G1 X29.950 Y31.500 Z-3.000 F600.000
G2 X31.134 Y29.079 Z-3.000 I0.000 J-1.500 K0.000 F600.000
G1 X18.042 Y12.246 Z-3.000 F600.000
G1 X25.671 Y12.246 Z-3.000 F600.000
G2 X27.171 Y10.746 Z-3.000 I0.000 J-1.500 K0.000 F600.000
G1 X27.171 Y6.468 Z-3.000 F600.000
G2 X25.671 Y4.968 Z-3.000 I-1.500 J0.000 K0.000 F600.000
G1 X12.381 Y4.968 Z-3.000 F600.000
G1 X3.639 Y-6.271 Z-3.000 F600.000
G1 X3.639 Y-17.064 Z-3.000 F600.000
G2 X2.139 Y-18.564 Z-3.000 I-1.500 J0.000 K0.000 F600.000
G1 X-2.139 Y-18.564 Z-3.000 F600.000
G2 X-3.639 Y-17.064 Z-3.000 I0.000 J1.500 K0.000 F600.000
G1 X-3.639 Y-6.271 Z-3.000 F600.000
G1 X-5.307 Y-4.127 Z-3.000 F600.000
G0 Z5.000
G0 X4.858 Y-6.172 Z5.000
G0 X4.858 Y-6.172 Z3.000
G1 X4.858 Y-6.172 Z-3.000 F600.000
G2 X6.329 Y-4.968 Z-3.000 I1.471 J-0.296 K0.000 F600.000
G1 X19.619 Y-4.968 Z-3.000 F600.000
G1 X28.361 Y6.271 Z-3.000 F600.000
G1 X28.361 Y17.064 Z-3.000 F600.000
G2 X29.861 Y18.564 Z-3.000 I1.500 J0.000 K0.000 F600.000
G1 X34.139 Y18.564 Z-3.000 F600.000
G2 X35.639 Y17.064 Z-3.000 I0.000 J-1.500 K0.000 F600.000
G1 X35.639 Y6.271 Z-3.000 F600.000
G1 X44.381 Y-4.968 Z-3.000 F600.000
G1 X57.671 Y-4.968 Z-3.000 F600.000
G2 X59.171 Y-6.468 Z-3.000 I0.000 J-1.500 K0.000 F600.000
G1 X59.171 Y-10.746 Z-3.000 F600.000
G2 X57.671 Y-12.246 Z-3.000 I-1.500 J-0.000 K0.000 F600.000
G1 X50.042 Y-12.246 Z-3.000 F600.000
G1 X63.134 Y-29.079 Z-3.000 F600.000
G2 X61.950 Y-31.500 Z-3.000 I-1.184 J-0.921 K0.000 F600.000
G1 X2.050 Y-31.500 Z-3.000 F600.000
G2 X0.866 Y-29.079 Z-3.000 I-0.000 J1.500 K0.000 F600.000
G1 X13.958 Y-12.246 Z-3.000 F600.000
G1 X6.329 Y-12.246 Z-3.000 F600.000
G2 X4.829 Y-10.747 Z-3.000 I-0.000 J1.500 K0.000 F600.000
G1 X4.829 Y-6.468 Z-3.000 F600.000
G2 X4.858 Y-6.172 Z-3.000 I1.500 J0.000 K0.000 F600.000
G1 X4.858 Y-6.172 Z-4.000 F600.000
G2 X6.329 Y-4.968 Z-4.000 I1.471 J-0.296 K0.000 F600.000
G1 X19.619 Y-4.968 Z-4.000 F600.000
G1 X28.361 Y6.271 Z-4.000 F600.000
G1 X28.361 Y17.064 Z-4.000 F600.000
G2 X29.861 Y18.564 Z-4.000 I1.500 J0.000 K0.000 F600.000
G1 X34.139 Y18.564 Z-4.000 F600.000
G2 X35.639 Y17.064 Z-4.000 I0.000 J-1.500 K0.000 F600.000
G1 X35.639 Y6.271 Z-4.000 F600.000
G1 X44.381 Y-4.968 Z-4.000 F600.000
G1 X57.671 Y-4.968 Z-4.000 F600.000
G2 X59.171 Y-6.468 Z-4.000 I0.000 J-1.500 K0.000 F600.000
G1 X59.171 Y-10.746 Z-4.000 F600.000
G2 X57.671 Y-12.246 Z-4.000 I-1.500 J-0.000 K0.000 F600.000
G1 X50.042 Y-12.246 Z-4.000 F600.000
G1 X63.134 Y-29.079 Z-4.000 F600.000
G2 X61.950 Y-31.500 Z-4.000 I-1.184 J-0.921 K0.000 F600.000
G1 X2.050 Y-31.500 Z-4.000 F600.000
G2 X0.866 Y-29.079 Z-4.000 I-0.000 J1.500 K0.000 F600.000
G1 X13.958 Y-12.246 Z-4.000 F600.000
G1 X6.329 Y-12.246 Z-4.000 F600.000
G2 X4.829 Y-10.747 Z-4.000 I-0.000 J1.500 K0.000 F600.000
G1 X4.829 Y-6.468 Z-4.000 F600.000
G2 X4.858 Y-6.172 Z-4.000 I1.500 J0.000 K0.000 F600.000
G0 Z5.000
G0 X4.147 Y-5.619 Z5.000
G0 X4.147 Y-5.619 Z3.000
G1 X4.147 Y-5.619 Z-4.000 F600.000
G1 X3.639 Y-6.271 Z-4.000 F600.000
G1 X3.639 Y-17.064 Z-4.000 F600.000
G2 X2.139 Y-18.564 Z-4.000 I-1.500 J0.000 K0.000 F600.000
G1 X-2.139 Y-18.564 Z-4.000 F600.000
G2 X-3.639 Y-17.064 Z-4.000 I0.000 J1.500 K0.000 F600.000
G1 X-3.639 Y-6.271 Z-4.000 F600.000
G1 X-12.381 Y4.968 Z-4.000 F600.000
G1 X-25.671 Y4.968 Z-4.000 F600.000
G2 X-27.171 Y6.468 Z-4.000 I0.000 J1.500 K0.000 F600.000
G1 X-27.171 Y10.746 Z-4.000 F600.000
G2 X-25.671 Y12.246 Z-4.000 I1.500 J0.000 K0.000 F600.000
G1 X-18.042 Y12.246 Z-4.000 F600.000
G1 X-31.134 Y29.079 Z-4.000 F600.000
G2 X-29.950 Y31.500 Z-4.000 I1.184 J0.921 K0.000 F600.000
G1 X29.950 Y31.500 Z-4.000 F600.000
G2 X31.134 Y29.079 Z-4.000 I0.000 J-1.500 K0.000 F600.000
G1 X18.042 Y12.246 Z-4.000 F600.000
G1 X25.671 Y12.246 Z-4.000 F600.000
G2 X27.171 Y10.746 Z-4.000 I0.000 J-1.500 K0.000 F600.000
G1 X27.171 Y6.468 Z-4.000 F600.000
G2 X25.671 Y4.968 Z-4.000 I-1.500 J0.000 K0.000 F600.000
G1 X12.381 Y4.968 Z-4.000 F600.000
G1 X4.147 Y-5.619 Z-4.000 F600.000
G0 Z5.000
G0 Z5.000
(Finish operation: Profile006)
(Begin operation: Profile007)
(Path: Profile007)
(Profile007)
(Compensated Tool Path. Diameter: 3.0)
G0 Z5.000
G0 X0.000 Y0.000
G0 X-5.280 Y-5.396
G0 X-5.280 Y-5.396 Z3.000
G1 X-5.280 Y-5.396 Z-3.000 F600.000
G2 X-4.829 Y-6.468 Z-3.000 I-1.049 J-1.072 K0.000 F600.000
G1 X-4.829 Y-10.746 Z-3.000 F600.000
G2 X-6.329 Y-12.246 Z-3.000 I-1.500 J-0.000 K0.000 F600.000
G1 X-13.958 Y-12.246 Z-3.000 F600.000
G1 X-0.866 Y-29.079 Z-3.000 F600.000
G2 X-2.050 Y-31.500 Z-3.000 I-1.184 J-0.921 K0.000 F600.000
G1 X-61.950 Y-31.500 Z-3.000 F600.000
G2 X-63.134 Y-29.079 Z-3.000 I-0.000 J1.500 K0.000 F600.000
G1 X-50.042 Y-12.246 Z-3.000 F600.000
G1 X-57.671 Y-12.246 Z-3.000 F600.000
G2 X-59.171 Y-10.746 Z-3.000 I-0.000 J1.500 K0.000 F600.000
G1 X-59.171 Y-6.468 Z-3.000 F600.000
G2 X-57.671 Y-4.968 Z-3.000 I1.500 J0.000 K0.000 F600.000
G1 X-44.381 Y-4.968 Z-3.000 F600.000
G1 X-35.639 Y6.271 Z-3.000 F600.000
G1 X-35.639 Y17.064 Z-3.000 F600.000
G2 X-34.139 Y18.564 Z-3.000 I1.500 J0.000 K0.000 F600.000
G1 X-29.861 Y18.564 Z-3.000 F600.000
G2 X-28.361 Y17.064 Z-3.000 I0.000 J-1.500 K0.000 F600.000
G1 X-28.361 Y6.271 Z-3.000 F600.000
G1 X-19.619 Y-4.968 Z-3.000 F600.000
G1 X-6.329 Y-4.968 Z-3.000 F600.000
G2 X-5.280 Y-5.396 Z-3.000 I0.000 J-1.500 K0.000 F600.000
G1 X-5.280 Y-5.396 Z-4.000 F600.000
G2 X-4.829 Y-6.468 Z-4.000 I-1.049 J-1.072 K0.000 F600.000
G1 X-4.829 Y-10.746 Z-4.000 F600.000
G2 X-6.329 Y-12.246 Z-4.000 I-1.500 J-0.000 K0.000 F600.000
G1 X-13.958 Y-12.246 Z-4.000 F600.000
G1 X-0.866 Y-29.079 Z-4.000 F600.000
G2 X-2.050 Y-31.500 Z-4.000 I-1.184 J-0.921 K0.000 F600.000
G1 X-61.950 Y-31.500 Z-4.000 F600.000
G2 X-63.134 Y-29.079 Z-4.000 I-0.000 J1.500 K0.000 F600.000
G1 X-50.042 Y-12.246 Z-4.000 F600.000
G1 X-57.671 Y-12.246 Z-4.000 F600.000
G2 X-59.171 Y-10.746 Z-4.000 I-0.000 J1.500 K0.000 F600.000
G1 X-59.171 Y-6.468 Z-4.000 F600.000
G2 X-57.671 Y-4.968 Z-4.000 I1.500 J0.000 K0.000 F600.000
G1 X-44.381 Y-4.968 Z-4.000 F600.000
G1 X-35.639 Y6.271 Z-4.000 F600.000
G1 X-35.639 Y17.064 Z-4.000 F600.000
G2 X-34.139 Y18.564 Z-4.000 I1.500 J0.000 K0.000 F600.000
G1 X-29.861 Y18.564 Z-4.000 F600.000
G2 X-28.361 Y17.064 Z-4.000 I0.000 J-1.500 K0.000 F600.000
G1 X-28.361 Y6.271 Z-4.000 F600.000
G1 X-19.619 Y-4.968 Z-4.000 F600.000
G1 X-6.329 Y-4.968 Z-4.000 F600.000
G2 X-5.280 Y-5.396 Z-4.000 I0.000 J-1.500 K0.000 F600.000
G0 Z5.000
G0 Z5.000
(Finish operation: Profile007)
(Begin operation: Profile008)
(Path: Profile008)
(Profile008)
(Compensated Tool Path. Diameter: 3.0)
G0 Z5.000
G0 X0.000 Y0.000
G0 X-37.849 Y6.225
G0 X-37.849 Y6.225 Z3.000
G1 X-37.849 Y6.225 Z-3.000 F600.000
G2 X-39.329 Y4.968 Z-3.000 I-1.480 J0.243 K0.000 F600.000
G1 X-52.619 Y4.968 Z-3.000 F600.000
G1 X-61.361 Y-6.271 Z-3.000 F600.000
G1 X-61.361 Y-17.064 Z-3.000 F600.000
G2 X-62.861 Y-18.564 Z-3.000 I-1.500 J0.000 K0.000 F600.000
G1 X-67.139 Y-18.564 Z-3.000 F600.000
G2 X-68.639 Y-17.064 Z-3.000 I0.000 J1.500 K0.000 F600.000
G1 X-68.639 Y-6.271 Z-3.000 F600.000
G1 X-77.381 Y4.968 Z-3.000 F600.000
G1 X-90.671 Y4.968 Z-3.000 F600.000
G2 X-92.171 Y6.468 Z-3.000 I0.000 J1.500 K0.000 F600.000
G1 X-92.171 Y10.746 Z-3.000 F600.000
G2 X-90.671 Y12.246 Z-3.000 I1.500 J0.000 K0.000 F600.000
G1 X-83.042 Y12.246 Z-3.000 F600.000
G1 X-96.134 Y29.079 Z-3.000 F600.000
G2 X-94.950 Y31.500 Z-3.000 I1.184 J0.921 K0.000 F600.000
G1 X-35.050 Y31.500 Z-3.000 F600.000
G2 X-33.866 Y29.079 Z-3.000 I0.000 J-1.500 K0.000 F600.000
G1 X-46.958 Y12.246 Z-3.000 F600.000
G1 X-39.329 Y12.246 Z-3.000 F600.000
G2 X-37.829 Y10.746 Z-3.000 I0.000 J-1.500 K0.000 F600.000
G1 X-37.829 Y6.468 Z-3.000 F600.000
G2 X-37.849 Y6.225 Z-3.000 I-1.500 J0.000 K0.000 F600.000
G1 X-37.849 Y6.225 Z-4.000 F600.000
G2 X-39.329 Y4.968 Z-4.000 I-1.480 J0.243 K0.000 F600.000
G1 X-52.619 Y4.968 Z-4.000 F600.000
G1 X-61.361 Y-6.271 Z-4.000 F600.000
G1 X-61.361 Y-17.064 Z-4.000 F600.000
G2 X-62.861 Y-18.564 Z-4.000 I-1.500 J0.000 K0.000 F600.000
G1 X-67.139 Y-18.564 Z-4.000 F600.000
G2 X-68.639 Y-17.064 Z-4.000 I0.000 J1.500 K0.000 F600.000
G1 X-68.639 Y-6.271 Z-4.000 F600.000
G1 X-77.381 Y4.968 Z-4.000 F600.000
G1 X-90.671 Y4.968 Z-4.000 F600.000
G2 X-92.171 Y6.468 Z-4.000 I0.000 J1.500 K0.000 F600.000
G1 X-92.171 Y10.746 Z-4.000 F600.000
G2 X-90.671 Y12.246 Z-4.000 I1.500 J0.000 K0.000 F600.000
G1 X-83.042 Y12.246 Z-4.000 F600.000
G1 X-96.134 Y29.079 Z-4.000 F600.000
G2 X-94.950 Y31.500 Z-4.000 I1.184 J0.921 K0.000 F600.000
G1 X-35.050 Y31.500 Z-4.000 F600.000
G2 X-33.866 Y29.079 Z-4.000 I0.000 J-1.500 K0.000 F600.000
G1 X-46.958 Y12.246 Z-4.000 F600.000
G1 X-39.329 Y12.246 Z-4.000 F600.000
G2 X-37.829 Y10.746 Z-4.000 I0.000 J-1.500 K0.000 F600.000
G1 X-37.829 Y6.468 Z-4.000 F600.000
G2 X-37.849 Y6.225 Z-4.000 I-1.500 J0.000 K0.000 F600.000
G0 Z5.000
G0 Z5.000
(Finish operation: Profile008)
(Begin operation: Profile009)
(Path: Profile009)
(Profile009)
(Compensated Tool Path. Diameter: 3.0)
G0 Z5.000
G0 X0.000 Y0.000
G0 X37.849 Y6.225
G0 X37.849 Y6.225 Z3.000
G1 X37.849 Y6.225 Z-3.000 F600.000
G2 X37.829 Y6.468 Z-3.000 I1.480 J0.243 K0.000 F600.000
G1 X37.829 Y10.746 Z-3.000 F600.000
G2 X39.329 Y12.246 Z-3.000 I1.500 J0.000 K0.000 F600.000
G1 X46.958 Y12.246 Z-3.000 F600.000
G1 X33.866 Y29.079 Z-3.000 F600.000
G2 X35.050 Y31.500 Z-3.000 I1.184 J0.921 K0.000 F600.000
G1 X94.950 Y31.500 Z-3.000 F600.000
G2 X96.134 Y29.079 Z-3.000 I0.000 J-1.500 K0.000 F600.000
G1 X83.042 Y12.246 Z-3.000 F600.000
G1 X90.671 Y12.246 Z-3.000 F600.000
G2 X92.171 Y10.746 Z-3.000 I0.000 J-1.500 K0.000 F600.000
G1 X92.171 Y6.468 Z-3.000 F600.000
G2 X90.671 Y4.968 Z-3.000 I-1.500 J0.000 K0.000 F600.000
G1 X77.381 Y4.968 Z-3.000 F600.000
G1 X68.639 Y-6.271 Z-3.000 F600.000
G1 X68.639 Y-17.064 Z-3.000 F600.000
G2 X67.139 Y-18.564 Z-3.000 I-1.500 J0.000 K0.000 F600.000
G1 X62.861 Y-18.564 Z-3.000 F600.000
G2 X61.361 Y-17.064 Z-3.000 I0.000 J1.500 K0.000 F600.000
G1 X61.361 Y-6.271 Z-3.000 F600.000
G1 X52.619 Y4.968 Z-3.000 F600.000
G1 X39.329 Y4.968 Z-3.000 F600.000
G2 X37.849 Y6.225 Z-3.000 I0.000 J1.500 K0.000 F600.000
G1 X37.849 Y6.225 Z-4.000 F600.000
G2 X37.829 Y6.468 Z-4.000 I1.480 J0.243 K0.000 F600.000
G1 X37.829 Y10.746 Z-4.000 F600.000
G2 X39.329 Y12.246 Z-4.000 I1.500 J0.000 K0.000 F600.000
G1 X46.958 Y12.246 Z-4.000 F600.000
G1 X33.866 Y29.079 Z-4.000 F600.000
G2 X35.050 Y31.500 Z-4.000 I1.184 J0.921 K0.000 F600.000
G1 X94.950 Y31.500 Z-4.000 F600.000
G2 X96.134 Y29.079 Z-4.000 I0.000 J-1.500 K0.000 F600.000
G1 X83.042 Y12.246 Z-4.000 F600.000
G1 X90.671 Y12.246 Z-4.000 F600.000
G2 X92.171 Y10.746 Z-4.000 I0.000 J-1.500 K0.000 F600.000
G1 X92.171 Y6.468 Z-4.000 F600.000
G2 X90.671 Y4.968 Z-4.000 I-1.500 J0.000 K0.000 F600.000
G1 X77.381 Y4.968 Z-4.000 F600.000
G1 X68.639 Y-6.271 Z-4.000 F600.000
G1 X68.639 Y-17.064 Z-4.000 F600.000
G2 X67.139 Y-18.564 Z-4.000 I-1.500 J0.000 K0.000 F600.000
G1 X62.861 Y-18.564 Z-4.000 F600.000
G2 X61.361 Y-17.064 Z-4.000 I0.000 J1.500 K0.000 F600.000
G1 X61.361 Y-6.271 Z-4.000 F600.000
G1 X52.619 Y4.968 Z-4.000 F600.000
G1 X39.329 Y4.968 Z-4.000 F600.000
G2 X37.849 Y6.225 Z-4.000 I0.000 J1.500 K0.000 F600.000
G0 Z5.000
G0 Z5.000
(Finish operation: Profile009)
(Begin postamble)
M5
G17 G90
M2
