(Exported by FreeCAD)
(Post Processor: script_module)
(Output Time:2026-01-16 16:24:35.208038)
(Begin preamble)
G17 G90
G21
(Begin operation: Fixture)
(Path: Fixture)
G54
(Finish operation: Fixture)
(Begin operation: 2_5mmEndMill004)
(Path: 2_5mmEndMill004)
(2_5mmEndMill004)
(Begin toolchange)
( M6 T2 )
M3 S20000
(Finish operation: 2_5mmEndMill004)
(Begin operation: MillFace)
(Path: MillFace)
(MillFace)
G0 Z5.000
G0 X0.000 Y0.000
G0 Y0.950
G0 Y0.950 Z3.000
G1 X-0.000 Y0.950 Z-2.000 F360.000
G1 X7.750 Y0.950 Z-2.000 F360.000
G1 X7.750 Y-17.750 Z-2.000 F360.000
G1 X-42.750 Y-17.750 Z-2.000 F360.000
G1 X-42.750 Y0.950 Z-2.000 F360.000
G1 X-0.000 Y0.950 Z-2.000 F360.000
G1 X0.000 Y-1.050 Z-2.000 F360.000
G1 X5.750 Y-1.050 Z-2.000 F360.000
G1 X5.750 Y-15.750 Z-2.000 F360.000
G1 X-40.750 Y-15.750 Z-2.000 F360.000
G1 X-40.750 Y-1.050 Z-2.000 F360.000
G1 X0.000 Y-1.050 Z-2.000 F360.000
G1 X0.000 Y-3.050 Z-2.000 F360.000
G1 X3.750 Y-3.050 Z-2.000 F360.000
G1 X3.750 Y-13.750 Z-2.000 F360.000
G1 X-38.750 Y-13.750 Z-2.000 F360.000
G1 X-38.750 Y-3.050 Z-2.000 F360.000
G1 X0.000 Y-3.050 Z-2.000 F360.000
G1 X0.000 Y-5.050 Z-2.000 F360.000
G1 X1.750 Y-5.050 Z-2.000 F360.000
G1 X1.750 Y-11.750 Z-2.000 F360.000
G1 X-36.750 Y-11.750 Z-2.000 F360.000
G1 X-36.750 Y-5.050 Z-2.000 F360.000
G1 X0.000 Y-5.050 Z-2.000 F360.000
G1 X-0.250 Y-7.050 Z-2.000 F360.000
G1 X-0.250 Y-9.750 Z-2.000 F360.000
G1 X-34.750 Y-9.750 Z-2.000 F360.000
G1 X-34.750 Y-7.050 Z-2.000 F360.000
G1 X-0.250 Y-7.050 Z-2.000 F360.000
G1 X-0.875 Y-7.675 Z-2.000 F360.000
G1 X-0.875 Y-9.125 Z-2.000 F360.000
G1 X-34.125 Y-9.125 Z-2.000 F360.000
G1 X-34.125 Y-7.675 Z-2.000 F360.000
G1 X-0.875 Y-7.675 Z-2.000 F360.000
G1 X-1.500 Y-8.300 Z-2.000 F360.000
G1 X-1.500 Y-8.500 Z-2.000 F360.000
G1 X-33.500 Y-8.500 Z-2.000 F360.000
G1 X-33.500 Y-8.300 Z-2.000 F360.000
G1 X-1.500 Y-8.300 Z-2.000 F360.000
G1 X-1.500 Y-8.300 Z-4.000 F360.000
G1 X-1.500 Y-8.500 Z-4.000 F360.000
G1 X-33.500 Y-8.500 Z-4.000 F360.000
G1 X-33.500 Y-8.300 Z-4.000 F360.000
G1 X-1.500 Y-8.300 Z-4.000 F360.000
G1 X-1.500 Y-7.675 Z-4.000 F360.000
G1 X-0.875 Y-7.675 Z-4.000 F360.000
G1 X-0.875 Y-9.125 Z-4.000 F360.000
G1 X-34.125 Y-9.125 Z-4.000 F360.000
G1 X-34.125 Y-7.675 Z-4.000 F360.000
G1 X-1.500 Y-7.675 Z-4.000 F360.000
G1 X-1.500 Y-7.050 Z-4.000 F360.000
G1 X-0.250 Y-7.050 Z-4.000 F360.000
G1 X-0.250 Y-9.750 Z-4.000 F360.000
G1 X-34.750 Y-9.750 Z-4.000 F360.000
G1 X-34.750 Y-7.050 Z-4.000 F360.000
G1 X-1.500 Y-7.050 Z-4.000 F360.000
G1 X-1.500 Y-5.050 Z-4.000 F360.000
G1 X1.750 Y-5.050 Z-4.000 F360.000
G1 X1.750 Y-11.750 Z-4.000 F360.000
G1 X-36.750 Y-11.750 Z-4.000 F360.000
G1 X-36.750 Y-5.050 Z-4.000 F360.000
G1 X-1.500 Y-5.050 Z-4.000 F360.000
G1 X-1.500 Y-3.050 Z-4.000 F360.000
G1 X3.750 Y-3.050 Z-4.000 F360.000
G1 X3.750 Y-13.750 Z-4.000 F360.000
G1 X-38.750 Y-13.750 Z-4.000 F360.000
G1 X-38.750 Y-3.050 Z-4.000 F360.000
G1 X-1.500 Y-3.050 Z-4.000 F360.000
G1 X-1.500 Y-1.050 Z-4.000 F360.000
G1 X5.750 Y-1.050 Z-4.000 F360.000
G1 X5.750 Y-15.750 Z-4.000 F360.000
G1 X-40.750 Y-15.750 Z-4.000 F360.000
G1 X-40.750 Y-1.050 Z-4.000 F360.000
G1 X-1.500 Y-1.050 Z-4.000 F360.000
G1 X-1.500 Y0.950 Z-4.000 F360.000
G1 X7.750 Y0.950 Z-4.000 F360.000
G1 X7.750 Y-17.750 Z-4.000 F360.000
G1 X-42.750 Y-17.750 Z-4.000 F360.000
G1 X-42.750 Y0.950 Z-4.000 F360.000
G1 X-1.500 Y0.950 Z-4.000 F360.000
G1 X-1.500 Y2.950 Z-4.000 F360.000
G1 X9.750 Y2.950 Z-4.000 F360.000
G1 X9.750 Y-19.750 Z-4.000 F360.000
G1 X-44.750 Y-19.750 Z-4.000 F360.000
G1 X-44.750 Y2.950 Z-4.000 F360.000
G1 X-1.500 Y2.950 Z-4.000 F360.000
G1 X-1.500 Y4.950 Z-4.000 F360.000
G1 X11.750 Y4.950 Z-4.000 F360.000
G1 X11.750 Y-21.750 Z-4.000 F360.000
G1 X-46.750 Y-21.750 Z-4.000 F360.000
G1 X-46.750 Y4.950 Z-4.000 F360.000
G1 X-1.500 Y4.950 Z-4.000 F360.000
G1 X-1.500 Y6.950 Z-4.000 F360.000
G1 X13.750 Y6.950 Z-4.000 F360.000
G1 X13.750 Y-23.750 Z-4.000 F360.000
G1 X-48.750 Y-23.750 Z-4.000 F360.000
G1 X-48.750 Y6.950 Z-4.000 F360.000
G1 X-1.500 Y6.950 Z-4.000 F360.000
G1 X-1.500 Y8.950 Z-4.000 F360.000
G1 X15.750 Y8.950 Z-4.000 F360.000
G1 X15.750 Y-25.750 Z-4.000 F360.000
G1 X-50.750 Y-25.750 Z-4.000 F360.000
G1 X-50.750 Y8.950 Z-4.000 F360.000
G1 X-1.500 Y8.950 Z-4.000 F360.000
G1 X-1.500 Y10.950 Z-4.000 F360.000
G1 X17.750 Y10.950 Z-4.000 F360.000
G1 X17.750 Y-27.750 Z-4.000 F360.000
G1 X-52.750 Y-27.750 Z-4.000 F360.000
G1 X-52.750 Y10.950 Z-4.000 F360.000
G1 X-1.500 Y10.950 Z-4.000 F360.000
G1 X-1.500 Y12.950 Z-4.000 F360.000
G1 X19.750 Y12.950 Z-4.000 F360.000
G1 X19.750 Y-29.750 Z-4.000 F360.000
G1 X-54.750 Y-29.750 Z-4.000 F360.000
G1 X-54.750 Y12.950 Z-4.000 F360.000
G1 X-1.500 Y12.950 Z-4.000 F360.000
G1 X-1.500 Y14.950 Z-4.000 F360.000
G1 X21.750 Y14.950 Z-4.000 F360.000
G1 X21.750 Y-31.750 Z-4.000 F360.000
G1 X-56.750 Y-31.750 Z-4.000 F360.000
G1 X-56.750 Y14.950 Z-4.000 F360.000
G1 X-1.500 Y14.950 Z-4.000 F360.000
G1 X-1.500 Y16.950 Z-4.000 F360.000
G1 X21.951 Y16.950 Z-4.000 F360.000
G2 X23.750 Y15.151 Z-4.000 I0.039 J-1.760 K0.000 F360.000
G1 X23.750 Y-31.951 Z-4.000 F360.000
G2 X21.951 Y-33.750 Z-4.000 I-1.760 J-0.039 K0.000 F360.000
G1 X-56.951 Y-33.750 Z-4.000 F360.000
G2 X-58.750 Y-31.951 Z-4.000 I-0.039 J1.760 K0.000 F360.000
G1 X-58.750 Y15.151 Z-4.000 F360.000
G2 X-56.951 Y16.950 Z-4.000 I1.760 J0.039 K0.000 F360.000
G1 X-1.500 Y16.950 Z-4.000 F360.000
G1 X-1.500 Y16.950 Z-2.000 F360.000
G1 X21.951 Y16.950 Z-2.000 F360.000
G2 X23.750 Y15.151 Z-2.000 I0.039 J-1.760 K0.000 F360.000
G1 X23.750 Y-31.951 Z-2.000 F360.000
G2 X21.951 Y-33.750 Z-2.000 I-1.760 J-0.039 K0.000 F360.000
G1 X-56.951 Y-33.750 Z-2.000 F360.000
G2 X-58.750 Y-31.951 Z-2.000 I-0.039 J1.760 K0.000 F360.000
G1 X-58.750 Y15.151 Z-2.000 F360.000
G2 X-56.951 Y16.950 Z-2.000 I1.760 J0.039 K0.000 F360.000
G1 X-1.500 Y16.950 Z-2.000 F360.000
G1 X-1.500 Y14.950 Z-2.000 F360.000
G1 X21.750 Y14.950 Z-2.000 F360.000
G1 X21.750 Y-31.750 Z-2.000 F360.000
G1 X-56.750 Y-31.750 Z-2.000 F360.000
G1 X-56.750 Y14.950 Z-2.000 F360.000
G1 X-1.500 Y14.950 Z-2.000 F360.000
G1 X-1.500 Y12.950 Z-2.000 F360.000
G1 X19.750 Y12.950 Z-2.000 F360.000
G1 X19.750 Y-29.750 Z-2.000 F360.000
G1 X-54.750 Y-29.750 Z-2.000 F360.000
G1 X-54.750 Y12.950 Z-2.000 F360.000
G1 X-1.500 Y12.950 Z-2.000 F360.000
G1 X-1.500 Y10.950 Z-2.000 F360.000
G1 X17.750 Y10.950 Z-2.000 F360.000
G1 X17.750 Y-27.750 Z-2.000 F360.000
G1 X-52.750 Y-27.750 Z-2.000 F360.000
G1 X-52.750 Y10.950 Z-2.000 F360.000
G1 X-1.500 Y10.950 Z-2.000 F360.000
G1 X-1.500 Y8.950 Z-2.000 F360.000
G1 X15.750 Y8.950 Z-2.000 F360.000
G1 X15.750 Y-25.750 Z-2.000 F360.000
G1 X-50.750 Y-25.750 Z-2.000 F360.000
G1 X-50.750 Y8.950 Z-2.000 F360.000
G1 X-1.500 Y8.950 Z-2.000 F360.000
G1 X-1.500 Y6.950 Z-2.000 F360.000
G1 X13.750 Y6.950 Z-2.000 F360.000
G1 X13.750 Y-23.750 Z-2.000 F360.000
G1 X-48.750 Y-23.750 Z-2.000 F360.000
G1 X-48.750 Y6.950 Z-2.000 F360.000
G1 X-1.500 Y6.950 Z-2.000 F360.000
G1 X-1.500 Y4.950 Z-2.000 F360.000
G1 X11.750 Y4.950 Z-2.000 F360.000
G1 X11.750 Y-21.750 Z-2.000 F360.000
G1 X-46.750 Y-21.750 Z-2.000 F360.000
G1 X-46.750 Y4.950 Z-2.000 F360.000
G1 X-1.500 Y4.950 Z-2.000 F360.000
G1 X-1.500 Y2.950 Z-2.000 F360.000
G1 X9.750 Y2.950 Z-2.000 F360.000
G1 X9.750 Y-19.750 Z-2.000 F360.000
G1 X-44.750 Y-19.750 Z-2.000 F360.000
G1 X-44.750 Y2.950 Z-2.000 F360.000
G1 X-1.500 Y2.950 Z-2.000 F360.000
G1 X-1.500 Y2.950 Z-6.000 F360.000
G1 X9.750 Y2.950 Z-6.000 F360.000
G1 X9.750 Y-19.750 Z-6.000 F360.000
G1 X-44.750 Y-19.750 Z-6.000 F360.000
G1 X-44.750 Y2.950 Z-6.000 F360.000
G1 X-1.500 Y2.950 Z-6.000 F360.000
G1 X-1.500 Y0.950 Z-6.000 F360.000
G1 X7.750 Y0.950 Z-6.000 F360.000
G1 X7.750 Y-17.750 Z-6.000 F360.000
G1 X-42.750 Y-17.750 Z-6.000 F360.000
G1 X-42.750 Y0.950 Z-6.000 F360.000
G1 X-1.500 Y0.950 Z-6.000 F360.000
G1 X-1.500 Y-1.050 Z-6.000 F360.000
G1 X5.750 Y-1.050 Z-6.000 F360.000
G1 X5.750 Y-15.750 Z-6.000 F360.000
G1 X-40.750 Y-15.750 Z-6.000 F360.000
G1 X-40.750 Y-1.050 Z-6.000 F360.000
G1 X-1.500 Y-1.050 Z-6.000 F360.000
G1 X-1.500 Y-3.050 Z-6.000 F360.000
G1 X3.750 Y-3.050 Z-6.000 F360.000
G1 X3.750 Y-13.750 Z-6.000 F360.000
G1 X-38.750 Y-13.750 Z-6.000 F360.000
G1 X-38.750 Y-3.050 Z-6.000 F360.000
G1 X-1.500 Y-3.050 Z-6.000 F360.000
G1 X-1.500 Y-5.050 Z-6.000 F360.000
G1 X1.750 Y-5.050 Z-6.000 F360.000
G1 X1.750 Y-11.750 Z-6.000 F360.000
G1 X-36.750 Y-11.750 Z-6.000 F360.000
G1 X-36.750 Y-5.050 Z-6.000 F360.000
G1 X-1.500 Y-5.050 Z-6.000 F360.000
G1 X-1.500 Y-7.050 Z-6.000 F360.000
G1 X-0.250 Y-7.050 Z-6.000 F360.000
G1 X-0.250 Y-9.750 Z-6.000 F360.000
G1 X-34.750 Y-9.750 Z-6.000 F360.000
G1 X-34.750 Y-7.050 Z-6.000 F360.000
G1 X-1.500 Y-7.050 Z-6.000 F360.000
G1 X-1.500 Y-7.675 Z-6.000 F360.000
G1 X-0.875 Y-7.675 Z-6.000 F360.000
G1 X-0.875 Y-9.125 Z-6.000 F360.000
G1 X-34.125 Y-9.125 Z-6.000 F360.000
G1 X-34.125 Y-7.675 Z-6.000 F360.000
G1 X-1.500 Y-7.675 Z-6.000 F360.000
G1 X-1.500 Y-8.300 Z-6.000 F360.000
G1 X-1.500 Y-8.500 Z-6.000 F360.000
G1 X-33.500 Y-8.500 Z-6.000 F360.000
G1 X-33.500 Y-8.300 Z-6.000 F360.000
G1 X-1.500 Y-8.300 Z-6.000 F360.000
G1 X-1.500 Y-8.300 Z-8.000 F360.000
G1 X-1.500 Y-8.500 Z-8.000 F360.000
G1 X-33.500 Y-8.500 Z-8.000 F360.000
G1 X-33.500 Y-8.300 Z-8.000 F360.000
G1 X-1.500 Y-8.300 Z-8.000 F360.000
G1 X-1.500 Y-7.675 Z-8.000 F360.000
G1 X-0.875 Y-7.675 Z-8.000 F360.000
G1 X-0.875 Y-9.125 Z-8.000 F360.000
G1 X-34.125 Y-9.125 Z-8.000 F360.000
G1 X-34.125 Y-7.675 Z-8.000 F360.000
G1 X-1.500 Y-7.675 Z-8.000 F360.000
G1 X-1.500 Y-7.050 Z-8.000 F360.000
G1 X-0.250 Y-7.050 Z-8.000 F360.000
G1 X-0.250 Y-9.750 Z-8.000 F360.000
G1 X-34.750 Y-9.750 Z-8.000 F360.000
G1 X-34.750 Y-7.050 Z-8.000 F360.000
G1 X-1.500 Y-7.050 Z-8.000 F360.000
G1 X-1.500 Y-5.050 Z-8.000 F360.000
G1 X1.750 Y-5.050 Z-8.000 F360.000
G1 X1.750 Y-11.750 Z-8.000 F360.000
G1 X-36.750 Y-11.750 Z-8.000 F360.000
G1 X-36.750 Y-5.050 Z-8.000 F360.000
G1 X-1.500 Y-5.050 Z-8.000 F360.000
G1 X-1.500 Y-3.050 Z-8.000 F360.000
G1 X3.750 Y-3.050 Z-8.000 F360.000
G1 X3.750 Y-13.750 Z-8.000 F360.000
G1 X-38.750 Y-13.750 Z-8.000 F360.000
G1 X-38.750 Y-3.050 Z-8.000 F360.000
G1 X-1.500 Y-3.050 Z-8.000 F360.000
G1 X-1.500 Y-1.050 Z-8.000 F360.000
G1 X5.750 Y-1.050 Z-8.000 F360.000
G1 X5.750 Y-15.750 Z-8.000 F360.000
G1 X-40.750 Y-15.750 Z-8.000 F360.000
G1 X-40.750 Y-1.050 Z-8.000 F360.000
G1 X-1.500 Y-1.050 Z-8.000 F360.000
G1 X-1.500 Y0.950 Z-8.000 F360.000
G1 X7.750 Y0.950 Z-8.000 F360.000
G1 X7.750 Y-17.750 Z-8.000 F360.000
G1 X-42.750 Y-17.750 Z-8.000 F360.000
G1 X-42.750 Y0.950 Z-8.000 F360.000
G1 X-1.500 Y0.950 Z-8.000 F360.000
G1 X-1.500 Y2.950 Z-8.000 F360.000
G1 X9.750 Y2.950 Z-8.000 F360.000
G1 X9.750 Y-19.750 Z-8.000 F360.000
G1 X-44.750 Y-19.750 Z-8.000 F360.000
G1 X-44.750 Y2.950 Z-8.000 F360.000
G1 X-1.500 Y2.950 Z-8.000 F360.000
G1 X-1.500 Y4.950 Z-8.000 F360.000
G1 X11.750 Y4.950 Z-8.000 F360.000
G1 X11.750 Y-21.750 Z-8.000 F360.000
G1 X-46.750 Y-21.750 Z-8.000 F360.000
G1 X-46.750 Y4.950 Z-8.000 F360.000
G1 X-1.500 Y4.950 Z-8.000 F360.000
G1 X-1.500 Y6.950 Z-8.000 F360.000
G1 X13.750 Y6.950 Z-8.000 F360.000
G1 X13.750 Y-23.750 Z-8.000 F360.000
G1 X-48.750 Y-23.750 Z-8.000 F360.000
G1 X-48.750 Y6.950 Z-8.000 F360.000
G1 X-1.500 Y6.950 Z-8.000 F360.000
G1 X-1.500 Y8.950 Z-8.000 F360.000
G1 X15.750 Y8.950 Z-8.000 F360.000
G1 X15.750 Y-25.750 Z-8.000 F360.000
G1 X-50.750 Y-25.750 Z-8.000 F360.000
G1 X-50.750 Y8.950 Z-8.000 F360.000
G1 X-1.500 Y8.950 Z-8.000 F360.000
G1 X-1.500 Y10.950 Z-8.000 F360.000
G1 X17.750 Y10.950 Z-8.000 F360.000
G1 X17.750 Y-27.750 Z-8.000 F360.000
G1 X-52.750 Y-27.750 Z-8.000 F360.000
G1 X-52.750 Y10.950 Z-8.000 F360.000
G1 X-1.500 Y10.950 Z-8.000 F360.000
G1 X-1.500 Y12.950 Z-8.000 F360.000
G1 X19.750 Y12.950 Z-8.000 F360.000
G1 X19.750 Y-29.750 Z-8.000 F360.000
G1 X-54.750 Y-29.750 Z-8.000 F360.000
G1 X-54.750 Y12.950 Z-8.000 F360.000
G1 X-1.500 Y12.950 Z-8.000 F360.000
G1 X-1.500 Y14.950 Z-8.000 F360.000
G1 X21.750 Y14.950 Z-8.000 F360.000
G1 X21.750 Y-31.750 Z-8.000 F360.000
G1 X-56.750 Y-31.750 Z-8.000 F360.000
G1 X-56.750 Y14.950 Z-8.000 F360.000
G1 X-1.500 Y14.950 Z-8.000 F360.000
G1 X-1.500 Y16.950 Z-8.000 F360.000
G1 X21.951 Y16.950 Z-8.000 F360.000
G2 X23.750 Y15.151 Z-8.000 I0.039 J-1.760 K0.000 F360.000
G1 X23.750 Y-31.951 Z-8.000 F360.000
G2 X21.951 Y-33.750 Z-8.000 I-1.760 J-0.039 K0.000 F360.000
G1 X-56.951 Y-33.750 Z-8.000 F360.000
G2 X-58.750 Y-31.951 Z-8.000 I-0.039 J1.760 K0.000 F360.000
G1 X-58.750 Y15.151 Z-8.000 F360.000
G2 X-56.951 Y16.950 Z-8.000 I1.760 J0.039 K0.000 F360.000
G1 X-1.500 Y16.950 Z-8.000 F360.000
G1 X-1.500 Y16.950 Z-6.000 F360.000
G1 X21.951 Y16.950 Z-6.000 F360.000
G2 X23.750 Y15.151 Z-6.000 I0.039 J-1.760 K0.000 F360.000
G1 X23.750 Y-31.951 Z-6.000 F360.000
G2 X21.951 Y-33.750 Z-6.000 I-1.760 J-0.039 K0.000 F360.000
G1 X-56.951 Y-33.750 Z-6.000 F360.000
G2 X-58.750 Y-31.951 Z-6.000 I-0.039 J1.760 K0.000 F360.000
G1 X-58.750 Y15.151 Z-6.000 F360.000
G2 X-56.951 Y16.950 Z-6.000 I1.760 J0.039 K0.000 F360.000
G1 X-1.500 Y16.950 Z-6.000 F360.000
G1 X-1.500 Y14.950 Z-6.000 F360.000
G1 X21.750 Y14.950 Z-6.000 F360.000
G1 X21.750 Y-31.750 Z-6.000 F360.000
G1 X-56.750 Y-31.750 Z-6.000 F360.000
G1 X-56.750 Y14.950 Z-6.000 F360.000
G1 X-1.500 Y14.950 Z-6.000 F360.000
G1 X-1.500 Y12.950 Z-6.000 F360.000
G1 X19.750 Y12.950 Z-6.000 F360.000
G1 X19.750 Y-29.750 Z-6.000 F360.000
G1 X-54.750 Y-29.750 Z-6.000 F360.000
G1 X-54.750 Y12.950 Z-6.000 F360.000
G1 X-1.500 Y12.950 Z-6.000 F360.000
G1 X-1.500 Y10.950 Z-6.000 F360.000
G1 X17.750 Y10.950 Z-6.000 F360.000
G1 X17.750 Y-27.750 Z-6.000 F360.000
G1 X-52.750 Y-27.750 Z-6.000 F360.000
G1 X-52.750 Y10.950 Z-6.000 F360.000
G1 X-1.500 Y10.950 Z-6.000 F360.000
G1 X-1.500 Y8.950 Z-6.000 F360.000
G1 X15.750 Y8.950 Z-6.000 F360.000
G1 X15.750 Y-25.750 Z-6.000 F360.000
G1 X-50.750 Y-25.750 Z-6.000 F360.000
G1 X-50.750 Y8.950 Z-6.000 F360.000
G1 X-1.500 Y8.950 Z-6.000 F360.000
G1 X-1.500 Y6.950 Z-6.000 F360.000
G1 X13.750 Y6.950 Z-6.000 F360.000
G1 X13.750 Y-23.750 Z-6.000 F360.000
G1 X-48.750 Y-23.750 Z-6.000 F360.000
G1 X-48.750 Y6.950 Z-6.000 F360.000
G1 X-1.500 Y6.950 Z-6.000 F360.000
G1 X-1.500 Y4.950 Z-6.000 F360.000
G1 X11.750 Y4.950 Z-6.000 F360.000
G1 X11.750 Y-21.750 Z-6.000 F360.000
G1 X-46.750 Y-21.750 Z-6.000 F360.000
G1 X-46.750 Y4.950 Z-6.000 F360.000
G1 X-1.500 Y4.950 Z-6.000 F360.000
G0 Z5.000
G0 Z5.000
(Finish operation: MillFace)
(Begin operation: Profile001)
(Path: Profile001)
(Profile001)
(Compensated Tool Path. Diameter: 2.5)
G0 Z5.000
G0 X80.380 Y32.797
G0 Z3.000
G1 X80.380 Y32.797 Z-2.000 F360.000
G1 X83.519 Y31.170 Z-2.000 F360.000
G2 X83.944 Y30.809 Z-2.000 I-0.577 J-1.109 K0.000 F360.000
G1 X86.567 Y27.299 Z-2.000 F360.000
G1 X86.747 Y26.960 Z-2.000 F360.000
G1 X87.938 Y23.522 Z-2.000 F360.000
G1 X88.005 Y23.162 Z-2.000 F360.000
G1 X88.103 Y20.659 Z-2.000 F360.000
G1 X88.030 Y18.549 Z-2.000 F360.000
G1 X87.935 Y18.114 Z-2.000 F360.000
G1 X86.720 Y15.199 Z-2.000 F360.000
G2 X86.402 Y14.750 Z-2.000 I-1.154 J0.481 K0.000 F360.000
G1 X85.245 Y13.709 Z-2.000 F360.000
G2 X88.972 Y12.989 Z-2.000 I-5.213 J-37.009 K0.000 F360.000
G1 X92.008 Y11.775 Z-2.000 F360.000
G1 X92.172 Y11.695 Z-2.000 F360.000
G1 X94.638 Y10.262 Z-2.000 F360.000
G1 X94.875 Y10.083 Z-2.000 F360.000
G1 X96.915 Y8.128 Z-2.000 F360.000
G1 X97.168 Y7.784 Z-2.000 F360.000
G1 X98.383 Y5.355 Z-2.000 F360.000
G1 X98.489 Y5.051 Z-2.000 F360.000
G1 X99.096 Y2.136 Z-2.000 F360.000
G1 X99.116 Y1.752 Z-2.000 F360.000
G1 X98.751 Y-1.770 Z-2.000 F360.000
G2 X98.601 Y-2.249 Z-2.000 I-1.243 J0.129 K0.000 F360.000
G1 X97.386 Y-4.435 Z-2.000 F360.000
G1 X97.132 Y-4.755 Z-2.000 F360.000
G1 X94.581 Y-7.063 Z-2.000 F360.000
G1 X94.207 Y-7.296 Z-2.000 F360.000
G1 X91.170 Y-8.511 Z-2.000 F360.000
G1 X90.844 Y-8.593 Z-2.000 F360.000
G1 X86.471 Y-9.079 Z-2.000 F360.000
G1 X83.678 Y-9.240 Z-2.000 F360.000
G1 X85.567 Y-10.907 Z-2.000 F360.000
G2 X85.915 Y-11.418 Z-2.000 I-0.827 J-0.937 K0.000 F360.000
G1 X87.372 Y-15.426 Z-2.000 F360.000
G1 X87.447 Y-15.886 Z-2.000 F360.000
G1 X87.326 Y-20.502 Z-2.000 F360.000
G2 X87.164 Y-21.084 Z-2.000 I-1.250 J0.033 K0.000 F360.000
G1 X85.585 Y-23.878 Z-2.000 F360.000
G1 X85.381 Y-24.146 Z-2.000 F360.000
G1 X82.101 Y-27.426 Z-2.000 F360.000
G2 X81.569 Y-27.742 Z-2.000 I-0.884 J0.884 K0.000 F360.000
G1 X74.524 Y-29.807 Z-2.000 F360.000
G1 X74.346 Y-29.845 Z-2.000 F360.000
G1 X68.273 Y-30.695 Z-2.000 F360.000
G1 X66.490 Y-30.817 Z-2.000 F360.000
G1 X68.376 Y-32.703 Z-2.000 F360.000
G1 X68.627 Y-33.063 Z-2.000 F360.000
G1 X70.085 Y-36.221 Z-2.000 F360.000
G1 X70.191 Y-36.596 Z-2.000 F360.000
G1 X70.555 Y-39.633 Z-2.000 F360.000
G1 X70.552 Y-39.953 Z-2.000 F360.000
G1 X70.066 Y-43.475 Z-2.000 F360.000
G2 X69.903 Y-43.942 Z-2.000 I-1.238 J0.171 K0.000 F360.000
G1 X67.960 Y-47.221 Z-2.000 F360.000
G2 X67.492 Y-47.677 Z-2.000 I-1.075 J0.637 K0.000 F360.000
G1 X61.825 Y-50.825 Z-2.000 F360.000
G1 X61.412 Y-50.967 Z-2.000 F360.000
G1 X54.754 Y-52.016 Z-2.000 F360.000
G1 X40.652 Y-52.869 Z-2.000 F360.000
G1 X-46.911 Y-52.871 Z-2.000 F360.000
G1 X-62.832 Y-51.743 Z-2.000 F360.000
G1 X-76.947 Y-49.493 Z-2.000 F360.000
G1 X-77.154 Y-49.441 Z-2.000 F360.000
G1 X-86.167 Y-46.356 Z-2.000 F360.000
G1 X-86.524 Y-46.164 Z-2.000 F360.000
G1 X-93.934 Y-40.468 Z-2.000 F360.000
G2 X-94.256 Y-40.100 Z-2.000 I0.762 J0.991 K0.000 F360.000
G1 X-99.185 Y-31.538 Z-2.000 F360.000
G2 X-99.351 Y-30.915 Z-2.000 I1.083 J0.624 K0.000 F360.000
G1 X-99.351 Y17.951 Z-2.000 F360.000
G1 X-99.325 Y18.205 Z-2.000 F360.000
G1 X-97.722 Y25.930 Z-2.000 F360.000
G1 X-97.622 Y26.224 Z-2.000 F360.000
G1 X-94.852 Y31.908 Z-2.000 F360.000
G1 X-94.759 Y32.069 Z-2.000 F360.000
G1 X-91.552 Y36.733 Z-2.000 F360.000
G1 X-91.419 Y36.895 Z-2.000 F360.000
G1 X-86.755 Y41.705 Z-2.000 F360.000
G1 X-86.441 Y41.941 Z-2.000 F360.000
G1 X-75.654 Y47.625 Z-2.000 F360.000
G1 X-75.501 Y47.693 Z-2.000 F360.000
G1 X-59.176 Y53.670 Z-2.000 F360.000
G1 X-45.081 Y57.492 Z-2.000 F360.000
G1 X-24.037 Y61.878 Z-2.000 F360.000
G1 X-12.436 Y64.634 Z-2.000 F360.000
G1 X4.722 Y70.013 Z-2.000 F360.000
G1 X5.096 Y70.071 Z-2.000 F360.000
G1 X8.302 Y70.071 Z-2.000 F360.000
G1 X8.592 Y70.037 Z-2.000 F360.000
G1 X11.653 Y69.308 Z-2.000 F360.000
G2 X12.247 Y68.976 Z-2.000 I-0.290 J-1.216 K0.000 F360.000
G1 X16.025 Y65.198 Z-2.000 F360.000
G2 X16.346 Y64.646 Z-2.000 I-0.884 J-0.884 K0.000 F360.000
G1 X18.025 Y58.559 Z-2.000 F360.000
G2 X18.053 Y58.021 Z-2.000 I-1.205 J-0.332 K0.000 F360.000
G1 X16.794 Y50.465 Z-2.000 F360.000
G2 X16.607 Y49.986 Z-2.000 I-1.233 J0.205 K0.000 F360.000
G1 X12.619 Y43.899 Z-2.000 F360.000
G1 X12.430 Y43.674 Z-2.000 F360.000
G1 X5.294 Y36.957 Z-2.000 F360.000
G1 X5.006 Y36.754 Z-2.000 F360.000
G1 X3.058 Y35.759 Z-2.000 F360.000
G1 X64.886 Y35.759 Z-2.000 F360.000
G1 X73.324 Y34.764 Z-2.000 F360.000
G1 X77.446 Y33.973 Z-2.000 F360.000
G1 X77.683 Y33.902 Z-2.000 F360.000
G1 X80.380 Y32.797 Z-2.000 F360.000
G1 X80.380 Y32.797 Z-4.000 F360.000
G1 X83.519 Y31.170 Z-4.000 F360.000
G2 X83.944 Y30.809 Z-4.000 I-0.577 J-1.109 K0.000 F360.000
G1 X86.567 Y27.299 Z-4.000 F360.000
G1 X86.747 Y26.960 Z-4.000 F360.000
G1 X87.938 Y23.522 Z-4.000 F360.000
G1 X88.005 Y23.162 Z-4.000 F360.000
G1 X88.103 Y20.659 Z-4.000 F360.000
G1 X88.030 Y18.549 Z-4.000 F360.000
G1 X87.935 Y18.114 Z-4.000 F360.000
G1 X86.720 Y15.199 Z-4.000 F360.000
G2 X86.402 Y14.750 Z-4.000 I-1.154 J0.481 K0.000 F360.000
G1 X85.245 Y13.709 Z-4.000 F360.000
G2 X88.972 Y12.989 Z-4.000 I-5.213 J-37.009 K0.000 F360.000
G1 X92.008 Y11.775 Z-4.000 F360.000
G1 X92.172 Y11.695 Z-4.000 F360.000
G1 X94.638 Y10.262 Z-4.000 F360.000
G1 X94.875 Y10.083 Z-4.000 F360.000
G1 X96.915 Y8.128 Z-4.000 F360.000
G1 X97.168 Y7.784 Z-4.000 F360.000
G1 X98.383 Y5.355 Z-4.000 F360.000
G1 X98.489 Y5.051 Z-4.000 F360.000
G1 X99.096 Y2.136 Z-4.000 F360.000
G1 X99.116 Y1.752 Z-4.000 F360.000
G1 X98.751 Y-1.770 Z-4.000 F360.000
G2 X98.601 Y-2.249 Z-4.000 I-1.243 J0.129 K0.000 F360.000
G1 X97.386 Y-4.435 Z-4.000 F360.000
G1 X97.132 Y-4.755 Z-4.000 F360.000
G1 X94.581 Y-7.063 Z-4.000 F360.000
G1 X94.207 Y-7.296 Z-4.000 F360.000
G1 X91.170 Y-8.511 Z-4.000 F360.000
G1 X90.844 Y-8.593 Z-4.000 F360.000
G1 X86.471 Y-9.079 Z-4.000 F360.000
G1 X83.678 Y-9.240 Z-4.000 F360.000
G1 X85.567 Y-10.907 Z-4.000 F360.000
G2 X85.915 Y-11.418 Z-4.000 I-0.827 J-0.937 K0.000 F360.000
G1 X87.372 Y-15.426 Z-4.000 F360.000
G1 X87.447 Y-15.886 Z-4.000 F360.000
G1 X87.326 Y-20.502 Z-4.000 F360.000
G2 X87.164 Y-21.084 Z-4.000 I-1.250 J0.033 K0.000 F360.000
G1 X85.585 Y-23.878 Z-4.000 F360.000
G1 X85.381 Y-24.146 Z-4.000 F360.000
G1 X82.101 Y-27.426 Z-4.000 F360.000
G2 X81.569 Y-27.742 Z-4.000 I-0.884 J0.884 K0.000 F360.000
G1 X74.524 Y-29.807 Z-4.000 F360.000
G1 X74.346 Y-29.845 Z-4.000 F360.000
G1 X68.273 Y-30.695 Z-4.000 F360.000
G1 X66.490 Y-30.817 Z-4.000 F360.000
G1 X68.376 Y-32.703 Z-4.000 F360.000
G1 X68.627 Y-33.063 Z-4.000 F360.000
G1 X70.085 Y-36.221 Z-4.000 F360.000
G1 X70.191 Y-36.596 Z-4.000 F360.000
G1 X70.555 Y-39.633 Z-4.000 F360.000
G1 X70.552 Y-39.953 Z-4.000 F360.000
G1 X70.066 Y-43.475 Z-4.000 F360.000
G2 X69.903 Y-43.942 Z-4.000 I-1.238 J0.171 K0.000 F360.000
G1 X67.960 Y-47.221 Z-4.000 F360.000
G2 X67.492 Y-47.677 Z-4.000 I-1.075 J0.637 K0.000 F360.000
G1 X61.825 Y-50.825 Z-4.000 F360.000
G1 X61.412 Y-50.967 Z-4.000 F360.000
G1 X54.754 Y-52.016 Z-4.000 F360.000
G1 X40.652 Y-52.869 Z-4.000 F360.000
G1 X-46.911 Y-52.871 Z-4.000 F360.000
G1 X-62.832 Y-51.743 Z-4.000 F360.000
G1 X-76.947 Y-49.493 Z-4.000 F360.000
G1 X-77.154 Y-49.441 Z-4.000 F360.000
G1 X-86.167 Y-46.356 Z-4.000 F360.000
G1 X-86.524 Y-46.164 Z-4.000 F360.000
G1 X-93.934 Y-40.468 Z-4.000 F360.000
G2 X-94.256 Y-40.100 Z-4.000 I0.762 J0.991 K0.000 F360.000
G1 X-99.185 Y-31.538 Z-4.000 F360.000
G2 X-99.351 Y-30.915 Z-4.000 I1.083 J0.624 K0.000 F360.000
G1 X-99.351 Y17.951 Z-4.000 F360.000
G1 X-99.325 Y18.205 Z-4.000 F360.000
G1 X-97.722 Y25.930 Z-4.000 F360.000
G1 X-97.622 Y26.224 Z-4.000 F360.000
G1 X-94.852 Y31.908 Z-4.000 F360.000
G1 X-94.759 Y32.069 Z-4.000 F360.000
G1 X-91.552 Y36.733 Z-4.000 F360.000
G1 X-91.419 Y36.895 Z-4.000 F360.000
G1 X-86.755 Y41.705 Z-4.000 F360.000
G1 X-86.441 Y41.941 Z-4.000 F360.000
G1 X-75.654 Y47.625 Z-4.000 F360.000
G1 X-75.501 Y47.693 Z-4.000 F360.000
G1 X-59.176 Y53.670 Z-4.000 F360.000
G1 X-45.081 Y57.492 Z-4.000 F360.000
G1 X-24.037 Y61.878 Z-4.000 F360.000
G1 X-12.436 Y64.634 Z-4.000 F360.000
G1 X4.722 Y70.013 Z-4.000 F360.000
G1 X5.096 Y70.071 Z-4.000 F360.000
G1 X8.302 Y70.071 Z-4.000 F360.000
G1 X8.592 Y70.037 Z-4.000 F360.000
G1 X11.653 Y69.308 Z-4.000 F360.000
G2 X12.247 Y68.976 Z-4.000 I-0.290 J-1.216 K0.000 F360.000
G1 X16.025 Y65.198 Z-4.000 F360.000
G2 X16.346 Y64.646 Z-4.000 I-0.884 J-0.884 K0.000 F360.000
G1 X18.025 Y58.559 Z-4.000 F360.000
G2 X18.053 Y58.021 Z-4.000 I-1.205 J-0.332 K0.000 F360.000
G1 X16.794 Y50.465 Z-4.000 F360.000
G2 X16.607 Y49.986 Z-4.000 I-1.233 J0.205 K0.000 F360.000
G1 X12.619 Y43.899 Z-4.000 F360.000
G1 X12.430 Y43.674 Z-4.000 F360.000
G1 X5.294 Y36.957 Z-4.000 F360.000
G1 X5.006 Y36.754 Z-4.000 F360.000
G1 X3.058 Y35.759 Z-4.000 F360.000
G1 X64.886 Y35.759 Z-4.000 F360.000
G1 X73.324 Y34.764 Z-4.000 F360.000
G1 X77.446 Y33.973 Z-4.000 F360.000
G1 X77.683 Y33.902 Z-4.000 F360.000
G1 X80.380 Y32.797 Z-4.000 F360.000
G1 X80.380 Y32.797 Z-6.000 F360.000
G1 X83.519 Y31.170 Z-6.000 F360.000
G2 X83.944 Y30.809 Z-6.000 I-0.577 J-1.109 K0.000 F360.000
G1 X86.567 Y27.299 Z-6.000 F360.000
G1 X86.747 Y26.960 Z-6.000 F360.000
G1 X87.938 Y23.522 Z-6.000 F360.000
G1 X88.005 Y23.162 Z-6.000 F360.000
G1 X88.103 Y20.659 Z-6.000 F360.000
G1 X88.030 Y18.549 Z-6.000 F360.000
G1 X87.935 Y18.114 Z-6.000 F360.000
G1 X86.720 Y15.199 Z-6.000 F360.000
G2 X86.402 Y14.750 Z-6.000 I-1.154 J0.481 K0.000 F360.000
G1 X85.245 Y13.709 Z-6.000 F360.000
G2 X88.972 Y12.989 Z-6.000 I-5.213 J-37.009 K0.000 F360.000
G1 X92.008 Y11.775 Z-6.000 F360.000
G1 X92.172 Y11.695 Z-6.000 F360.000
G1 X94.638 Y10.262 Z-6.000 F360.000
G1 X94.875 Y10.083 Z-6.000 F360.000
G1 X96.915 Y8.128 Z-6.000 F360.000
G1 X97.168 Y7.784 Z-6.000 F360.000
G1 X98.383 Y5.355 Z-6.000 F360.000
G1 X98.489 Y5.051 Z-6.000 F360.000
G1 X99.096 Y2.136 Z-6.000 F360.000
G1 X99.116 Y1.752 Z-6.000 F360.000
G1 X98.751 Y-1.770 Z-6.000 F360.000
G2 X98.601 Y-2.249 Z-6.000 I-1.243 J0.129 K0.000 F360.000
G1 X97.386 Y-4.435 Z-6.000 F360.000
G1 X97.132 Y-4.755 Z-6.000 F360.000
G1 X94.581 Y-7.063 Z-6.000 F360.000
G1 X94.207 Y-7.296 Z-6.000 F360.000
G1 X91.170 Y-8.511 Z-6.000 F360.000
G1 X90.844 Y-8.593 Z-6.000 F360.000
G1 X86.471 Y-9.079 Z-6.000 F360.000
G1 X83.678 Y-9.240 Z-6.000 F360.000
G1 X85.567 Y-10.907 Z-6.000 F360.000
G2 X85.915 Y-11.418 Z-6.000 I-0.827 J-0.937 K0.000 F360.000
G1 X87.372 Y-15.426 Z-6.000 F360.000
G1 X87.447 Y-15.886 Z-6.000 F360.000
G1 X87.326 Y-20.502 Z-6.000 F360.000
G2 X87.164 Y-21.084 Z-6.000 I-1.250 J0.033 K0.000 F360.000
G1 X85.585 Y-23.878 Z-6.000 F360.000
G1 X85.381 Y-24.146 Z-6.000 F360.000
G1 X82.101 Y-27.426 Z-6.000 F360.000
G2 X81.569 Y-27.742 Z-6.000 I-0.884 J0.884 K0.000 F360.000
G1 X74.524 Y-29.807 Z-6.000 F360.000
G1 X74.346 Y-29.845 Z-6.000 F360.000
G1 X68.273 Y-30.695 Z-6.000 F360.000
G1 X66.490 Y-30.817 Z-6.000 F360.000
G1 X68.376 Y-32.703 Z-6.000 F360.000
G1 X68.627 Y-33.063 Z-6.000 F360.000
G1 X70.085 Y-36.221 Z-6.000 F360.000
G1 X70.191 Y-36.596 Z-6.000 F360.000
G1 X70.555 Y-39.633 Z-6.000 F360.000
G1 X70.552 Y-39.953 Z-6.000 F360.000
G1 X70.066 Y-43.475 Z-6.000 F360.000
G2 X69.903 Y-43.942 Z-6.000 I-1.238 J0.171 K0.000 F360.000
G1 X67.960 Y-47.221 Z-6.000 F360.000
G2 X67.492 Y-47.677 Z-6.000 I-1.075 J0.637 K0.000 F360.000
G1 X61.825 Y-50.825 Z-6.000 F360.000
G1 X61.412 Y-50.967 Z-6.000 F360.000
G1 X54.754 Y-52.016 Z-6.000 F360.000
G1 X40.652 Y-52.869 Z-6.000 F360.000
G1 X-46.911 Y-52.871 Z-6.000 F360.000
G1 X-62.832 Y-51.743 Z-6.000 F360.000
G1 X-76.947 Y-49.493 Z-6.000 F360.000
G1 X-77.154 Y-49.441 Z-6.000 F360.000
G1 X-86.167 Y-46.356 Z-6.000 F360.000
G1 X-86.524 Y-46.164 Z-6.000 F360.000
G1 X-93.934 Y-40.468 Z-6.000 F360.000
G2 X-94.256 Y-40.100 Z-6.000 I0.762 J0.991 K0.000 F360.000
G1 X-99.185 Y-31.538 Z-6.000 F360.000
G2 X-99.351 Y-30.915 Z-6.000 I1.083 J0.624 K0.000 F360.000
G1 X-99.351 Y17.951 Z-6.000 F360.000
G1 X-99.325 Y18.205 Z-6.000 F360.000
G1 X-97.722 Y25.930 Z-6.000 F360.000
G1 X-97.622 Y26.224 Z-6.000 F360.000
G1 X-94.852 Y31.908 Z-6.000 F360.000
G1 X-94.759 Y32.069 Z-6.000 F360.000
G1 X-91.552 Y36.733 Z-6.000 F360.000
G1 X-91.419 Y36.895 Z-6.000 F360.000
G1 X-86.755 Y41.705 Z-6.000 F360.000
G1 X-86.441 Y41.941 Z-6.000 F360.000
G1 X-75.654 Y47.625 Z-6.000 F360.000
G1 X-75.501 Y47.693 Z-6.000 F360.000
G1 X-59.176 Y53.670 Z-6.000 F360.000
G1 X-45.081 Y57.492 Z-6.000 F360.000
G1 X-24.037 Y61.878 Z-6.000 F360.000
G1 X-12.436 Y64.634 Z-6.000 F360.000
G1 X4.722 Y70.013 Z-6.000 F360.000
G1 X5.096 Y70.071 Z-6.000 F360.000
G1 X8.302 Y70.071 Z-6.000 F360.000
G1 X8.592 Y70.037 Z-6.000 F360.000
G1 X11.653 Y69.308 Z-6.000 F360.000
G2 X12.247 Y68.976 Z-6.000 I-0.290 J-1.216 K0.000 F360.000
G1 X16.025 Y65.198 Z-6.000 F360.000
G2 X16.346 Y64.646 Z-6.000 I-0.884 J-0.884 K0.000 F360.000
G1 X18.025 Y58.559 Z-6.000 F360.000
G2 X18.053 Y58.021 Z-6.000 I-1.205 J-0.332 K0.000 F360.000
G1 X16.794 Y50.465 Z-6.000 F360.000
G2 X16.607 Y49.986 Z-6.000 I-1.233 J0.205 K0.000 F360.000
G1 X12.619 Y43.899 Z-6.000 F360.000
G1 X12.430 Y43.674 Z-6.000 F360.000
G1 X5.294 Y36.957 Z-6.000 F360.000
G1 X5.006 Y36.754 Z-6.000 F360.000
G1 X3.058 Y35.759 Z-6.000 F360.000
G1 X64.886 Y35.759 Z-6.000 F360.000
G1 X73.324 Y34.764 Z-6.000 F360.000
G1 X77.446 Y33.973 Z-6.000 F360.000
G1 X77.683 Y33.902 Z-6.000 F360.000
G1 X80.380 Y32.797 Z-6.000 F360.000
G1 X80.380 Y32.797 Z-8.000 F360.000
G1 X83.519 Y31.170 Z-8.000 F360.000
G2 X83.944 Y30.809 Z-8.000 I-0.577 J-1.109 K0.000 F360.000
G1 X86.567 Y27.299 Z-8.000 F360.000
G1 X86.747 Y26.960 Z-8.000 F360.000
G1 X87.938 Y23.522 Z-8.000 F360.000
G1 X88.005 Y23.162 Z-8.000 F360.000
G1 X88.103 Y20.659 Z-8.000 F360.000
G1 X88.030 Y18.549 Z-8.000 F360.000
G1 X87.935 Y18.114 Z-8.000 F360.000
G1 X86.720 Y15.199 Z-8.000 F360.000
G2 X86.402 Y14.750 Z-8.000 I-1.154 J0.481 K0.000 F360.000
G1 X85.245 Y13.709 Z-8.000 F360.000
G2 X88.972 Y12.989 Z-8.000 I-5.213 J-37.009 K0.000 F360.000
G1 X92.008 Y11.775 Z-8.000 F360.000
G1 X92.172 Y11.695 Z-8.000 F360.000
G1 X94.638 Y10.262 Z-8.000 F360.000
G1 X94.875 Y10.083 Z-8.000 F360.000
G1 X96.915 Y8.128 Z-8.000 F360.000
G1 X97.168 Y7.784 Z-8.000 F360.000
G1 X98.383 Y5.355 Z-8.000 F360.000
G1 X98.489 Y5.051 Z-8.000 F360.000
G1 X99.096 Y2.136 Z-8.000 F360.000
G1 X99.116 Y1.752 Z-8.000 F360.000
G1 X98.751 Y-1.770 Z-8.000 F360.000
G2 X98.601 Y-2.249 Z-8.000 I-1.243 J0.129 K0.000 F360.000
G1 X97.386 Y-4.435 Z-8.000 F360.000
G1 X97.132 Y-4.755 Z-8.000 F360.000
G1 X94.581 Y-7.063 Z-8.000 F360.000
G1 X94.207 Y-7.296 Z-8.000 F360.000
G1 X91.170 Y-8.511 Z-8.000 F360.000
G1 X90.844 Y-8.593 Z-8.000 F360.000
G1 X86.471 Y-9.079 Z-8.000 F360.000
G1 X83.678 Y-9.240 Z-8.000 F360.000
G1 X85.567 Y-10.907 Z-8.000 F360.000
G2 X85.915 Y-11.418 Z-8.000 I-0.827 J-0.937 K0.000 F360.000
G1 X87.372 Y-15.426 Z-8.000 F360.000
G1 X87.447 Y-15.886 Z-8.000 F360.000
G1 X87.326 Y-20.502 Z-8.000 F360.000
G2 X87.164 Y-21.084 Z-8.000 I-1.250 J0.033 K0.000 F360.000
G1 X85.585 Y-23.878 Z-8.000 F360.000
G1 X85.381 Y-24.146 Z-8.000 F360.000
G1 X82.101 Y-27.426 Z-8.000 F360.000
G2 X81.569 Y-27.742 Z-8.000 I-0.884 J0.884 K0.000 F360.000
G1 X74.524 Y-29.807 Z-8.000 F360.000
G1 X74.346 Y-29.845 Z-8.000 F360.000
G1 X68.273 Y-30.695 Z-8.000 F360.000
G1 X66.490 Y-30.817 Z-8.000 F360.000
G1 X68.376 Y-32.703 Z-8.000 F360.000
G1 X68.627 Y-33.063 Z-8.000 F360.000
G1 X70.085 Y-36.221 Z-8.000 F360.000
G1 X70.191 Y-36.596 Z-8.000 F360.000
G1 X70.555 Y-39.633 Z-8.000 F360.000
G1 X70.552 Y-39.953 Z-8.000 F360.000
G1 X70.066 Y-43.475 Z-8.000 F360.000
G2 X69.903 Y-43.942 Z-8.000 I-1.238 J0.171 K0.000 F360.000
G1 X67.960 Y-47.221 Z-8.000 F360.000
G2 X67.492 Y-47.677 Z-8.000 I-1.075 J0.637 K0.000 F360.000
G1 X61.825 Y-50.825 Z-8.000 F360.000
G1 X61.412 Y-50.967 Z-8.000 F360.000
G1 X54.754 Y-52.016 Z-8.000 F360.000
G1 X40.652 Y-52.869 Z-8.000 F360.000
G1 X-46.911 Y-52.871 Z-8.000 F360.000
G1 X-62.832 Y-51.743 Z-8.000 F360.000
G1 X-76.947 Y-49.493 Z-8.000 F360.000
G1 X-77.154 Y-49.441 Z-8.000 F360.000
G1 X-86.167 Y-46.356 Z-8.000 F360.000
G1 X-86.524 Y-46.164 Z-8.000 F360.000
G1 X-93.934 Y-40.468 Z-8.000 F360.000
G2 X-94.256 Y-40.100 Z-8.000 I0.762 J0.991 K0.000 F360.000
G1 X-99.185 Y-31.538 Z-8.000 F360.000
G2 X-99.351 Y-30.915 Z-8.000 I1.083 J0.624 K0.000 F360.000
G1 X-99.351 Y17.951 Z-8.000 F360.000
G1 X-99.325 Y18.205 Z-8.000 F360.000
G1 X-97.722 Y25.930 Z-8.000 F360.000
G1 X-97.622 Y26.224 Z-8.000 F360.000
G1 X-94.852 Y31.908 Z-8.000 F360.000
G1 X-94.759 Y32.069 Z-8.000 F360.000
G1 X-91.552 Y36.733 Z-8.000 F360.000
G1 X-91.419 Y36.895 Z-8.000 F360.000
G1 X-86.755 Y41.705 Z-8.000 F360.000
G1 X-86.441 Y41.941 Z-8.000 F360.000
G1 X-75.654 Y47.625 Z-8.000 F360.000
G1 X-75.501 Y47.693 Z-8.000 F360.000
G1 X-59.176 Y53.670 Z-8.000 F360.000
G1 X-45.081 Y57.492 Z-8.000 F360.000
G1 X-24.037 Y61.878 Z-8.000 F360.000
G1 X-12.436 Y64.634 Z-8.000 F360.000
G1 X4.722 Y70.013 Z-8.000 F360.000
G1 X5.096 Y70.071 Z-8.000 F360.000
G1 X8.302 Y70.071 Z-8.000 F360.000
G1 X8.592 Y70.037 Z-8.000 F360.000
G1 X11.653 Y69.308 Z-8.000 F360.000
G2 X12.247 Y68.976 Z-8.000 I-0.290 J-1.216 K0.000 F360.000
G1 X16.025 Y65.198 Z-8.000 F360.000
G2 X16.346 Y64.646 Z-8.000 I-0.884 J-0.884 K0.000 F360.000
G1 X18.025 Y58.559 Z-8.000 F360.000
G2 X18.053 Y58.021 Z-8.000 I-1.205 J-0.332 K0.000 F360.000
G1 X16.794 Y50.465 Z-8.000 F360.000
G2 X16.607 Y49.986 Z-8.000 I-1.233 J0.205 K0.000 F360.000
G1 X12.619 Y43.899 Z-8.000 F360.000
G1 X12.430 Y43.674 Z-8.000 F360.000
G1 X5.294 Y36.957 Z-8.000 F360.000
G1 X5.006 Y36.754 Z-8.000 F360.000
G1 X3.058 Y35.759 Z-8.000 F360.000
G1 X64.886 Y35.759 Z-8.000 F360.000
G1 X73.324 Y34.764 Z-8.000 F360.000
G1 X77.446 Y33.973 Z-8.000 F360.000
G1 X77.683 Y33.902 Z-8.000 F360.000
G1 X80.380 Y32.797 Z-8.000 F360.000
G1 X80.380 Y32.797 Z-10.000 F360.000
G1 X83.519 Y31.170 Z-10.000 F360.000
G2 X83.944 Y30.809 Z-10.000 I-0.577 J-1.109 K0.000 F360.000
G1 X86.567 Y27.299 Z-10.000 F360.000
G1 X86.747 Y26.960 Z-10.000 F360.000
G1 X87.938 Y23.522 Z-10.000 F360.000
G1 X88.005 Y23.162 Z-10.000 F360.000
G1 X88.103 Y20.659 Z-10.000 F360.000
G1 X88.030 Y18.549 Z-10.000 F360.000
G1 X87.935 Y18.114 Z-10.000 F360.000
G1 X86.720 Y15.199 Z-10.000 F360.000
G2 X86.402 Y14.750 Z-10.000 I-1.154 J0.481 K0.000 F360.000
G1 X85.245 Y13.709 Z-10.000 F360.000
G2 X88.972 Y12.989 Z-10.000 I-5.213 J-37.009 K0.000 F360.000
G1 X92.008 Y11.775 Z-10.000 F360.000
G1 X92.172 Y11.695 Z-10.000 F360.000
G1 X94.638 Y10.262 Z-10.000 F360.000
G1 X94.875 Y10.083 Z-10.000 F360.000
G1 X96.915 Y8.128 Z-10.000 F360.000
G1 X97.168 Y7.784 Z-10.000 F360.000
G1 X98.383 Y5.355 Z-10.000 F360.000
G1 X98.489 Y5.051 Z-10.000 F360.000
G1 X99.096 Y2.136 Z-10.000 F360.000
G1 X99.116 Y1.752 Z-10.000 F360.000
G1 X98.751 Y-1.770 Z-10.000 F360.000
G2 X98.601 Y-2.249 Z-10.000 I-1.243 J0.129 K0.000 F360.000
G1 X97.386 Y-4.435 Z-10.000 F360.000
G1 X97.132 Y-4.755 Z-10.000 F360.000
G1 X94.581 Y-7.063 Z-10.000 F360.000
G1 X94.207 Y-7.296 Z-10.000 F360.000
G1 X91.170 Y-8.511 Z-10.000 F360.000
G1 X90.844 Y-8.593 Z-10.000 F360.000
G1 X86.471 Y-9.079 Z-10.000 F360.000
G1 X83.678 Y-9.240 Z-10.000 F360.000
G1 X85.567 Y-10.907 Z-10.000 F360.000
G2 X85.915 Y-11.418 Z-10.000 I-0.827 J-0.937 K0.000 F360.000
G1 X87.372 Y-15.426 Z-10.000 F360.000
G1 X87.447 Y-15.886 Z-10.000 F360.000
G1 X87.326 Y-20.502 Z-10.000 F360.000
G2 X87.164 Y-21.084 Z-10.000 I-1.250 J0.033 K0.000 F360.000
G1 X85.585 Y-23.878 Z-10.000 F360.000
G1 X85.381 Y-24.146 Z-10.000 F360.000
G1 X82.101 Y-27.426 Z-10.000 F360.000
G2 X81.569 Y-27.742 Z-10.000 I-0.884 J0.884 K0.000 F360.000
G1 X74.524 Y-29.807 Z-10.000 F360.000
G1 X74.346 Y-29.845 Z-10.000 F360.000
G1 X68.273 Y-30.695 Z-10.000 F360.000
G1 X66.490 Y-30.817 Z-10.000 F360.000
G1 X68.376 Y-32.703 Z-10.000 F360.000
G1 X68.627 Y-33.063 Z-10.000 F360.000
G1 X70.085 Y-36.221 Z-10.000 F360.000
G1 X70.191 Y-36.596 Z-10.000 F360.000
G1 X70.555 Y-39.633 Z-10.000 F360.000
G1 X70.552 Y-39.953 Z-10.000 F360.000
G1 X70.066 Y-43.475 Z-10.000 F360.000
G2 X69.903 Y-43.942 Z-10.000 I-1.238 J0.171 K0.000 F360.000
G1 X67.960 Y-47.221 Z-10.000 F360.000
G2 X67.492 Y-47.677 Z-10.000 I-1.075 J0.637 K0.000 F360.000
G1 X61.825 Y-50.825 Z-10.000 F360.000
G1 X61.412 Y-50.967 Z-10.000 F360.000
G1 X54.754 Y-52.016 Z-10.000 F360.000
G1 X40.652 Y-52.869 Z-10.000 F360.000
G1 X-46.911 Y-52.871 Z-10.000 F360.000
G1 X-62.832 Y-51.743 Z-10.000 F360.000
G1 X-76.947 Y-49.493 Z-10.000 F360.000
G1 X-77.154 Y-49.441 Z-10.000 F360.000
G1 X-86.167 Y-46.356 Z-10.000 F360.000
G1 X-86.524 Y-46.164 Z-10.000 F360.000
G1 X-93.934 Y-40.468 Z-10.000 F360.000
G2 X-94.256 Y-40.100 Z-10.000 I0.762 J0.991 K0.000 F360.000
G1 X-99.185 Y-31.538 Z-10.000 F360.000
G2 X-99.351 Y-30.915 Z-10.000 I1.083 J0.624 K0.000 F360.000
G1 X-99.351 Y17.951 Z-10.000 F360.000
G1 X-99.325 Y18.205 Z-10.000 F360.000
G1 X-97.722 Y25.930 Z-10.000 F360.000
G1 X-97.622 Y26.224 Z-10.000 F360.000
G1 X-94.852 Y31.908 Z-10.000 F360.000
G1 X-94.759 Y32.069 Z-10.000 F360.000
G1 X-91.552 Y36.733 Z-10.000 F360.000
G1 X-91.419 Y36.895 Z-10.000 F360.000
G1 X-86.755 Y41.705 Z-10.000 F360.000
G1 X-86.441 Y41.941 Z-10.000 F360.000
G1 X-75.654 Y47.625 Z-10.000 F360.000
G1 X-75.501 Y47.693 Z-10.000 F360.000
G1 X-59.176 Y53.670 Z-10.000 F360.000
G1 X-45.081 Y57.492 Z-10.000 F360.000
G1 X-24.037 Y61.878 Z-10.000 F360.000
G1 X-12.436 Y64.634 Z-10.000 F360.000
G1 X4.722 Y70.013 Z-10.000 F360.000
G1 X5.096 Y70.071 Z-10.000 F360.000
G1 X8.302 Y70.071 Z-10.000 F360.000
G1 X8.592 Y70.037 Z-10.000 F360.000
G1 X11.653 Y69.308 Z-10.000 F360.000
G2 X12.247 Y68.976 Z-10.000 I-0.290 J-1.216 K0.000 F360.000
G1 X16.025 Y65.198 Z-10.000 F360.000
G2 X16.346 Y64.646 Z-10.000 I-0.884 J-0.884 K0.000 F360.000
G1 X18.025 Y58.559 Z-10.000 F360.000
G2 X18.053 Y58.021 Z-10.000 I-1.205 J-0.332 K0.000 F360.000
G1 X16.794 Y50.465 Z-10.000 F360.000
G2 X16.607 Y49.986 Z-10.000 I-1.233 J0.205 K0.000 F360.000
G1 X12.619 Y43.899 Z-10.000 F360.000
G1 X12.430 Y43.674 Z-10.000 F360.000
G1 X5.294 Y36.957 Z-10.000 F360.000
G1 X5.006 Y36.754 Z-10.000 F360.000
G1 X3.058 Y35.759 Z-10.000 F360.000
G1 X64.886 Y35.759 Z-10.000 F360.000
G1 X73.324 Y34.764 Z-10.000 F360.000
G1 X77.446 Y33.973 Z-10.000 F360.000
G1 X77.683 Y33.902 Z-10.000 F360.000
G1 X80.380 Y32.797 Z-10.000 F360.000
G1 X80.380 Y32.797 Z-12.000 F360.000
G1 X83.519 Y31.170 Z-12.000 F360.000
G2 X83.944 Y30.809 Z-12.000 I-0.577 J-1.109 K0.000 F360.000
G1 X86.567 Y27.299 Z-12.000 F360.000
G1 X86.747 Y26.960 Z-12.000 F360.000
G1 X87.938 Y23.522 Z-12.000 F360.000
G1 X88.005 Y23.162 Z-12.000 F360.000
G1 X88.103 Y20.659 Z-12.000 F360.000
G1 X88.030 Y18.549 Z-12.000 F360.000
G1 X87.935 Y18.114 Z-12.000 F360.000
G1 X86.720 Y15.199 Z-12.000 F360.000
G2 X86.402 Y14.750 Z-12.000 I-1.154 J0.481 K0.000 F360.000
G1 X85.245 Y13.709 Z-12.000 F360.000
G2 X88.972 Y12.989 Z-12.000 I-5.213 J-37.009 K0.000 F360.000
G1 X92.008 Y11.775 Z-12.000 F360.000
G1 X92.172 Y11.695 Z-12.000 F360.000
G1 X94.638 Y10.262 Z-12.000 F360.000
G1 X94.875 Y10.083 Z-12.000 F360.000
G1 X96.915 Y8.128 Z-12.000 F360.000
G1 X97.168 Y7.784 Z-12.000 F360.000
G1 X98.383 Y5.355 Z-12.000 F360.000
G1 X98.489 Y5.051 Z-12.000 F360.000
G1 X99.096 Y2.136 Z-12.000 F360.000
G1 X99.116 Y1.752 Z-12.000 F360.000
G1 X98.751 Y-1.770 Z-12.000 F360.000
G2 X98.601 Y-2.249 Z-12.000 I-1.243 J0.129 K0.000 F360.000
G1 X97.386 Y-4.435 Z-12.000 F360.000
G1 X97.132 Y-4.755 Z-12.000 F360.000
G1 X94.581 Y-7.063 Z-12.000 F360.000
G1 X94.207 Y-7.296 Z-12.000 F360.000
G1 X91.170 Y-8.511 Z-12.000 F360.000
G1 X90.844 Y-8.593 Z-12.000 F360.000
G1 X86.471 Y-9.079 Z-12.000 F360.000
G1 X83.678 Y-9.240 Z-12.000 F360.000
G1 X85.567 Y-10.907 Z-12.000 F360.000
G2 X85.915 Y-11.418 Z-12.000 I-0.827 J-0.937 K0.000 F360.000
G1 X87.372 Y-15.426 Z-12.000 F360.000
G1 X87.447 Y-15.886 Z-12.000 F360.000
G1 X87.326 Y-20.502 Z-12.000 F360.000
G2 X87.164 Y-21.084 Z-12.000 I-1.250 J0.033 K0.000 F360.000
G1 X85.585 Y-23.878 Z-12.000 F360.000
G1 X85.381 Y-24.146 Z-12.000 F360.000
G1 X82.101 Y-27.426 Z-12.000 F360.000
G2 X81.569 Y-27.742 Z-12.000 I-0.884 J0.884 K0.000 F360.000
G1 X74.524 Y-29.807 Z-12.000 F360.000
G1 X74.346 Y-29.845 Z-12.000 F360.000
G1 X68.273 Y-30.695 Z-12.000 F360.000
G1 X66.490 Y-30.817 Z-12.000 F360.000
G1 X68.376 Y-32.703 Z-12.000 F360.000
G1 X68.627 Y-33.063 Z-12.000 F360.000
G1 X70.085 Y-36.221 Z-12.000 F360.000
G1 X70.191 Y-36.596 Z-12.000 F360.000
G1 X70.555 Y-39.633 Z-12.000 F360.000
G1 X70.552 Y-39.953 Z-12.000 F360.000
G1 X70.066 Y-43.475 Z-12.000 F360.000
G2 X69.903 Y-43.942 Z-12.000 I-1.238 J0.171 K0.000 F360.000
G1 X67.960 Y-47.221 Z-12.000 F360.000
G2 X67.492 Y-47.677 Z-12.000 I-1.075 J0.637 K0.000 F360.000
G1 X61.825 Y-50.825 Z-12.000 F360.000
G1 X61.412 Y-50.967 Z-12.000 F360.000
G1 X54.754 Y-52.016 Z-12.000 F360.000
G1 X40.652 Y-52.869 Z-12.000 F360.000
G1 X-46.911 Y-52.871 Z-12.000 F360.000
G1 X-62.832 Y-51.743 Z-12.000 F360.000
G1 X-76.947 Y-49.493 Z-12.000 F360.000
G1 X-77.154 Y-49.441 Z-12.000 F360.000
G1 X-86.167 Y-46.356 Z-12.000 F360.000
G1 X-86.524 Y-46.164 Z-12.000 F360.000
G1 X-93.934 Y-40.468 Z-12.000 F360.000
G2 X-94.256 Y-40.100 Z-12.000 I0.762 J0.991 K0.000 F360.000
G1 X-99.185 Y-31.538 Z-12.000 F360.000
G2 X-99.351 Y-30.915 Z-12.000 I1.083 J0.624 K0.000 F360.000
G1 X-99.351 Y17.951 Z-12.000 F360.000
G1 X-99.325 Y18.205 Z-12.000 F360.000
G1 X-97.722 Y25.930 Z-12.000 F360.000
G1 X-97.622 Y26.224 Z-12.000 F360.000
G1 X-94.852 Y31.908 Z-12.000 F360.000
G1 X-94.759 Y32.069 Z-12.000 F360.000
G1 X-91.552 Y36.733 Z-12.000 F360.000
G1 X-91.419 Y36.895 Z-12.000 F360.000
G1 X-86.755 Y41.705 Z-12.000 F360.000
G1 X-86.441 Y41.941 Z-12.000 F360.000
G1 X-75.654 Y47.625 Z-12.000 F360.000
G1 X-75.501 Y47.693 Z-12.000 F360.000
G1 X-59.176 Y53.670 Z-12.000 F360.000
G1 X-45.081 Y57.492 Z-12.000 F360.000
G1 X-24.037 Y61.878 Z-12.000 F360.000
G1 X-12.436 Y64.634 Z-12.000 F360.000
G1 X4.722 Y70.013 Z-12.000 F360.000
G1 X5.096 Y70.071 Z-12.000 F360.000
G1 X8.302 Y70.071 Z-12.000 F360.000
G1 X8.592 Y70.037 Z-12.000 F360.000
G1 X11.653 Y69.308 Z-12.000 F360.000
G2 X12.247 Y68.976 Z-12.000 I-0.290 J-1.216 K0.000 F360.000
G1 X16.025 Y65.198 Z-12.000 F360.000
G2 X16.346 Y64.646 Z-12.000 I-0.884 J-0.884 K0.000 F360.000
G1 X18.025 Y58.559 Z-12.000 F360.000
G2 X18.053 Y58.021 Z-12.000 I-1.205 J-0.332 K0.000 F360.000
G1 X16.794 Y50.465 Z-12.000 F360.000
G2 X16.607 Y49.986 Z-12.000 I-1.233 J0.205 K0.000 F360.000
G1 X12.619 Y43.899 Z-12.000 F360.000
G1 X12.430 Y43.674 Z-12.000 F360.000
G1 X5.294 Y36.957 Z-12.000 F360.000
G1 X5.006 Y36.754 Z-12.000 F360.000
G1 X3.058 Y35.759 Z-12.000 F360.000
G1 X64.886 Y35.759 Z-12.000 F360.000
G1 X73.324 Y34.764 Z-12.000 F360.000
G1 X77.446 Y33.973 Z-12.000 F360.000
G1 X77.683 Y33.902 Z-12.000 F360.000
G1 X80.380 Y32.797 Z-12.000 F360.000
G0 Z5.000
G0 Z5.000
(Finish operation: Profile001)
(Begin postamble)
M5
G17 G90
M2
