(Exported by FreeCAD)
(Post Processor: script_module)
(Output Time:2025-12-06 11:45:43.174247)
(Begin preamble)
G17 G90
G21
(Begin operation: Fixture)
(Path: Fixture)
G54
(Finish operation: Fixture)
(Begin operation: 3mm_Endmill001)
(Path: 3mm_Endmill001)
(3mm_Endmill001)
(Begin toolchange)
( M6 T2 )
M3 S10000
(Finish operation: 3mm_Endmill001)
(Begin operation: Profile)
(Path: Profile)
(Profile)
(Compensated Tool Path. Diameter: 3.0)
G0 Z5.000
G0 X-36.820 Y43.180
G0 Z3.000
G1 X-36.820 Y43.180 Z-3.000 F600.000
G2 X-38.999 Y35.615 Z-3.000 I-3.180 J-3.180 K0.000 F600.000
G2 X-44.385 Y38.999 Z-3.000 I-1.001 J4.385 K0.000 F600.000
G2 X-41.001 Y44.385 Z-3.000 I4.385 J1.001 K0.000 F600.000
G2 X-36.820 Y43.180 Z-3.000 I1.001 J-4.385 K0.000 F600.000
G1 X-36.820 Y43.180 Z-6.000 F600.000
G2 X-38.999 Y35.615 Z-6.000 I-3.180 J-3.180 K0.000 F600.000
G2 X-44.385 Y38.999 Z-6.000 I-1.001 J4.385 K0.000 F600.000
G2 X-41.001 Y44.385 Z-6.000 I4.385 J1.001 K0.000 F600.000
G2 X-36.820 Y43.180 Z-6.000 I1.001 J-4.385 K0.000 F600.000
G1 X-36.820 Y43.180 Z-9.000 F600.000
G2 X-38.999 Y35.615 Z-9.000 I-3.180 J-3.180 K0.000 F600.000
G2 X-44.385 Y38.999 Z-9.000 I-1.001 J4.385 K0.000 F600.000
G2 X-41.001 Y44.385 Z-9.000 I4.385 J1.001 K0.000 F600.000
G2 X-36.820 Y43.180 Z-9.000 I1.001 J-4.385 K0.000 F600.000
G1 X-36.820 Y43.180 Z-12.000 F600.000
G2 X-38.999 Y35.615 Z-12.000 I-3.180 J-3.180 K0.000 F600.000
G2 X-44.385 Y38.999 Z-12.000 I-1.001 J4.385 K0.000 F600.000
G2 X-41.001 Y44.385 Z-12.000 I4.385 J1.001 K0.000 F600.000
G2 X-36.820 Y43.180 Z-12.000 I1.001 J-4.385 K0.000 F600.000
G1 X-36.820 Y43.180 Z-15.000 F600.000
G2 X-38.999 Y35.615 Z-15.000 I-3.180 J-3.180 K0.000 F600.000
G2 X-44.385 Y38.999 Z-15.000 I-1.001 J4.385 K0.000 F600.000
G2 X-41.001 Y44.385 Z-15.000 I4.385 J1.001 K0.000 F600.000
G2 X-36.820 Y43.180 Z-15.000 I1.001 J-4.385 K0.000 F600.000
G1 X-36.820 Y43.180 Z-16.000 F600.000
G2 X-38.999 Y35.615 Z-16.000 I-3.180 J-3.180 K0.000 F600.000
G2 X-44.385 Y38.999 Z-16.000 I-1.001 J4.385 K0.000 F600.000
G2 X-41.001 Y44.385 Z-16.000 I4.385 J1.001 K0.000 F600.000
G2 X-36.820 Y43.180 Z-16.000 I1.001 J-4.385 K0.000 F600.000
G0 Z5.000
G0 Z5.000
(Finish operation: Profile)
(Begin operation: Profile001)
(Path: Profile001)
(Profile001)
(Compensated Tool Path. Diameter: 3.0)
G0 Z5.000
G0 X43.180 Y43.180
G0 Z3.000
G1 X43.180 Y43.180 Z-3.000 F600.000
G2 X41.001 Y35.615 Z-3.000 I-3.180 J-3.180 K0.000 F600.000
G2 X35.615 Y38.999 Z-3.000 I-1.001 J4.385 K0.000 F600.000
G2 X38.999 Y44.385 Z-3.000 I4.385 J1.001 K0.000 F600.000
G2 X43.180 Y43.180 Z-3.000 I1.001 J-4.385 K0.000 F600.000
G1 X43.180 Y43.180 Z-6.000 F600.000
G2 X41.001 Y35.615 Z-6.000 I-3.180 J-3.180 K0.000 F600.000
G2 X35.615 Y38.999 Z-6.000 I-1.001 J4.385 K0.000 F600.000
G2 X38.999 Y44.385 Z-6.000 I4.385 J1.001 K0.000 F600.000
G2 X43.180 Y43.180 Z-6.000 I1.001 J-4.385 K0.000 F600.000
G1 X43.180 Y43.180 Z-9.000 F600.000
G2 X41.001 Y35.615 Z-9.000 I-3.180 J-3.180 K0.000 F600.000
G2 X35.615 Y38.999 Z-9.000 I-1.001 J4.385 K0.000 F600.000
G2 X38.999 Y44.385 Z-9.000 I4.385 J1.001 K0.000 F600.000
G2 X43.180 Y43.180 Z-9.000 I1.001 J-4.385 K0.000 F600.000
G1 X43.180 Y43.180 Z-12.000 F600.000
G2 X41.001 Y35.615 Z-12.000 I-3.180 J-3.180 K0.000 F600.000
G2 X35.615 Y38.999 Z-12.000 I-1.001 J4.385 K0.000 F600.000
G2 X38.999 Y44.385 Z-12.000 I4.385 J1.001 K0.000 F600.000
G2 X43.180 Y43.180 Z-12.000 I1.001 J-4.385 K0.000 F600.000
G1 X43.180 Y43.180 Z-15.000 F600.000
G2 X41.001 Y35.615 Z-15.000 I-3.180 J-3.180 K0.000 F600.000
G2 X35.615 Y38.999 Z-15.000 I-1.001 J4.385 K0.000 F600.000
G2 X38.999 Y44.385 Z-15.000 I4.385 J1.001 K0.000 F600.000
G2 X43.180 Y43.180 Z-15.000 I1.001 J-4.385 K0.000 F600.000
G1 X43.180 Y43.180 Z-16.000 F600.000
G2 X41.001 Y35.615 Z-16.000 I-3.180 J-3.180 K0.000 F600.000
G2 X35.615 Y38.999 Z-16.000 I-1.001 J4.385 K0.000 F600.000
G2 X38.999 Y44.385 Z-16.000 I4.385 J1.001 K0.000 F600.000
G2 X43.180 Y43.180 Z-16.000 I1.001 J-4.385 K0.000 F600.000
G0 Z5.000
G0 Z5.000
(Finish operation: Profile001)
(Begin operation: Profile002)
(Path: Profile002)
(Profile002)
(Compensated Tool Path. Diameter: 3.0)
G0 Z5.000
G0 X23.180 Y-36.820
G0 Z3.000
G1 X23.180 Y-36.820 Z-3.000 F600.000
G2 X21.001 Y-44.385 Z-3.000 I-3.180 J-3.180 K0.000 F600.000
G2 X18.999 Y-35.615 Z-3.000 I-1.001 J4.385 K0.000 F600.000
G2 X23.180 Y-36.820 Z-3.000 I1.001 J-4.385 K0.000 F600.000
G1 X23.180 Y-36.820 Z-6.000 F600.000
G2 X21.001 Y-44.385 Z-6.000 I-3.180 J-3.180 K0.000 F600.000
G2 X18.999 Y-35.615 Z-6.000 I-1.001 J4.385 K0.000 F600.000
G2 X23.180 Y-36.820 Z-6.000 I1.001 J-4.385 K0.000 F600.000
G1 X23.180 Y-36.820 Z-9.000 F600.000
G2 X21.001 Y-44.385 Z-9.000 I-3.180 J-3.180 K0.000 F600.000
G2 X18.999 Y-35.615 Z-9.000 I-1.001 J4.385 K0.000 F600.000
G2 X23.180 Y-36.820 Z-9.000 I1.001 J-4.385 K0.000 F600.000
G1 X23.180 Y-36.820 Z-12.000 F600.000
G2 X21.001 Y-44.385 Z-12.000 I-3.180 J-3.180 K0.000 F600.000
G2 X18.999 Y-35.615 Z-12.000 I-1.001 J4.385 K0.000 F600.000
G2 X23.180 Y-36.820 Z-12.000 I1.001 J-4.385 K0.000 F600.000
G1 X23.180 Y-36.820 Z-15.000 F600.000
G2 X21.001 Y-44.385 Z-15.000 I-3.180 J-3.180 K0.000 F600.000
G2 X18.999 Y-35.615 Z-15.000 I-1.001 J4.385 K0.000 F600.000
G2 X23.180 Y-36.820 Z-15.000 I1.001 J-4.385 K0.000 F600.000
G1 X23.180 Y-36.820 Z-16.000 F600.000
G2 X21.001 Y-44.385 Z-16.000 I-3.180 J-3.180 K0.000 F600.000
G2 X18.999 Y-35.615 Z-16.000 I-1.001 J4.385 K0.000 F600.000
G2 X23.180 Y-36.820 Z-16.000 I1.001 J-4.385 K0.000 F600.000
G0 Z5.000
G0 Z5.000
(Finish operation: Profile002)
(Begin operation: Profile003)
(Path: Profile003)
(Profile003)
(Compensated Tool Path. Diameter: 3.0)
G0 Z5.000
G0 X-16.820 Y-36.820
G0 Z3.000
G1 X-16.820 Y-36.820 Z-3.000 F600.000
G2 X-18.999 Y-44.385 Z-3.000 I-3.180 J-3.180 K0.000 F600.000
G2 X-21.001 Y-35.615 Z-3.000 I-1.001 J4.385 K0.000 F600.000
G2 X-16.820 Y-36.820 Z-3.000 I1.001 J-4.385 K0.000 F600.000
G1 X-16.820 Y-36.820 Z-6.000 F600.000
G2 X-18.999 Y-44.385 Z-6.000 I-3.180 J-3.180 K0.000 F600.000
G2 X-21.001 Y-35.615 Z-6.000 I-1.001 J4.385 K0.000 F600.000
G2 X-16.820 Y-36.820 Z-6.000 I1.001 J-4.385 K0.000 F600.000
G1 X-16.820 Y-36.820 Z-9.000 F600.000
G2 X-18.999 Y-44.385 Z-9.000 I-3.180 J-3.180 K0.000 F600.000
G2 X-21.001 Y-35.615 Z-9.000 I-1.001 J4.385 K0.000 F600.000
G2 X-16.820 Y-36.820 Z-9.000 I1.001 J-4.385 K0.000 F600.000
G1 X-16.820 Y-36.820 Z-12.000 F600.000
G2 X-18.999 Y-44.385 Z-12.000 I-3.180 J-3.180 K0.000 F600.000
G2 X-21.001 Y-35.615 Z-12.000 I-1.001 J4.385 K0.000 F600.000
G2 X-16.820 Y-36.820 Z-12.000 I1.001 J-4.385 K0.000 F600.000
G1 X-16.820 Y-36.820 Z-15.000 F600.000
G2 X-18.999 Y-44.385 Z-15.000 I-3.180 J-3.180 K0.000 F600.000
G2 X-21.001 Y-35.615 Z-15.000 I-1.001 J4.385 K0.000 F600.000
G2 X-16.820 Y-36.820 Z-15.000 I1.001 J-4.385 K0.000 F600.000
G1 X-16.820 Y-36.820 Z-16.000 F600.000
G2 X-18.999 Y-44.385 Z-16.000 I-3.180 J-3.180 K0.000 F600.000
G2 X-21.001 Y-35.615 Z-16.000 I-1.001 J4.385 K0.000 F600.000
G2 X-16.820 Y-36.820 Z-16.000 I1.001 J-4.385 K0.000 F600.000
G0 Z5.000
G0 Z5.000
(Finish operation: Profile003)
(Begin operation: Profile004)
(Path: Profile004)
(Profile004)
(Compensated Tool Path. Diameter: 3.0)
G0 Z5.000
G0 X76.061 Y56.061
G0 Z3.000
G1 X76.061 Y56.061 Z-3.000 F600.000
G2 X76.500 Y55.000 Z-3.000 I-1.061 J-1.061 K0.000 F600.000
G1 X76.500 Y-55.000 Z-3.000 F600.000
G2 X75.000 Y-56.500 Z-3.000 I-1.500 J0.000 K0.000 F600.000
G1 X-75.000 Y-56.500 Z-3.000 F600.000
G2 X-76.500 Y-55.000 Z-3.000 I0.000 J1.500 K0.000 F600.000
G1 X-76.500 Y55.000 Z-3.000 F600.000
G2 X-75.000 Y56.500 Z-3.000 I1.500 J-0.000 K0.000 F600.000
G1 X75.000 Y56.500 Z-3.000 F600.000
G2 X76.061 Y56.061 Z-3.000 I-0.000 J-1.500 K0.000 F600.000
G1 X76.061 Y56.061 Z-6.000 F600.000
G2 X76.500 Y55.000 Z-6.000 I-1.061 J-1.061 K0.000 F600.000
G1 X76.500 Y-55.000 Z-6.000 F600.000
G2 X75.000 Y-56.500 Z-6.000 I-1.500 J0.000 K0.000 F600.000
G1 X-75.000 Y-56.500 Z-6.000 F600.000
G2 X-76.500 Y-55.000 Z-6.000 I0.000 J1.500 K0.000 F600.000
G1 X-76.500 Y55.000 Z-6.000 F600.000
G2 X-75.000 Y56.500 Z-6.000 I1.500 J-0.000 K0.000 F600.000
G1 X75.000 Y56.500 Z-6.000 F600.000
G2 X76.061 Y56.061 Z-6.000 I-0.000 J-1.500 K0.000 F600.000
G1 X76.061 Y56.061 Z-9.000 F600.000
G2 X76.500 Y55.000 Z-9.000 I-1.061 J-1.061 K0.000 F600.000
G1 X76.500 Y-55.000 Z-9.000 F600.000
G2 X75.000 Y-56.500 Z-9.000 I-1.500 J0.000 K0.000 F600.000
G1 X-75.000 Y-56.500 Z-9.000 F600.000
G2 X-76.500 Y-55.000 Z-9.000 I0.000 J1.500 K0.000 F600.000
G1 X-76.500 Y55.000 Z-9.000 F600.000
G2 X-75.000 Y56.500 Z-9.000 I1.500 J-0.000 K0.000 F600.000
G1 X75.000 Y56.500 Z-9.000 F600.000
G2 X76.061 Y56.061 Z-9.000 I-0.000 J-1.500 K0.000 F600.000
G1 X76.061 Y56.061 Z-12.000 F600.000
G2 X76.500 Y55.000 Z-12.000 I-1.061 J-1.061 K0.000 F600.000
G1 X76.500 Y-55.000 Z-12.000 F600.000
G2 X75.000 Y-56.500 Z-12.000 I-1.500 J0.000 K0.000 F600.000
G1 X-75.000 Y-56.500 Z-12.000 F600.000
G2 X-76.500 Y-55.000 Z-12.000 I0.000 J1.500 K0.000 F600.000
G1 X-76.500 Y55.000 Z-12.000 F600.000
G2 X-75.000 Y56.500 Z-12.000 I1.500 J-0.000 K0.000 F600.000
G1 X75.000 Y56.500 Z-12.000 F600.000
G2 X76.061 Y56.061 Z-12.000 I-0.000 J-1.500 K0.000 F600.000
G1 X76.061 Y56.061 Z-15.000 F600.000
G2 X76.500 Y55.000 Z-15.000 I-1.061 J-1.061 K0.000 F600.000
G1 X76.500 Y-55.000 Z-15.000 F600.000
G2 X75.000 Y-56.500 Z-15.000 I-1.500 J0.000 K0.000 F600.000
G1 X-75.000 Y-56.500 Z-15.000 F600.000
G2 X-76.500 Y-55.000 Z-15.000 I0.000 J1.500 K0.000 F600.000
G1 X-76.500 Y55.000 Z-15.000 F600.000
G2 X-75.000 Y56.500 Z-15.000 I1.500 J-0.000 K0.000 F600.000
G1 X75.000 Y56.500 Z-15.000 F600.000
G2 X76.061 Y56.061 Z-15.000 I-0.000 J-1.500 K0.000 F600.000
G1 X76.061 Y56.061 Z-16.000 F600.000
G2 X76.500 Y55.000 Z-16.000 I-1.061 J-1.061 K0.000 F600.000
G1 X76.500 Y-55.000 Z-16.000 F600.000
G2 X75.000 Y-56.500 Z-16.000 I-1.500 J0.000 K0.000 F600.000
G1 X-75.000 Y-56.500 Z-16.000 F600.000
G2 X-76.500 Y-55.000 Z-16.000 I0.000 J1.500 K0.000 F600.000
G1 X-76.500 Y55.000 Z-16.000 F600.000
G2 X-75.000 Y56.500 Z-16.000 I1.500 J-0.000 K0.000 F600.000
G1 X75.000 Y56.500 Z-16.000 F600.000
G2 X76.061 Y56.061 Z-16.000 I-0.000 J-1.500 K0.000 F600.000
G0 Z5.000
G0 Z5.000
(Finish operation: Profile004)
(Begin postamble)
M5
G17 G90
M2
