(Exported by FreeCAD)
(Post Processor: script_module)
(Output Time:2025-12-03 16:12:23.114097)
(Begin preamble)
G17 G90
G21
(Begin operation: Fixture)
(Path: Fixture)
G54
(Finish operation: Fixture)
(Begin operation: 3mm_Endmill003)
(Path: 3mm_Endmill003)
(3mm_Endmill003)
(Begin toolchange)
( M6 T2 )
M3 S10000
(Finish operation: 3mm_Endmill003)
(Begin operation: Profile001)
(Path: Profile001)
(Profile001)
(Compensated Tool Path. Diameter: 3.0)
G0 Z5.000
G0 X0.000 Y0.000
G0 X-75.862 Y42.672
G0 X-75.862 Y42.672 Z3.000
G1 X-75.862 Y42.672 Z-3.000 F600.000
G2 X-78.944 Y40.371 Z-3.000 I-4.138 J2.328 K0.000 F600.000
G2 X-84.629 Y43.944 Z-3.000 I-1.056 J4.629 K0.000 F600.000
G2 X-81.056 Y49.629 Z-3.000 I4.629 J1.056 K0.000 F600.000
G2 X-75.862 Y42.672 Z-3.000 I1.056 J-4.629 K0.000 F600.000
G1 X-75.862 Y42.672 Z-6.000 F600.000
G2 X-78.944 Y40.371 Z-6.000 I-4.138 J2.328 K0.000 F600.000
G2 X-84.629 Y43.944 Z-6.000 I-1.056 J4.629 K0.000 F600.000
G2 X-81.056 Y49.629 Z-6.000 I4.629 J1.056 K0.000 F600.000
G2 X-75.862 Y42.672 Z-6.000 I1.056 J-4.629 K0.000 F600.000
G1 X-75.862 Y42.672 Z-9.000 F600.000
G2 X-78.944 Y40.371 Z-9.000 I-4.138 J2.328 K0.000 F600.000
G2 X-84.629 Y43.944 Z-9.000 I-1.056 J4.629 K0.000 F600.000
G2 X-81.056 Y49.629 Z-9.000 I4.629 J1.056 K0.000 F600.000
G2 X-75.862 Y42.672 Z-9.000 I1.056 J-4.629 K0.000 F600.000
G1 X-75.862 Y42.672 Z-12.000 F600.000
G2 X-78.944 Y40.371 Z-12.000 I-4.138 J2.328 K0.000 F600.000
G2 X-84.629 Y43.944 Z-12.000 I-1.056 J4.629 K0.000 F600.000
G2 X-81.056 Y49.629 Z-12.000 I4.629 J1.056 K0.000 F600.000
G2 X-75.862 Y42.672 Z-12.000 I1.056 J-4.629 K0.000 F600.000
G1 X-75.862 Y42.672 Z-15.000 F600.000
G2 X-78.944 Y40.371 Z-15.000 I-4.138 J2.328 K0.000 F600.000
G2 X-84.629 Y43.944 Z-15.000 I-1.056 J4.629 K0.000 F600.000
G2 X-81.056 Y49.629 Z-15.000 I4.629 J1.056 K0.000 F600.000
G2 X-75.862 Y42.672 Z-15.000 I1.056 J-4.629 K0.000 F600.000
G1 X-75.862 Y42.672 Z-16.000 F600.000
G2 X-78.944 Y40.371 Z-16.000 I-4.138 J2.328 K0.000 F600.000
G2 X-84.629 Y43.944 Z-16.000 I-1.056 J4.629 K0.000 F600.000
G2 X-81.056 Y49.629 Z-16.000 I4.629 J1.056 K0.000 F600.000
G2 X-75.862 Y42.672 Z-16.000 I1.056 J-4.629 K0.000 F600.000
G0 Z5.000
G0 Z5.000
(Finish operation: Profile001)
(Begin operation: Profile002)
(Path: Profile002)
(Profile002)
(Compensated Tool Path. Diameter: 3.0)
G0 Z5.000
G0 X0.000 Y0.000
G0 X75.862 Y42.672
G0 X75.862 Y42.672 Z3.000
G1 X75.862 Y42.672 Z-3.000 F600.000
G2 X78.944 Y49.629 Z-3.000 I4.138 J2.328 K0.000 F600.000
G2 X84.629 Y46.056 Z-3.000 I1.056 J-4.629 K0.000 F600.000
G2 X81.056 Y40.371 Z-3.000 I-4.629 J-1.056 K0.000 F600.000
G2 X75.862 Y42.672 Z-3.000 I-1.056 J4.629 K0.000 F600.000
G1 X75.862 Y42.672 Z-6.000 F600.000
G2 X78.944 Y49.629 Z-6.000 I4.138 J2.328 K0.000 F600.000
G2 X84.629 Y46.056 Z-6.000 I1.056 J-4.629 K0.000 F600.000
G2 X81.056 Y40.371 Z-6.000 I-4.629 J-1.056 K0.000 F600.000
G2 X75.862 Y42.672 Z-6.000 I-1.056 J4.629 K0.000 F600.000
G1 X75.862 Y42.672 Z-9.000 F600.000
G2 X78.944 Y49.629 Z-9.000 I4.138 J2.328 K0.000 F600.000
G2 X84.629 Y46.056 Z-9.000 I1.056 J-4.629 K0.000 F600.000
G2 X81.056 Y40.371 Z-9.000 I-4.629 J-1.056 K0.000 F600.000
G2 X75.862 Y42.672 Z-9.000 I-1.056 J4.629 K0.000 F600.000
G1 X75.862 Y42.672 Z-12.000 F600.000
G2 X78.944 Y49.629 Z-12.000 I4.138 J2.328 K0.000 F600.000
G2 X84.629 Y46.056 Z-12.000 I1.056 J-4.629 K0.000 F600.000
G2 X81.056 Y40.371 Z-12.000 I-4.629 J-1.056 K0.000 F600.000
G2 X75.862 Y42.672 Z-12.000 I-1.056 J4.629 K0.000 F600.000
G1 X75.862 Y42.672 Z-15.000 F600.000
G2 X78.944 Y49.629 Z-15.000 I4.138 J2.328 K0.000 F600.000
G2 X84.629 Y46.056 Z-15.000 I1.056 J-4.629 K0.000 F600.000
G2 X81.056 Y40.371 Z-15.000 I-4.629 J-1.056 K0.000 F600.000
G2 X75.862 Y42.672 Z-15.000 I-1.056 J4.629 K0.000 F600.000
G1 X75.862 Y42.672 Z-16.000 F600.000
G2 X78.944 Y49.629 Z-16.000 I4.138 J2.328 K0.000 F600.000
G2 X84.629 Y46.056 Z-16.000 I1.056 J-4.629 K0.000 F600.000
G2 X81.056 Y40.371 Z-16.000 I-4.629 J-1.056 K0.000 F600.000
G2 X75.862 Y42.672 Z-16.000 I-1.056 J4.629 K0.000 F600.000
G0 Z5.000
G0 Z5.000
(Finish operation: Profile002)
(Begin operation: Profile003)
(Path: Profile003)
(Profile003)
(Compensated Tool Path. Diameter: 3.0)
G0 Z5.000
G0 X0.000 Y0.000
G0 X76.734 Y-43.163
G0 X76.734 Y-43.163 Z3.000
G1 X76.734 Y-43.163 Z-3.000 F600.000
G2 X79.103 Y-41.362 Z-3.000 I3.266 J-1.837 K0.000 F600.000
G2 X80.897 Y-48.638 Z-3.000 I0.897 J-3.638 K0.000 F600.000
G2 X76.734 Y-43.163 Z-3.000 I-0.897 J3.638 K0.000 F600.000
G1 X76.734 Y-43.163 Z-6.000 F600.000
G2 X79.103 Y-41.362 Z-6.000 I3.266 J-1.837 K0.000 F600.000
G2 X80.897 Y-48.638 Z-6.000 I0.897 J-3.638 K0.000 F600.000
G2 X76.734 Y-43.163 Z-6.000 I-0.897 J3.638 K0.000 F600.000
G1 X76.734 Y-43.163 Z-9.000 F600.000
G2 X79.103 Y-41.362 Z-9.000 I3.266 J-1.837 K0.000 F600.000
G2 X80.897 Y-48.638 Z-9.000 I0.897 J-3.638 K0.000 F600.000
G2 X76.734 Y-43.163 Z-9.000 I-0.897 J3.638 K0.000 F600.000
G1 X76.734 Y-43.163 Z-12.000 F600.000
G2 X79.103 Y-41.362 Z-12.000 I3.266 J-1.837 K0.000 F600.000
G2 X80.897 Y-48.638 Z-12.000 I0.897 J-3.638 K0.000 F600.000
G2 X76.734 Y-43.163 Z-12.000 I-0.897 J3.638 K0.000 F600.000
G1 X76.734 Y-43.163 Z-15.000 F600.000
G2 X79.103 Y-41.362 Z-15.000 I3.266 J-1.837 K0.000 F600.000
G2 X80.897 Y-48.638 Z-15.000 I0.897 J-3.638 K0.000 F600.000
G2 X76.734 Y-43.163 Z-15.000 I-0.897 J3.638 K0.000 F600.000
G1 X76.734 Y-43.163 Z-16.000 F600.000
G2 X79.103 Y-41.362 Z-16.000 I3.266 J-1.837 K0.000 F600.000
G2 X80.897 Y-48.638 Z-16.000 I0.897 J-3.638 K0.000 F600.000
G2 X76.734 Y-43.163 Z-16.000 I-0.897 J3.638 K0.000 F600.000
G0 Z5.000
G0 Z5.000
(Finish operation: Profile003)
(Begin operation: Profile004)
(Path: Profile004)
(Profile004)
(Compensated Tool Path. Diameter: 3.0)
G0 Z5.000
G0 X0.000 Y0.000
G0 X-76.734 Y-43.163
G0 X-76.734 Y-43.163 Z3.000
G1 X-76.734 Y-43.163 Z-3.000 F600.000
G2 X-79.103 Y-48.638 Z-3.000 I-3.266 J-1.837 K0.000 F600.000
G2 X-80.897 Y-41.362 Z-3.000 I-0.897 J3.638 K0.000 F600.000
G2 X-76.734 Y-43.163 Z-3.000 I0.897 J-3.638 K0.000 F600.000
G1 X-76.734 Y-43.163 Z-6.000 F600.000
G2 X-79.103 Y-48.638 Z-6.000 I-3.266 J-1.837 K0.000 F600.000
G2 X-80.897 Y-41.362 Z-6.000 I-0.897 J3.638 K0.000 F600.000
G2 X-76.734 Y-43.163 Z-6.000 I0.897 J-3.638 K0.000 F600.000
G1 X-76.734 Y-43.163 Z-9.000 F600.000
G2 X-79.103 Y-48.638 Z-9.000 I-3.266 J-1.837 K0.000 F600.000
G2 X-80.897 Y-41.362 Z-9.000 I-0.897 J3.638 K0.000 F600.000
G2 X-76.734 Y-43.163 Z-9.000 I0.897 J-3.638 K0.000 F600.000
G1 X-76.734 Y-43.163 Z-12.000 F600.000
G2 X-79.103 Y-48.638 Z-12.000 I-3.266 J-1.837 K0.000 F600.000
G2 X-80.897 Y-41.362 Z-12.000 I-0.897 J3.638 K0.000 F600.000
G2 X-76.734 Y-43.163 Z-12.000 I0.897 J-3.638 K0.000 F600.000
G1 X-76.734 Y-43.163 Z-15.000 F600.000
G2 X-79.103 Y-48.638 Z-15.000 I-3.266 J-1.837 K0.000 F600.000
G2 X-80.897 Y-41.362 Z-15.000 I-0.897 J3.638 K0.000 F600.000
G2 X-76.734 Y-43.163 Z-15.000 I0.897 J-3.638 K0.000 F600.000
G1 X-76.734 Y-43.163 Z-16.000 F600.000
G2 X-79.103 Y-48.638 Z-16.000 I-3.266 J-1.837 K0.000 F600.000
G2 X-80.897 Y-41.362 Z-16.000 I-0.897 J3.638 K0.000 F600.000
G2 X-76.734 Y-43.163 Z-16.000 I0.897 J-3.638 K0.000 F600.000
G0 Z5.000
G0 Z5.000
(Finish operation: Profile004)
(Begin operation: Profile005)
(Path: Profile005)
(Profile005)
(Compensated Tool Path. Diameter: 3.0)
G0 Z5.000
G0 X0.000 Y0.000
G0 Y3.500
G0 Y3.500 Z3.000
G1 X0.000 Y3.500 Z-3.000 F600.000
G1 X78.500 Y3.500 Z-3.000 F600.000
G1 X78.500 Y-3.500 Z-3.000 F600.000
G1 X-78.500 Y-3.500 Z-3.000 F600.000
G1 X-78.500 Y3.500 Z-3.000 F600.000
G1 X0.000 Y3.500 Z-3.000 F600.000
G1 X0.000 Y3.500 Z-6.000 F600.000
G1 X78.500 Y3.500 Z-6.000 F600.000
G1 X78.500 Y-3.500 Z-6.000 F600.000
G1 X-78.500 Y-3.500 Z-6.000 F600.000
G1 X-78.500 Y3.500 Z-6.000 F600.000
G1 X0.000 Y3.500 Z-6.000 F600.000
G1 X0.000 Y3.500 Z-9.000 F600.000
G1 X78.500 Y3.500 Z-9.000 F600.000
G1 X78.500 Y-3.500 Z-9.000 F600.000
G1 X-78.500 Y-3.500 Z-9.000 F600.000
G1 X-78.500 Y3.500 Z-9.000 F600.000
G1 X0.000 Y3.500 Z-9.000 F600.000
G1 X0.000 Y3.500 Z-12.000 F600.000
G1 X78.500 Y3.500 Z-12.000 F600.000
G1 X78.500 Y-3.500 Z-12.000 F600.000
G1 X-78.500 Y-3.500 Z-12.000 F600.000
G1 X-78.500 Y3.500 Z-12.000 F600.000
G1 X0.000 Y3.500 Z-12.000 F600.000
G1 X0.000 Y3.500 Z-15.000 F600.000
G1 X78.500 Y3.500 Z-15.000 F600.000
G1 X78.500 Y-3.500 Z-15.000 F600.000
G1 X-78.500 Y-3.500 Z-15.000 F600.000
G1 X-78.500 Y3.500 Z-15.000 F600.000
G1 X0.000 Y3.500 Z-15.000 F600.000
G1 X0.000 Y3.500 Z-16.000 F600.000
G1 X78.500 Y3.500 Z-16.000 F600.000
G1 X78.500 Y-3.500 Z-16.000 F600.000
G1 X-78.500 Y-3.500 Z-16.000 F600.000
G1 X-78.500 Y3.500 Z-16.000 F600.000
G1 X0.000 Y3.500 Z-16.000 F600.000
G0 Z5.000
G0 Z5.000
(Finish operation: Profile005)
(Begin operation: Profile006)
(Path: Profile006)
(Profile006)
(Compensated Tool Path. Diameter: 3.0)
G0 Z5.000
G0 X0.000 Y0.000
G0 Y61.500
G0 Y61.500 Z3.000
G1 X0.000 Y61.500 Z-3.000 F600.000
G1 X100.000 Y61.500 Z-3.000 F600.000
G2 X101.500 Y60.000 Z-3.000 I-0.000 J-1.500 K0.000 F600.000
G1 X101.500 Y-60.000 Z-3.000 F600.000
G2 X100.000 Y-61.500 Z-3.000 I-1.500 J0.000 K0.000 F600.000
G1 X-100.000 Y-61.500 Z-3.000 F600.000
G2 X-101.500 Y-60.000 Z-3.000 I0.000 J1.500 K0.000 F600.000
G1 X-101.500 Y60.000 Z-3.000 F600.000
G2 X-100.000 Y61.500 Z-3.000 I1.500 J-0.000 K0.000 F600.000
G1 X0.000 Y61.500 Z-3.000 F600.000
G1 X0.000 Y61.500 Z-6.000 F600.000
G1 X100.000 Y61.500 Z-6.000 F600.000
G2 X101.500 Y60.000 Z-6.000 I-0.000 J-1.500 K0.000 F600.000
G1 X101.500 Y-60.000 Z-6.000 F600.000
G2 X100.000 Y-61.500 Z-6.000 I-1.500 J0.000 K0.000 F600.000
G1 X-100.000 Y-61.500 Z-6.000 F600.000
G2 X-101.500 Y-60.000 Z-6.000 I0.000 J1.500 K0.000 F600.000
G1 X-101.500 Y60.000 Z-6.000 F600.000
G2 X-100.000 Y61.500 Z-6.000 I1.500 J-0.000 K0.000 F600.000
G1 X0.000 Y61.500 Z-6.000 F600.000
G1 X0.000 Y61.500 Z-9.000 F600.000
G1 X100.000 Y61.500 Z-9.000 F600.000
G2 X101.500 Y60.000 Z-9.000 I-0.000 J-1.500 K0.000 F600.000
G1 X101.500 Y-60.000 Z-9.000 F600.000
G2 X100.000 Y-61.500 Z-9.000 I-1.500 J0.000 K0.000 F600.000
G1 X-100.000 Y-61.500 Z-9.000 F600.000
G2 X-101.500 Y-60.000 Z-9.000 I0.000 J1.500 K0.000 F600.000
G1 X-101.500 Y60.000 Z-9.000 F600.000
G2 X-100.000 Y61.500 Z-9.000 I1.500 J-0.000 K0.000 F600.000
G1 X0.000 Y61.500 Z-9.000 F600.000
G1 X0.000 Y61.500 Z-12.000 F600.000
G1 X100.000 Y61.500 Z-12.000 F600.000
G2 X101.500 Y60.000 Z-12.000 I-0.000 J-1.500 K0.000 F600.000
G1 X101.500 Y-60.000 Z-12.000 F600.000
G2 X100.000 Y-61.500 Z-12.000 I-1.500 J0.000 K0.000 F600.000
G1 X-100.000 Y-61.500 Z-12.000 F600.000
G2 X-101.500 Y-60.000 Z-12.000 I0.000 J1.500 K0.000 F600.000
G1 X-101.500 Y60.000 Z-12.000 F600.000
G2 X-100.000 Y61.500 Z-12.000 I1.500 J-0.000 K0.000 F600.000
G1 X0.000 Y61.500 Z-12.000 F600.000
G1 X0.000 Y61.500 Z-15.000 F600.000
G1 X100.000 Y61.500 Z-15.000 F600.000
G2 X101.500 Y60.000 Z-15.000 I-0.000 J-1.500 K0.000 F600.000
G1 X101.500 Y-60.000 Z-15.000 F600.000
G2 X100.000 Y-61.500 Z-15.000 I-1.500 J0.000 K0.000 F600.000
G1 X-100.000 Y-61.500 Z-15.000 F600.000
G2 X-101.500 Y-60.000 Z-15.000 I0.000 J1.500 K0.000 F600.000
G1 X-101.500 Y60.000 Z-15.000 F600.000
G2 X-100.000 Y61.500 Z-15.000 I1.500 J-0.000 K0.000 F600.000
G1 X0.000 Y61.500 Z-15.000 F600.000
G1 X0.000 Y61.500 Z-16.000 F600.000
G1 X100.000 Y61.500 Z-16.000 F600.000
G2 X101.500 Y60.000 Z-16.000 I-0.000 J-1.500 K0.000 F600.000
G1 X101.500 Y-60.000 Z-16.000 F600.000
G2 X100.000 Y-61.500 Z-16.000 I-1.500 J0.000 K0.000 F600.000
G1 X-100.000 Y-61.500 Z-16.000 F600.000
G2 X-101.500 Y-60.000 Z-16.000 I0.000 J1.500 K0.000 F600.000
G1 X-101.500 Y60.000 Z-16.000 F600.000
G2 X-100.000 Y61.500 Z-16.000 I1.500 J-0.000 K0.000 F600.000
G1 X0.000 Y61.500 Z-16.000 F600.000
G0 Z5.000
G0 Z5.000
(Finish operation: Profile006)
(Begin postamble)
M5
G17 G90
M2
