(Exported by FreeCAD)
(Post Processor: script_module)
(Output Time:2026-01-01 16:34:24.575021)
(Begin preamble)
G17 G90
G21
(Begin operation: Fixture)
(Path: Fixture)
G54
(Finish operation: Fixture)
(Begin operation: 3mm_Endmill002)
(Path: 3mm_Endmill002)
(3mm_Endmill002)
(Begin toolchange)
( M6 T3 )
M3 S15000
(Finish operation: 3mm_Endmill002)
(Begin operation: Pocket_Shape001)
(Path: Pocket_Shape001)
(Pocket_Shape001)
G0 Z5.000
G0 X0.000 Y0.000
G0 X41.500 Y-26.500
G0 X41.500 Y-26.500 Z3.000
G1 X41.500 Y-26.500 Z-3.000 F600.000
G1 X53.500 Y-26.500 Z-3.000 F600.000
G1 X53.500 Y-63.500 Z-3.000 F600.000
G1 X41.500 Y-63.500 Z-3.000 F600.000
G1 X41.500 Y-26.500 Z-3.000 F600.000
G1 X43.831 Y-26.500 Z-3.000 F600.000
G1 X41.500 Y-26.500 Z-3.000 F600.000
G1 X41.500 Y-28.831 Z-3.000 F600.000
G1 X43.831 Y-26.500 Z-3.000 F600.000
G1 X48.074 Y-26.500 Z-3.000 F600.000
G1 X41.500 Y-33.074 Z-3.000 F600.000
G1 X41.500 Y-37.316 Z-3.000 F600.000
G1 X52.316 Y-26.500 Z-3.000 F600.000
G1 X53.500 Y-26.500 Z-3.000 F600.000
G1 X53.500 Y-29.559 Z-3.000 F600.000
G1 X41.500 Y-41.559 Z-3.000 F600.000
G1 X41.500 Y-45.802 Z-3.000 F600.000
G1 X53.500 Y-33.802 Z-3.000 F600.000
G1 X53.500 Y-38.044 Z-3.000 F600.000
G1 X41.500 Y-50.044 Z-3.000 F600.000
G1 X41.500 Y-54.287 Z-3.000 F600.000
G1 X53.500 Y-42.287 Z-3.000 F600.000
G1 X53.500 Y-46.529 Z-3.000 F600.000
G1 X41.500 Y-58.529 Z-3.000 F600.000
G1 X41.500 Y-62.772 Z-3.000 F600.000
G1 X53.500 Y-50.772 Z-3.000 F600.000
G1 X53.500 Y-55.015 Z-3.000 F600.000
G1 X45.015 Y-63.500 Z-3.000 F600.000
G1 X49.257 Y-63.500 Z-3.000 F600.000
G1 X53.500 Y-59.257 Z-3.000 F600.000
G1 X53.500 Y-63.500 Z-3.000 F600.000
G1 X53.500 Y-63.500 Z-6.000 F600.000
G1 X53.500 Y-59.257 Z-6.000 F600.000
G1 X49.257 Y-63.500 Z-6.000 F600.000
G1 X45.015 Y-63.500 Z-6.000 F600.000
G1 X53.500 Y-55.015 Z-6.000 F600.000
G1 X53.500 Y-50.772 Z-6.000 F600.000
G1 X41.500 Y-62.772 Z-6.000 F600.000
G1 X41.500 Y-58.529 Z-6.000 F600.000
G1 X53.500 Y-46.529 Z-6.000 F600.000
G1 X53.500 Y-42.287 Z-6.000 F600.000
G1 X41.500 Y-54.287 Z-6.000 F600.000
G1 X41.500 Y-50.044 Z-6.000 F600.000
G1 X53.500 Y-38.044 Z-6.000 F600.000
G1 X53.500 Y-33.802 Z-6.000 F600.000
G1 X41.500 Y-45.802 Z-6.000 F600.000
G1 X41.500 Y-41.559 Z-6.000 F600.000
G1 X53.500 Y-29.559 Z-6.000 F600.000
G1 X53.500 Y-26.500 Z-6.000 F600.000
G1 X52.316 Y-26.500 Z-6.000 F600.000
G1 X41.500 Y-37.316 Z-6.000 F600.000
G1 X41.500 Y-33.074 Z-6.000 F600.000
G1 X48.074 Y-26.500 Z-6.000 F600.000
G1 X43.831 Y-26.500 Z-6.000 F600.000
G1 X41.500 Y-28.831 Z-6.000 F600.000
G1 X41.500 Y-26.500 Z-6.000 F600.000
G1 X43.831 Y-26.500 Z-6.000 F600.000
G1 X43.831 Y-26.500 Z-6.000 F600.000
G1 X53.500 Y-26.500 Z-6.000 F600.000
G1 X53.500 Y-63.500 Z-6.000 F600.000
G1 X41.500 Y-63.500 Z-6.000 F600.000
G1 X41.500 Y-26.500 Z-6.000 F600.000
G1 X43.831 Y-26.500 Z-6.000 F600.000
G1 X43.831 Y-26.500 Z-8.000 F600.000
G1 X53.500 Y-26.500 Z-8.000 F600.000
G1 X53.500 Y-63.500 Z-8.000 F600.000
G1 X41.500 Y-63.500 Z-8.000 F600.000
G1 X41.500 Y-26.500 Z-8.000 F600.000
G1 X43.831 Y-26.500 Z-8.000 F600.000
G1 X43.831 Y-26.500 Z-8.000 F600.000
G1 X41.500 Y-26.500 Z-8.000 F600.000
G1 X41.500 Y-28.831 Z-8.000 F600.000
G1 X43.831 Y-26.500 Z-8.000 F600.000
G1 X48.074 Y-26.500 Z-8.000 F600.000
G1 X41.500 Y-33.074 Z-8.000 F600.000
G1 X41.500 Y-37.316 Z-8.000 F600.000
G1 X52.316 Y-26.500 Z-8.000 F600.000
G1 X53.500 Y-26.500 Z-8.000 F600.000
G1 X53.500 Y-29.559 Z-8.000 F600.000
G1 X41.500 Y-41.559 Z-8.000 F600.000
G1 X41.500 Y-45.802 Z-8.000 F600.000
G1 X53.500 Y-33.802 Z-8.000 F600.000
G1 X53.500 Y-38.044 Z-8.000 F600.000
G1 X41.500 Y-50.044 Z-8.000 F600.000
G1 X41.500 Y-54.287 Z-8.000 F600.000
G1 X53.500 Y-42.287 Z-8.000 F600.000
G1 X53.500 Y-46.529 Z-8.000 F600.000
G1 X41.500 Y-58.529 Z-8.000 F600.000
G1 X41.500 Y-62.772 Z-8.000 F600.000
G1 X53.500 Y-50.772 Z-8.000 F600.000
G1 X53.500 Y-55.015 Z-8.000 F600.000
G1 X45.015 Y-63.500 Z-8.000 F600.000
G1 X49.257 Y-63.500 Z-8.000 F600.000
G1 X53.500 Y-59.257 Z-8.000 F600.000
G1 X53.500 Y-63.500 Z-8.000 F600.000
G0 Z5.000
G0 Z5.000
(Finish operation: Pocket_Shape001)
(Begin operation: Pocket_Shape)
(Path: Pocket_Shape)
(Pocket_Shape)
G0 Z5.000
G0 X43.831 Y18.500
G0 Z3.000
G1 X43.831 Y18.500 Z-3.000 F600.000
G1 X41.500 Y16.169 Z-3.000 F600.000
G1 X41.500 Y18.500 Z-3.000 F600.000
G1 X43.831 Y18.500 Z-3.000 F600.000
G1 X53.500 Y18.500 Z-3.000 F600.000
G1 X53.500 Y-18.500 Z-3.000 F600.000
G1 X41.500 Y-18.500 Z-3.000 F600.000
G1 X41.500 Y18.500 Z-3.000 F600.000
G1 X43.831 Y18.500 Z-3.000 F600.000
G1 X48.074 Y18.500 Z-3.000 F600.000
G1 X41.500 Y11.926 Z-3.000 F600.000
G1 X41.500 Y7.684 Z-3.000 F600.000
G1 X52.316 Y18.500 Z-3.000 F600.000
G1 X53.500 Y18.500 Z-3.000 F600.000
G1 X53.500 Y15.441 Z-3.000 F600.000
G1 X41.500 Y3.441 Z-3.000 F600.000
G1 X41.500 Y-0.802 Z-3.000 F600.000
G1 X53.500 Y11.198 Z-3.000 F600.000
G1 X53.500 Y6.956 Z-3.000 F600.000
G1 X41.500 Y-5.044 Z-3.000 F600.000
G1 X41.500 Y-9.287 Z-3.000 F600.000
G1 X53.500 Y2.713 Z-3.000 F600.000
G1 X53.500 Y-1.529 Z-3.000 F600.000
G1 X41.500 Y-13.529 Z-3.000 F600.000
G1 X41.500 Y-17.772 Z-3.000 F600.000
G1 X53.500 Y-5.772 Z-3.000 F600.000
G1 X53.500 Y-10.015 Z-3.000 F600.000
G1 X45.015 Y-18.500 Z-3.000 F600.000
G1 X49.257 Y-18.500 Z-3.000 F600.000
G1 X53.500 Y-14.257 Z-3.000 F600.000
G1 X53.500 Y-18.500 Z-3.000 F600.000
G1 X53.500 Y-18.500 Z-6.000 F600.000
G1 X53.500 Y-14.257 Z-6.000 F600.000
G1 X49.257 Y-18.500 Z-6.000 F600.000
G1 X45.015 Y-18.500 Z-6.000 F600.000
G1 X53.500 Y-10.015 Z-6.000 F600.000
G1 X53.500 Y-5.772 Z-6.000 F600.000
G1 X41.500 Y-17.772 Z-6.000 F600.000
G1 X41.500 Y-13.529 Z-6.000 F600.000
G1 X53.500 Y-1.529 Z-6.000 F600.000
G1 X53.500 Y2.713 Z-6.000 F600.000
G1 X41.500 Y-9.287 Z-6.000 F600.000
G1 X41.500 Y-5.044 Z-6.000 F600.000
G1 X53.500 Y6.956 Z-6.000 F600.000
G1 X53.500 Y11.198 Z-6.000 F600.000
G1 X41.500 Y-0.802 Z-6.000 F600.000
G1 X41.500 Y3.441 Z-6.000 F600.000
G1 X53.500 Y15.441 Z-6.000 F600.000
G1 X53.500 Y18.500 Z-6.000 F600.000
G1 X52.316 Y18.500 Z-6.000 F600.000
G1 X41.500 Y7.684 Z-6.000 F600.000
G1 X41.500 Y11.926 Z-6.000 F600.000
G1 X48.074 Y18.500 Z-6.000 F600.000
G1 X43.831 Y18.500 Z-6.000 F600.000
G1 X41.500 Y18.500 Z-6.000 F600.000
G1 X41.500 Y-18.500 Z-6.000 F600.000
G1 X53.500 Y-18.500 Z-6.000 F600.000
G1 X53.500 Y18.500 Z-6.000 F600.000
G1 X43.831 Y18.500 Z-6.000 F600.000
G1 X41.500 Y18.500 Z-6.000 F600.000
G1 X41.500 Y16.169 Z-6.000 F600.000
G1 X43.831 Y18.500 Z-6.000 F600.000
G1 X43.831 Y18.500 Z-8.000 F600.000
G1 X41.500 Y16.169 Z-8.000 F600.000
G1 X41.500 Y18.500 Z-8.000 F600.000
G1 X43.831 Y18.500 Z-8.000 F600.000
G1 X53.500 Y18.500 Z-8.000 F600.000
G1 X53.500 Y-18.500 Z-8.000 F600.000
G1 X41.500 Y-18.500 Z-8.000 F600.000
G1 X41.500 Y18.500 Z-8.000 F600.000
G1 X43.831 Y18.500 Z-8.000 F600.000
G1 X48.074 Y18.500 Z-8.000 F600.000
G1 X41.500 Y11.926 Z-8.000 F600.000
G1 X41.500 Y7.684 Z-8.000 F600.000
G1 X52.316 Y18.500 Z-8.000 F600.000
G1 X53.500 Y18.500 Z-8.000 F600.000
G1 X53.500 Y15.441 Z-8.000 F600.000
G1 X41.500 Y3.441 Z-8.000 F600.000
G1 X41.500 Y-0.802 Z-8.000 F600.000
G1 X53.500 Y11.198 Z-8.000 F600.000
G1 X53.500 Y6.956 Z-8.000 F600.000
G1 X41.500 Y-5.044 Z-8.000 F600.000
G1 X41.500 Y-9.287 Z-8.000 F600.000
G1 X53.500 Y2.713 Z-8.000 F600.000
G1 X53.500 Y-1.529 Z-8.000 F600.000
G1 X41.500 Y-13.529 Z-8.000 F600.000
G1 X41.500 Y-17.772 Z-8.000 F600.000
G1 X53.500 Y-5.772 Z-8.000 F600.000
G1 X53.500 Y-10.015 Z-8.000 F600.000
G1 X45.015 Y-18.500 Z-8.000 F600.000
G1 X49.257 Y-18.500 Z-8.000 F600.000
G1 X53.500 Y-14.257 Z-8.000 F600.000
G1 X53.500 Y-18.500 Z-8.000 F600.000
G0 Z5.000
G0 Z5.000
(Finish operation: Pocket_Shape)
(Begin operation: Pocket_Shape002)
(Path: Pocket_Shape002)
(Pocket_Shape002)
G0 Z5.000
G0 X0.000 Y0.000
G0 X53.500 Y26.500
G0 X53.500 Y26.500 Z3.000
G1 X53.500 Y26.500 Z-3.000 F600.000
G1 X53.500 Y30.743 Z-3.000 F600.000
G1 X49.257 Y26.500 Z-3.000 F600.000
G1 X45.015 Y26.500 Z-3.000 F600.000
G1 X53.500 Y34.985 Z-3.000 F600.000
G1 X53.500 Y39.228 Z-3.000 F600.000
G1 X41.500 Y27.228 Z-3.000 F600.000
G1 X41.500 Y31.471 Z-3.000 F600.000
G1 X53.500 Y43.471 Z-3.000 F600.000
G1 X53.500 Y47.713 Z-3.000 F600.000
G1 X41.500 Y35.713 Z-3.000 F600.000
G1 X41.500 Y39.956 Z-3.000 F600.000
G1 X53.500 Y51.956 Z-3.000 F600.000
G1 X53.500 Y56.198 Z-3.000 F600.000
G1 X41.500 Y44.198 Z-3.000 F600.000
G1 X41.500 Y48.441 Z-3.000 F600.000
G1 X53.500 Y60.441 Z-3.000 F600.000
G1 X53.500 Y63.500 Z-3.000 F600.000
G1 X52.316 Y63.500 Z-3.000 F600.000
G1 X41.500 Y52.684 Z-3.000 F600.000
G1 X41.500 Y56.926 Z-3.000 F600.000
G1 X48.074 Y63.500 Z-3.000 F600.000
G1 X43.831 Y63.500 Z-3.000 F600.000
G1 X41.500 Y63.500 Z-3.000 F600.000
G1 X41.500 Y26.500 Z-3.000 F600.000
G1 X53.500 Y26.500 Z-3.000 F600.000
G1 X53.500 Y63.500 Z-3.000 F600.000
G1 X43.831 Y63.500 Z-3.000 F600.000
G1 X41.500 Y63.500 Z-3.000 F600.000
G1 X41.500 Y61.169 Z-3.000 F600.000
G1 X43.831 Y63.500 Z-3.000 F600.000
G1 X43.831 Y63.500 Z-6.000 F600.000
G1 X41.500 Y61.169 Z-6.000 F600.000
G1 X41.500 Y63.500 Z-6.000 F600.000
G1 X43.831 Y63.500 Z-6.000 F600.000
G1 X53.500 Y63.500 Z-6.000 F600.000
G1 X53.500 Y26.500 Z-6.000 F600.000
G1 X41.500 Y26.500 Z-6.000 F600.000
G1 X41.500 Y63.500 Z-6.000 F600.000
G1 X43.831 Y63.500 Z-6.000 F600.000
G1 X48.074 Y63.500 Z-6.000 F600.000
G1 X41.500 Y56.926 Z-6.000 F600.000
G1 X41.500 Y52.684 Z-6.000 F600.000
G1 X52.316 Y63.500 Z-6.000 F600.000
G1 X53.500 Y63.500 Z-6.000 F600.000
G1 X53.500 Y60.441 Z-6.000 F600.000
G1 X41.500 Y48.441 Z-6.000 F600.000
G1 X41.500 Y44.198 Z-6.000 F600.000
G1 X53.500 Y56.198 Z-6.000 F600.000
G1 X53.500 Y51.956 Z-6.000 F600.000
G1 X41.500 Y39.956 Z-6.000 F600.000
G1 X41.500 Y35.713 Z-6.000 F600.000
G1 X53.500 Y47.713 Z-6.000 F600.000
G1 X53.500 Y43.471 Z-6.000 F600.000
G1 X41.500 Y31.471 Z-6.000 F600.000
G1 X41.500 Y27.228 Z-6.000 F600.000
G1 X53.500 Y39.228 Z-6.000 F600.000
G1 X53.500 Y34.985 Z-6.000 F600.000
G1 X45.015 Y26.500 Z-6.000 F600.000
G1 X49.257 Y26.500 Z-6.000 F600.000
G1 X53.500 Y30.743 Z-6.000 F600.000
G1 X53.500 Y26.500 Z-6.000 F600.000
G1 X53.500 Y26.500 Z-8.000 F600.000
G1 X53.500 Y30.743 Z-8.000 F600.000
G1 X49.257 Y26.500 Z-8.000 F600.000
G1 X45.015 Y26.500 Z-8.000 F600.000
G1 X53.500 Y34.985 Z-8.000 F600.000
G1 X53.500 Y39.228 Z-8.000 F600.000
G1 X41.500 Y27.228 Z-8.000 F600.000
G1 X41.500 Y31.471 Z-8.000 F600.000
G1 X53.500 Y43.471 Z-8.000 F600.000
G1 X53.500 Y47.713 Z-8.000 F600.000
G1 X41.500 Y35.713 Z-8.000 F600.000
G1 X41.500 Y39.956 Z-8.000 F600.000
G1 X53.500 Y51.956 Z-8.000 F600.000
G1 X53.500 Y56.198 Z-8.000 F600.000
G1 X41.500 Y44.198 Z-8.000 F600.000
G1 X41.500 Y48.441 Z-8.000 F600.000
G1 X53.500 Y60.441 Z-8.000 F600.000
G1 X53.500 Y63.500 Z-8.000 F600.000
G1 X52.316 Y63.500 Z-8.000 F600.000
G1 X41.500 Y52.684 Z-8.000 F600.000
G1 X41.500 Y56.926 Z-8.000 F600.000
G1 X48.074 Y63.500 Z-8.000 F600.000
G1 X43.831 Y63.500 Z-8.000 F600.000
G1 X41.500 Y63.500 Z-8.000 F600.000
G1 X41.500 Y26.500 Z-8.000 F600.000
G1 X53.500 Y26.500 Z-8.000 F600.000
G1 X53.500 Y63.500 Z-8.000 F600.000
G1 X43.831 Y63.500 Z-8.000 F600.000
G1 X41.500 Y63.500 Z-8.000 F600.000
G1 X41.500 Y61.169 Z-8.000 F600.000
G1 X43.831 Y63.500 Z-8.000 F600.000
G0 Z5.000
G0 Z5.000
(Finish operation: Pocket_Shape002)
(Begin operation: Profile)
(Path: Profile)
(Profile)
(Compensated Tool Path. Diameter: 3.0)
G0 Z5.000
G0 X0.000 Y0.000
G0 X-0.000 Y23.501
G0 X-0.000 Y23.501 Z3.000
G1 X-0.000 Y23.501 Z-3.000 F600.000
G1 X-60.000 Y23.500 Z-3.000 F600.000
G2 X-71.499 Y34.935 Z-3.000 I0.002 J11.501 K0.000 F600.000
G1 X-71.500 Y55.000 Z-3.000 F600.000
G2 X-60.065 Y66.499 Z-3.000 I11.501 J-0.002 K0.000 F600.000
G1 X60.000 Y66.500 Z-3.000 F600.000
G2 X71.499 Y55.065 Z-3.000 I-0.002 J-11.501 K0.000 F600.000
G1 X71.500 Y35.000 Z-3.000 F600.000
G2 X60.065 Y23.501 Z-3.000 I-11.501 J0.002 K0.000 F600.000
G1 X-0.000 Y23.501 Z-3.000 F600.000
G1 X-0.000 Y23.501 Z-6.000 F600.000
G1 X-60.000 Y23.500 Z-6.000 F600.000
G2 X-71.499 Y34.935 Z-6.000 I0.002 J11.501 K0.000 F600.000
G1 X-71.500 Y55.000 Z-6.000 F600.000
G2 X-60.065 Y66.499 Z-6.000 I11.501 J-0.002 K0.000 F600.000
G1 X60.000 Y66.500 Z-6.000 F600.000
G2 X71.499 Y55.065 Z-6.000 I-0.002 J-11.501 K0.000 F600.000
G1 X71.500 Y35.000 Z-6.000 F600.000
G2 X60.065 Y23.501 Z-6.000 I-11.501 J0.002 K0.000 F600.000
G1 X-0.000 Y23.501 Z-6.000 F600.000
G1 X-0.000 Y23.501 Z-9.000 F600.000
G1 X-60.000 Y23.500 Z-9.000 F600.000
G2 X-71.499 Y34.935 Z-9.000 I0.002 J11.501 K0.000 F600.000
G1 X-71.500 Y55.000 Z-9.000 F600.000
G2 X-60.065 Y66.499 Z-9.000 I11.501 J-0.002 K0.000 F600.000
G1 X60.000 Y66.500 Z-9.000 F600.000
G2 X71.499 Y55.065 Z-9.000 I-0.002 J-11.501 K0.000 F600.000
G1 X71.500 Y35.000 Z-9.000 F600.000
G2 X60.065 Y23.501 Z-9.000 I-11.501 J0.002 K0.000 F600.000
G1 X-0.000 Y23.501 Z-9.000 F600.000
G1 X-0.000 Y23.501 Z-12.000 F600.000
G1 X-60.000 Y23.500 Z-12.000 F600.000
G2 X-71.499 Y34.935 Z-12.000 I0.002 J11.501 K0.000 F600.000
G1 X-71.500 Y55.000 Z-12.000 F600.000
G2 X-60.065 Y66.499 Z-12.000 I11.501 J-0.002 K0.000 F600.000
G1 X60.000 Y66.500 Z-12.000 F600.000
G2 X71.499 Y55.065 Z-12.000 I-0.002 J-11.501 K0.000 F600.000
G1 X71.500 Y35.000 Z-12.000 F600.000
G2 X60.065 Y23.501 Z-12.000 I-11.501 J0.002 K0.000 F600.000
G1 X-0.000 Y23.501 Z-12.000 F600.000
G0 Z5.000
G0 Z5.000
(Finish operation: Profile)
(Begin operation: Profile001)
(Path: Profile001)
(Profile001)
(Compensated Tool Path. Diameter: 3.0)
G0 Z5.000
G0 X0.000 Y0.000
G0 X-0.000 Y21.499
G0 X-0.000 Y21.499 Z3.000
G1 X-0.000 Y21.499 Z-3.000 F600.000
G1 X60.000 Y21.500 Z-3.000 F600.000
G2 X71.499 Y10.065 Z-3.000 I-0.002 J-11.501 K0.000 F600.000
G1 X71.500 Y-10.000 Z-3.000 F600.000
G2 X60.065 Y-21.499 Z-3.000 I-11.501 J0.002 K0.000 F600.000
G1 X-60.000 Y-21.500 Z-3.000 F600.000
G2 X-71.499 Y-10.065 Z-3.000 I0.002 J11.501 K0.000 F600.000
G1 X-71.500 Y10.000 Z-3.000 F600.000
G2 X-60.065 Y21.499 Z-3.000 I11.501 J-0.002 K0.000 F600.000
G1 X-0.000 Y21.499 Z-3.000 F600.000
G1 X-0.000 Y21.499 Z-6.000 F600.000
G1 X60.000 Y21.500 Z-6.000 F600.000
G2 X71.499 Y10.065 Z-6.000 I-0.002 J-11.501 K0.000 F600.000
G1 X71.500 Y-10.000 Z-6.000 F600.000
G2 X60.065 Y-21.499 Z-6.000 I-11.501 J0.002 K0.000 F600.000
G1 X-60.000 Y-21.500 Z-6.000 F600.000
G2 X-71.499 Y-10.065 Z-6.000 I0.002 J11.501 K0.000 F600.000
G1 X-71.500 Y10.000 Z-6.000 F600.000
G2 X-60.065 Y21.499 Z-6.000 I11.501 J-0.002 K0.000 F600.000
G1 X-0.000 Y21.499 Z-6.000 F600.000
G1 X-0.000 Y21.499 Z-9.000 F600.000
G1 X60.000 Y21.500 Z-9.000 F600.000
G2 X71.499 Y10.065 Z-9.000 I-0.002 J-11.501 K0.000 F600.000
G1 X71.500 Y-10.000 Z-9.000 F600.000
G2 X60.065 Y-21.499 Z-9.000 I-11.501 J0.002 K0.000 F600.000
G1 X-60.000 Y-21.500 Z-9.000 F600.000
G2 X-71.499 Y-10.065 Z-9.000 I0.002 J11.501 K0.000 F600.000
G1 X-71.500 Y10.000 Z-9.000 F600.000
G2 X-60.065 Y21.499 Z-9.000 I11.501 J-0.002 K0.000 F600.000
G1 X-0.000 Y21.499 Z-9.000 F600.000
G1 X-0.000 Y21.499 Z-12.000 F600.000
G1 X60.000 Y21.500 Z-12.000 F600.000
G2 X71.499 Y10.065 Z-12.000 I-0.002 J-11.501 K0.000 F600.000
G1 X71.500 Y-10.000 Z-12.000 F600.000
G2 X60.065 Y-21.499 Z-12.000 I-11.501 J0.002 K0.000 F600.000
G1 X-60.000 Y-21.500 Z-12.000 F600.000
G2 X-71.499 Y-10.065 Z-12.000 I0.002 J11.501 K0.000 F600.000
G1 X-71.500 Y10.000 Z-12.000 F600.000
G2 X-60.065 Y21.499 Z-12.000 I11.501 J-0.002 K0.000 F600.000
G1 X-0.000 Y21.499 Z-12.000 F600.000
G0 Z5.000
G0 Z5.000
(Finish operation: Profile001)
(Begin operation: Profile002)
(Path: Profile002)
(Profile002)
(Compensated Tool Path. Diameter: 3.0)
G0 Z5.000
G0 X0.000 Y0.000
G0 X0.000 Y-23.501
G0 X0.000 Y-23.501 Z3.000
G1 X0.000 Y-23.501 Z-3.000 F600.000
G1 X60.000 Y-23.500 Z-3.000 F600.000
G2 X71.499 Y-34.935 Z-3.000 I-0.002 J-11.501 K0.000 F600.000
G1 X71.500 Y-55.000 Z-3.000 F600.000
G2 X60.065 Y-66.499 Z-3.000 I-11.501 J0.002 K0.000 F600.000
G1 X-60.000 Y-66.500 Z-3.000 F600.000
G2 X-71.499 Y-55.065 Z-3.000 I0.002 J11.501 K0.000 F600.000
G1 X-71.500 Y-35.000 Z-3.000 F600.000
G2 X-60.065 Y-23.501 Z-3.000 I11.501 J-0.002 K0.000 F600.000
G1 X0.000 Y-23.501 Z-3.000 F600.000
G1 X0.000 Y-23.501 Z-6.000 F600.000
G1 X60.000 Y-23.500 Z-6.000 F600.000
G2 X71.499 Y-34.935 Z-6.000 I-0.002 J-11.501 K0.000 F600.000
G1 X71.500 Y-55.000 Z-6.000 F600.000
G2 X60.065 Y-66.499 Z-6.000 I-11.501 J0.002 K0.000 F600.000
G1 X-60.000 Y-66.500 Z-6.000 F600.000
G2 X-71.499 Y-55.065 Z-6.000 I0.002 J11.501 K0.000 F600.000
G1 X-71.500 Y-35.000 Z-6.000 F600.000
G2 X-60.065 Y-23.501 Z-6.000 I11.501 J-0.002 K0.000 F600.000
G1 X0.000 Y-23.501 Z-6.000 F600.000
G1 X0.000 Y-23.501 Z-9.000 F600.000
G1 X60.000 Y-23.500 Z-9.000 F600.000
G2 X71.499 Y-34.935 Z-9.000 I-0.002 J-11.501 K0.000 F600.000
G1 X71.500 Y-55.000 Z-9.000 F600.000
G2 X60.065 Y-66.499 Z-9.000 I-11.501 J0.002 K0.000 F600.000
G1 X-60.000 Y-66.500 Z-9.000 F600.000
G2 X-71.499 Y-55.065 Z-9.000 I0.002 J11.501 K0.000 F600.000
G1 X-71.500 Y-35.000 Z-9.000 F600.000
G2 X-60.065 Y-23.501 Z-9.000 I11.501 J-0.002 K0.000 F600.000
G1 X0.000 Y-23.501 Z-9.000 F600.000
G1 X0.000 Y-23.501 Z-12.000 F600.000
G1 X60.000 Y-23.500 Z-12.000 F600.000
G2 X71.499 Y-34.935 Z-12.000 I-0.002 J-11.501 K0.000 F600.000
G1 X71.500 Y-55.000 Z-12.000 F600.000
G2 X60.065 Y-66.499 Z-12.000 I-11.501 J0.002 K0.000 F600.000
G1 X-60.000 Y-66.500 Z-12.000 F600.000
G2 X-71.499 Y-55.065 Z-12.000 I0.002 J11.501 K0.000 F600.000
G1 X-71.500 Y-35.000 Z-12.000 F600.000
G2 X-60.065 Y-23.501 Z-12.000 I11.501 J-0.002 K0.000 F600.000
G1 X0.000 Y-23.501 Z-12.000 F600.000
G0 Z5.000
G0 Z5.000
(Finish operation: Profile002)
(Begin postamble)
M5
G17 G90
M2
