(Exported by FreeCAD)
(Post Processor: script_module)
(Output Time:2026-01-16 15:58:25.835306)
(Begin preamble)
G17 G90
G21
(Begin operation: Fixture)
(Path: Fixture)
G54
(Finish operation: Fixture)
(Begin operation: 2_5mmEndMill002)
(Path: 2_5mmEndMill002)
(2_5mmEndMill002)
(Begin toolchange)
( M6 T2 )
M3 S20000
(Finish operation: 2_5mmEndMill002)
(Begin operation: Pocket_Shape)
(Path: Pocket_Shape)
(Pocket_Shape)
G0 Z5.000
G0 X0.000 Y0.000
G0 X-22.467 Y16.878
G0 X-22.467 Y16.878 Z3.000
G1 X-22.467 Y16.878 Z-2.000 F360.000
G2 X-21.951 Y16.950 Z-2.000 I0.485 J-1.594 K0.000 F360.000
G1 X56.951 Y16.950 Z-2.000 F360.000
G2 X58.750 Y15.151 Z-2.000 I0.039 J-1.760 K0.000 F360.000
G1 X58.750 Y-31.951 Z-2.000 F360.000
G2 X56.951 Y-33.750 Z-2.000 I-1.760 J-0.039 K0.000 F360.000
G1 X-21.951 Y-33.750 Z-2.000 F360.000
G2 X-23.750 Y-31.951 Z-2.000 I-0.039 J1.760 K0.000 F360.000
G1 X-23.750 Y15.151 Z-2.000 F360.000
G2 X-22.467 Y16.878 Z-2.000 I1.746 J0.043 K0.000 F360.000
G3 X-23.678 Y15.667 Z-2.000 I0.444 J-1.655 K0.000 F360.000
G1 X-22.467 Y16.878 Z-2.000 F360.000
G2 X-21.951 Y16.950 Z-2.000 I0.485 J-1.594 K0.000 F360.000
G1 X-18.860 Y16.950 Z-2.000 F360.000
G1 X-23.750 Y12.060 Z-2.000 F360.000
G1 X-23.750 Y8.524 Z-2.000 F360.000
G1 X-15.324 Y16.950 Z-2.000 F360.000
G1 X-11.789 Y16.950 Z-2.000 F360.000
G1 X-23.750 Y4.989 Z-2.000 F360.000
G1 X-23.750 Y1.453 Z-2.000 F360.000
G1 X-8.253 Y16.950 Z-2.000 F360.000
G1 X-4.718 Y16.950 Z-2.000 F360.000
G1 X-23.750 Y-2.082 Z-2.000 F360.000
G1 X-23.750 Y-5.618 Z-2.000 F360.000
G1 X-1.182 Y16.950 Z-2.000 F360.000
G1 X2.353 Y16.950 Z-2.000 F360.000
G1 X-23.750 Y-9.153 Z-2.000 F360.000
G1 X-23.750 Y-12.689 Z-2.000 F360.000
G1 X5.889 Y16.950 Z-2.000 F360.000
G1 X9.424 Y16.950 Z-2.000 F360.000
G1 X-23.750 Y-16.224 Z-2.000 F360.000
G1 X-23.750 Y-19.760 Z-2.000 F360.000
G1 X12.960 Y16.950 Z-2.000 F360.000
G1 X16.496 Y16.950 Z-2.000 F360.000
G1 X-23.750 Y-23.296 Z-2.000 F360.000
G1 X-23.750 Y-26.831 Z-2.000 F360.000
G1 X20.031 Y16.950 Z-2.000 F360.000
G1 X23.567 Y16.950 Z-2.000 F360.000
G1 X-23.750 Y-30.367 Z-2.000 F360.000
G1 X-23.750 Y-31.951 Z-2.000 F360.000
G3 X-23.153 Y-33.305 Z-2.000 I1.736 J-0.043 K0.000 F360.000
G1 X27.102 Y16.950 Z-2.000 F360.000
G1 X30.638 Y16.950 Z-2.000 F360.000
G1 X-20.062 Y-33.750 Z-2.000 F360.000
G1 X-16.527 Y-33.750 Z-2.000 F360.000
G1 X34.173 Y16.950 Z-2.000 F360.000
G1 X37.709 Y16.950 Z-2.000 F360.000
G1 X-12.991 Y-33.750 Z-2.000 F360.000
G1 X-9.456 Y-33.750 Z-2.000 F360.000
G1 X41.244 Y16.950 Z-2.000 F360.000
G1 X44.780 Y16.950 Z-2.000 F360.000
G1 X-5.920 Y-33.750 Z-2.000 F360.000
G1 X-2.385 Y-33.750 Z-2.000 F360.000
G1 X48.315 Y16.950 Z-2.000 F360.000
G1 X51.851 Y16.950 Z-2.000 F360.000
G1 X1.151 Y-33.750 Z-2.000 F360.000
G1 X4.686 Y-33.750 Z-2.000 F360.000
G1 X55.386 Y16.950 Z-2.000 F360.000
G1 X56.951 Y16.950 Z-2.000 F360.000
G2 X58.314 Y16.342 Z-2.000 I0.043 J-1.735 K0.000 F360.000
G1 X8.222 Y-33.750 Z-2.000 F360.000
G1 X11.757 Y-33.750 Z-2.000 F360.000
G1 X58.750 Y13.243 Z-2.000 F360.000
G1 X58.750 Y9.707 Z-2.000 F360.000
G1 X15.293 Y-33.750 Z-2.000 F360.000
G1 X18.829 Y-33.750 Z-2.000 F360.000
G1 X58.750 Y6.171 Z-2.000 F360.000
G1 X58.750 Y2.636 Z-2.000 F360.000
G1 X22.364 Y-33.750 Z-2.000 F360.000
G1 X25.900 Y-33.750 Z-2.000 F360.000
G1 X58.750 Y-0.900 Z-2.000 F360.000
G1 X58.750 Y-4.435 Z-2.000 F360.000
G1 X29.435 Y-33.750 Z-2.000 F360.000
G1 X32.971 Y-33.750 Z-2.000 F360.000
G1 X58.750 Y-7.971 Z-2.000 F360.000
G1 X58.750 Y-11.506 Z-2.000 F360.000
G1 X36.506 Y-33.750 Z-2.000 F360.000
G1 X40.042 Y-33.750 Z-2.000 F360.000
G1 X58.750 Y-15.042 Z-2.000 F360.000
G1 X58.750 Y-18.577 Z-2.000 F360.000
G1 X43.577 Y-33.750 Z-2.000 F360.000
G1 X47.113 Y-33.750 Z-2.000 F360.000
G1 X58.750 Y-22.113 Z-2.000 F360.000
G1 X58.750 Y-25.648 Z-2.000 F360.000
G1 X50.648 Y-33.750 Z-2.000 F360.000
G1 X54.184 Y-33.750 Z-2.000 F360.000
G1 X58.750 Y-29.184 Z-2.000 F360.000
G1 X58.750 Y-31.951 Z-2.000 F360.000
G2 X58.235 Y-33.235 Z-2.000 I-1.779 J-0.031 K0.000 F360.000
G1 X58.235 Y-33.235 Z-4.000 F360.000
G3 X58.750 Y-31.951 Z-4.000 I-1.264 J1.253 K0.000 F360.000
G1 X58.750 Y-29.184 Z-4.000 F360.000
G1 X54.184 Y-33.750 Z-4.000 F360.000
G1 X50.648 Y-33.750 Z-4.000 F360.000
G1 X58.750 Y-25.648 Z-4.000 F360.000
G1 X58.750 Y-22.113 Z-4.000 F360.000
G1 X47.113 Y-33.750 Z-4.000 F360.000
G1 X43.577 Y-33.750 Z-4.000 F360.000
G1 X58.750 Y-18.577 Z-4.000 F360.000
G1 X58.750 Y-15.042 Z-4.000 F360.000
G1 X40.042 Y-33.750 Z-4.000 F360.000
G1 X36.506 Y-33.750 Z-4.000 F360.000
G1 X58.750 Y-11.506 Z-4.000 F360.000
G1 X58.750 Y-7.971 Z-4.000 F360.000
G1 X32.971 Y-33.750 Z-4.000 F360.000
G1 X29.435 Y-33.750 Z-4.000 F360.000
G1 X58.750 Y-4.435 Z-4.000 F360.000
G1 X58.750 Y-0.900 Z-4.000 F360.000
G1 X25.900 Y-33.750 Z-4.000 F360.000
G1 X22.364 Y-33.750 Z-4.000 F360.000
G1 X58.750 Y2.636 Z-4.000 F360.000
G1 X58.750 Y6.171 Z-4.000 F360.000
G1 X18.829 Y-33.750 Z-4.000 F360.000
G1 X15.293 Y-33.750 Z-4.000 F360.000
G1 X58.750 Y9.707 Z-4.000 F360.000
G1 X58.750 Y13.243 Z-4.000 F360.000
G1 X11.757 Y-33.750 Z-4.000 F360.000
G1 X8.222 Y-33.750 Z-4.000 F360.000
G1 X58.314 Y16.342 Z-4.000 F360.000
G3 X56.951 Y16.950 Z-4.000 I-1.320 J-1.127 K0.000 F360.000
G1 X55.386 Y16.950 Z-4.000 F360.000
G1 X4.686 Y-33.750 Z-4.000 F360.000
G1 X1.151 Y-33.750 Z-4.000 F360.000
G1 X51.851 Y16.950 Z-4.000 F360.000
G1 X48.315 Y16.950 Z-4.000 F360.000
G1 X-2.385 Y-33.750 Z-4.000 F360.000
G1 X-5.920 Y-33.750 Z-4.000 F360.000
G1 X44.780 Y16.950 Z-4.000 F360.000
G1 X41.244 Y16.950 Z-4.000 F360.000
G1 X-9.456 Y-33.750 Z-4.000 F360.000
G1 X-12.991 Y-33.750 Z-4.000 F360.000
G1 X37.709 Y16.950 Z-4.000 F360.000
G1 X34.173 Y16.950 Z-4.000 F360.000
G1 X-16.527 Y-33.750 Z-4.000 F360.000
G1 X-20.062 Y-33.750 Z-4.000 F360.000
G1 X30.638 Y16.950 Z-4.000 F360.000
G1 X27.102 Y16.950 Z-4.000 F360.000
G1 X-23.153 Y-33.305 Z-4.000 F360.000
G2 X-23.750 Y-31.951 Z-4.000 I1.138 J1.311 K0.000 F360.000
G1 X-23.750 Y-30.367 Z-4.000 F360.000
G1 X23.567 Y16.950 Z-4.000 F360.000
G1 X20.031 Y16.950 Z-4.000 F360.000
G1 X-23.750 Y-26.831 Z-4.000 F360.000
G1 X-23.750 Y-23.296 Z-4.000 F360.000
G1 X16.496 Y16.950 Z-4.000 F360.000
G1 X12.960 Y16.950 Z-4.000 F360.000
G1 X-23.750 Y-19.760 Z-4.000 F360.000
G1 X-23.750 Y-16.224 Z-4.000 F360.000
G1 X9.424 Y16.950 Z-4.000 F360.000
G1 X5.889 Y16.950 Z-4.000 F360.000
G1 X-23.750 Y-12.689 Z-4.000 F360.000
G1 X-23.750 Y-9.153 Z-4.000 F360.000
G1 X2.353 Y16.950 Z-4.000 F360.000
G1 X-1.182 Y16.950 Z-4.000 F360.000
G1 X-23.750 Y-5.618 Z-4.000 F360.000
G1 X-23.750 Y-2.082 Z-4.000 F360.000
G1 X-4.718 Y16.950 Z-4.000 F360.000
G1 X-8.253 Y16.950 Z-4.000 F360.000
G1 X-23.750 Y1.453 Z-4.000 F360.000
G1 X-23.750 Y4.989 Z-4.000 F360.000
G1 X-11.789 Y16.950 Z-4.000 F360.000
G1 X-15.324 Y16.950 Z-4.000 F360.000
G1 X-23.750 Y8.524 Z-4.000 F360.000
G1 X-23.750 Y12.060 Z-4.000 F360.000
G1 X-18.860 Y16.950 Z-4.000 F360.000
G1 X-21.951 Y16.950 Z-4.000 F360.000
G3 X-22.467 Y16.878 Z-4.000 I-0.031 J-1.666 K0.000 F360.000
G1 X-23.678 Y15.667 Z-4.000 F360.000
G2 X-22.467 Y16.878 Z-4.000 I1.655 J-0.444 K0.000 F360.000
G3 X-23.750 Y15.151 Z-4.000 I0.464 J-1.684 K0.000 F360.000
G1 X-23.750 Y-31.951 Z-4.000 F360.000
G3 X-21.951 Y-33.750 Z-4.000 I1.760 J-0.039 K0.000 F360.000
G1 X56.951 Y-33.750 Z-4.000 F360.000
G3 X58.750 Y-31.951 Z-4.000 I0.039 J1.760 K0.000 F360.000
G1 X58.750 Y15.151 Z-4.000 F360.000
G3 X56.951 Y16.950 Z-4.000 I-1.760 J0.039 K0.000 F360.000
G1 X-21.951 Y16.950 Z-4.000 F360.000
G3 X-22.467 Y16.878 Z-4.000 I-0.031 J-1.666 K0.000 F360.000
G1 X-22.467 Y16.878 Z-6.000 F360.000
G2 X-21.951 Y16.950 Z-6.000 I0.485 J-1.594 K0.000 F360.000
G1 X56.951 Y16.950 Z-6.000 F360.000
G2 X58.750 Y15.151 Z-6.000 I0.039 J-1.760 K0.000 F360.000
G1 X58.750 Y-31.951 Z-6.000 F360.000
G2 X56.951 Y-33.750 Z-6.000 I-1.760 J-0.039 K0.000 F360.000
G1 X-21.951 Y-33.750 Z-6.000 F360.000
G2 X-23.750 Y-31.951 Z-6.000 I-0.039 J1.760 K0.000 F360.000
G1 X-23.750 Y15.151 Z-6.000 F360.000
G2 X-22.467 Y16.878 Z-6.000 I1.746 J0.043 K0.000 F360.000
G3 X-23.678 Y15.667 Z-6.000 I0.444 J-1.655 K0.000 F360.000
G1 X-22.467 Y16.878 Z-6.000 F360.000
G2 X-21.951 Y16.950 Z-6.000 I0.485 J-1.594 K0.000 F360.000
G1 X-18.860 Y16.950 Z-6.000 F360.000
G1 X-23.750 Y12.060 Z-6.000 F360.000
G1 X-23.750 Y8.524 Z-6.000 F360.000
G1 X-15.324 Y16.950 Z-6.000 F360.000
G1 X-11.789 Y16.950 Z-6.000 F360.000
G1 X-23.750 Y4.989 Z-6.000 F360.000
G1 X-23.750 Y1.453 Z-6.000 F360.000
G1 X-8.253 Y16.950 Z-6.000 F360.000
G1 X-4.718 Y16.950 Z-6.000 F360.000
G1 X-23.750 Y-2.082 Z-6.000 F360.000
G1 X-23.750 Y-5.618 Z-6.000 F360.000
G1 X-1.182 Y16.950 Z-6.000 F360.000
G1 X2.353 Y16.950 Z-6.000 F360.000
G1 X-23.750 Y-9.153 Z-6.000 F360.000
G1 X-23.750 Y-12.689 Z-6.000 F360.000
G1 X5.889 Y16.950 Z-6.000 F360.000
G1 X9.424 Y16.950 Z-6.000 F360.000
G1 X-23.750 Y-16.224 Z-6.000 F360.000
G1 X-23.750 Y-19.760 Z-6.000 F360.000
G1 X12.960 Y16.950 Z-6.000 F360.000
G1 X16.496 Y16.950 Z-6.000 F360.000
G1 X-23.750 Y-23.296 Z-6.000 F360.000
G1 X-23.750 Y-26.831 Z-6.000 F360.000
G1 X20.031 Y16.950 Z-6.000 F360.000
G1 X23.567 Y16.950 Z-6.000 F360.000
G1 X-23.750 Y-30.367 Z-6.000 F360.000
G1 X-23.750 Y-31.951 Z-6.000 F360.000
G3 X-23.153 Y-33.305 Z-6.000 I1.736 J-0.043 K0.000 F360.000
G1 X27.102 Y16.950 Z-6.000 F360.000
G1 X30.638 Y16.950 Z-6.000 F360.000
G1 X-20.062 Y-33.750 Z-6.000 F360.000
G1 X-16.527 Y-33.750 Z-6.000 F360.000
G1 X34.173 Y16.950 Z-6.000 F360.000
G1 X37.709 Y16.950 Z-6.000 F360.000
G1 X-12.991 Y-33.750 Z-6.000 F360.000
G1 X-9.456 Y-33.750 Z-6.000 F360.000
G1 X41.244 Y16.950 Z-6.000 F360.000
G1 X44.780 Y16.950 Z-6.000 F360.000
G1 X-5.920 Y-33.750 Z-6.000 F360.000
G1 X-2.385 Y-33.750 Z-6.000 F360.000
G1 X48.315 Y16.950 Z-6.000 F360.000
G1 X51.851 Y16.950 Z-6.000 F360.000
G1 X1.151 Y-33.750 Z-6.000 F360.000
G1 X4.686 Y-33.750 Z-6.000 F360.000
G1 X55.386 Y16.950 Z-6.000 F360.000
G1 X56.951 Y16.950 Z-6.000 F360.000
G2 X58.314 Y16.342 Z-6.000 I0.043 J-1.735 K0.000 F360.000
G1 X8.222 Y-33.750 Z-6.000 F360.000
G1 X11.757 Y-33.750 Z-6.000 F360.000
G1 X58.750 Y13.243 Z-6.000 F360.000
G1 X58.750 Y9.707 Z-6.000 F360.000
G1 X15.293 Y-33.750 Z-6.000 F360.000
G1 X18.829 Y-33.750 Z-6.000 F360.000
G1 X58.750 Y6.171 Z-6.000 F360.000
G1 X58.750 Y2.636 Z-6.000 F360.000
G1 X22.364 Y-33.750 Z-6.000 F360.000
G1 X25.900 Y-33.750 Z-6.000 F360.000
G1 X58.750 Y-0.900 Z-6.000 F360.000
G1 X58.750 Y-4.435 Z-6.000 F360.000
G1 X29.435 Y-33.750 Z-6.000 F360.000
G1 X32.971 Y-33.750 Z-6.000 F360.000
G1 X58.750 Y-7.971 Z-6.000 F360.000
G1 X58.750 Y-11.506 Z-6.000 F360.000
G1 X36.506 Y-33.750 Z-6.000 F360.000
G1 X40.042 Y-33.750 Z-6.000 F360.000
G1 X58.750 Y-15.042 Z-6.000 F360.000
G1 X58.750 Y-18.577 Z-6.000 F360.000
G1 X43.577 Y-33.750 Z-6.000 F360.000
G1 X47.113 Y-33.750 Z-6.000 F360.000
G1 X58.750 Y-22.113 Z-6.000 F360.000
G1 X58.750 Y-25.648 Z-6.000 F360.000
G1 X50.648 Y-33.750 Z-6.000 F360.000
G1 X54.184 Y-33.750 Z-6.000 F360.000
G1 X58.750 Y-29.184 Z-6.000 F360.000
G1 X58.750 Y-31.951 Z-6.000 F360.000
G2 X58.235 Y-33.235 Z-6.000 I-1.779 J-0.031 K0.000 F360.000
G1 X58.235 Y-33.235 Z-8.000 F360.000
G3 X58.750 Y-31.951 Z-8.000 I-1.264 J1.253 K0.000 F360.000
G1 X58.750 Y-29.184 Z-8.000 F360.000
G1 X54.184 Y-33.750 Z-8.000 F360.000
G1 X50.648 Y-33.750 Z-8.000 F360.000
G1 X58.750 Y-25.648 Z-8.000 F360.000
G1 X58.750 Y-22.113 Z-8.000 F360.000
G1 X47.113 Y-33.750 Z-8.000 F360.000
G1 X43.577 Y-33.750 Z-8.000 F360.000
G1 X58.750 Y-18.577 Z-8.000 F360.000
G1 X58.750 Y-15.042 Z-8.000 F360.000
G1 X40.042 Y-33.750 Z-8.000 F360.000
G1 X36.506 Y-33.750 Z-8.000 F360.000
G1 X58.750 Y-11.506 Z-8.000 F360.000
G1 X58.750 Y-7.971 Z-8.000 F360.000
G1 X32.971 Y-33.750 Z-8.000 F360.000
G1 X29.435 Y-33.750 Z-8.000 F360.000
G1 X58.750 Y-4.435 Z-8.000 F360.000
G1 X58.750 Y-0.900 Z-8.000 F360.000
G1 X25.900 Y-33.750 Z-8.000 F360.000
G1 X22.364 Y-33.750 Z-8.000 F360.000
G1 X58.750 Y2.636 Z-8.000 F360.000
G1 X58.750 Y6.171 Z-8.000 F360.000
G1 X18.829 Y-33.750 Z-8.000 F360.000
G1 X15.293 Y-33.750 Z-8.000 F360.000
G1 X58.750 Y9.707 Z-8.000 F360.000
G1 X58.750 Y13.243 Z-8.000 F360.000
G1 X11.757 Y-33.750 Z-8.000 F360.000
G1 X8.222 Y-33.750 Z-8.000 F360.000
G1 X58.314 Y16.342 Z-8.000 F360.000
G3 X56.951 Y16.950 Z-8.000 I-1.320 J-1.127 K0.000 F360.000
G1 X55.386 Y16.950 Z-8.000 F360.000
G1 X4.686 Y-33.750 Z-8.000 F360.000
G1 X1.151 Y-33.750 Z-8.000 F360.000
G1 X51.851 Y16.950 Z-8.000 F360.000
G1 X48.315 Y16.950 Z-8.000 F360.000
G1 X-2.385 Y-33.750 Z-8.000 F360.000
G1 X-5.920 Y-33.750 Z-8.000 F360.000
G1 X44.780 Y16.950 Z-8.000 F360.000
G1 X41.244 Y16.950 Z-8.000 F360.000
G1 X-9.456 Y-33.750 Z-8.000 F360.000
G1 X-12.991 Y-33.750 Z-8.000 F360.000
G1 X37.709 Y16.950 Z-8.000 F360.000
G1 X34.173 Y16.950 Z-8.000 F360.000
G1 X-16.527 Y-33.750 Z-8.000 F360.000
G1 X-20.062 Y-33.750 Z-8.000 F360.000
G1 X30.638 Y16.950 Z-8.000 F360.000
G1 X27.102 Y16.950 Z-8.000 F360.000
G1 X-23.153 Y-33.305 Z-8.000 F360.000
G2 X-23.750 Y-31.951 Z-8.000 I1.138 J1.311 K0.000 F360.000
G1 X-23.750 Y-30.367 Z-8.000 F360.000
G1 X23.567 Y16.950 Z-8.000 F360.000
G1 X20.031 Y16.950 Z-8.000 F360.000
G1 X-23.750 Y-26.831 Z-8.000 F360.000
G1 X-23.750 Y-23.296 Z-8.000 F360.000
G1 X16.496 Y16.950 Z-8.000 F360.000
G1 X12.960 Y16.950 Z-8.000 F360.000
G1 X-23.750 Y-19.760 Z-8.000 F360.000
G1 X-23.750 Y-16.224 Z-8.000 F360.000
G1 X9.424 Y16.950 Z-8.000 F360.000
G1 X5.889 Y16.950 Z-8.000 F360.000
G1 X-23.750 Y-12.689 Z-8.000 F360.000
G1 X-23.750 Y-9.153 Z-8.000 F360.000
G1 X2.353 Y16.950 Z-8.000 F360.000
G1 X-1.182 Y16.950 Z-8.000 F360.000
G1 X-23.750 Y-5.618 Z-8.000 F360.000
G1 X-23.750 Y-2.082 Z-8.000 F360.000
G1 X-4.718 Y16.950 Z-8.000 F360.000
G1 X-8.253 Y16.950 Z-8.000 F360.000
G1 X-23.750 Y1.453 Z-8.000 F360.000
G1 X-23.750 Y4.989 Z-8.000 F360.000
G1 X-11.789 Y16.950 Z-8.000 F360.000
G1 X-15.324 Y16.950 Z-8.000 F360.000
G1 X-23.750 Y8.524 Z-8.000 F360.000
G1 X-23.750 Y12.060 Z-8.000 F360.000
G1 X-18.860 Y16.950 Z-8.000 F360.000
G1 X-21.951 Y16.950 Z-8.000 F360.000
G3 X-22.467 Y16.878 Z-8.000 I-0.031 J-1.666 K0.000 F360.000
G1 X-23.678 Y15.667 Z-8.000 F360.000
G2 X-22.467 Y16.878 Z-8.000 I1.655 J-0.444 K0.000 F360.000
G3 X-23.750 Y15.151 Z-8.000 I0.464 J-1.684 K0.000 F360.000
G1 X-23.750 Y-31.951 Z-8.000 F360.000
G3 X-21.951 Y-33.750 Z-8.000 I1.760 J-0.039 K0.000 F360.000
G1 X56.951 Y-33.750 Z-8.000 F360.000
G3 X58.750 Y-31.951 Z-8.000 I0.039 J1.760 K0.000 F360.000
G1 X58.750 Y15.151 Z-8.000 F360.000
G3 X56.951 Y16.950 Z-8.000 I-1.760 J0.039 K0.000 F360.000
G1 X-21.951 Y16.950 Z-8.000 F360.000
G3 X-22.467 Y16.878 Z-8.000 I-0.031 J-1.666 K0.000 F360.000
G0 Z5.000
G0 Z5.000
(Finish operation: Pocket_Shape)
(Begin operation: Profile)
(Path: Profile)
(Profile)
(Compensated Tool Path. Diameter: 2.5)
G0 Z5.000
G0 X84.942 Y42.730
G0 Z3.000
G1 X84.942 Y42.730 Z-2.000 F360.000
G1 X86.441 Y41.941 Z-2.000 F360.000
G1 X86.755 Y41.705 Z-2.000 F360.000
G1 X91.419 Y36.895 Z-2.000 F360.000
G1 X91.552 Y36.733 Z-2.000 F360.000
G1 X94.759 Y32.069 Z-2.000 F360.000
G1 X94.852 Y31.908 Z-2.000 F360.000
G1 X97.622 Y26.224 Z-2.000 F360.000
G1 X97.722 Y25.930 Z-2.000 F360.000
G1 X99.325 Y18.205 Z-2.000 F360.000
G1 X99.351 Y17.951 Z-2.000 F360.000
G1 X99.351 Y-30.915 Z-2.000 F360.000
G2 X99.185 Y-31.538 Z-2.000 I-1.250 J-0.000 K0.000 F360.000
G1 X94.256 Y-40.100 Z-2.000 F360.000
G2 X93.934 Y-40.468 Z-2.000 I-1.083 J0.624 K0.000 F360.000
G1 X86.524 Y-46.164 Z-2.000 F360.000
G1 X86.167 Y-46.356 Z-2.000 F360.000
G1 X77.154 Y-49.441 Z-2.000 F360.000
G1 X76.947 Y-49.493 Z-2.000 F360.000
G1 X62.940 Y-51.730 Z-2.000 F360.000
G1 X46.999 Y-52.868 Z-2.000 F360.000
G1 X-40.577 Y-52.871 Z-2.000 F360.000
G1 X-54.635 Y-52.029 Z-2.000 F360.000
G1 X-61.412 Y-50.967 Z-2.000 F360.000
G1 X-61.825 Y-50.825 Z-2.000 F360.000
G1 X-67.492 Y-47.677 Z-2.000 F360.000
G2 X-67.960 Y-47.221 Z-2.000 I0.607 J1.093 K0.000 F360.000
G1 X-69.903 Y-43.942 Z-2.000 F360.000
G2 X-70.066 Y-43.475 Z-2.000 I1.075 J0.637 K0.000 F360.000
G1 X-70.552 Y-39.953 Z-2.000 F360.000
G1 X-70.555 Y-39.633 Z-2.000 F360.000
G1 X-70.191 Y-36.596 Z-2.000 F360.000
G1 X-70.085 Y-36.221 Z-2.000 F360.000
G1 X-68.627 Y-33.063 Z-2.000 F360.000
G1 X-68.376 Y-32.703 Z-2.000 F360.000
G1 X-66.492 Y-30.819 Z-2.000 F360.000
G1 X-68.184 Y-30.704 Z-2.000 F360.000
G1 X-74.346 Y-29.845 Z-2.000 F360.000
G1 X-74.524 Y-29.807 Z-2.000 F360.000
G1 X-81.569 Y-27.742 Z-2.000 F360.000
G2 X-82.101 Y-27.426 Z-2.000 I0.352 J1.200 K0.000 F360.000
G1 X-85.381 Y-24.146 Z-2.000 F360.000
G1 X-85.585 Y-23.878 Z-2.000 F360.000
G1 X-87.164 Y-21.084 Z-2.000 F360.000
G2 X-87.326 Y-20.502 Z-2.000 I1.088 J0.615 K0.000 F360.000
G1 X-87.447 Y-15.886 Z-2.000 F360.000
G1 X-87.372 Y-15.426 Z-2.000 F360.000
G1 X-85.915 Y-11.418 Z-2.000 F360.000
G2 X-85.567 Y-10.907 Z-2.000 I1.175 J-0.427 K0.000 F360.000
G1 X-83.679 Y-9.241 Z-2.000 F360.000
G1 X-86.405 Y-9.084 Z-2.000 F360.000
G1 X-90.844 Y-8.593 Z-2.000 F360.000
G1 X-91.170 Y-8.511 Z-2.000 F360.000
G1 X-94.207 Y-7.296 Z-2.000 F360.000
G1 X-94.581 Y-7.063 Z-2.000 F360.000
G1 X-97.132 Y-4.755 Z-2.000 F360.000
G1 X-97.386 Y-4.435 Z-2.000 F360.000
G1 X-98.601 Y-2.249 Z-2.000 F360.000
G2 X-98.751 Y-1.770 Z-2.000 I1.093 J0.607 K0.000 F360.000
G1 X-99.116 Y1.752 Z-2.000 F360.000
G1 X-99.096 Y2.136 Z-2.000 F360.000
G1 X-98.489 Y5.051 Z-2.000 F360.000
G1 X-98.383 Y5.355 Z-2.000 F360.000
G1 X-97.168 Y7.784 Z-2.000 F360.000
G1 X-96.915 Y8.128 Z-2.000 F360.000
G1 X-94.875 Y10.083 Z-2.000 F360.000
G1 X-94.638 Y10.262 Z-2.000 F360.000
G1 X-92.172 Y11.695 Z-2.000 F360.000
G1 X-92.008 Y11.775 Z-2.000 F360.000
G1 X-88.972 Y12.989 Z-2.000 F360.000
G2 X-85.245 Y13.709 Z-2.000 I8.364 J-33.318 K0.000 F360.000
G1 X-86.402 Y14.750 Z-2.000 F360.000
G2 X-86.720 Y15.199 Z-2.000 I0.836 J0.929 K0.000 F360.000
G1 X-87.935 Y18.114 Z-2.000 F360.000
G1 X-88.030 Y18.549 Z-2.000 F360.000
G1 X-88.103 Y20.566 Z-2.000 F360.000
G1 X-88.005 Y23.162 Z-2.000 F360.000
G1 X-87.938 Y23.522 Z-2.000 F360.000
G1 X-86.747 Y26.960 Z-2.000 F360.000
G1 X-86.567 Y27.299 Z-2.000 F360.000
G1 X-83.944 Y30.809 Z-2.000 F360.000
G2 X-83.519 Y31.170 Z-2.000 I1.001 J-0.748 K0.000 F360.000
G1 X-80.482 Y32.749 Z-2.000 F360.000
G1 X-77.683 Y33.902 Z-2.000 F360.000
G1 X-77.446 Y33.973 Z-2.000 F360.000
G1 X-73.413 Y34.750 Z-2.000 F360.000
G1 X-65.034 Y35.750 Z-2.000 F360.000
G1 X-3.056 Y35.758 Z-2.000 F360.000
G1 X-5.006 Y36.754 Z-2.000 F360.000
G1 X-5.294 Y36.957 Z-2.000 F360.000
G1 X-12.430 Y43.674 Z-2.000 F360.000
G1 X-12.619 Y43.899 Z-2.000 F360.000
G1 X-16.607 Y49.986 Z-2.000 F360.000
G2 X-16.794 Y50.465 Z-2.000 I1.046 J0.685 K0.000 F360.000
G1 X-18.053 Y58.021 Z-2.000 F360.000
G2 X-18.025 Y58.559 Z-2.000 I1.233 J0.205 K0.000 F360.000
G1 X-16.346 Y64.646 Z-2.000 F360.000
G2 X-16.025 Y65.198 Z-2.000 I1.205 J-0.332 K0.000 F360.000
G1 X-12.247 Y68.976 Z-2.000 F360.000
G2 X-11.653 Y69.308 Z-2.000 I0.884 J-0.884 K0.000 F360.000
G1 X-8.592 Y70.037 Z-2.000 F360.000
G1 X-8.302 Y70.071 Z-2.000 F360.000
G1 X-5.096 Y70.071 Z-2.000 F360.000
G1 X-4.722 Y70.013 Z-2.000 F360.000
G1 X12.436 Y64.634 Z-2.000 F360.000
G1 X24.036 Y61.878 Z-2.000 F360.000
G1 X45.009 Y57.509 Z-2.000 F360.000
G1 X59.073 Y53.702 Z-2.000 F360.000
G1 X75.501 Y47.693 Z-2.000 F360.000
G1 X75.654 Y47.625 Z-2.000 F360.000
G1 X84.942 Y42.730 Z-2.000 F360.000
G1 X84.942 Y42.730 Z-4.000 F360.000
G1 X86.441 Y41.941 Z-4.000 F360.000
G1 X86.755 Y41.705 Z-4.000 F360.000
G1 X91.419 Y36.895 Z-4.000 F360.000
G1 X91.552 Y36.733 Z-4.000 F360.000
G1 X94.759 Y32.069 Z-4.000 F360.000
G1 X94.852 Y31.908 Z-4.000 F360.000
G1 X97.622 Y26.224 Z-4.000 F360.000
G1 X97.722 Y25.930 Z-4.000 F360.000
G1 X99.325 Y18.205 Z-4.000 F360.000
G1 X99.351 Y17.951 Z-4.000 F360.000
G1 X99.351 Y-30.915 Z-4.000 F360.000
G2 X99.185 Y-31.538 Z-4.000 I-1.250 J-0.000 K0.000 F360.000
G1 X94.256 Y-40.100 Z-4.000 F360.000
G2 X93.934 Y-40.468 Z-4.000 I-1.083 J0.624 K0.000 F360.000
G1 X86.524 Y-46.164 Z-4.000 F360.000
G1 X86.167 Y-46.356 Z-4.000 F360.000
G1 X77.154 Y-49.441 Z-4.000 F360.000
G1 X76.947 Y-49.493 Z-4.000 F360.000
G1 X62.940 Y-51.730 Z-4.000 F360.000
G1 X46.999 Y-52.868 Z-4.000 F360.000
G1 X-40.577 Y-52.871 Z-4.000 F360.000
G1 X-54.635 Y-52.029 Z-4.000 F360.000
G1 X-61.412 Y-50.967 Z-4.000 F360.000
G1 X-61.825 Y-50.825 Z-4.000 F360.000
G1 X-67.492 Y-47.677 Z-4.000 F360.000
G2 X-67.960 Y-47.221 Z-4.000 I0.607 J1.093 K0.000 F360.000
G1 X-69.903 Y-43.942 Z-4.000 F360.000
G2 X-70.066 Y-43.475 Z-4.000 I1.075 J0.637 K0.000 F360.000
G1 X-70.552 Y-39.953 Z-4.000 F360.000
G1 X-70.555 Y-39.633 Z-4.000 F360.000
G1 X-70.191 Y-36.596 Z-4.000 F360.000
G1 X-70.085 Y-36.221 Z-4.000 F360.000
G1 X-68.627 Y-33.063 Z-4.000 F360.000
G1 X-68.376 Y-32.703 Z-4.000 F360.000
G1 X-66.492 Y-30.819 Z-4.000 F360.000
G1 X-68.184 Y-30.704 Z-4.000 F360.000
G1 X-74.346 Y-29.845 Z-4.000 F360.000
G1 X-74.524 Y-29.807 Z-4.000 F360.000
G1 X-81.569 Y-27.742 Z-4.000 F360.000
G2 X-82.101 Y-27.426 Z-4.000 I0.352 J1.200 K0.000 F360.000
G1 X-85.381 Y-24.146 Z-4.000 F360.000
G1 X-85.585 Y-23.878 Z-4.000 F360.000
G1 X-87.164 Y-21.084 Z-4.000 F360.000
G2 X-87.326 Y-20.502 Z-4.000 I1.088 J0.615 K0.000 F360.000
G1 X-87.447 Y-15.886 Z-4.000 F360.000
G1 X-87.372 Y-15.426 Z-4.000 F360.000
G1 X-85.915 Y-11.418 Z-4.000 F360.000
G2 X-85.567 Y-10.907 Z-4.000 I1.175 J-0.427 K0.000 F360.000
G1 X-83.679 Y-9.241 Z-4.000 F360.000
G1 X-86.405 Y-9.084 Z-4.000 F360.000
G1 X-90.844 Y-8.593 Z-4.000 F360.000
G1 X-91.170 Y-8.511 Z-4.000 F360.000
G1 X-94.207 Y-7.296 Z-4.000 F360.000
G1 X-94.581 Y-7.063 Z-4.000 F360.000
G1 X-97.132 Y-4.755 Z-4.000 F360.000
G1 X-97.386 Y-4.435 Z-4.000 F360.000
G1 X-98.601 Y-2.249 Z-4.000 F360.000
G2 X-98.751 Y-1.770 Z-4.000 I1.093 J0.607 K0.000 F360.000
G1 X-99.116 Y1.752 Z-4.000 F360.000
G1 X-99.096 Y2.136 Z-4.000 F360.000
G1 X-98.489 Y5.051 Z-4.000 F360.000
G1 X-98.383 Y5.355 Z-4.000 F360.000
G1 X-97.168 Y7.784 Z-4.000 F360.000
G1 X-96.915 Y8.128 Z-4.000 F360.000
G1 X-94.875 Y10.083 Z-4.000 F360.000
G1 X-94.638 Y10.262 Z-4.000 F360.000
G1 X-92.172 Y11.695 Z-4.000 F360.000
G1 X-92.008 Y11.775 Z-4.000 F360.000
G1 X-88.972 Y12.989 Z-4.000 F360.000
G2 X-85.245 Y13.709 Z-4.000 I8.364 J-33.318 K0.000 F360.000
G1 X-86.402 Y14.750 Z-4.000 F360.000
G2 X-86.720 Y15.199 Z-4.000 I0.836 J0.929 K0.000 F360.000
G1 X-87.935 Y18.114 Z-4.000 F360.000
G1 X-88.030 Y18.549 Z-4.000 F360.000
G1 X-88.103 Y20.566 Z-4.000 F360.000
G1 X-88.005 Y23.162 Z-4.000 F360.000
G1 X-87.938 Y23.522 Z-4.000 F360.000
G1 X-86.747 Y26.960 Z-4.000 F360.000
G1 X-86.567 Y27.299 Z-4.000 F360.000
G1 X-83.944 Y30.809 Z-4.000 F360.000
G2 X-83.519 Y31.170 Z-4.000 I1.001 J-0.748 K0.000 F360.000
G1 X-80.482 Y32.749 Z-4.000 F360.000
G1 X-77.683 Y33.902 Z-4.000 F360.000
G1 X-77.446 Y33.973 Z-4.000 F360.000
G1 X-73.413 Y34.750 Z-4.000 F360.000
G1 X-65.034 Y35.750 Z-4.000 F360.000
G1 X-3.056 Y35.758 Z-4.000 F360.000
G1 X-5.006 Y36.754 Z-4.000 F360.000
G1 X-5.294 Y36.957 Z-4.000 F360.000
G1 X-12.430 Y43.674 Z-4.000 F360.000
G1 X-12.619 Y43.899 Z-4.000 F360.000
G1 X-16.607 Y49.986 Z-4.000 F360.000
G2 X-16.794 Y50.465 Z-4.000 I1.046 J0.685 K0.000 F360.000
G1 X-18.053 Y58.021 Z-4.000 F360.000
G2 X-18.025 Y58.559 Z-4.000 I1.233 J0.205 K0.000 F360.000
G1 X-16.346 Y64.646 Z-4.000 F360.000
G2 X-16.025 Y65.198 Z-4.000 I1.205 J-0.332 K0.000 F360.000
G1 X-12.247 Y68.976 Z-4.000 F360.000
G2 X-11.653 Y69.308 Z-4.000 I0.884 J-0.884 K0.000 F360.000
G1 X-8.592 Y70.037 Z-4.000 F360.000
G1 X-8.302 Y70.071 Z-4.000 F360.000
G1 X-5.096 Y70.071 Z-4.000 F360.000
G1 X-4.722 Y70.013 Z-4.000 F360.000
G1 X12.436 Y64.634 Z-4.000 F360.000
G1 X24.036 Y61.878 Z-4.000 F360.000
G1 X45.009 Y57.509 Z-4.000 F360.000
G1 X59.073 Y53.702 Z-4.000 F360.000
G1 X75.501 Y47.693 Z-4.000 F360.000
G1 X75.654 Y47.625 Z-4.000 F360.000
G1 X84.942 Y42.730 Z-4.000 F360.000
G1 X84.942 Y42.730 Z-6.000 F360.000
G1 X86.441 Y41.941 Z-6.000 F360.000
G1 X86.755 Y41.705 Z-6.000 F360.000
G1 X91.419 Y36.895 Z-6.000 F360.000
G1 X91.552 Y36.733 Z-6.000 F360.000
G1 X94.759 Y32.069 Z-6.000 F360.000
G1 X94.852 Y31.908 Z-6.000 F360.000
G1 X97.622 Y26.224 Z-6.000 F360.000
G1 X97.722 Y25.930 Z-6.000 F360.000
G1 X99.325 Y18.205 Z-6.000 F360.000
G1 X99.351 Y17.951 Z-6.000 F360.000
G1 X99.351 Y-30.915 Z-6.000 F360.000
G2 X99.185 Y-31.538 Z-6.000 I-1.250 J-0.000 K0.000 F360.000
G1 X94.256 Y-40.100 Z-6.000 F360.000
G2 X93.934 Y-40.468 Z-6.000 I-1.083 J0.624 K0.000 F360.000
G1 X86.524 Y-46.164 Z-6.000 F360.000
G1 X86.167 Y-46.356 Z-6.000 F360.000
G1 X77.154 Y-49.441 Z-6.000 F360.000
G1 X76.947 Y-49.493 Z-6.000 F360.000
G1 X62.940 Y-51.730 Z-6.000 F360.000
G1 X46.999 Y-52.868 Z-6.000 F360.000
G1 X-40.577 Y-52.871 Z-6.000 F360.000
G1 X-54.635 Y-52.029 Z-6.000 F360.000
G1 X-61.412 Y-50.967 Z-6.000 F360.000
G1 X-61.825 Y-50.825 Z-6.000 F360.000
G1 X-67.492 Y-47.677 Z-6.000 F360.000
G2 X-67.960 Y-47.221 Z-6.000 I0.607 J1.093 K0.000 F360.000
G1 X-69.903 Y-43.942 Z-6.000 F360.000
G2 X-70.066 Y-43.475 Z-6.000 I1.075 J0.637 K0.000 F360.000
G1 X-70.552 Y-39.953 Z-6.000 F360.000
G1 X-70.555 Y-39.633 Z-6.000 F360.000
G1 X-70.191 Y-36.596 Z-6.000 F360.000
G1 X-70.085 Y-36.221 Z-6.000 F360.000
G1 X-68.627 Y-33.063 Z-6.000 F360.000
G1 X-68.376 Y-32.703 Z-6.000 F360.000
G1 X-66.492 Y-30.819 Z-6.000 F360.000
G1 X-68.184 Y-30.704 Z-6.000 F360.000
G1 X-74.346 Y-29.845 Z-6.000 F360.000
G1 X-74.524 Y-29.807 Z-6.000 F360.000
G1 X-81.569 Y-27.742 Z-6.000 F360.000
G2 X-82.101 Y-27.426 Z-6.000 I0.352 J1.200 K0.000 F360.000
G1 X-85.381 Y-24.146 Z-6.000 F360.000
G1 X-85.585 Y-23.878 Z-6.000 F360.000
G1 X-87.164 Y-21.084 Z-6.000 F360.000
G2 X-87.326 Y-20.502 Z-6.000 I1.088 J0.615 K0.000 F360.000
G1 X-87.447 Y-15.886 Z-6.000 F360.000
G1 X-87.372 Y-15.426 Z-6.000 F360.000
G1 X-85.915 Y-11.418 Z-6.000 F360.000
G2 X-85.567 Y-10.907 Z-6.000 I1.175 J-0.427 K0.000 F360.000
G1 X-83.679 Y-9.241 Z-6.000 F360.000
G1 X-86.405 Y-9.084 Z-6.000 F360.000
G1 X-90.844 Y-8.593 Z-6.000 F360.000
G1 X-91.170 Y-8.511 Z-6.000 F360.000
G1 X-94.207 Y-7.296 Z-6.000 F360.000
G1 X-94.581 Y-7.063 Z-6.000 F360.000
G1 X-97.132 Y-4.755 Z-6.000 F360.000
G1 X-97.386 Y-4.435 Z-6.000 F360.000
G1 X-98.601 Y-2.249 Z-6.000 F360.000
G2 X-98.751 Y-1.770 Z-6.000 I1.093 J0.607 K0.000 F360.000
G1 X-99.116 Y1.752 Z-6.000 F360.000
G1 X-99.096 Y2.136 Z-6.000 F360.000
G1 X-98.489 Y5.051 Z-6.000 F360.000
G1 X-98.383 Y5.355 Z-6.000 F360.000
G1 X-97.168 Y7.784 Z-6.000 F360.000
G1 X-96.915 Y8.128 Z-6.000 F360.000
G1 X-94.875 Y10.083 Z-6.000 F360.000
G1 X-94.638 Y10.262 Z-6.000 F360.000
G1 X-92.172 Y11.695 Z-6.000 F360.000
G1 X-92.008 Y11.775 Z-6.000 F360.000
G1 X-88.972 Y12.989 Z-6.000 F360.000
G2 X-85.245 Y13.709 Z-6.000 I8.364 J-33.318 K0.000 F360.000
G1 X-86.402 Y14.750 Z-6.000 F360.000
G2 X-86.720 Y15.199 Z-6.000 I0.836 J0.929 K0.000 F360.000
G1 X-87.935 Y18.114 Z-6.000 F360.000
G1 X-88.030 Y18.549 Z-6.000 F360.000
G1 X-88.103 Y20.566 Z-6.000 F360.000
G1 X-88.005 Y23.162 Z-6.000 F360.000
G1 X-87.938 Y23.522 Z-6.000 F360.000
G1 X-86.747 Y26.960 Z-6.000 F360.000
G1 X-86.567 Y27.299 Z-6.000 F360.000
G1 X-83.944 Y30.809 Z-6.000 F360.000
G2 X-83.519 Y31.170 Z-6.000 I1.001 J-0.748 K0.000 F360.000
G1 X-80.482 Y32.749 Z-6.000 F360.000
G1 X-77.683 Y33.902 Z-6.000 F360.000
G1 X-77.446 Y33.973 Z-6.000 F360.000
G1 X-73.413 Y34.750 Z-6.000 F360.000
G1 X-65.034 Y35.750 Z-6.000 F360.000
G1 X-3.056 Y35.758 Z-6.000 F360.000
G1 X-5.006 Y36.754 Z-6.000 F360.000
G1 X-5.294 Y36.957 Z-6.000 F360.000
G1 X-12.430 Y43.674 Z-6.000 F360.000
G1 X-12.619 Y43.899 Z-6.000 F360.000
G1 X-16.607 Y49.986 Z-6.000 F360.000
G2 X-16.794 Y50.465 Z-6.000 I1.046 J0.685 K0.000 F360.000
G1 X-18.053 Y58.021 Z-6.000 F360.000
G2 X-18.025 Y58.559 Z-6.000 I1.233 J0.205 K0.000 F360.000
G1 X-16.346 Y64.646 Z-6.000 F360.000
G2 X-16.025 Y65.198 Z-6.000 I1.205 J-0.332 K0.000 F360.000
G1 X-12.247 Y68.976 Z-6.000 F360.000
G2 X-11.653 Y69.308 Z-6.000 I0.884 J-0.884 K0.000 F360.000
G1 X-8.592 Y70.037 Z-6.000 F360.000
G1 X-8.302 Y70.071 Z-6.000 F360.000
G1 X-5.096 Y70.071 Z-6.000 F360.000
G1 X-4.722 Y70.013 Z-6.000 F360.000
G1 X12.436 Y64.634 Z-6.000 F360.000
G1 X24.036 Y61.878 Z-6.000 F360.000
G1 X45.009 Y57.509 Z-6.000 F360.000
G1 X59.073 Y53.702 Z-6.000 F360.000
G1 X75.501 Y47.693 Z-6.000 F360.000
G1 X75.654 Y47.625 Z-6.000 F360.000
G1 X84.942 Y42.730 Z-6.000 F360.000
G1 X84.942 Y42.730 Z-8.000 F360.000
G1 X86.441 Y41.941 Z-8.000 F360.000
G1 X86.755 Y41.705 Z-8.000 F360.000
G1 X91.419 Y36.895 Z-8.000 F360.000
G1 X91.552 Y36.733 Z-8.000 F360.000
G1 X94.759 Y32.069 Z-8.000 F360.000
G1 X94.852 Y31.908 Z-8.000 F360.000
G1 X97.622 Y26.224 Z-8.000 F360.000
G1 X97.722 Y25.930 Z-8.000 F360.000
G1 X99.325 Y18.205 Z-8.000 F360.000
G1 X99.351 Y17.951 Z-8.000 F360.000
G1 X99.351 Y-30.915 Z-8.000 F360.000
G2 X99.185 Y-31.538 Z-8.000 I-1.250 J-0.000 K0.000 F360.000
G1 X94.256 Y-40.100 Z-8.000 F360.000
G2 X93.934 Y-40.468 Z-8.000 I-1.083 J0.624 K0.000 F360.000
G1 X86.524 Y-46.164 Z-8.000 F360.000
G1 X86.167 Y-46.356 Z-8.000 F360.000
G1 X77.154 Y-49.441 Z-8.000 F360.000
G1 X76.947 Y-49.493 Z-8.000 F360.000
G1 X62.940 Y-51.730 Z-8.000 F360.000
G1 X46.999 Y-52.868 Z-8.000 F360.000
G1 X-40.577 Y-52.871 Z-8.000 F360.000
G1 X-54.635 Y-52.029 Z-8.000 F360.000
G1 X-61.412 Y-50.967 Z-8.000 F360.000
G1 X-61.825 Y-50.825 Z-8.000 F360.000
G1 X-67.492 Y-47.677 Z-8.000 F360.000
G2 X-67.960 Y-47.221 Z-8.000 I0.607 J1.093 K0.000 F360.000
G1 X-69.903 Y-43.942 Z-8.000 F360.000
G2 X-70.066 Y-43.475 Z-8.000 I1.075 J0.637 K0.000 F360.000
G1 X-70.552 Y-39.953 Z-8.000 F360.000
G1 X-70.555 Y-39.633 Z-8.000 F360.000
G1 X-70.191 Y-36.596 Z-8.000 F360.000
G1 X-70.085 Y-36.221 Z-8.000 F360.000
G1 X-68.627 Y-33.063 Z-8.000 F360.000
G1 X-68.376 Y-32.703 Z-8.000 F360.000
G1 X-66.492 Y-30.819 Z-8.000 F360.000
G1 X-68.184 Y-30.704 Z-8.000 F360.000
G1 X-74.346 Y-29.845 Z-8.000 F360.000
G1 X-74.524 Y-29.807 Z-8.000 F360.000
G1 X-81.569 Y-27.742 Z-8.000 F360.000
G2 X-82.101 Y-27.426 Z-8.000 I0.352 J1.200 K0.000 F360.000
G1 X-85.381 Y-24.146 Z-8.000 F360.000
G1 X-85.585 Y-23.878 Z-8.000 F360.000
G1 X-87.164 Y-21.084 Z-8.000 F360.000
G2 X-87.326 Y-20.502 Z-8.000 I1.088 J0.615 K0.000 F360.000
G1 X-87.447 Y-15.886 Z-8.000 F360.000
G1 X-87.372 Y-15.426 Z-8.000 F360.000
G1 X-85.915 Y-11.418 Z-8.000 F360.000
G2 X-85.567 Y-10.907 Z-8.000 I1.175 J-0.427 K0.000 F360.000
G1 X-83.679 Y-9.241 Z-8.000 F360.000
G1 X-86.405 Y-9.084 Z-8.000 F360.000
G1 X-90.844 Y-8.593 Z-8.000 F360.000
G1 X-91.170 Y-8.511 Z-8.000 F360.000
G1 X-94.207 Y-7.296 Z-8.000 F360.000
G1 X-94.581 Y-7.063 Z-8.000 F360.000
G1 X-97.132 Y-4.755 Z-8.000 F360.000
G1 X-97.386 Y-4.435 Z-8.000 F360.000
G1 X-98.601 Y-2.249 Z-8.000 F360.000
G2 X-98.751 Y-1.770 Z-8.000 I1.093 J0.607 K0.000 F360.000
G1 X-99.116 Y1.752 Z-8.000 F360.000
G1 X-99.096 Y2.136 Z-8.000 F360.000
G1 X-98.489 Y5.051 Z-8.000 F360.000
G1 X-98.383 Y5.355 Z-8.000 F360.000
G1 X-97.168 Y7.784 Z-8.000 F360.000
G1 X-96.915 Y8.128 Z-8.000 F360.000
G1 X-94.875 Y10.083 Z-8.000 F360.000
G1 X-94.638 Y10.262 Z-8.000 F360.000
G1 X-92.172 Y11.695 Z-8.000 F360.000
G1 X-92.008 Y11.775 Z-8.000 F360.000
G1 X-88.972 Y12.989 Z-8.000 F360.000
G2 X-85.245 Y13.709 Z-8.000 I8.364 J-33.318 K0.000 F360.000
G1 X-86.402 Y14.750 Z-8.000 F360.000
G2 X-86.720 Y15.199 Z-8.000 I0.836 J0.929 K0.000 F360.000
G1 X-87.935 Y18.114 Z-8.000 F360.000
G1 X-88.030 Y18.549 Z-8.000 F360.000
G1 X-88.103 Y20.566 Z-8.000 F360.000
G1 X-88.005 Y23.162 Z-8.000 F360.000
G1 X-87.938 Y23.522 Z-8.000 F360.000
G1 X-86.747 Y26.960 Z-8.000 F360.000
G1 X-86.567 Y27.299 Z-8.000 F360.000
G1 X-83.944 Y30.809 Z-8.000 F360.000
G2 X-83.519 Y31.170 Z-8.000 I1.001 J-0.748 K0.000 F360.000
G1 X-80.482 Y32.749 Z-8.000 F360.000
G1 X-77.683 Y33.902 Z-8.000 F360.000
G1 X-77.446 Y33.973 Z-8.000 F360.000
G1 X-73.413 Y34.750 Z-8.000 F360.000
G1 X-65.034 Y35.750 Z-8.000 F360.000
G1 X-3.056 Y35.758 Z-8.000 F360.000
G1 X-5.006 Y36.754 Z-8.000 F360.000
G1 X-5.294 Y36.957 Z-8.000 F360.000
G1 X-12.430 Y43.674 Z-8.000 F360.000
G1 X-12.619 Y43.899 Z-8.000 F360.000
G1 X-16.607 Y49.986 Z-8.000 F360.000
G2 X-16.794 Y50.465 Z-8.000 I1.046 J0.685 K0.000 F360.000
G1 X-18.053 Y58.021 Z-8.000 F360.000
G2 X-18.025 Y58.559 Z-8.000 I1.233 J0.205 K0.000 F360.000
G1 X-16.346 Y64.646 Z-8.000 F360.000
G2 X-16.025 Y65.198 Z-8.000 I1.205 J-0.332 K0.000 F360.000
G1 X-12.247 Y68.976 Z-8.000 F360.000
G2 X-11.653 Y69.308 Z-8.000 I0.884 J-0.884 K0.000 F360.000
G1 X-8.592 Y70.037 Z-8.000 F360.000
G1 X-8.302 Y70.071 Z-8.000 F360.000
G1 X-5.096 Y70.071 Z-8.000 F360.000
G1 X-4.722 Y70.013 Z-8.000 F360.000
G1 X12.436 Y64.634 Z-8.000 F360.000
G1 X24.036 Y61.878 Z-8.000 F360.000
G1 X45.009 Y57.509 Z-8.000 F360.000
G1 X59.073 Y53.702 Z-8.000 F360.000
G1 X75.501 Y47.693 Z-8.000 F360.000
G1 X75.654 Y47.625 Z-8.000 F360.000
G1 X84.942 Y42.730 Z-8.000 F360.000
G1 X84.942 Y42.730 Z-10.000 F360.000
G1 X86.441 Y41.941 Z-10.000 F360.000
G1 X86.755 Y41.705 Z-10.000 F360.000
G1 X91.419 Y36.895 Z-10.000 F360.000
G1 X91.552 Y36.733 Z-10.000 F360.000
G1 X94.759 Y32.069 Z-10.000 F360.000
G1 X94.852 Y31.908 Z-10.000 F360.000
G1 X97.622 Y26.224 Z-10.000 F360.000
G1 X97.722 Y25.930 Z-10.000 F360.000
G1 X99.325 Y18.205 Z-10.000 F360.000
G1 X99.351 Y17.951 Z-10.000 F360.000
G1 X99.351 Y-30.915 Z-10.000 F360.000
G2 X99.185 Y-31.538 Z-10.000 I-1.250 J-0.000 K0.000 F360.000
G1 X94.256 Y-40.100 Z-10.000 F360.000
G2 X93.934 Y-40.468 Z-10.000 I-1.083 J0.624 K0.000 F360.000
G1 X86.524 Y-46.164 Z-10.000 F360.000
G1 X86.167 Y-46.356 Z-10.000 F360.000
G1 X77.154 Y-49.441 Z-10.000 F360.000
G1 X76.947 Y-49.493 Z-10.000 F360.000
G1 X62.940 Y-51.730 Z-10.000 F360.000
G1 X46.999 Y-52.868 Z-10.000 F360.000
G1 X-40.577 Y-52.871 Z-10.000 F360.000
G1 X-54.635 Y-52.029 Z-10.000 F360.000
G1 X-61.412 Y-50.967 Z-10.000 F360.000
G1 X-61.825 Y-50.825 Z-10.000 F360.000
G1 X-67.492 Y-47.677 Z-10.000 F360.000
G2 X-67.960 Y-47.221 Z-10.000 I0.607 J1.093 K0.000 F360.000
G1 X-69.903 Y-43.942 Z-10.000 F360.000
G2 X-70.066 Y-43.475 Z-10.000 I1.075 J0.637 K0.000 F360.000
G1 X-70.552 Y-39.953 Z-10.000 F360.000
G1 X-70.555 Y-39.633 Z-10.000 F360.000
G1 X-70.191 Y-36.596 Z-10.000 F360.000
G1 X-70.085 Y-36.221 Z-10.000 F360.000
G1 X-68.627 Y-33.063 Z-10.000 F360.000
G1 X-68.376 Y-32.703 Z-10.000 F360.000
G1 X-66.492 Y-30.819 Z-10.000 F360.000
G1 X-68.184 Y-30.704 Z-10.000 F360.000
G1 X-74.346 Y-29.845 Z-10.000 F360.000
G1 X-74.524 Y-29.807 Z-10.000 F360.000
G1 X-81.569 Y-27.742 Z-10.000 F360.000
G2 X-82.101 Y-27.426 Z-10.000 I0.352 J1.200 K0.000 F360.000
G1 X-85.381 Y-24.146 Z-10.000 F360.000
G1 X-85.585 Y-23.878 Z-10.000 F360.000
G1 X-87.164 Y-21.084 Z-10.000 F360.000
G2 X-87.326 Y-20.502 Z-10.000 I1.088 J0.615 K0.000 F360.000
G1 X-87.447 Y-15.886 Z-10.000 F360.000
G1 X-87.372 Y-15.426 Z-10.000 F360.000
G1 X-85.915 Y-11.418 Z-10.000 F360.000
G2 X-85.567 Y-10.907 Z-10.000 I1.175 J-0.427 K0.000 F360.000
G1 X-83.679 Y-9.241 Z-10.000 F360.000
G1 X-86.405 Y-9.084 Z-10.000 F360.000
G1 X-90.844 Y-8.593 Z-10.000 F360.000
G1 X-91.170 Y-8.511 Z-10.000 F360.000
G1 X-94.207 Y-7.296 Z-10.000 F360.000
G1 X-94.581 Y-7.063 Z-10.000 F360.000
G1 X-97.132 Y-4.755 Z-10.000 F360.000
G1 X-97.386 Y-4.435 Z-10.000 F360.000
G1 X-98.601 Y-2.249 Z-10.000 F360.000
G2 X-98.751 Y-1.770 Z-10.000 I1.093 J0.607 K0.000 F360.000
G1 X-99.116 Y1.752 Z-10.000 F360.000
G1 X-99.096 Y2.136 Z-10.000 F360.000
G1 X-98.489 Y5.051 Z-10.000 F360.000
G1 X-98.383 Y5.355 Z-10.000 F360.000
G1 X-97.168 Y7.784 Z-10.000 F360.000
G1 X-96.915 Y8.128 Z-10.000 F360.000
G1 X-94.875 Y10.083 Z-10.000 F360.000
G1 X-94.638 Y10.262 Z-10.000 F360.000
G1 X-92.172 Y11.695 Z-10.000 F360.000
G1 X-92.008 Y11.775 Z-10.000 F360.000
G1 X-88.972 Y12.989 Z-10.000 F360.000
G2 X-85.245 Y13.709 Z-10.000 I8.364 J-33.318 K0.000 F360.000
G1 X-86.402 Y14.750 Z-10.000 F360.000
G2 X-86.720 Y15.199 Z-10.000 I0.836 J0.929 K0.000 F360.000
G1 X-87.935 Y18.114 Z-10.000 F360.000
G1 X-88.030 Y18.549 Z-10.000 F360.000
G1 X-88.103 Y20.566 Z-10.000 F360.000
G1 X-88.005 Y23.162 Z-10.000 F360.000
G1 X-87.938 Y23.522 Z-10.000 F360.000
G1 X-86.747 Y26.960 Z-10.000 F360.000
G1 X-86.567 Y27.299 Z-10.000 F360.000
G1 X-83.944 Y30.809 Z-10.000 F360.000
G2 X-83.519 Y31.170 Z-10.000 I1.001 J-0.748 K0.000 F360.000
G1 X-80.482 Y32.749 Z-10.000 F360.000
G1 X-77.683 Y33.902 Z-10.000 F360.000
G1 X-77.446 Y33.973 Z-10.000 F360.000
G1 X-73.413 Y34.750 Z-10.000 F360.000
G1 X-65.034 Y35.750 Z-10.000 F360.000
G1 X-3.056 Y35.758 Z-10.000 F360.000
G1 X-5.006 Y36.754 Z-10.000 F360.000
G1 X-5.294 Y36.957 Z-10.000 F360.000
G1 X-12.430 Y43.674 Z-10.000 F360.000
G1 X-12.619 Y43.899 Z-10.000 F360.000
G1 X-16.607 Y49.986 Z-10.000 F360.000
G2 X-16.794 Y50.465 Z-10.000 I1.046 J0.685 K0.000 F360.000
G1 X-18.053 Y58.021 Z-10.000 F360.000
G2 X-18.025 Y58.559 Z-10.000 I1.233 J0.205 K0.000 F360.000
G1 X-16.346 Y64.646 Z-10.000 F360.000
G2 X-16.025 Y65.198 Z-10.000 I1.205 J-0.332 K0.000 F360.000
G1 X-12.247 Y68.976 Z-10.000 F360.000
G2 X-11.653 Y69.308 Z-10.000 I0.884 J-0.884 K0.000 F360.000
G1 X-8.592 Y70.037 Z-10.000 F360.000
G1 X-8.302 Y70.071 Z-10.000 F360.000
G1 X-5.096 Y70.071 Z-10.000 F360.000
G1 X-4.722 Y70.013 Z-10.000 F360.000
G1 X12.436 Y64.634 Z-10.000 F360.000
G1 X24.036 Y61.878 Z-10.000 F360.000
G1 X45.009 Y57.509 Z-10.000 F360.000
G1 X59.073 Y53.702 Z-10.000 F360.000
G1 X75.501 Y47.693 Z-10.000 F360.000
G1 X75.654 Y47.625 Z-10.000 F360.000
G1 X84.942 Y42.730 Z-10.000 F360.000
G1 X84.942 Y42.730 Z-12.000 F360.000
G1 X86.441 Y41.941 Z-12.000 F360.000
G1 X86.755 Y41.705 Z-12.000 F360.000
G1 X91.419 Y36.895 Z-12.000 F360.000
G1 X91.552 Y36.733 Z-12.000 F360.000
G1 X94.759 Y32.069 Z-12.000 F360.000
G1 X94.852 Y31.908 Z-12.000 F360.000
G1 X97.622 Y26.224 Z-12.000 F360.000
G1 X97.722 Y25.930 Z-12.000 F360.000
G1 X99.325 Y18.205 Z-12.000 F360.000
G1 X99.351 Y17.951 Z-12.000 F360.000
G1 X99.351 Y-30.915 Z-12.000 F360.000
G2 X99.185 Y-31.538 Z-12.000 I-1.250 J-0.000 K0.000 F360.000
G1 X94.256 Y-40.100 Z-12.000 F360.000
G2 X93.934 Y-40.468 Z-12.000 I-1.083 J0.624 K0.000 F360.000
G1 X86.524 Y-46.164 Z-12.000 F360.000
G1 X86.167 Y-46.356 Z-12.000 F360.000
G1 X77.154 Y-49.441 Z-12.000 F360.000
G1 X76.947 Y-49.493 Z-12.000 F360.000
G1 X62.940 Y-51.730 Z-12.000 F360.000
G1 X46.999 Y-52.868 Z-12.000 F360.000
G1 X-40.577 Y-52.871 Z-12.000 F360.000
G1 X-54.635 Y-52.029 Z-12.000 F360.000
G1 X-61.412 Y-50.967 Z-12.000 F360.000
G1 X-61.825 Y-50.825 Z-12.000 F360.000
G1 X-67.492 Y-47.677 Z-12.000 F360.000
G2 X-67.960 Y-47.221 Z-12.000 I0.607 J1.093 K0.000 F360.000
G1 X-69.903 Y-43.942 Z-12.000 F360.000
G2 X-70.066 Y-43.475 Z-12.000 I1.075 J0.637 K0.000 F360.000
G1 X-70.552 Y-39.953 Z-12.000 F360.000
G1 X-70.555 Y-39.633 Z-12.000 F360.000
G1 X-70.191 Y-36.596 Z-12.000 F360.000
G1 X-70.085 Y-36.221 Z-12.000 F360.000
G1 X-68.627 Y-33.063 Z-12.000 F360.000
G1 X-68.376 Y-32.703 Z-12.000 F360.000
G1 X-66.492 Y-30.819 Z-12.000 F360.000
G1 X-68.184 Y-30.704 Z-12.000 F360.000
G1 X-74.346 Y-29.845 Z-12.000 F360.000
G1 X-74.524 Y-29.807 Z-12.000 F360.000
G1 X-81.569 Y-27.742 Z-12.000 F360.000
G2 X-82.101 Y-27.426 Z-12.000 I0.352 J1.200 K0.000 F360.000
G1 X-85.381 Y-24.146 Z-12.000 F360.000
G1 X-85.585 Y-23.878 Z-12.000 F360.000
G1 X-87.164 Y-21.084 Z-12.000 F360.000
G2 X-87.326 Y-20.502 Z-12.000 I1.088 J0.615 K0.000 F360.000
G1 X-87.447 Y-15.886 Z-12.000 F360.000
G1 X-87.372 Y-15.426 Z-12.000 F360.000
G1 X-85.915 Y-11.418 Z-12.000 F360.000
G2 X-85.567 Y-10.907 Z-12.000 I1.175 J-0.427 K0.000 F360.000
G1 X-83.679 Y-9.241 Z-12.000 F360.000
G1 X-86.405 Y-9.084 Z-12.000 F360.000
G1 X-90.844 Y-8.593 Z-12.000 F360.000
G1 X-91.170 Y-8.511 Z-12.000 F360.000
G1 X-94.207 Y-7.296 Z-12.000 F360.000
G1 X-94.581 Y-7.063 Z-12.000 F360.000
G1 X-97.132 Y-4.755 Z-12.000 F360.000
G1 X-97.386 Y-4.435 Z-12.000 F360.000
G1 X-98.601 Y-2.249 Z-12.000 F360.000
G2 X-98.751 Y-1.770 Z-12.000 I1.093 J0.607 K0.000 F360.000
G1 X-99.116 Y1.752 Z-12.000 F360.000
G1 X-99.096 Y2.136 Z-12.000 F360.000
G1 X-98.489 Y5.051 Z-12.000 F360.000
G1 X-98.383 Y5.355 Z-12.000 F360.000
G1 X-97.168 Y7.784 Z-12.000 F360.000
G1 X-96.915 Y8.128 Z-12.000 F360.000
G1 X-94.875 Y10.083 Z-12.000 F360.000
G1 X-94.638 Y10.262 Z-12.000 F360.000
G1 X-92.172 Y11.695 Z-12.000 F360.000
G1 X-92.008 Y11.775 Z-12.000 F360.000
G1 X-88.972 Y12.989 Z-12.000 F360.000
G2 X-85.245 Y13.709 Z-12.000 I8.364 J-33.318 K0.000 F360.000
G1 X-86.402 Y14.750 Z-12.000 F360.000
G2 X-86.720 Y15.199 Z-12.000 I0.836 J0.929 K0.000 F360.000
G1 X-87.935 Y18.114 Z-12.000 F360.000
G1 X-88.030 Y18.549 Z-12.000 F360.000
G1 X-88.103 Y20.566 Z-12.000 F360.000
G1 X-88.005 Y23.162 Z-12.000 F360.000
G1 X-87.938 Y23.522 Z-12.000 F360.000
G1 X-86.747 Y26.960 Z-12.000 F360.000
G1 X-86.567 Y27.299 Z-12.000 F360.000
G1 X-83.944 Y30.809 Z-12.000 F360.000
G2 X-83.519 Y31.170 Z-12.000 I1.001 J-0.748 K0.000 F360.000
G1 X-80.482 Y32.749 Z-12.000 F360.000
G1 X-77.683 Y33.902 Z-12.000 F360.000
G1 X-77.446 Y33.973 Z-12.000 F360.000
G1 X-73.413 Y34.750 Z-12.000 F360.000
G1 X-65.034 Y35.750 Z-12.000 F360.000
G1 X-3.056 Y35.758 Z-12.000 F360.000
G1 X-5.006 Y36.754 Z-12.000 F360.000
G1 X-5.294 Y36.957 Z-12.000 F360.000
G1 X-12.430 Y43.674 Z-12.000 F360.000
G1 X-12.619 Y43.899 Z-12.000 F360.000
G1 X-16.607 Y49.986 Z-12.000 F360.000
G2 X-16.794 Y50.465 Z-12.000 I1.046 J0.685 K0.000 F360.000
G1 X-18.053 Y58.021 Z-12.000 F360.000
G2 X-18.025 Y58.559 Z-12.000 I1.233 J0.205 K0.000 F360.000
G1 X-16.346 Y64.646 Z-12.000 F360.000
G2 X-16.025 Y65.198 Z-12.000 I1.205 J-0.332 K0.000 F360.000
G1 X-12.247 Y68.976 Z-12.000 F360.000
G2 X-11.653 Y69.308 Z-12.000 I0.884 J-0.884 K0.000 F360.000
G1 X-8.592 Y70.037 Z-12.000 F360.000
G1 X-8.302 Y70.071 Z-12.000 F360.000
G1 X-5.096 Y70.071 Z-12.000 F360.000
G1 X-4.722 Y70.013 Z-12.000 F360.000
G1 X12.436 Y64.634 Z-12.000 F360.000
G1 X24.036 Y61.878 Z-12.000 F360.000
G1 X45.009 Y57.509 Z-12.000 F360.000
G1 X59.073 Y53.702 Z-12.000 F360.000
G1 X75.501 Y47.693 Z-12.000 F360.000
G1 X75.654 Y47.625 Z-12.000 F360.000
G1 X84.942 Y42.730 Z-12.000 F360.000
G0 Z5.000
G0 Z5.000
(Finish operation: Profile)
(Begin postamble)
M5
G17 G90
M2
