(Exported by FreeCAD)
(Post Processor: script_module)
(Output Time:2025-09-24 16:30:57.489956)
(Begin preamble)
G17 G90
G21
(Begin operation: Fixture)
(Path: Fixture)
G54
(Finish operation: Fixture)
(Begin operation: 3mm_Endmill001)
(Path: 3mm_Endmill001)
(3mm_Endmill001)
(Begin toolchange)
( M6 T2 )
M3 S10000
(Finish operation: 3mm_Endmill001)
(Begin operation: Profile)
(Path: Profile)
(Profile)
(Compensated Tool Path. Diameter: 3.0)
G0 Z4.075
G0 X0.000 Y0.000
G0 X6.049 Y5.942
G0 X6.049 Y5.942 Z2.075
G1 X6.049 Y5.942 Z-3.925 F600.000
G1 X7.570 Y4.394 Z-3.925 F600.000
G1 X9.665 Y1.981 Z-3.925 F600.000
G1 X11.570 Y-0.566 Z-3.925 F600.000
G1 X12.924 Y-2.691 Z-3.925 F600.000
G1 X14.266 Y-5.165 Z-3.925 F600.000
G1 X15.796 Y-8.498 Z-3.925 F600.000
G1 X16.999 Y-11.541 Z-3.925 F600.000
G1 X17.815 Y-14.100 Z-3.925 F600.000
G2 X19.040 Y-20.760 Z-3.925 I-50.368 J-12.700 K0.000 F600.000
G1 X19.186 Y-23.401 Z-3.925 F600.000
G1 X19.188 Y-41.701 Z-3.925 F600.000
G2 X19.014 Y-42.739 Z-3.925 I-5.092 J0.324 K0.000 F600.000
G2 X16.183 Y-46.211 Z-3.925 I-7.836 J3.499 K0.000 F600.000
G2 X12.790 Y-47.682 Z-3.925 I-9.137 J16.423 K0.000 F600.000
G3 X7.643 Y-49.353 Z-3.925 I22.290 J-77.406 K0.000 F600.000
G2 X2.224 Y-50.712 Z-3.925 I-80.318 J308.770 K0.000 F600.000
G2 X-0.958 Y-51.282 Z-3.925 I-34.932 J185.988 K0.000 F600.000
G2 X-8.933 Y-52.237 Z-3.925 I-11.270 J60.348 K0.000 F600.000
G1 X-13.832 Y-52.396 Z-3.925 F600.000
G2 X-14.707 Y-52.202 Z-3.925 I-0.035 J1.916 K0.000 F600.000
G2 X-16.631 Y-49.407 Z-3.925 I1.445 J3.055 K0.000 F600.000
G1 X-16.550 Y-25.021 Z-3.925 F600.000
G3 X-17.199 Y-22.549 Z-3.925 I-12.367 J-1.925 K0.000 F600.000
G2 X-17.962 Y-20.718 Z-3.925 I63.305 J27.434 K0.000 F600.000
G3 X-20.334 Y-17.264 Z-3.925 I-12.748 J-6.214 K0.000 F600.000
G3 X-24.086 Y-14.569 Z-3.925 I-10.814 J-11.097 K0.000 F600.000
G3 X-27.449 Y-13.634 Z-3.925 I-5.201 J-12.179 K0.000 F600.000
G1 X-29.015 Y-13.591 Z-3.925 F600.000
G2 X-29.582 Y-13.463 Z-3.925 I0.041 J1.499 K0.000 F600.000
G2 X-31.724 Y-11.395 Z-3.925 I2.786 J5.029 K0.000 F600.000
G2 X-32.035 Y-10.056 Z-3.925 I2.565 J1.301 K0.000 F600.000
G1 X-32.035 Y14.552 Z-3.925 F600.000
G1 X-32.007 Y14.836 Z-3.925 F600.000
G2 X-29.877 Y17.841 Z-3.925 I5.737 J-1.810 K0.000 F600.000
G2 X-27.504 Y18.833 Z-3.925 I2.966 J-3.761 K0.000 F600.000
G1 X-21.871 Y18.833 Z-3.925 F600.000
G1 X-21.672 Y18.820 Z-3.925 F600.000
G1 X-17.295 Y18.234 Z-3.925 F600.000
G1 X-13.986 Y17.465 Z-3.925 F600.000
G2 X-8.484 Y15.624 Z-3.925 I-58.164 J-183.016 K0.000 F600.000
G1 X-5.807 Y14.397 Z-3.925 F600.000
G1 X-3.030 Y12.911 Z-3.925 F600.000
G2 X5.515 Y6.485 Z-3.925 I-22.993 J-39.475 K0.000 F600.000
G1 X6.049 Y5.942 Z-3.925 F600.000
G0 Z4.075
G0 X16.086 Y19.216 Z4.075
G0 X16.086 Y19.216 Z2.075
G1 X16.086 Y19.216 Z-3.925 F600.000
G2 X14.632 Y21.698 Z-3.925 I2.263 J2.992 K0.000 F600.000
G1 X14.632 Y34.758 Z-3.925 F600.000
G2 X15.161 Y36.230 Z-3.925 I2.556 J-0.089 K0.000 F600.000
G2 X17.403 Y37.308 Z-3.925 I2.373 J-2.065 K0.000 F600.000
G1 X18.713 Y37.308 Z-3.925 F600.000
G2 X19.903 Y37.039 Z-3.925 I-0.215 J-3.718 K0.000 F600.000
G3 X22.776 Y39.913 Z-3.925 I-51.170 J54.007 K0.000 F600.000
G3 X23.548 Y40.855 Z-3.925 I-2.684 J2.985 K0.000 F600.000
G3 X23.501 Y41.721 Z-3.925 I-2.585 J0.294 K0.000 F600.000
G2 X21.202 Y50.375 Z-3.925 I288.961 J81.390 K0.000 F600.000
G2 X20.777 Y53.227 Z-3.925 I10.105 J2.963 K0.000 F600.000
G1 X20.773 Y57.103 Z-3.925 F600.000
G2 X21.764 Y63.608 Z-3.925 I23.639 J-0.273 K0.000 F600.000
G2 X24.544 Y67.385 Z-3.925 I5.961 J-1.476 K0.000 F600.000
G2 X26.762 Y68.083 Z-3.925 I3.316 J-6.658 K0.000 F600.000
G2 X29.350 Y67.871 Z-3.925 I0.796 J-6.183 K0.000 F600.000
G2 X30.638 Y67.243 Z-3.925 I-0.819 J-3.312 K0.000 F600.000
G2 X31.805 Y66.303 Z-3.925 I-2.465 J-4.256 K0.000 F600.000
G2 X32.393 Y65.722 Z-3.925 I-6.078 J-6.733 K0.000 F600.000
G2 X33.414 Y64.277 Z-3.925 I-3.226 J-3.364 K0.000 F600.000
G2 X33.887 Y61.425 Z-3.925 I-10.487 J-3.202 K0.000 F600.000
G1 X33.890 Y56.664 Z-3.925 F600.000
G2 X33.461 Y53.487 Z-3.925 I-18.291 J0.855 K0.000 F600.000
G3 X32.887 Y50.849 Z-3.925 I19.679 J-5.662 K0.000 F600.000
G1 X32.887 Y48.933 Z-3.925 F600.000
G3 X33.348 Y46.508 Z-3.925 I14.862 J1.570 K0.000 F600.000
G2 X33.836 Y44.757 Z-3.925 I-17.638 J-5.857 K0.000 F600.000
G1 X33.836 Y44.757 Z-3.925 F600.000
G3 X34.264 Y43.091 Z-3.925 I207.562 J52.523 K0.000 F600.000
G2 X34.763 Y40.513 Z-3.925 I-12.123 J-3.680 K0.000 F600.000
G1 X34.763 Y38.582 Z-3.925 F600.000
G2 X34.637 Y37.630 Z-3.925 I-6.477 J0.369 K0.000 F600.000
G2 X32.845 Y34.610 Z-3.925 I-7.006 J2.115 K0.000 F600.000
G2 X30.398 Y32.534 Z-3.925 I-76.608 J87.818 K0.000 F600.000
G2 X22.003 Y26.590 Z-3.925 I-37.991 J44.757 K0.000 F600.000
G1 X22.003 Y21.453 Z-3.925 F600.000
G1 X21.955 Y21.077 Z-3.925 F600.000
G2 X19.601 Y18.578 Z-3.925 I-4.046 J1.453 K0.000 F600.000
G1 X19.255 Y18.469 Z-3.925 F600.000
G2 X17.949 Y18.399 Z-3.925 I-0.879 J4.201 K0.000 F600.000
G2 X16.189 Y19.141 Z-3.925 I0.505 J3.658 K0.000 F600.000
G2 X16.086 Y19.216 Z-3.925 I2.159 J3.068 K0.000 F600.000
G0 Z4.075
G0 X24.589 Y13.868 Z4.075
G0 X24.589 Y13.868 Z2.075
G1 X24.589 Y13.868 Z-3.925 F600.000
G1 X25.505 Y14.976 Z-3.925 F600.000
G1 X25.791 Y15.242 Z-3.925 F600.000
G1 X26.984 Y16.092 Z-3.925 F600.000
G1 X27.316 Y16.270 Z-3.925 F600.000
G1 X28.705 Y16.804 Z-3.925 F600.000
G1 X29.062 Y16.893 Z-3.925 F600.000
G2 X30.735 Y17.087 Z-3.925 I2.424 J-13.646 K0.000 F600.000
G1 X44.206 Y17.087 Z-3.925 F600.000
G2 X45.880 Y16.893 Z-3.925 I-0.751 J-13.840 K0.000 F600.000
G1 X46.236 Y16.804 Z-3.925 F600.000
G1 X47.626 Y16.270 Z-3.925 F600.000
G1 X47.958 Y16.092 Z-3.925 F600.000
G1 X49.151 Y15.242 Z-3.925 F600.000
G1 X49.437 Y14.976 Z-3.925 F600.000
G1 X50.353 Y13.868 Z-3.925 F600.000
G1 X50.566 Y13.524 Z-3.925 F600.000
G1 X51.142 Y12.234 Z-3.925 F600.000
G1 X51.257 Y11.833 Z-3.925 F600.000
G1 X51.454 Y10.449 Z-3.925 F600.000
G1 X51.454 Y10.027 Z-3.925 F600.000
G1 X51.257 Y8.643 Z-3.925 F600.000
G1 X51.142 Y8.242 Z-3.925 F600.000
G1 X50.566 Y6.952 Z-3.925 F600.000
G1 X50.353 Y6.608 Z-3.925 F600.000
G1 X49.437 Y5.500 Z-3.925 F600.000
G1 X49.151 Y5.234 Z-3.925 F600.000
G1 X47.958 Y4.384 Z-3.925 F600.000
G1 X47.626 Y4.206 Z-3.925 F600.000
G1 X46.236 Y3.672 Z-3.925 F600.000
G1 X45.880 Y3.583 Z-3.925 F600.000
G2 X44.206 Y3.389 Z-3.925 I-2.424 J13.646 K0.000 F600.000
G1 X30.735 Y3.389 Z-3.925 F600.000
G2 X29.062 Y3.583 Z-3.925 I0.751 J13.840 K0.000 F600.000
G1 X28.705 Y3.672 Z-3.925 F600.000
G1 X27.316 Y4.206 Z-3.925 F600.000
G1 X26.984 Y4.384 Z-3.925 F600.000
G1 X25.791 Y5.234 Z-3.925 F600.000
G1 X25.505 Y5.500 Z-3.925 F600.000
G1 X24.589 Y6.608 Z-3.925 F600.000
G1 X24.375 Y6.952 Z-3.925 F600.000
G1 X23.800 Y8.242 Z-3.925 F600.000
G1 X23.684 Y8.643 Z-3.925 F600.000
G1 X23.488 Y10.027 Z-3.925 F600.000
G1 X23.488 Y10.449 Z-3.925 F600.000
G1 X23.684 Y11.833 Z-3.925 F600.000
G1 X23.800 Y12.234 Z-3.925 F600.000
G1 X24.375 Y13.524 Z-3.925 F600.000
G1 X24.589 Y13.868 Z-3.925 F600.000
G0 Z4.075
G0 X31.129 Y-3.990 Z4.075
G0 X31.129 Y-3.990 Z2.075
G1 X31.129 Y-3.990 Z-3.925 F600.000
G2 X31.678 Y-3.866 Z-3.925 I0.759 J-2.072 K0.000 F600.000
G1 X44.594 Y-3.866 Z-3.925 F600.000
G1 X45.042 Y-3.904 Z-3.925 F600.000
G2 X46.364 Y-4.514 Z-3.925 I-0.675 J-3.197 K0.000 F600.000
G2 X48.523 Y-7.355 Z-3.925 I-2.246 J-3.949 K0.000 F600.000
G2 X48.986 Y-11.112 Z-3.925 I-61.983 J-9.534 K0.000 F600.000
G1 X48.994 Y-13.431 Z-3.925 F600.000
G1 X48.961 Y-13.743 Z-3.925 F600.000
G2 X47.038 Y-15.774 Z-3.925 I-2.879 J0.800 K0.000 F600.000
G1 X45.699 Y-16.145 Z-3.925 F600.000
G2 X36.065 Y-17.486 Z-3.925 I-12.643 J55.540 K0.000 F600.000
G1 X32.153 Y-17.489 Z-3.925 F600.000
G2 X31.193 Y-17.197 Z-3.925 I0.075 J1.972 K0.000 F600.000
G2 X30.249 Y-16.314 Z-3.925 I5.399 J6.714 K0.000 F600.000
G2 X29.599 Y-14.823 Z-3.925 I2.125 J1.812 K0.000 F600.000
G1 X29.599 Y-6.107 Z-3.925 F600.000
G2 X29.862 Y-5.186 Z-3.925 I2.206 J-0.131 K0.000 F600.000
G2 X31.129 Y-3.990 Z-3.925 I2.025 J-0.876 K0.000 F600.000
G0 Z4.075
G0 X31.537 Y-23.659 Z4.075
G0 X31.537 Y-23.659 Z2.075
G1 X31.537 Y-23.659 Z-3.925 F600.000
G1 X44.452 Y-23.659 Z-3.925 F600.000
G1 X44.901 Y-23.697 Z-3.925 F600.000
G2 X46.222 Y-24.307 Z-3.925 I-0.675 J-3.197 K0.000 F600.000
G2 X48.382 Y-27.148 Z-3.925 I-2.246 J-3.949 K0.000 F600.000
G2 X48.844 Y-30.906 Z-3.925 I-61.975 J-9.533 K0.000 F600.000
G1 X48.853 Y-33.225 Z-3.925 F600.000
G1 X48.820 Y-33.536 Z-3.925 F600.000
G2 X46.897 Y-35.567 Z-3.925 I-2.879 J0.800 K0.000 F600.000
G1 X45.557 Y-35.938 Z-3.925 F600.000
G2 X35.924 Y-37.279 Z-3.925 I-12.643 J55.539 K0.000 F600.000
G1 X32.012 Y-37.283 Z-3.925 F600.000
G2 X31.051 Y-36.991 Z-3.925 I0.075 J1.972 K0.000 F600.000
G2 X30.107 Y-36.107 Z-3.925 I5.399 J6.714 K0.000 F600.000
G2 X29.458 Y-34.616 Z-3.925 I2.125 J1.812 K0.000 F600.000
G1 X29.458 Y-25.901 Z-3.925 F600.000
G2 X29.721 Y-24.979 Z-3.925 I2.206 J-0.131 K0.000 F600.000
G2 X31.537 Y-23.659 Z-3.925 I2.025 J-0.876 K0.000 F600.000
G0 Z4.075
G0 X56.730 Y-27.478 Z4.075
G0 X56.730 Y-27.478 Z2.075
G1 X56.730 Y-27.478 Z-3.925 F600.000
G1 X60.068 Y-5.459 Z-3.925 F600.000
G2 X60.786 Y-4.071 Z-3.925 I3.452 J-0.905 K0.000 F600.000
G2 X61.831 Y-3.338 Z-3.925 I3.149 J-3.383 K0.000 F600.000
G2 X63.160 Y-3.069 Z-3.925 I1.608 J-4.523 K0.000 F600.000
G2 X64.268 Y-3.291 Z-3.925 I-0.431 J-5.026 K0.000 F600.000
G2 X67.146 Y-4.479 Z-3.925 I-12.849 J-35.197 K0.000 F600.000
G2 X68.297 Y-5.213 Z-3.925 I-3.818 J-7.260 K0.000 F600.000
G1 X69.035 Y-5.325 Z-3.925 F600.000
G1 X70.027 Y-4.883 Z-3.925 F600.000
G1 X70.294 Y-4.676 Z-3.925 F600.000
G1 X70.637 Y-3.481 Z-3.925 F600.000
G1 X70.792 Y-3.124 Z-3.925 F600.000
G1 X71.770 Y-1.491 Z-3.925 F600.000
G1 X71.978 Y-1.219 Z-3.925 F600.000
G1 X73.057 Y-0.102 Z-3.925 F600.000
G2 X74.170 Y0.590 Z-3.925 I2.859 J-3.363 K0.000 F600.000
G1 X74.219 Y0.798 Z-3.925 F600.000
G1 X74.089 Y1.245 Z-3.925 F600.000
G3 X73.312 Y1.731 Z-3.925 I-2.507 J-3.143 K0.000 F600.000
G3 X71.031 Y2.555 Z-3.925 I-6.864 J-15.450 K0.000 F600.000
G2 X69.083 Y3.561 Z-3.925 I19.558 J40.250 K0.000 F600.000
G2 X67.851 Y4.329 Z-3.925 I2.320 J5.096 K0.000 F600.000
G2 X63.334 Y10.056 Z-3.925 I7.389 J10.472 K0.000 F600.000
G1 X61.885 Y14.303 Z-3.925 F600.000
G2 X61.811 Y14.923 Z-3.925 I1.420 J0.483 K0.000 F600.000
G1 X61.969 Y16.635 Z-3.925 F600.000
G2 X62.584 Y17.987 Z-3.925 I3.341 J-0.704 K0.000 F600.000
G2 X63.524 Y18.859 Z-3.925 I4.341 J-3.739 K0.000 F600.000
G2 X65.065 Y19.440 Z-3.925 I1.891 J-2.679 K0.000 F600.000
G1 X66.749 Y19.495 Z-3.925 F600.000
G2 X67.498 Y19.323 Z-3.925 I0.049 J-1.499 K0.000 F600.000
G2 X68.855 Y18.411 Z-3.925 I-1.424 J-3.584 K0.000 F600.000
G2 X69.904 Y16.842 Z-3.925 I-9.615 J-7.562 K0.000 F600.000
G3 X70.583 Y15.818 Z-3.925 I4.867 J2.491 K0.000 F600.000
G3 X72.363 Y14.250 Z-3.925 I12.296 J12.166 K0.000 F600.000
G1 X74.469 Y12.973 Z-3.925 F600.000
G1 X75.788 Y12.370 Z-3.925 F600.000
G1 X77.547 Y11.886 Z-3.925 F600.000
G1 X79.069 Y11.784 Z-3.925 F600.000
G2 X80.043 Y11.580 Z-3.925 I-0.801 J-6.252 K0.000 F600.000
G2 X85.525 Y9.502 Z-3.925 I-4.160 J-19.246 K0.000 F600.000
G2 X88.642 Y7.775 Z-3.925 I-10.130 J-21.950 K0.000 F600.000
G2 X92.266 Y4.868 Z-3.925 I-10.585 J-16.907 K0.000 F600.000
G2 X96.375 Y0.164 Z-3.925 I-17.467 J-19.407 K0.000 F600.000
G1 X97.645 Y-1.848 Z-3.925 F600.000
G2 X99.605 Y-5.705 Z-3.925 I-161.438 J-84.473 K0.000 F600.000
G2 X101.541 Y-11.385 Z-3.925 I-90.094 J-33.877 K0.000 F600.000
G2 X102.783 Y-18.391 Z-3.925 I-51.728 J-12.781 K0.000 F600.000
G1 X102.791 Y-20.644 Z-3.925 F600.000
G1 X101.638 Y-38.372 Z-3.925 F600.000
G2 X101.525 Y-39.020 Z-3.925 I-5.184 J0.573 K0.000 F600.000
G2 X99.653 Y-41.093 Z-3.925 I-3.315 J1.113 K0.000 F600.000
G1 X95.775 Y-42.787 Z-3.925 F600.000
G1 X92.587 Y-43.980 Z-3.925 F600.000
G1 X88.063 Y-45.241 Z-3.925 F600.000
G1 X84.233 Y-45.929 Z-3.925 F600.000
G2 X80.303 Y-44.567 Z-3.925 I-0.307 J5.468 K0.000 F600.000
G2 X79.517 Y-43.117 Z-3.925 I3.805 J3.001 K0.000 F600.000
G1 X78.271 Y-36.906 Z-3.925 F600.000
G1 X78.245 Y-36.710 Z-3.925 F600.000
G1 X76.922 Y-16.720 Z-3.925 F600.000
G1 X76.757 Y-16.705 Z-3.925 F600.000
G3 X75.824 Y-17.739 Z-3.925 I2.463 J-3.160 K0.000 F600.000
G1 X73.979 Y-44.660 Z-3.925 F600.000
G2 X72.975 Y-46.508 Z-3.925 I-3.308 J0.600 K0.000 F600.000
G2 X71.808 Y-47.277 Z-3.925 I-2.203 J2.075 K0.000 F600.000
G2 X70.505 Y-47.323 Z-3.925 I-0.858 J5.759 K0.000 F600.000
G2 X62.823 Y-46.298 Z-3.925 I6.648 J79.137 K0.000 F600.000
G2 X57.580 Y-45.032 Z-3.925 I5.553 J34.483 K0.000 F600.000
G2 X55.751 Y-44.276 Z-3.925 I1.995 J7.420 K0.000 F600.000
G2 X55.038 Y-43.449 Z-3.925 I3.315 J3.579 K0.000 F600.000
G2 X54.588 Y-41.610 Z-3.925 I2.604 J1.612 K0.000 F600.000
G1 X56.730 Y-27.478 Z-3.925 F600.000
G0 Z4.075
G0 X91.128 Y13.264 Z4.075
G0 X91.128 Y13.264 Z2.075
G1 X91.128 Y13.264 Z-3.925 F600.000
G2 X90.429 Y14.680 Z-3.925 I1.275 J1.510 K0.000 F600.000
G1 X90.429 Y18.916 Z-3.925 F600.000
G1 X90.293 Y19.851 Z-3.925 F600.000
G3 X89.293 Y25.363 Z-3.925 I-52.230 J-6.628 K0.000 F600.000
G3 X87.219 Y30.942 Z-3.925 I-47.952 J-14.648 K0.000 F600.000
G3 X85.950 Y33.265 Z-3.925 I-46.618 J-23.963 K0.000 F600.000
G3 X80.655 Y40.080 Z-3.925 I-34.307 J-21.190 K0.000 F600.000
G3 X73.531 Y45.292 Z-3.925 I-24.194 J-25.592 K0.000 F600.000
G3 X68.949 Y47.135 Z-3.925 I-11.295 J-21.468 K0.000 F600.000
G2 X65.791 Y48.546 Z-3.925 I2.447 J9.721 K0.000 F600.000
G2 X63.507 Y50.424 Z-3.925 I24.433 J32.031 K0.000 F600.000
G2 X61.306 Y53.637 Z-3.925 I8.281 J8.031 K0.000 F600.000
G2 X60.834 Y54.981 Z-3.925 I6177.504 J2173.872 K0.000 F600.000
G3 X60.284 Y55.565 Z-3.925 I-0.750 J-0.155 K0.000 F600.000
G1 X58.188 Y55.565 Z-3.925 F600.000
G3 X55.918 Y54.793 Z-3.925 I2.376 J-10.702 K0.000 F600.000
G3 X54.041 Y53.732 Z-3.925 I1.762 J-5.309 K0.000 F600.000
G3 X53.238 Y52.457 Z-3.925 I1.380 J-1.760 K0.000 F600.000
G1 X53.238 Y51.524 Z-3.925 F600.000
G3 X54.427 Y48.052 Z-3.925 I15.077 J3.225 K0.000 F600.000
G3 X56.363 Y45.090 Z-3.925 I13.954 J7.007 K0.000 F600.000
G3 X60.021 Y42.466 Z-3.925 I6.325 J4.954 K0.000 F600.000
G3 X62.199 Y41.882 Z-3.925 I58.261 J213.162 K0.000 F600.000
G2 X65.604 Y39.268 Z-3.925 I-1.465 J-5.432 K0.000 F600.000
G2 X65.726 Y37.152 Z-3.925 I-3.929 J-1.288 K0.000 F600.000
G2 X64.905 Y35.844 Z-3.925 I-2.514 J0.666 K0.000 F600.000
G2 X63.804 Y34.957 Z-3.925 I-5.976 J6.297 K0.000 F600.000
G3 X62.555 Y33.110 Z-3.925 I4.107 J-4.122 K0.000 F600.000
G2 X60.532 Y31.263 Z-3.925 I-2.933 J1.181 K0.000 F600.000
G2 X59.399 Y31.225 Z-3.925 I-0.734 J5.011 K0.000 F600.000
G2 X57.653 Y31.892 Z-3.925 I0.064 J2.786 K0.000 F600.000
G3 X55.644 Y33.567 Z-3.925 I-8.241 J-7.838 K0.000 F600.000
G3 X53.585 Y34.627 Z-3.925 I-13.704 J-24.100 K0.000 F600.000
G2 X52.840 Y33.237 Z-3.925 I-6.645 J2.667 K0.000 F600.000
G2 X50.987 Y31.913 Z-3.925 I-2.513 J1.558 K0.000 F600.000
G2 X49.757 Y31.875 Z-3.925 I-0.782 J5.439 K0.000 F600.000
G2 X47.197 Y34.353 Z-3.925 I0.140 J2.707 K0.000 F600.000
G1 X47.197 Y36.413 Z-3.925 F600.000
G1 X43.520 Y36.413 Z-3.925 F600.000
G2 X39.767 Y38.850 Z-3.925 I0.809 J5.354 K0.000 F600.000
G2 X38.859 Y41.309 Z-3.925 I3.966 J2.862 K0.000 F600.000
G1 X38.852 Y58.128 Z-3.925 F600.000
G2 X39.594 Y60.823 Z-3.925 I5.552 J-0.080 K0.000 F600.000
G2 X42.207 Y63.402 Z-3.925 I6.609 J-4.083 K0.000 F600.000
G2 X44.827 Y64.405 Z-3.925 I3.765 J-5.915 K0.000 F600.000
G1 X70.336 Y64.405 Z-3.925 F600.000
G2 X70.999 Y64.317 Z-3.925 I-0.215 J-4.182 K0.000 F600.000
G2 X74.852 Y62.118 Z-3.925 I-0.948 J-6.136 K0.000 F600.000
G2 X75.661 Y61.086 Z-3.925 I-2.612 J-2.880 K0.000 F600.000
G2 X76.657 Y58.180 Z-3.925 I-5.467 J-3.499 K0.000 F600.000
G1 X76.657 Y54.312 Z-3.925 F600.000
G1 X77.253 Y53.981 Z-3.925 F600.000
G2 X81.335 Y51.028 Z-3.925 I-23.644 J-36.974 K0.000 F600.000
G2 X84.580 Y48.175 Z-3.925 I-13.930 J-19.115 K0.000 F600.000
G2 X91.106 Y40.174 Z-3.925 I-28.586 J-29.979 K0.000 F600.000
G2 X91.735 Y39.283 Z-3.925 I-9.211 J-7.163 K0.000 F600.000
G2 X94.575 Y34.046 Z-3.925 I-59.185 J-35.484 K0.000 F600.000
G2 X96.230 Y29.483 Z-3.925 I-87.729 J-34.417 K0.000 F600.000
G2 X97.396 Y24.909 Z-3.925 I-460.590 J-119.841 K0.000 F600.000
G1 X97.782 Y22.669 Z-3.925 F600.000
G2 X98.046 Y19.726 Z-3.925 I-530.119 J-49.020 K0.000 F600.000
G1 X98.052 Y14.638 Z-3.925 F600.000
G2 X96.572 Y12.862 Z-3.925 I-1.990 J0.153 K0.000 F600.000
G2 X95.327 Y12.824 Z-3.925 I-0.789 J5.504 K0.000 F600.000
G2 X94.456 Y13.075 Z-3.925 I0.167 J2.214 K0.000 F600.000
G1 X94.094 Y13.075 Z-3.925 F600.000
G2 X93.904 Y12.973 Z-3.925 I-3.220 J5.771 K0.000 F600.000
G1 X93.535 Y12.836 Z-3.925 F600.000
G2 X92.365 Y12.799 Z-3.925 I-0.752 J5.173 K0.000 F600.000
G2 X91.128 Y13.264 Z-3.925 I0.038 J1.976 K0.000 F600.000
G0 Z4.075
G0 X12.868 Y31.573 Z4.075
G0 X12.868 Y31.573 Z2.075
G1 X12.868 Y31.573 Z-3.925 F600.000
G1 X12.723 Y31.127 Z-3.925 F600.000
G1 X12.260 Y30.218 Z-3.925 F600.000
G1 X11.984 Y29.838 Z-3.925 F600.000
G1 X11.263 Y29.117 Z-3.925 F600.000
G1 X10.883 Y28.841 Z-3.925 F600.000
G1 X9.974 Y28.378 Z-3.925 F600.000
G1 X9.528 Y28.233 Z-3.925 F600.000
G2 X8.286 Y28.055 Z-3.925 I-1.752 J7.801 K0.000 F600.000
G1 X-20.010 Y28.055 Z-3.925 F600.000
G2 X-21.252 Y28.233 Z-3.925 I0.510 J7.979 K0.000 F600.000
G1 X-21.698 Y28.378 Z-3.925 F600.000
G1 X-22.607 Y28.841 Z-3.925 F600.000
G1 X-22.987 Y29.117 Z-3.925 F600.000
G1 X-23.708 Y29.838 Z-3.925 F600.000
G1 X-23.984 Y30.218 Z-3.925 F600.000
G1 X-24.447 Y31.127 Z-3.925 F600.000
G1 X-24.592 Y31.573 Z-3.925 F600.000
G2 X-24.770 Y32.815 Z-3.925 I7.801 J1.752 K0.000 F600.000
G1 X-24.770 Y63.241 Z-3.925 F600.000
G2 X-24.034 Y65.040 Z-3.925 I2.657 J-0.037 K0.000 F600.000
G2 X-26.285 Y64.148 Z-3.925 I-6.936 J14.211 K0.000 F600.000
G1 X-26.285 Y64.148 Z-3.925 F600.000
G3 X-27.752 Y63.663 Z-3.925 I125.396 J-382.084 K0.000 F600.000
G2 X-30.428 Y63.145 Z-3.925 I-7.562 J31.906 K0.000 F600.000
G2 X-31.522 Y63.108 Z-3.925 I-0.712 J4.886 K0.000 F600.000
G2 X-32.255 Y63.264 Z-3.925 I0.072 J2.139 K0.000 F600.000
G2 X-33.842 Y64.741 Z-3.925 I1.847 J3.577 K0.000 F600.000
G2 X-35.876 Y69.453 Z-3.925 I122.306 J55.581 K0.000 F600.000
G2 X-35.995 Y70.038 Z-3.925 I1.382 J0.584 K0.000 F600.000
G1 X-35.995 Y71.176 Z-3.925 F600.000
G2 X-35.616 Y72.548 Z-3.925 I4.089 J-0.389 K0.000 F600.000
G2 X-35.005 Y73.327 Z-3.925 I3.761 J-2.324 K0.000 F600.000
G2 X-33.980 Y74.085 Z-3.925 I3.259 J-3.334 K0.000 F600.000
G2 X-32.445 Y74.584 Z-3.925 I2.018 J-3.604 K0.000 F600.000
G2 X-31.024 Y74.573 Z-3.925 I0.621 J-11.889 K0.000 F600.000
G2 X-28.367 Y72.757 Z-3.925 I-0.844 J-4.086 K0.000 F600.000
G3 X-27.748 Y71.786 Z-3.925 I6.251 J3.304 K0.000 F600.000
G3 X-26.187 Y70.393 Z-3.925 I11.920 J11.793 K0.000 F600.000
G3 X-23.561 Y68.837 Z-3.925 I13.188 J19.253 K0.000 F600.000
G2 X-22.704 Y67.740 Z-3.925 I-0.894 J-1.583 K0.000 F600.000
G2 X-22.666 Y66.767 Z-3.925 I-4.299 J-0.653 K0.000 F600.000
G2 X-23.028 Y65.719 Z-3.925 I-1.943 J0.084 K0.000 F600.000
G1 X-23.045 Y65.701 Z-3.925 F600.000
G2 X-20.051 Y65.076 Z-3.925 I0.999 J-2.701 K0.000 F600.000
G1 X-11.301 Y56.021 Z-3.925 F600.000
G1 X-0.423 Y56.021 Z-3.925 F600.000
G1 X8.327 Y65.076 Z-3.925 F600.000
G2 X10.811 Y65.820 Z-3.925 I1.986 J-2.110 K0.000 F600.000
G2 X13.038 Y63.388 Z-3.925 I-0.366 J-2.571 K0.000 F600.000
G1 X13.046 Y32.815 Z-3.925 F600.000
G2 X12.868 Y31.573 Z-3.925 I-7.979 J0.510 K0.000 F600.000
G0 Z4.075
G0 X-34.252 Y33.990 Z4.075
G0 X-34.252 Y33.990 Z2.075
G1 X-34.252 Y33.990 Z-3.925 F600.000
G2 X-34.470 Y32.496 Z-3.925 I-9.599 J0.637 K0.000 F600.000
G1 X-34.615 Y32.049 Z-3.925 F600.000
G1 X-35.193 Y30.914 Z-3.925 F600.000
G1 X-35.469 Y30.534 Z-3.925 F600.000
G1 X-36.371 Y29.633 Z-3.925 F600.000
G1 X-36.750 Y29.357 Z-3.925 F600.000
G1 X-37.886 Y28.778 Z-3.925 F600.000
G1 X-38.332 Y28.633 Z-3.925 F600.000
G2 X-39.826 Y28.415 Z-3.925 I-2.131 J9.381 K0.000 F600.000
G1 X-66.344 Y28.415 Z-3.925 F600.000
G2 X-67.837 Y28.633 Z-3.925 I0.637 J9.599 K0.000 F600.000
G1 X-68.284 Y28.778 Z-3.925 F600.000
G1 X-69.419 Y29.357 Z-3.925 F600.000
G1 X-69.799 Y29.633 Z-3.925 F600.000
G1 X-70.701 Y30.534 Z-3.925 F600.000
G1 X-70.976 Y30.914 Z-3.925 F600.000
G1 X-71.555 Y32.049 Z-3.925 F600.000
G1 X-71.700 Y32.496 Z-3.925 F600.000
G2 X-71.918 Y33.990 Z-3.925 I9.381 J2.131 K0.000 F600.000
G1 X-71.918 Y54.829 Z-3.925 F600.000
G2 X-70.418 Y56.329 Z-3.925 I1.500 J-0.000 K0.000 F600.000
G1 X-35.752 Y56.329 Z-3.925 F600.000
G2 X-34.252 Y54.829 Z-3.925 I-0.000 J-1.500 K0.000 F600.000
G1 X-34.252 Y33.990 Z-3.925 F600.000
G0 Z4.075
G0 X-56.789 Y10.285 Z4.075
G0 X-56.789 Y10.285 Z2.075
G1 X-56.789 Y10.285 Z-3.925 F600.000
G2 X-55.027 Y7.650 Z-3.925 I-4.976 J-5.234 K0.000 F600.000
G2 X-54.763 Y6.291 Z-3.925 I-6.093 J-1.889 K0.000 F600.000
G1 X-54.763 Y2.252 Z-3.925 F600.000
G1 X-53.086 Y1.276 Z-3.925 F600.000
G2 X-44.947 Y-5.698 Z-3.925 I-27.054 J-39.806 K0.000 F600.000
G1 X-42.859 Y-8.104 Z-3.925 F600.000
G1 X-40.954 Y-10.651 Z-3.925 F600.000
G1 X-39.600 Y-12.776 Z-3.925 F600.000
G1 X-38.258 Y-15.250 Z-3.925 F600.000
G1 X-36.728 Y-18.582 Z-3.925 F600.000
G1 X-35.524 Y-21.626 Z-3.925 F600.000
G1 X-34.708 Y-24.185 Z-3.925 F600.000
G2 X-33.484 Y-30.845 Z-3.925 I-50.366 J-12.699 K0.000 F600.000
G1 X-33.338 Y-33.486 Z-3.925 F600.000
G1 X-33.336 Y-51.786 Z-3.925 F600.000
G2 X-33.510 Y-52.824 Z-3.925 I-5.092 J0.324 K0.000 F600.000
G2 X-36.341 Y-56.295 Z-3.925 I-7.836 J3.499 K0.000 F600.000
G2 X-39.734 Y-57.767 Z-3.925 I-9.137 J16.423 K0.000 F600.000
G3 X-44.881 Y-59.438 Z-3.925 I22.291 J-77.407 K0.000 F600.000
G2 X-50.300 Y-60.797 Z-3.925 I-80.323 J308.788 K0.000 F600.000
G2 X-53.482 Y-61.367 Z-3.925 I-34.942 J186.046 K0.000 F600.000
G2 X-61.457 Y-62.321 Z-3.925 I-11.270 J60.345 K0.000 F600.000
G1 X-66.356 Y-62.480 Z-3.925 F600.000
G2 X-67.230 Y-62.287 Z-3.925 I-0.035 J1.916 K0.000 F600.000
G2 X-69.155 Y-59.491 Z-3.925 I1.445 J3.055 K0.000 F600.000
G1 X-69.074 Y-35.106 Z-3.925 F600.000
G3 X-69.723 Y-32.634 Z-3.925 I-12.367 J-1.925 K0.000 F600.000
G2 X-70.486 Y-30.803 Z-3.925 I63.271 J27.419 K0.000 F600.000
G3 X-72.858 Y-27.349 Z-3.925 I-12.748 J-6.214 K0.000 F600.000
G3 X-76.610 Y-24.654 Z-3.925 I-10.814 J-11.097 K0.000 F600.000
G3 X-79.973 Y-23.718 Z-3.925 I-5.201 J-12.179 K0.000 F600.000
G1 X-81.539 Y-23.676 Z-3.925 F600.000
G2 X-82.106 Y-23.548 Z-3.925 I0.041 J1.499 K0.000 F600.000
G2 X-84.248 Y-21.480 Z-3.925 I2.786 J5.029 K0.000 F600.000
G2 X-84.559 Y-20.141 Z-3.925 I2.565 J1.301 K0.000 F600.000
G1 X-84.559 Y-15.850 Z-3.925 F600.000
G1 X-87.845 Y-15.850 Z-3.925 F600.000
G2 X-91.751 Y-13.710 Z-3.925 I0.280 J5.145 K0.000 F600.000
G2 X-92.632 Y-11.737 Z-3.925 I4.703 J3.283 K0.000 F600.000
G1 X-92.707 Y-11.268 Z-3.925 F600.000
G1 X-92.707 Y6.411 Z-3.925 F600.000
G1 X-92.653 Y6.810 Z-3.925 F600.000
G1 X-92.279 Y8.164 Z-3.925 F600.000
G1 X-92.066 Y8.619 Z-3.925 F600.000
G2 X-91.312 Y9.637 Z-3.925 I9.298 J-6.090 K0.000 F600.000
G2 X-88.383 Y11.910 Z-3.925 I5.979 J-4.683 K0.000 F600.000
G2 X-86.840 Y12.222 Z-3.925 I1.768 J-4.767 K0.000 F600.000
G1 X-60.779 Y12.222 Z-3.925 F600.000
G2 X-59.975 Y12.048 Z-3.925 I-0.196 J-2.846 K0.000 F600.000
G2 X-56.789 Y10.285 Z-3.925 I-1.790 J-6.996 K0.000 F600.000
G1 X-56.789 Y10.285 Z-5.000 F600.000
G2 X-55.027 Y7.650 Z-5.000 I-4.976 J-5.234 K0.000 F600.000
G2 X-54.763 Y6.291 Z-5.000 I-6.093 J-1.889 K0.000 F600.000
G1 X-54.763 Y2.252 Z-5.000 F600.000
G1 X-53.086 Y1.276 Z-5.000 F600.000
G2 X-44.947 Y-5.698 Z-5.000 I-27.054 J-39.806 K0.000 F600.000
G1 X-42.859 Y-8.104 Z-5.000 F600.000
G1 X-40.954 Y-10.651 Z-5.000 F600.000
G1 X-39.600 Y-12.776 Z-5.000 F600.000
G1 X-38.258 Y-15.250 Z-5.000 F600.000
G1 X-36.728 Y-18.582 Z-5.000 F600.000
G1 X-35.524 Y-21.626 Z-5.000 F600.000
G1 X-34.708 Y-24.185 Z-5.000 F600.000
G2 X-33.484 Y-30.845 Z-5.000 I-50.366 J-12.699 K0.000 F600.000
G1 X-33.338 Y-33.486 Z-5.000 F600.000
G1 X-33.336 Y-51.786 Z-5.000 F600.000
G2 X-33.510 Y-52.824 Z-5.000 I-5.092 J0.324 K0.000 F600.000
G2 X-36.341 Y-56.295 Z-5.000 I-7.836 J3.499 K0.000 F600.000
G2 X-39.734 Y-57.767 Z-5.000 I-9.137 J16.423 K0.000 F600.000
G3 X-44.881 Y-59.438 Z-5.000 I22.291 J-77.407 K0.000 F600.000
G2 X-50.300 Y-60.797 Z-5.000 I-80.323 J308.788 K0.000 F600.000
G2 X-53.482 Y-61.367 Z-5.000 I-34.942 J186.046 K0.000 F600.000
G2 X-61.457 Y-62.321 Z-5.000 I-11.270 J60.345 K0.000 F600.000
G1 X-66.356 Y-62.480 Z-5.000 F600.000
G2 X-67.230 Y-62.287 Z-5.000 I-0.035 J1.916 K0.000 F600.000
G2 X-69.155 Y-59.491 Z-5.000 I1.445 J3.055 K0.000 F600.000
G1 X-69.074 Y-35.106 Z-5.000 F600.000
G3 X-69.723 Y-32.634 Z-5.000 I-12.367 J-1.925 K0.000 F600.000
G2 X-70.486 Y-30.803 Z-5.000 I63.271 J27.419 K0.000 F600.000
G3 X-72.858 Y-27.349 Z-5.000 I-12.748 J-6.214 K0.000 F600.000
G3 X-76.610 Y-24.654 Z-5.000 I-10.814 J-11.097 K0.000 F600.000
G3 X-79.973 Y-23.718 Z-5.000 I-5.201 J-12.179 K0.000 F600.000
G1 X-81.539 Y-23.676 Z-5.000 F600.000
G2 X-82.106 Y-23.548 Z-5.000 I0.041 J1.499 K0.000 F600.000
G2 X-84.248 Y-21.480 Z-5.000 I2.786 J5.029 K0.000 F600.000
G2 X-84.559 Y-20.141 Z-5.000 I2.565 J1.301 K0.000 F600.000
G1 X-84.559 Y-15.850 Z-5.000 F600.000
G1 X-87.845 Y-15.850 Z-5.000 F600.000
G2 X-91.751 Y-13.710 Z-5.000 I0.280 J5.145 K0.000 F600.000
G2 X-92.632 Y-11.737 Z-5.000 I4.703 J3.283 K0.000 F600.000
G1 X-92.707 Y-11.268 Z-5.000 F600.000
G1 X-92.707 Y6.411 Z-5.000 F600.000
G1 X-92.653 Y6.810 Z-5.000 F600.000
G1 X-92.279 Y8.164 Z-5.000 F600.000
G1 X-92.066 Y8.619 Z-5.000 F600.000
G2 X-91.312 Y9.637 Z-5.000 I9.298 J-6.090 K0.000 F600.000
G2 X-88.383 Y11.910 Z-5.000 I5.979 J-4.683 K0.000 F600.000
G2 X-86.840 Y12.222 Z-5.000 I1.768 J-4.767 K0.000 F600.000
G1 X-60.779 Y12.222 Z-5.000 F600.000
G2 X-59.975 Y12.048 Z-5.000 I-0.196 J-2.846 K0.000 F600.000
G2 X-56.789 Y10.285 Z-5.000 I-1.790 J-6.996 K0.000 F600.000
G0 Z4.075
G0 Y28.415 Z4.075
G0 Y28.415 Z2.075
G1 X-56.789 Y28.415 Z-5.000 F600.000
G1 X-66.344 Y28.415 Z-5.000 F600.000
G2 X-67.837 Y28.633 Z-5.000 I0.637 J9.599 K0.000 F600.000
G1 X-68.284 Y28.778 Z-5.000 F600.000
G1 X-69.419 Y29.357 Z-5.000 F600.000
G1 X-69.799 Y29.633 Z-5.000 F600.000
G1 X-70.701 Y30.534 Z-5.000 F600.000
G1 X-70.976 Y30.914 Z-5.000 F600.000
G1 X-71.555 Y32.049 Z-5.000 F600.000
G1 X-71.700 Y32.496 Z-5.000 F600.000
G2 X-71.918 Y33.990 Z-5.000 I9.381 J2.131 K0.000 F600.000
G1 X-71.918 Y54.829 Z-5.000 F600.000
G2 X-70.418 Y56.329 Z-5.000 I1.500 J-0.000 K0.000 F600.000
G1 X-35.752 Y56.329 Z-5.000 F600.000
G2 X-34.252 Y54.829 Z-5.000 I-0.000 J-1.500 K0.000 F600.000
G1 X-34.252 Y33.990 Z-5.000 F600.000
G2 X-34.470 Y32.496 Z-5.000 I-9.599 J0.637 K0.000 F600.000
G1 X-34.615 Y32.049 Z-5.000 F600.000
G1 X-35.193 Y30.914 Z-5.000 F600.000
G1 X-35.469 Y30.534 Z-5.000 F600.000
G1 X-36.371 Y29.633 Z-5.000 F600.000
G1 X-36.750 Y29.357 Z-5.000 F600.000
G1 X-37.886 Y28.778 Z-5.000 F600.000
G1 X-38.332 Y28.633 Z-5.000 F600.000
G2 X-39.826 Y28.415 Z-5.000 I-2.131 J9.381 K0.000 F600.000
G1 X-56.789 Y28.415 Z-5.000 F600.000
G0 Z4.075
G0 X-31.642 Y15.735 Z4.075
G0 X-31.642 Y15.735 Z2.075
G1 X-31.642 Y15.735 Z-5.000 F600.000
G2 X-29.877 Y17.841 Z-5.000 I5.371 J-2.708 K0.000 F600.000
G2 X-27.504 Y18.833 Z-5.000 I2.966 J-3.761 K0.000 F600.000
G1 X-21.871 Y18.833 Z-5.000 F600.000
G1 X-21.672 Y18.820 Z-5.000 F600.000
G1 X-17.295 Y18.234 Z-5.000 F600.000
G1 X-13.986 Y17.465 Z-5.000 F600.000
G2 X-8.484 Y15.624 Z-5.000 I-58.164 J-183.016 K0.000 F600.000
G1 X-5.807 Y14.397 Z-5.000 F600.000
G1 X-3.030 Y12.911 Z-5.000 F600.000
G2 X5.515 Y6.485 Z-5.000 I-22.993 J-39.475 K0.000 F600.000
G1 X7.570 Y4.394 Z-5.000 F600.000
G1 X9.665 Y1.981 Z-5.000 F600.000
G1 X11.570 Y-0.566 Z-5.000 F600.000
G1 X12.924 Y-2.691 Z-5.000 F600.000
G1 X14.266 Y-5.165 Z-5.000 F600.000
G1 X15.796 Y-8.498 Z-5.000 F600.000
G1 X16.999 Y-11.541 Z-5.000 F600.000
G1 X17.815 Y-14.100 Z-5.000 F600.000
G2 X19.040 Y-20.760 Z-5.000 I-50.368 J-12.700 K0.000 F600.000
G1 X19.186 Y-23.401 Z-5.000 F600.000
G1 X19.188 Y-41.701 Z-5.000 F600.000
G2 X19.014 Y-42.739 Z-5.000 I-5.092 J0.324 K0.000 F600.000
G2 X16.183 Y-46.211 Z-5.000 I-7.836 J3.499 K0.000 F600.000
G2 X12.790 Y-47.682 Z-5.000 I-9.137 J16.423 K0.000 F600.000
G3 X7.643 Y-49.353 Z-5.000 I22.290 J-77.406 K0.000 F600.000
G2 X2.224 Y-50.712 Z-5.000 I-80.318 J308.770 K0.000 F600.000
G2 X-0.958 Y-51.282 Z-5.000 I-34.932 J185.988 K0.000 F600.000
G2 X-8.933 Y-52.237 Z-5.000 I-11.270 J60.348 K0.000 F600.000
G1 X-13.832 Y-52.396 Z-5.000 F600.000
G2 X-14.707 Y-52.202 Z-5.000 I-0.035 J1.916 K0.000 F600.000
G2 X-16.631 Y-49.407 Z-5.000 I1.445 J3.055 K0.000 F600.000
G1 X-16.550 Y-25.021 Z-5.000 F600.000
G3 X-17.199 Y-22.549 Z-5.000 I-12.367 J-1.925 K0.000 F600.000
G2 X-17.962 Y-20.718 Z-5.000 I63.305 J27.434 K0.000 F600.000
G3 X-20.334 Y-17.264 Z-5.000 I-12.748 J-6.214 K0.000 F600.000
G3 X-24.086 Y-14.569 Z-5.000 I-10.814 J-11.097 K0.000 F600.000
G3 X-27.449 Y-13.634 Z-5.000 I-5.201 J-12.179 K0.000 F600.000
G1 X-29.015 Y-13.591 Z-5.000 F600.000
G2 X-29.582 Y-13.463 Z-5.000 I0.041 J1.499 K0.000 F600.000
G2 X-31.724 Y-11.395 Z-5.000 I2.786 J5.029 K0.000 F600.000
G2 X-32.035 Y-10.056 Z-5.000 I2.565 J1.301 K0.000 F600.000
G1 X-32.035 Y14.552 Z-5.000 F600.000
G1 X-32.007 Y14.836 Z-5.000 F600.000
G2 X-31.642 Y15.735 Z-5.000 I5.737 J-1.810 K0.000 F600.000
G0 Z4.075
G0 X-22.607 Y28.841 Z4.075
G0 X-22.607 Y28.841 Z2.075
G1 X-22.607 Y28.841 Z-5.000 F600.000
G1 X-22.987 Y29.117 Z-5.000 F600.000
G1 X-23.708 Y29.838 Z-5.000 F600.000
G1 X-23.984 Y30.218 Z-5.000 F600.000
G1 X-24.447 Y31.127 Z-5.000 F600.000
G1 X-24.592 Y31.573 Z-5.000 F600.000
G2 X-24.770 Y32.815 Z-5.000 I7.801 J1.752 K0.000 F600.000
G1 X-24.770 Y63.241 Z-5.000 F600.000
G2 X-24.034 Y65.040 Z-5.000 I2.657 J-0.037 K0.000 F600.000
G2 X-26.285 Y64.148 Z-5.000 I-6.936 J14.211 K0.000 F600.000
G1 X-26.285 Y64.148 Z-5.000 F600.000
G3 X-27.752 Y63.663 Z-5.000 I125.396 J-382.084 K0.000 F600.000
G2 X-30.428 Y63.145 Z-5.000 I-7.562 J31.906 K0.000 F600.000
G2 X-31.522 Y63.108 Z-5.000 I-0.712 J4.886 K0.000 F600.000
G2 X-32.255 Y63.264 Z-5.000 I0.072 J2.139 K0.000 F600.000
G2 X-33.842 Y64.741 Z-5.000 I1.847 J3.577 K0.000 F600.000
G2 X-35.876 Y69.453 Z-5.000 I122.306 J55.581 K0.000 F600.000
G2 X-35.995 Y70.038 Z-5.000 I1.382 J0.584 K0.000 F600.000
G1 X-35.995 Y71.176 Z-5.000 F600.000
G2 X-35.616 Y72.548 Z-5.000 I4.089 J-0.389 K0.000 F600.000
G2 X-35.005 Y73.327 Z-5.000 I3.761 J-2.324 K0.000 F600.000
G2 X-33.980 Y74.085 Z-5.000 I3.259 J-3.334 K0.000 F600.000
G2 X-32.445 Y74.584 Z-5.000 I2.018 J-3.604 K0.000 F600.000
G2 X-31.024 Y74.573 Z-5.000 I0.621 J-11.889 K0.000 F600.000
G2 X-28.367 Y72.757 Z-5.000 I-0.844 J-4.086 K0.000 F600.000
G3 X-27.748 Y71.786 Z-5.000 I6.251 J3.304 K0.000 F600.000
G3 X-26.187 Y70.393 Z-5.000 I11.920 J11.793 K0.000 F600.000
G3 X-23.561 Y68.837 Z-5.000 I13.188 J19.253 K0.000 F600.000
G2 X-22.704 Y67.740 Z-5.000 I-0.894 J-1.583 K0.000 F600.000
G2 X-22.666 Y66.767 Z-5.000 I-4.299 J-0.653 K0.000 F600.000
G2 X-23.028 Y65.719 Z-5.000 I-1.943 J0.084 K0.000 F600.000
G1 X-23.045 Y65.701 Z-5.000 F600.000
G2 X-20.051 Y65.076 Z-5.000 I0.999 J-2.701 K0.000 F600.000
G1 X-11.301 Y56.021 Z-5.000 F600.000
G1 X-0.423 Y56.021 Z-5.000 F600.000
G1 X8.327 Y65.076 Z-5.000 F600.000
G2 X10.811 Y65.820 Z-5.000 I1.986 J-2.110 K0.000 F600.000
G2 X13.038 Y63.388 Z-5.000 I-0.366 J-2.571 K0.000 F600.000
G1 X13.046 Y32.815 Z-5.000 F600.000
G2 X12.868 Y31.573 Z-5.000 I-7.979 J0.510 K0.000 F600.000
G1 X12.723 Y31.127 Z-5.000 F600.000
G1 X12.260 Y30.218 Z-5.000 F600.000
G1 X11.984 Y29.838 Z-5.000 F600.000
G1 X11.263 Y29.117 Z-5.000 F600.000
G1 X10.883 Y28.841 Z-5.000 F600.000
G1 X9.974 Y28.378 Z-5.000 F600.000
G1 X9.528 Y28.233 Z-5.000 F600.000
G2 X8.286 Y28.055 Z-5.000 I-1.752 J7.801 K0.000 F600.000
G1 X-20.010 Y28.055 Z-5.000 F600.000
G2 X-21.252 Y28.233 Z-5.000 I0.510 J7.979 K0.000 F600.000
G1 X-21.698 Y28.378 Z-5.000 F600.000
G1 X-22.607 Y28.841 Z-5.000 F600.000
G0 Z4.075
G0 X14.632 Y28.841 Z4.075
G0 X14.632 Y28.841 Z2.075
G1 X14.632 Y28.841 Z-5.000 F600.000
G1 X14.632 Y34.758 Z-5.000 F600.000
G2 X15.161 Y36.230 Z-5.000 I2.556 J-0.089 K0.000 F600.000
G2 X17.403 Y37.308 Z-5.000 I2.373 J-2.065 K0.000 F600.000
G1 X18.713 Y37.308 Z-5.000 F600.000
G2 X19.903 Y37.039 Z-5.000 I-0.215 J-3.718 K0.000 F600.000
G3 X22.776 Y39.913 Z-5.000 I-51.170 J54.007 K0.000 F600.000
G3 X23.548 Y40.855 Z-5.000 I-2.684 J2.985 K0.000 F600.000
G3 X23.501 Y41.721 Z-5.000 I-2.585 J0.294 K0.000 F600.000
G2 X21.202 Y50.375 Z-5.000 I288.961 J81.390 K0.000 F600.000
G2 X20.777 Y53.227 Z-5.000 I10.105 J2.963 K0.000 F600.000
G1 X20.773 Y57.103 Z-5.000 F600.000
G2 X21.764 Y63.608 Z-5.000 I23.639 J-0.273 K0.000 F600.000
G2 X24.544 Y67.385 Z-5.000 I5.961 J-1.476 K0.000 F600.000
G2 X26.762 Y68.083 Z-5.000 I3.316 J-6.658 K0.000 F600.000
G2 X29.350 Y67.871 Z-5.000 I0.796 J-6.183 K0.000 F600.000
G2 X30.638 Y67.243 Z-5.000 I-0.819 J-3.312 K0.000 F600.000
G2 X31.805 Y66.303 Z-5.000 I-2.465 J-4.256 K0.000 F600.000
G2 X32.393 Y65.722 Z-5.000 I-6.078 J-6.733 K0.000 F600.000
G2 X33.414 Y64.277 Z-5.000 I-3.226 J-3.364 K0.000 F600.000
G2 X33.887 Y61.425 Z-5.000 I-10.487 J-3.202 K0.000 F600.000
G1 X33.890 Y56.664 Z-5.000 F600.000
G2 X33.461 Y53.487 Z-5.000 I-18.291 J0.855 K0.000 F600.000
G3 X32.887 Y50.849 Z-5.000 I19.679 J-5.662 K0.000 F600.000
G1 X32.887 Y48.933 Z-5.000 F600.000
G3 X33.348 Y46.508 Z-5.000 I14.862 J1.570 K0.000 F600.000
G2 X33.836 Y44.757 Z-5.000 I-17.638 J-5.857 K0.000 F600.000
G1 X33.836 Y44.757 Z-5.000 F600.000
G3 X34.264 Y43.091 Z-5.000 I207.562 J52.523 K0.000 F600.000
G2 X34.763 Y40.513 Z-5.000 I-12.123 J-3.680 K0.000 F600.000
G1 X34.763 Y38.582 Z-5.000 F600.000
G2 X34.637 Y37.630 Z-5.000 I-6.477 J0.369 K0.000 F600.000
G2 X32.845 Y34.610 Z-5.000 I-7.006 J2.115 K0.000 F600.000
G2 X30.398 Y32.534 Z-5.000 I-76.608 J87.818 K0.000 F600.000
G2 X22.003 Y26.590 Z-5.000 I-37.991 J44.757 K0.000 F600.000
G1 X22.003 Y21.453 Z-5.000 F600.000
G1 X21.955 Y21.077 Z-5.000 F600.000
G2 X19.601 Y18.578 Z-5.000 I-4.046 J1.453 K0.000 F600.000
G1 X19.255 Y18.469 Z-5.000 F600.000
G2 X17.949 Y18.399 Z-5.000 I-0.879 J4.201 K0.000 F600.000
G2 X16.189 Y19.141 Z-5.000 I0.505 J3.658 K0.000 F600.000
G2 X14.632 Y21.698 Z-5.000 I2.159 J3.068 K0.000 F600.000
G1 X14.632 Y28.841 Z-5.000 F600.000
G0 Z4.075
G0 X25.791 Y15.242 Z4.075
G0 X25.791 Y15.242 Z2.075
G1 X25.791 Y15.242 Z-5.000 F600.000
G1 X26.984 Y16.092 Z-5.000 F600.000
G1 X27.316 Y16.270 Z-5.000 F600.000
G1 X28.705 Y16.804 Z-5.000 F600.000
G1 X29.062 Y16.893 Z-5.000 F600.000
G2 X30.735 Y17.087 Z-5.000 I2.424 J-13.646 K0.000 F600.000
G1 X44.206 Y17.087 Z-5.000 F600.000
G2 X45.880 Y16.893 Z-5.000 I-0.751 J-13.840 K0.000 F600.000
G1 X46.236 Y16.804 Z-5.000 F600.000
G1 X47.626 Y16.270 Z-5.000 F600.000
G1 X47.958 Y16.092 Z-5.000 F600.000
G1 X49.151 Y15.242 Z-5.000 F600.000
G1 X49.437 Y14.976 Z-5.000 F600.000
G1 X50.353 Y13.868 Z-5.000 F600.000
G1 X50.566 Y13.524 Z-5.000 F600.000
G1 X51.142 Y12.234 Z-5.000 F600.000
G1 X51.257 Y11.833 Z-5.000 F600.000
G1 X51.454 Y10.449 Z-5.000 F600.000
G1 X51.454 Y10.027 Z-5.000 F600.000
G1 X51.257 Y8.643 Z-5.000 F600.000
G1 X51.142 Y8.242 Z-5.000 F600.000
G1 X50.566 Y6.952 Z-5.000 F600.000
G1 X50.353 Y6.608 Z-5.000 F600.000
G1 X49.437 Y5.500 Z-5.000 F600.000
G1 X49.151 Y5.234 Z-5.000 F600.000
G1 X47.958 Y4.384 Z-5.000 F600.000
G1 X47.626 Y4.206 Z-5.000 F600.000
G1 X46.236 Y3.672 Z-5.000 F600.000
G1 X45.880 Y3.583 Z-5.000 F600.000
G2 X44.206 Y3.389 Z-5.000 I-2.424 J13.646 K0.000 F600.000
G1 X30.735 Y3.389 Z-5.000 F600.000
G2 X29.062 Y3.583 Z-5.000 I0.751 J13.840 K0.000 F600.000
G1 X28.705 Y3.672 Z-5.000 F600.000
G1 X27.316 Y4.206 Z-5.000 F600.000
G1 X26.984 Y4.384 Z-5.000 F600.000
G1 X25.791 Y5.234 Z-5.000 F600.000
G1 X25.505 Y5.500 Z-5.000 F600.000
G1 X24.589 Y6.608 Z-5.000 F600.000
G1 X24.375 Y6.952 Z-5.000 F600.000
G1 X23.800 Y8.242 Z-5.000 F600.000
G1 X23.684 Y8.643 Z-5.000 F600.000
G1 X23.488 Y10.027 Z-5.000 F600.000
G1 X23.488 Y10.449 Z-5.000 F600.000
G1 X23.684 Y11.833 Z-5.000 F600.000
G1 X23.800 Y12.234 Z-5.000 F600.000
G1 X24.375 Y13.524 Z-5.000 F600.000
G1 X24.589 Y13.868 Z-5.000 F600.000
G1 X25.505 Y14.976 Z-5.000 F600.000
G1 X25.791 Y15.242 Z-5.000 F600.000
G0 Z4.075
G0 X31.280 Y-3.941 Z4.075
G0 X31.280 Y-3.941 Z2.075
G1 X31.280 Y-3.941 Z-5.000 F600.000
G2 X31.678 Y-3.866 Z-5.000 I0.607 J-2.121 K0.000 F600.000
G1 X44.594 Y-3.866 Z-5.000 F600.000
G1 X45.042 Y-3.904 Z-5.000 F600.000
G2 X46.364 Y-4.514 Z-5.000 I-0.675 J-3.197 K0.000 F600.000
G2 X48.523 Y-7.355 Z-5.000 I-2.246 J-3.949 K0.000 F600.000
G2 X48.986 Y-11.112 Z-5.000 I-61.983 J-9.534 K0.000 F600.000
G1 X48.994 Y-13.431 Z-5.000 F600.000
G1 X48.961 Y-13.743 Z-5.000 F600.000
G2 X47.038 Y-15.774 Z-5.000 I-2.879 J0.800 K0.000 F600.000
G1 X45.699 Y-16.145 Z-5.000 F600.000
G2 X36.065 Y-17.486 Z-5.000 I-12.643 J55.540 K0.000 F600.000
G1 X32.153 Y-17.489 Z-5.000 F600.000
G2 X31.193 Y-17.197 Z-5.000 I0.075 J1.972 K0.000 F600.000
G2 X30.249 Y-16.314 Z-5.000 I5.399 J6.714 K0.000 F600.000
G2 X29.599 Y-14.823 Z-5.000 I2.125 J1.812 K0.000 F600.000
G1 X29.599 Y-6.107 Z-5.000 F600.000
G2 X29.862 Y-5.186 Z-5.000 I2.206 J-0.131 K0.000 F600.000
G2 X31.280 Y-3.941 Z-5.000 I2.025 J-0.876 K0.000 F600.000
G0 Z4.075
G0 X31.537 Y-23.659 Z4.075
G0 X31.537 Y-23.659 Z2.075
G1 X31.537 Y-23.659 Z-5.000 F600.000
G1 X44.452 Y-23.659 Z-5.000 F600.000
G1 X44.901 Y-23.697 Z-5.000 F600.000
G2 X46.222 Y-24.307 Z-5.000 I-0.675 J-3.197 K0.000 F600.000
G2 X48.382 Y-27.148 Z-5.000 I-2.246 J-3.949 K0.000 F600.000
G2 X48.844 Y-30.906 Z-5.000 I-61.975 J-9.533 K0.000 F600.000
G1 X48.853 Y-33.225 Z-5.000 F600.000
G1 X48.820 Y-33.536 Z-5.000 F600.000
G2 X46.897 Y-35.567 Z-5.000 I-2.879 J0.800 K0.000 F600.000
G1 X45.557 Y-35.938 Z-5.000 F600.000
G2 X35.924 Y-37.279 Z-5.000 I-12.643 J55.539 K0.000 F600.000
G1 X32.012 Y-37.283 Z-5.000 F600.000
G2 X31.051 Y-36.991 Z-5.000 I0.075 J1.972 K0.000 F600.000
G2 X30.107 Y-36.107 Z-5.000 I5.399 J6.714 K0.000 F600.000
G2 X29.458 Y-34.616 Z-5.000 I2.125 J1.812 K0.000 F600.000
G1 X29.458 Y-25.901 Z-5.000 F600.000
G2 X29.721 Y-24.979 Z-5.000 I2.206 J-0.131 K0.000 F600.000
G2 X31.537 Y-23.659 Z-5.000 I2.025 J-0.876 K0.000 F600.000
G0 Z4.075
G0 X56.730 Y-27.478 Z4.075
G0 X56.730 Y-27.478 Z2.075
G1 X56.730 Y-27.478 Z-5.000 F600.000
G1 X60.068 Y-5.459 Z-5.000 F600.000
G2 X60.786 Y-4.071 Z-5.000 I3.452 J-0.905 K0.000 F600.000
G2 X61.831 Y-3.338 Z-5.000 I3.149 J-3.383 K0.000 F600.000
G2 X63.160 Y-3.069 Z-5.000 I1.608 J-4.523 K0.000 F600.000
G2 X64.268 Y-3.291 Z-5.000 I-0.431 J-5.026 K0.000 F600.000
G2 X67.146 Y-4.479 Z-5.000 I-12.849 J-35.197 K0.000 F600.000
G2 X68.297 Y-5.213 Z-5.000 I-3.818 J-7.260 K0.000 F600.000
G1 X69.035 Y-5.325 Z-5.000 F600.000
G1 X70.027 Y-4.883 Z-5.000 F600.000
G1 X70.294 Y-4.676 Z-5.000 F600.000
G1 X70.637 Y-3.481 Z-5.000 F600.000
G1 X70.792 Y-3.124 Z-5.000 F600.000
G1 X71.770 Y-1.491 Z-5.000 F600.000
G1 X71.978 Y-1.219 Z-5.000 F600.000
G1 X73.057 Y-0.102 Z-5.000 F600.000
G2 X74.170 Y0.590 Z-5.000 I2.859 J-3.363 K0.000 F600.000
G1 X74.219 Y0.798 Z-5.000 F600.000
G1 X74.089 Y1.245 Z-5.000 F600.000
G3 X73.312 Y1.731 Z-5.000 I-2.507 J-3.143 K0.000 F600.000
G3 X71.031 Y2.555 Z-5.000 I-6.864 J-15.450 K0.000 F600.000
G2 X69.083 Y3.561 Z-5.000 I19.558 J40.250 K0.000 F600.000
G2 X67.851 Y4.329 Z-5.000 I2.320 J5.096 K0.000 F600.000
G2 X63.334 Y10.056 Z-5.000 I7.389 J10.472 K0.000 F600.000
G1 X61.885 Y14.303 Z-5.000 F600.000
G2 X61.811 Y14.923 Z-5.000 I1.420 J0.483 K0.000 F600.000
G1 X61.969 Y16.635 Z-5.000 F600.000
G2 X62.584 Y17.987 Z-5.000 I3.341 J-0.704 K0.000 F600.000
G2 X63.524 Y18.859 Z-5.000 I4.341 J-3.739 K0.000 F600.000
G2 X65.065 Y19.440 Z-5.000 I1.891 J-2.679 K0.000 F600.000
G1 X66.749 Y19.495 Z-5.000 F600.000
G2 X67.498 Y19.323 Z-5.000 I0.049 J-1.499 K0.000 F600.000
G2 X68.855 Y18.411 Z-5.000 I-1.424 J-3.584 K0.000 F600.000
G2 X69.904 Y16.842 Z-5.000 I-9.615 J-7.562 K0.000 F600.000
G3 X70.583 Y15.818 Z-5.000 I4.867 J2.491 K0.000 F600.000
G3 X72.363 Y14.250 Z-5.000 I12.296 J12.166 K0.000 F600.000
G1 X74.469 Y12.973 Z-5.000 F600.000
G1 X75.788 Y12.370 Z-5.000 F600.000
G1 X77.547 Y11.886 Z-5.000 F600.000
G1 X79.069 Y11.784 Z-5.000 F600.000
G2 X80.043 Y11.580 Z-5.000 I-0.801 J-6.252 K0.000 F600.000
G2 X85.525 Y9.502 Z-5.000 I-4.160 J-19.246 K0.000 F600.000
G2 X88.642 Y7.775 Z-5.000 I-10.130 J-21.950 K0.000 F600.000
G2 X92.266 Y4.868 Z-5.000 I-10.585 J-16.907 K0.000 F600.000
G2 X96.375 Y0.164 Z-5.000 I-17.467 J-19.407 K0.000 F600.000
G1 X97.645 Y-1.848 Z-5.000 F600.000
G2 X99.605 Y-5.705 Z-5.000 I-161.438 J-84.473 K0.000 F600.000
G2 X101.541 Y-11.385 Z-5.000 I-90.094 J-33.877 K0.000 F600.000
G2 X102.783 Y-18.391 Z-5.000 I-51.728 J-12.781 K0.000 F600.000
G1 X102.791 Y-20.644 Z-5.000 F600.000
G1 X101.638 Y-38.372 Z-5.000 F600.000
G2 X101.525 Y-39.020 Z-5.000 I-5.184 J0.573 K0.000 F600.000
G2 X99.653 Y-41.093 Z-5.000 I-3.315 J1.113 K0.000 F600.000
G1 X95.775 Y-42.787 Z-5.000 F600.000
G1 X92.587 Y-43.980 Z-5.000 F600.000
G1 X88.063 Y-45.241 Z-5.000 F600.000
G1 X84.233 Y-45.929 Z-5.000 F600.000
G2 X80.303 Y-44.567 Z-5.000 I-0.307 J5.468 K0.000 F600.000
G2 X79.517 Y-43.117 Z-5.000 I3.805 J3.001 K0.000 F600.000
G1 X78.271 Y-36.906 Z-5.000 F600.000
G1 X78.245 Y-36.710 Z-5.000 F600.000
G1 X76.922 Y-16.720 Z-5.000 F600.000
G1 X76.757 Y-16.705 Z-5.000 F600.000
G3 X75.824 Y-17.739 Z-5.000 I2.463 J-3.160 K0.000 F600.000
G1 X73.979 Y-44.660 Z-5.000 F600.000
G2 X72.975 Y-46.508 Z-5.000 I-3.308 J0.600 K0.000 F600.000
G2 X71.808 Y-47.277 Z-5.000 I-2.203 J2.075 K0.000 F600.000
G2 X70.505 Y-47.323 Z-5.000 I-0.858 J5.759 K0.000 F600.000
G2 X62.823 Y-46.298 Z-5.000 I6.648 J79.137 K0.000 F600.000
G2 X57.580 Y-45.032 Z-5.000 I5.553 J34.483 K0.000 F600.000
G2 X55.751 Y-44.276 Z-5.000 I1.995 J7.420 K0.000 F600.000
G2 X55.038 Y-43.449 Z-5.000 I3.315 J3.579 K0.000 F600.000
G2 X54.588 Y-41.610 Z-5.000 I2.604 J1.612 K0.000 F600.000
G1 X56.730 Y-27.478 Z-5.000 F600.000
G0 Z4.075
G0 X91.128 Y13.264 Z4.075
G0 X91.128 Y13.264 Z2.075
G1 X91.128 Y13.264 Z-5.000 F600.000
G2 X90.429 Y14.680 Z-5.000 I1.275 J1.510 K0.000 F600.000
G1 X90.429 Y18.916 Z-5.000 F600.000
G1 X90.293 Y19.851 Z-5.000 F600.000
G3 X89.293 Y25.363 Z-5.000 I-52.230 J-6.628 K0.000 F600.000
G3 X87.219 Y30.942 Z-5.000 I-47.952 J-14.648 K0.000 F600.000
G3 X85.950 Y33.265 Z-5.000 I-46.618 J-23.963 K0.000 F600.000
G3 X80.655 Y40.080 Z-5.000 I-34.307 J-21.190 K0.000 F600.000
G3 X73.531 Y45.292 Z-5.000 I-24.194 J-25.592 K0.000 F600.000
G3 X68.949 Y47.135 Z-5.000 I-11.295 J-21.468 K0.000 F600.000
G2 X65.791 Y48.546 Z-5.000 I2.447 J9.721 K0.000 F600.000
G2 X63.507 Y50.424 Z-5.000 I24.433 J32.031 K0.000 F600.000
G2 X61.306 Y53.637 Z-5.000 I8.281 J8.031 K0.000 F600.000
G2 X60.834 Y54.981 Z-5.000 I6177.504 J2173.872 K0.000 F600.000
G3 X60.284 Y55.565 Z-5.000 I-0.750 J-0.155 K0.000 F600.000
G1 X58.188 Y55.565 Z-5.000 F600.000
G3 X55.918 Y54.793 Z-5.000 I2.376 J-10.702 K0.000 F600.000
G3 X54.041 Y53.732 Z-5.000 I1.762 J-5.309 K0.000 F600.000
G3 X53.238 Y52.457 Z-5.000 I1.380 J-1.760 K0.000 F600.000
G1 X53.238 Y51.524 Z-5.000 F600.000
G3 X54.427 Y48.052 Z-5.000 I15.077 J3.225 K0.000 F600.000
G3 X56.363 Y45.090 Z-5.000 I13.954 J7.007 K0.000 F600.000
G3 X60.021 Y42.466 Z-5.000 I6.325 J4.954 K0.000 F600.000
G3 X62.199 Y41.882 Z-5.000 I58.261 J213.162 K0.000 F600.000
G2 X65.604 Y39.268 Z-5.000 I-1.465 J-5.432 K0.000 F600.000
G2 X65.726 Y37.152 Z-5.000 I-3.929 J-1.288 K0.000 F600.000
G2 X64.905 Y35.844 Z-5.000 I-2.514 J0.666 K0.000 F600.000
G2 X63.804 Y34.957 Z-5.000 I-5.976 J6.297 K0.000 F600.000
G3 X62.555 Y33.110 Z-5.000 I4.107 J-4.122 K0.000 F600.000
G2 X60.532 Y31.263 Z-5.000 I-2.933 J1.181 K0.000 F600.000
G2 X59.399 Y31.225 Z-5.000 I-0.734 J5.011 K0.000 F600.000
G2 X57.653 Y31.892 Z-5.000 I0.064 J2.786 K0.000 F600.000
G3 X55.644 Y33.567 Z-5.000 I-8.241 J-7.838 K0.000 F600.000
G3 X53.585 Y34.627 Z-5.000 I-13.704 J-24.100 K0.000 F600.000
G2 X52.840 Y33.237 Z-5.000 I-6.645 J2.667 K0.000 F600.000
G2 X50.987 Y31.913 Z-5.000 I-2.513 J1.558 K0.000 F600.000
G2 X49.757 Y31.875 Z-5.000 I-0.782 J5.439 K0.000 F600.000
G2 X47.197 Y34.353 Z-5.000 I0.140 J2.707 K0.000 F600.000
G1 X47.197 Y36.413 Z-5.000 F600.000
G1 X43.520 Y36.413 Z-5.000 F600.000
G2 X39.767 Y38.850 Z-5.000 I0.809 J5.354 K0.000 F600.000
G2 X38.859 Y41.309 Z-5.000 I3.966 J2.862 K0.000 F600.000
G1 X38.852 Y58.128 Z-5.000 F600.000
G2 X39.594 Y60.823 Z-5.000 I5.552 J-0.080 K0.000 F600.000
G2 X42.207 Y63.402 Z-5.000 I6.609 J-4.083 K0.000 F600.000
G2 X44.827 Y64.405 Z-5.000 I3.765 J-5.915 K0.000 F600.000
G1 X70.336 Y64.405 Z-5.000 F600.000
G2 X70.999 Y64.317 Z-5.000 I-0.215 J-4.182 K0.000 F600.000
G2 X74.852 Y62.118 Z-5.000 I-0.948 J-6.136 K0.000 F600.000
G2 X75.661 Y61.086 Z-5.000 I-2.612 J-2.880 K0.000 F600.000
G2 X76.657 Y58.180 Z-5.000 I-5.467 J-3.499 K0.000 F600.000
G1 X76.657 Y54.312 Z-5.000 F600.000
G1 X77.253 Y53.981 Z-5.000 F600.000
G2 X81.335 Y51.028 Z-5.000 I-23.644 J-36.974 K0.000 F600.000
G2 X84.580 Y48.175 Z-5.000 I-13.930 J-19.115 K0.000 F600.000
G2 X91.106 Y40.174 Z-5.000 I-28.586 J-29.979 K0.000 F600.000
G2 X91.735 Y39.283 Z-5.000 I-9.211 J-7.163 K0.000 F600.000
G2 X94.575 Y34.046 Z-5.000 I-59.185 J-35.484 K0.000 F600.000
G2 X96.230 Y29.483 Z-5.000 I-87.729 J-34.417 K0.000 F600.000
G2 X97.396 Y24.909 Z-5.000 I-460.590 J-119.841 K0.000 F600.000
G1 X97.782 Y22.669 Z-5.000 F600.000
G2 X98.046 Y19.726 Z-5.000 I-530.119 J-49.020 K0.000 F600.000
G1 X98.052 Y14.638 Z-5.000 F600.000
G2 X96.572 Y12.862 Z-5.000 I-1.990 J0.153 K0.000 F600.000
G2 X95.327 Y12.824 Z-5.000 I-0.789 J5.504 K0.000 F600.000
G2 X94.456 Y13.075 Z-5.000 I0.167 J2.214 K0.000 F600.000
G1 X94.094 Y13.075 Z-5.000 F600.000
G2 X93.904 Y12.973 Z-5.000 I-3.220 J5.771 K0.000 F600.000
G1 X93.535 Y12.836 Z-5.000 F600.000
G2 X92.365 Y12.799 Z-5.000 I-0.752 J5.173 K0.000 F600.000
G2 X91.128 Y13.264 Z-5.000 I0.038 J1.976 K0.000 F600.000
G0 Z4.075
G0 Z4.075
(Finish operation: Profile)
(Begin postamble)
M5
G17 G90
M2
