(Exported by FreeCAD)
(Post Processor: script_module)
(Output Time:2025-09-23 15:37:55.386908)
(Begin preamble)
G17 G90
G21
(Begin operation: Fixture)
(Path: Fixture)
G54
(Finish operation: Fixture)
(Begin operation: 0.5mm001)
(Path: 0.5mm001)
(0.5mm001)
(Begin toolchange)
( M6 T2 )
M3 S10000
(Finish operation: 0.5mm001)
(Begin operation: Pocket_Shape)
(Path: Pocket_Shape)
(Pocket_Shape)
G0 Z5.000
G0 X0.000 Y0.000
G0 X5.221 Y-0.459
G0 X5.221 Y-0.459 Z3.000
G1 X5.221 Y-0.459 Z-0.500 F600.000
G1 X6.045 Y0.366 Z-0.500 F600.000
G3 X6.338 Y-0.048 Z-0.500 I0.558 J0.085 K0.000 F600.000
G1 X5.609 Y-0.779 Z-0.500 F600.000
G3 X5.899 Y-1.195 Z-0.500 I2.301 J1.298 K0.000 F600.000
G1 X7.680 Y0.587 Z-0.500 F600.000
G2 X7.898 Y0.346 Z-0.500 I-5.499 J-5.202 K0.000 F600.000
G2 X7.851 Y0.051 Z-0.500 I-0.355 J-0.095 K0.000 F600.000
G1 X6.286 Y-1.515 Z-0.500 F600.000
G3 X6.454 Y-1.581 Z-0.500 I0.353 J0.651 K0.000 F600.000
G2 X6.824 Y-1.683 Z-0.500 I0.118 J-0.294 K0.000 F600.000
G1 X7.252 Y-1.256 Z-0.500 F600.000
G2 X7.753 Y-0.754 Z-0.500 I0.470 J0.031 K0.000 F600.000
G1 X7.990 Y-0.517 Z-0.500 F600.000
G3 X8.272 Y-0.677 Z-0.500 I0.660 J0.834 K0.000 F600.000
G2 X8.000 Y-0.846 Z-0.500 I-0.269 J0.129 K0.000 F600.000
G3 X7.753 Y-0.754 Z-0.500 I-0.385 J-0.655 K0.000 F600.000
G1 X7.753 Y-0.754 Z-1.000 F600.000
G2 X8.000 Y-0.846 Z-1.000 I-0.139 J-0.747 K0.000 F600.000
G3 X8.272 Y-0.677 Z-1.000 I0.003 J0.298 K0.000 F600.000
G2 X7.990 Y-0.517 Z-1.000 I0.379 J0.994 K0.000 F600.000
G1 X7.753 Y-0.754 Z-1.000 F600.000
G3 X7.252 Y-1.256 Z-1.000 I-0.031 J-0.470 K0.000 F600.000
G1 X6.824 Y-1.683 Z-1.000 F600.000
G3 X6.454 Y-1.581 Z-1.000 I-0.252 J-0.191 K0.000 F600.000
G2 X6.286 Y-1.515 Z-1.000 I0.185 J0.717 K0.000 F600.000
G1 X7.851 Y0.051 Z-1.000 F600.000
G3 X7.898 Y0.346 Z-1.000 I-0.308 J0.200 K0.000 F600.000
G3 X7.680 Y0.587 Z-1.000 I-5.717 J-4.962 K0.000 F600.000
G1 X5.899 Y-1.195 Z-1.000 F600.000
G2 X5.609 Y-0.779 Z-1.000 I2.011 J1.714 K0.000 F600.000
G1 X6.338 Y-0.048 Z-1.000 F600.000
G2 X6.045 Y0.366 Z-1.000 I0.265 J0.499 K0.000 F600.000
G1 X5.221 Y-0.459 Z-1.000 F600.000
G0 Z5.000
G0 X6.144 Y0.116 Z5.000
G0 X6.144 Y0.116 Z3.000
G1 X6.144 Y0.116 Z-0.500 F600.000
G3 X6.547 Y-0.070 Z-0.500 I0.342 J0.213 K0.000 F600.000
G3 X6.707 Y-0.028 Z-0.500 I0.021 J0.249 K0.000 F600.000
G3 X7.086 Y0.361 Z-0.500 I-0.242 J0.615 K0.000 F600.000
G3 X7.035 Y0.813 Z-0.500 I-0.354 J0.189 K0.000 F600.000
G3 X6.122 Y0.156 Z-0.500 I-0.442 J-0.348 K0.000 F600.000
G3 X6.144 Y0.116 Z-0.500 I0.364 J0.172 K0.000 F600.000
G1 X6.144 Y0.116 Z-1.000 F600.000
G3 X6.547 Y-0.070 Z-1.000 I0.342 J0.213 K0.000 F600.000
G3 X6.707 Y-0.028 Z-1.000 I0.021 J0.249 K0.000 F600.000
G3 X7.086 Y0.361 Z-1.000 I-0.242 J0.615 K0.000 F600.000
G3 X7.035 Y0.813 Z-1.000 I-0.354 J0.189 K0.000 F600.000
G3 X6.122 Y0.156 Z-1.000 I-0.442 J-0.348 K0.000 F600.000
G3 X6.144 Y0.116 Z-1.000 I0.364 J0.172 K0.000 F600.000
G0 Z5.000
G0 X7.104 Y0.717 Z5.000
G0 X7.104 Y0.717 Z3.000
G1 X7.104 Y0.717 Z-0.500 F600.000
G1 X7.848 Y1.462 Z-0.500 F600.000
G2 X7.796 Y1.559 Z-0.500 I1.064 J0.631 K0.000 F600.000
G2 X7.234 Y1.555 Z-0.500 I-0.285 J0.594 K0.000 F600.000
G1 X6.697 Y1.018 Z-0.500 F600.000
G3 X6.045 Y0.366 Z-0.500 I-0.105 J-0.547 K0.000 F600.000
G1 X5.221 Y-0.459 Z-0.500 F600.000
G2 X5.224 Y0.251 Z-0.500 I0.829 J0.352 K0.000 F600.000
G1 X6.731 Y1.759 Z-0.500 F600.000
G2 X6.738 Y2.272 Z-0.500 I0.264 J0.253 K0.000 F600.000
G2 X7.560 Y2.923 Z-0.500 I1.054 J-0.487 K0.000 F600.000
G2 X7.812 Y2.840 Z-0.500 I0.042 J-0.296 K0.000 F600.000
G1 X8.865 Y3.892 Z-0.500 F600.000
G3 X8.013 Y3.290 Z-0.500 I0.158 J-1.128 K0.000 F600.000
G2 X7.819 Y3.217 Z-0.500 I-0.177 J0.176 K0.000 F600.000
G1 X7.503 Y3.238 Z-0.500 F600.000
G3 X7.181 Y3.163 Z-0.500 I-0.040 J-0.560 K0.000 F600.000
G3 X6.347 Y2.082 Z-0.500 I2.172 J-2.538 K0.000 F600.000
G1 X7.503 Y3.238 Z-0.500 F600.000
G3 X6.902 Y2.911 Z-0.500 I-0.007 J-0.702 K0.000 F600.000
G3 X6.023 Y1.385 Z-0.500 I3.387 J-2.968 K0.000 F600.000
G2 X5.771 Y1.009 Z-0.500 I-0.375 J-0.021 K0.000 F600.000
G3 X5.306 Y0.451 Z-0.500 I0.433 J-0.834 K0.000 F600.000
G3 X5.234 Y-0.486 Z-0.500 I0.827 J-0.534 K0.000 F600.000
G3 X5.569 Y-0.730 Z-0.500 I1.732 J2.019 K0.000 F600.000
G3 X6.198 Y-1.468 Z-0.500 I2.197 J1.236 K0.000 F600.000
G3 X6.659 Y-1.570 Z-0.500 I0.332 J0.406 K0.000 F600.000
G2 X6.947 Y-1.857 Z-0.500 I-0.414 J-0.705 K0.000 F600.000
G3 X7.721 Y-2.108 Z-0.500 I0.623 J0.604 K0.000 F600.000
G2 X7.994 Y-2.450 Z-0.500 I-0.024 J-0.299 K0.000 F600.000
G3 X8.314 Y-3.326 Z-0.500 I1.667 J0.114 K0.000 F600.000
G1 X8.357 Y-3.376 Z-0.500 F600.000
G1 X8.357 Y-3.376 Z-0.500 F600.000
G3 X9.263 Y-3.095 Z-0.500 I-0.122 J1.991 K0.000 F600.000
G3 X9.966 Y-2.197 Z-0.500 I-0.766 J1.323 K0.000 F600.000
G2 X10.216 Y-1.902 Z-0.500 I0.278 J0.018 K0.000 F600.000
G3 X9.700 Y-1.634 Z-0.500 I-5.340 J-9.642 K0.000 F600.000
G2 X9.156 Y-1.746 Z-0.500 I-0.520 J1.142 K0.000 F600.000
G2 X8.608 Y-1.476 Z-0.500 I-0.042 J0.607 K0.000 F600.000
G2 X7.583 Y-1.780 Z-0.500 I-0.693 J0.457 K0.000 F600.000
G2 X7.533 Y-0.788 Z-0.500 I0.236 J0.509 K0.000 F600.000
G2 X8.000 Y-0.846 Z-0.500 I0.182 J-0.443 K0.000 F600.000
G3 X8.272 Y-0.677 Z-0.500 I0.003 J0.298 K0.000 F600.000
G2 X7.810 Y-0.097 Z-0.500 I0.094 J0.549 K0.000 F600.000
G3 X7.898 Y0.346 Z-0.500 I-0.756 J0.382 K0.000 F600.000
G2 X7.661 Y0.628 Z-0.500 I3.203 J2.926 K0.000 F600.000
G2 X7.772 Y0.999 Z-0.500 I0.572 J0.031 K0.000 F600.000
G3 X7.869 Y1.417 Z-0.500 I-4.579 J1.276 K0.000 F600.000
G3 X7.605 Y1.517 Z-0.500 I-0.156 J-0.013 K0.000 F600.000
G2 X7.153 Y1.598 Z-0.500 I-0.141 J0.518 K0.000 F600.000
G2 X6.633 Y1.902 Z-0.500 I0.018 J0.627 K0.000 F600.000
G2 X6.809 Y2.369 Z-0.500 I0.557 J0.057 K0.000 F600.000
G2 X7.670 Y2.917 Z-0.500 I0.884 J-0.439 K0.000 F600.000
G2 X7.949 Y2.703 Z-0.500 I-0.188 J-0.535 K0.000 F600.000
G2 X9.173 Y3.745 Z-0.500 I1.715 J-0.776 K0.000 F600.000
G2 X9.960 Y3.295 Z-0.500 I0.055 J-0.816 K0.000 F600.000
G2 X9.996 Y3.241 Z-0.500 I-0.414 J-0.318 K0.000 F600.000
G2 X10.230 Y3.589 Z-0.500 I0.803 J-0.289 K0.000 F600.000
G2 X10.933 Y3.685 Z-0.500 I0.506 J-1.074 K0.000 F600.000
G2 X11.827 Y3.235 Z-0.500 I0.052 J-1.009 K0.000 F600.000
G1 X11.851 Y3.168 Z-0.500 F600.000
G2 X12.886 Y3.239 Z-0.500 I0.592 J-1.057 K0.000 F600.000
G2 X13.950 Y2.444 Z-0.500 I-0.338 J-1.563 K0.000 F600.000
G2 X14.501 Y1.179 Z-0.500 I-0.277 J-0.873 K0.000 F600.000
G2 X14.307 Y0.822 Z-0.500 I-1.418 J0.539 K0.000 F600.000
G2 X14.346 Y-0.333 Z-0.500 I-0.059 J-0.580 K0.000 F600.000
G2 X14.066 Y-0.375 Z-0.500 I-0.240 J0.646 K0.000 F600.000
G2 X14.070 Y-0.792 Z-0.500 I-41.777 J-0.542 K0.000 F600.000
G2 X14.343 Y-0.586 Z-0.500 I0.424 J-0.277 K0.000 F600.000
G3 X14.966 Y0.194 Z-0.500 I-0.677 J1.179 K0.000 F600.000
G3 X14.744 Y0.714 Z-0.500 I-0.652 J0.030 K0.000 F600.000
G2 X14.564 Y1.071 Z-0.500 I0.242 J0.346 K0.000 F600.000
G3 X14.710 Y2.016 Z-0.500 I-1.951 J0.785 K0.000 F600.000
G3 X14.018 Y2.567 Z-0.500 I-1.124 J-0.703 K0.000 F600.000
G2 X13.640 Y3.144 Z-0.500 I7.685 J5.447 K0.000 F600.000
G3 X13.306 Y3.302 Z-0.500 I-0.367 J-0.347 K0.000 F600.000
G3 X11.866 Y3.469 Z-0.500 I-1.674 J-8.101 K0.000 F600.000
G2 X11.648 Y3.699 Z-0.500 I0.371 J0.571 K0.000 F600.000
G3 X10.278 Y3.935 Z-0.500 I-0.979 J-1.583 K0.000 F600.000
G2 X9.904 Y3.715 Z-0.500 I-2.763 J4.256 K0.000 F600.000
G2 X9.556 Y3.786 Z-0.500 I-0.018 J0.800 K0.000 F600.000
G3 X8.247 Y3.598 Z-0.500 I-0.519 J-1.040 K0.000 F600.000
G3 X8.055 Y3.347 Z-0.500 I0.245 J-0.386 K0.000 F600.000
G2 X7.819 Y3.217 Z-0.500 I-0.220 J0.119 K0.000 F600.000
G1 X7.503 Y3.238 Z-0.500 F600.000
G1 X7.503 Y3.238 Z-1.000 F600.000
G1 X7.819 Y3.217 Z-1.000 F600.000
G3 X8.055 Y3.347 Z-1.000 I0.016 J0.249 K0.000 F600.000
G2 X8.247 Y3.598 Z-1.000 I0.437 J-0.135 K0.000 F600.000
G2 X9.556 Y3.786 Z-1.000 I0.790 J-0.852 K0.000 F600.000
G3 X9.904 Y3.715 Z-1.000 I0.330 J0.729 K0.000 F600.000
G3 X10.278 Y3.935 Z-1.000 I-2.389 J4.476 K0.000 F600.000
G2 X11.648 Y3.699 Z-1.000 I0.391 J-1.819 K0.000 F600.000
G3 X11.866 Y3.469 Z-1.000 I0.589 J0.342 K0.000 F600.000
G2 X13.306 Y3.302 Z-1.000 I-0.234 J-8.269 K0.000 F600.000
G2 X13.640 Y3.144 Z-1.000 I-0.034 J-0.504 K0.000 F600.000
G3 X14.018 Y2.567 Z-1.000 I8.063 J4.869 K0.000 F600.000
G2 X14.710 Y2.016 Z-1.000 I-0.432 J-1.254 K0.000 F600.000
G2 X14.564 Y1.071 Z-1.000 I-2.097 J-0.160 K0.000 F600.000
G3 X14.744 Y0.714 Z-1.000 I0.423 J-0.011 K0.000 F600.000
G2 X14.966 Y0.194 Z-1.000 I-0.430 J-0.490 K0.000 F600.000
G2 X14.343 Y-0.586 Z-1.000 I-1.300 J0.400 K0.000 F600.000
G3 X14.070 Y-0.792 Z-1.000 I0.150 J-0.483 K0.000 F600.000
G3 X14.066 Y-0.375 Z-1.000 I-41.780 J-0.124 K0.000 F600.000
G3 X14.346 Y-0.333 Z-1.000 I0.039 J0.689 K0.000 F600.000
G3 X14.307 Y0.822 Z-1.000 I-0.097 J0.575 K0.000 F600.000
G3 X14.501 Y1.179 Z-1.000 I-1.225 J0.896 K0.000 F600.000
G3 X13.950 Y2.444 Z-1.000 I-0.827 J0.393 K0.000 F600.000
G3 X12.886 Y3.239 Z-1.000 I-1.402 J-0.768 K0.000 F600.000
G3 X11.851 Y3.168 Z-1.000 I-0.443 J-1.128 K0.000 F600.000
G1 X11.827 Y3.235 Z-1.000 F600.000
G3 X10.933 Y3.685 Z-1.000 I-0.842 J-0.560 K0.000 F600.000
G3 X10.230 Y3.589 Z-1.000 I-0.198 J-1.170 K0.000 F600.000
G3 X9.996 Y3.241 Z-1.000 I0.569 J-0.636 K0.000 F600.000
G3 X9.960 Y3.295 Z-1.000 I-0.450 J-0.265 K0.000 F600.000
G3 X9.173 Y3.745 Z-1.000 I-0.732 J-0.366 K0.000 F600.000
G3 X7.949 Y2.703 Z-1.000 I0.491 J-1.818 K0.000 F600.000
G3 X7.670 Y2.917 Z-1.000 I-0.467 J-0.322 K0.000 F600.000
G3 X6.809 Y2.369 Z-1.000 I0.024 J-0.987 K0.000 F600.000
G3 X6.633 Y1.902 Z-1.000 I0.381 J-0.410 K0.000 F600.000
G3 X7.153 Y1.598 Z-1.000 I0.537 J0.323 K0.000 F600.000
G3 X7.605 Y1.517 Z-1.000 I0.312 J0.437 K0.000 F600.000
G2 X7.869 Y1.417 Z-1.000 I0.108 J-0.114 K0.000 F600.000
G2 X7.772 Y0.999 Z-1.000 I-4.676 J0.857 K0.000 F600.000
G3 X7.661 Y0.628 Z-1.000 I0.461 J-0.340 K0.000 F600.000
G3 X7.898 Y0.346 Z-1.000 I3.440 J2.643 K0.000 F600.000
G2 X7.810 Y-0.097 Z-1.000 I-0.844 J-0.061 K0.000 F600.000
G3 X8.272 Y-0.677 Z-1.000 I0.557 J-0.030 K0.000 F600.000
G2 X8.000 Y-0.846 Z-1.000 I-0.269 J0.129 K0.000 F600.000
G3 X7.533 Y-0.788 Z-1.000 I-0.285 J-0.385 K0.000 F600.000
G3 X7.583 Y-1.780 Z-1.000 I0.286 J-0.483 K0.000 F600.000
G3 X8.608 Y-1.476 Z-1.000 I0.332 J0.761 K0.000 F600.000
G3 X9.156 Y-1.746 Z-1.000 I0.507 J0.336 K0.000 F600.000
G3 X9.700 Y-1.634 Z-1.000 I0.025 J1.254 K0.000 F600.000
G2 X10.216 Y-1.902 Z-1.000 I-4.825 J-9.910 K0.000 F600.000
G3 X9.966 Y-2.197 Z-1.000 I0.028 J-0.277 K0.000 F600.000
G2 X9.263 Y-3.095 Z-1.000 I-1.469 J0.425 K0.000 F600.000
G2 X8.357 Y-3.376 Z-1.000 I-1.027 J1.709 K0.000 F600.000
G1 X8.357 Y-3.376 Z-1.000 F600.000
G1 X8.314 Y-3.326 Z-1.000 F600.000
G2 X7.994 Y-2.450 Z-1.000 I1.346 J0.989 K0.000 F600.000
G3 X7.721 Y-2.108 Z-1.000 I-0.297 J0.044 K0.000 F600.000
G2 X6.947 Y-1.857 Z-1.000 I-0.151 J0.854 K0.000 F600.000
G3 X6.659 Y-1.570 Z-1.000 I-0.703 J-0.418 K0.000 F600.000
G2 X6.198 Y-1.468 Z-1.000 I-0.129 J0.509 K0.000 F600.000
G2 X5.569 Y-0.730 Z-1.000 I1.568 J1.974 K0.000 F600.000
G2 X5.234 Y-0.486 Z-1.000 I1.398 J2.264 K0.000 F600.000
G2 X5.306 Y0.451 Z-1.000 I0.898 J0.403 K0.000 F600.000
G2 X5.771 Y1.009 Z-1.000 I0.898 J-0.276 K0.000 F600.000
G3 X6.023 Y1.385 Z-1.000 I-0.123 J0.354 K0.000 F600.000
G2 X6.902 Y2.911 Z-1.000 I4.266 J-1.442 K0.000 F600.000
G2 X7.503 Y3.238 Z-1.000 I0.593 J-0.375 K0.000 F600.000
G1 X6.347 Y2.082 Z-1.000 F600.000
G2 X7.181 Y3.163 Z-1.000 I3.006 J-1.456 K0.000 F600.000
G2 X7.503 Y3.238 Z-1.000 I0.281 J-0.485 K0.000 F600.000
G1 X7.819 Y3.217 Z-1.000 F600.000
G3 X8.013 Y3.290 Z-1.000 I0.016 J0.249 K0.000 F600.000
G2 X8.865 Y3.892 Z-1.000 I1.010 J-0.525 K0.000 F600.000
G1 X7.812 Y2.840 Z-1.000 F600.000
G3 X7.560 Y2.923 Z-1.000 I-0.210 J-0.213 K0.000 F600.000
G3 X6.738 Y2.272 Z-1.000 I0.232 J-1.137 K0.000 F600.000
G3 X6.731 Y1.759 Z-1.000 I0.257 J-0.260 K0.000 F600.000
G1 X5.224 Y0.251 Z-1.000 F600.000
G3 X5.221 Y-0.459 Z-1.000 I0.826 J-0.358 K0.000 F600.000
G1 X6.045 Y0.366 Z-1.000 F600.000
G2 X6.697 Y1.018 Z-1.000 I0.547 J0.105 K0.000 F600.000
G1 X7.234 Y1.555 Z-1.000 F600.000
G3 X7.796 Y1.559 Z-1.000 I0.277 J0.598 K0.000 F600.000
G3 X7.848 Y1.462 Z-1.000 I1.116 J0.534 K0.000 F600.000
G1 X7.104 Y0.717 Z-1.000 F600.000
G0 Z5.000
G0 X6.824 Y-1.683 Z5.000
G0 X6.824 Y-1.683 Z3.000
G1 X6.824 Y-1.683 Z-0.500 F600.000
G1 X7.252 Y-1.256 Z-0.500 F600.000
G3 X7.496 Y-1.719 Z-0.500 I0.635 J0.039 K0.000 F600.000
G1 X7.187 Y-2.028 Z-0.500 F600.000
G3 X7.801 Y-2.121 Z-0.500 I0.495 J1.195 K0.000 F600.000
G1 X8.093 Y-1.829 Z-0.500 F600.000
G3 X8.608 Y-1.476 Z-0.500 I-0.192 J0.832 K0.000 F600.000
G3 X8.923 Y-1.706 Z-0.500 I0.491 J0.341 K0.000 F600.000
G1 X8.026 Y-2.603 Z-0.500 F600.000
G3 X8.188 Y-3.148 Z-0.500 I2.267 J0.375 K0.000 F600.000
G1 X9.704 Y-1.632 Z-0.500 F600.000
G2 X10.165 Y-1.879 Z-0.500 I-5.732 J-11.286 K0.000 F600.000
G1 X10.090 Y-1.954 Z-0.500 F600.000
G3 X10.037 Y-2.007 Z-0.500 I0.040 J-0.093 K0.000 F600.000
G1 X8.724 Y-3.319 Z-0.500 F600.000
G3 X9.417 Y-3.004 Z-0.500 I-1.246 J3.660 K0.000 F600.000
G3 X10.037 Y-2.007 Z-0.500 I-1.428 J1.579 K0.000 F600.000
G1 X10.090 Y-1.954 Z-0.500 F600.000
G2 X10.216 Y-1.902 Z-0.500 I0.120 J-0.113 K0.000 F600.000
G3 X10.090 Y-1.954 Z-0.500 I-0.053 J-0.050 K0.000 F600.000
G1 X10.090 Y-1.954 Z-1.000 F600.000
G2 X10.216 Y-1.902 Z-1.000 I0.120 J-0.113 K0.000 F600.000
G3 X10.090 Y-1.954 Z-1.000 I-0.053 J-0.050 K0.000 F600.000
G1 X10.037 Y-2.007 Z-1.000 F600.000
G2 X9.417 Y-3.004 Z-1.000 I-2.048 J0.581 K0.000 F600.000
G2 X8.724 Y-3.319 Z-1.000 I-1.939 J3.345 K0.000 F600.000
G1 X10.037 Y-2.007 Z-1.000 F600.000
G2 X10.090 Y-1.954 Z-1.000 I0.093 J-0.040 K0.000 F600.000
G1 X10.165 Y-1.879 Z-1.000 F600.000
G3 X9.704 Y-1.632 Z-1.000 I-6.193 J-11.040 K0.000 F600.000
G1 X8.188 Y-3.148 Z-1.000 F600.000
G2 X8.026 Y-2.603 Z-1.000 I2.106 J0.920 K0.000 F600.000
G1 X8.923 Y-1.706 Z-1.000 F600.000
G2 X8.608 Y-1.476 Z-1.000 I0.176 J0.571 K0.000 F600.000
G2 X8.093 Y-1.829 Z-1.000 I-0.707 J0.480 K0.000 F600.000
G1 X7.801 Y-2.121 Z-1.000 F600.000
G2 X7.187 Y-2.028 Z-1.000 I-0.119 J1.289 K0.000 F600.000
G1 X7.496 Y-1.719 Z-1.000 F600.000
G2 X7.252 Y-1.256 Z-1.000 I0.391 J0.502 K0.000 F600.000
G1 X6.824 Y-1.683 Z-1.000 F600.000
G0 Z5.000
G0 X10.706 Y-1.964 Z5.000
G0 X10.706 Y-1.964 Z3.000
G1 X10.706 Y-1.964 Z-0.500 F600.000
G3 X11.235 Y-1.665 Z-0.500 I-0.296 J1.142 K0.000 F600.000
G3 X11.938 Y-1.898 Z-0.500 I0.755 J1.104 K0.000 F600.000
G3 X13.004 Y-1.504 Z-0.500 I0.108 J1.348 K0.000 F600.000
G2 X13.496 Y-1.597 Z-0.500 I-0.788 J-5.533 K0.000 F600.000
G3 X14.062 Y-0.986 Z-0.500 I-0.077 J0.639 K0.000 F600.000
G2 X14.096 Y-1.279 Z-0.500 I-0.281 J-0.181 K0.000 F600.000
G2 X13.521 Y-1.655 Z-0.500 I-0.438 J0.043 K0.000 F600.000
G3 X13.053 Y-1.904 Z-0.500 I-0.188 J-0.211 K0.000 F600.000
G2 X13.076 Y-3.210 Z-0.500 I-3.013 J-0.706 K0.000 F600.000
G2 X12.818 Y-3.262 Z-0.500 I-0.181 J0.231 K0.000 F600.000
G2 X12.445 Y-3.230 Z-0.500 I-0.017 J1.990 K0.000 F600.000
G2 X11.565 Y-2.222 Z-0.500 I0.892 J1.666 K0.000 F600.000
G3 X11.288 Y-1.885 Z-0.500 I-0.405 J-0.051 K0.000 F600.000
G2 X10.706 Y-1.964 Z-0.500 I-0.586 J2.126 K0.000 F600.000
G1 X10.706 Y-1.964 Z-0.500 F600.000
G3 X10.810 Y-1.940 Z-0.500 I0.041 J0.060 K0.000 F600.000
G2 X10.706 Y-1.964 Z-0.500 I-0.167 J0.489 K0.000 F600.000
G1 X10.783 Y-1.967 Z-0.500 F600.000
G3 X11.235 Y-1.665 Z-0.500 I-0.748 J1.609 K0.000 F600.000
G3 X11.614 Y-1.844 Z-0.500 I0.866 J1.348 K0.000 F600.000
G1 X11.468 Y-1.990 Z-0.500 F600.000
G3 X11.683 Y-2.481 Z-0.500 I8.955 J3.638 K0.000 F600.000
G1 X12.263 Y-1.902 Z-0.500 F600.000
G3 X13.004 Y-1.504 Z-0.500 I-0.609 J2.025 K0.000 F600.000
G2 X13.313 Y-1.559 Z-0.500 I0.008 J-0.854 K0.000 F600.000
G1 X13.273 Y-1.599 Z-0.500 F600.000
G3 X13.055 Y-1.817 Z-0.500 I0.004 J-0.222 K0.000 F600.000
G1 X11.988 Y-2.884 Z-0.500 F600.000
G3 X12.375 Y-3.204 Z-0.500 I0.959 J0.765 K0.000 F600.000
G1 X13.132 Y-2.447 Z-0.500 F600.000
G2 X13.076 Y-3.210 Z-0.500 I-2.608 J-0.193 K0.000 F600.000
G1 X13.076 Y-3.210 Z-1.000 F600.000
G3 X13.132 Y-2.447 Z-1.000 I-2.553 J0.569 K0.000 F600.000
G1 X12.375 Y-3.204 Z-1.000 F600.000
G2 X11.988 Y-2.884 Z-1.000 I0.572 J1.085 K0.000 F600.000
G1 X13.055 Y-1.817 Z-1.000 F600.000
G2 X13.273 Y-1.599 Z-1.000 I0.222 J-0.004 K0.000 F600.000
G1 X13.313 Y-1.559 Z-1.000 F600.000
G3 X13.004 Y-1.504 Z-1.000 I-0.301 J-0.800 K0.000 F600.000
G2 X12.263 Y-1.902 Z-1.000 I-1.350 J1.628 K0.000 F600.000
G1 X11.683 Y-2.481 Z-1.000 F600.000
G2 X11.468 Y-1.990 Z-1.000 I8.740 J4.129 K0.000 F600.000
G1 X11.614 Y-1.844 Z-1.000 F600.000
G2 X11.235 Y-1.665 Z-1.000 I0.488 J1.527 K0.000 F600.000
G2 X10.783 Y-1.967 Z-1.000 I-1.200 J1.307 K0.000 F600.000
G1 X10.783 Y-1.967 Z-1.000 F600.000
G3 X10.810 Y-1.940 Z-1.000 I-0.036 J0.063 K0.000 F600.000
G2 X10.706 Y-1.964 Z-1.000 I-0.167 J0.489 K0.000 F600.000
G3 X10.783 Y-1.967 Z-1.000 I0.041 J0.060 K0.000 F600.000
G1 X10.783 Y-1.963 Z-1.000 F600.000
G2 X10.706 Y-1.964 Z-1.000 I-0.081 J2.204 K0.000 F600.000
G3 X11.235 Y-1.665 Z-1.000 I-0.296 J1.142 K0.000 F600.000
G3 X11.938 Y-1.898 Z-1.000 I0.755 J1.104 K0.000 F600.000
G3 X13.004 Y-1.504 Z-1.000 I0.108 J1.348 K0.000 F600.000
G2 X13.496 Y-1.597 Z-1.000 I-0.788 J-5.533 K0.000 F600.000
G3 X14.062 Y-0.986 Z-1.000 I-0.077 J0.639 K0.000 F600.000
G2 X14.096 Y-1.279 Z-1.000 I-0.281 J-0.181 K0.000 F600.000
G2 X13.521 Y-1.655 Z-1.000 I-0.438 J0.043 K0.000 F600.000
G3 X13.053 Y-1.904 Z-1.000 I-0.188 J-0.211 K0.000 F600.000
G2 X13.076 Y-3.210 Z-1.000 I-3.013 J-0.706 K0.000 F600.000
G2 X12.818 Y-3.262 Z-1.000 I-0.181 J0.231 K0.000 F600.000
G2 X12.445 Y-3.230 Z-1.000 I-0.017 J1.990 K0.000 F600.000
G2 X11.565 Y-2.222 Z-1.000 I0.892 J1.666 K0.000 F600.000
G3 X11.288 Y-1.885 Z-1.000 I-0.405 J-0.051 K0.000 F600.000
G2 X10.783 Y-1.963 Z-1.000 I-0.586 J2.126 K0.000 F600.000
G0 Z5.000
G0 X13.273 Y-1.599 Z5.000
G0 X13.273 Y-1.599 Z3.000
G1 X13.273 Y-1.599 Z-0.500 F600.000
G1 X13.376 Y-1.605 Z-0.500 F600.000
G3 X14.062 Y-0.986 Z-0.500 I0.255 J0.407 K0.000 F600.000
G2 X14.054 Y-1.039 Z-0.500 I-0.558 J0.066 K0.000 F600.000
G2 X13.403 Y-1.581 Z-0.500 I-0.588 J0.045 K0.000 F600.000
G3 X13.273 Y-1.599 Z-0.500 I-0.044 J-0.166 K0.000 F600.000
G1 X13.273 Y-1.599 Z-1.000 F600.000
G1 X13.376 Y-1.605 Z-1.000 F600.000
G3 X14.062 Y-0.986 Z-1.000 I0.255 J0.407 K0.000 F600.000
G2 X14.054 Y-1.039 Z-1.000 I-0.558 J0.066 K0.000 F600.000
G2 X13.403 Y-1.581 Z-1.000 I-0.588 J0.045 K0.000 F600.000
G3 X13.273 Y-1.599 Z-1.000 I-0.044 J-0.166 K0.000 F600.000
G0 Z5.000
G0 X14.906 Y0.035 Z5.000
G0 X14.906 Y0.035 Z3.000
G1 X14.906 Y0.035 Z-0.500 F600.000
G2 X14.219 Y-0.652 Z-0.500 I-1.430 J0.743 K0.000 F600.000
G1 X14.906 Y0.035 Z-0.500 F600.000
G3 X14.799 Y0.635 Z-0.500 I-0.433 J0.232 K0.000 F600.000
G1 X14.733 Y0.568 Z-0.500 F600.000
G3 X14.307 Y0.822 Z-0.500 I-0.471 J-0.306 K0.000 F600.000
G2 X14.577 Y1.120 Z-0.500 I0.809 J-0.462 K0.000 F600.000
G3 X14.720 Y1.970 Z-0.500 I-2.077 J0.787 K0.000 F600.000
G1 X14.571 Y1.821 Z-0.500 F600.000
G3 X14.290 Y2.246 Z-0.500 I-1.277 J-0.540 K0.000 F600.000
G1 X14.402 Y2.359 Z-0.500 F600.000
G2 X13.988 Y2.590 Z-0.500 I0.988 J2.248 K0.000 F600.000
G2 X13.959 Y2.623 Z-0.500 I0.092 J0.112 K0.000 F600.000
G1 X13.876 Y2.540 Z-0.500 F600.000
G3 X13.559 Y2.930 Z-0.500 I-1.631 J-0.997 K0.000 F600.000
G1 X13.699 Y3.070 Z-0.500 F600.000
G3 X13.240 Y3.318 Z-0.500 I-0.474 J-0.329 K0.000 F600.000
G1 X13.094 Y3.172 Z-0.500 F600.000
G3 X12.534 Y3.319 Z-0.500 I-1.130 J-3.158 K0.000 F600.000
G1 X12.645 Y3.430 Z-0.500 F600.000
G1 X12.532 Y3.320 Z-0.500 F600.000
G1 X12.534 Y3.319 Z-0.500 F600.000
G1 X12.645 Y3.430 Z-0.500 F600.000
G3 X11.957 Y3.449 Z-0.500 I-0.459 J-4.158 K0.000 F600.000
G1 X11.798 Y3.291 Z-0.500 F600.000
G3 X11.396 Y3.595 Z-0.500 I-0.620 J-0.400 K0.000 F600.000
G1 X11.563 Y3.763 Z-0.500 F600.000
G3 X11.034 Y3.941 Z-0.500 I-0.830 J-1.589 K0.000 F600.000
G1 X10.790 Y3.696 Z-0.500 F600.000
G3 X9.996 Y3.241 Z-0.500 I-0.145 J-0.668 K0.000 F600.000
G3 X9.832 Y3.446 Z-0.500 I-0.956 J-0.598 K0.000 F600.000
G1 X10.338 Y3.951 Z-0.500 F600.000
G3 X9.904 Y3.715 Z-0.500 I0.388 J-1.227 K0.000 F600.000
G2 X9.494 Y3.815 Z-0.500 I-0.000 J0.887 K0.000 F600.000
G1 X9.415 Y3.735 Z-0.500 F600.000
G3 X8.387 Y3.308 Z-0.500 I-0.081 J-1.255 K0.000 F600.000
G3 X7.949 Y2.703 Z-0.500 I1.536 J-1.574 K0.000 F600.000
G3 X7.812 Y2.840 Z-0.500 I-0.396 J-0.260 K0.000 F600.000
G1 X8.865 Y3.892 Z-0.500 F600.000
G1 X8.865 Y3.892 Z-1.000 F600.000
G1 X7.812 Y2.840 Z-1.000 F600.000
G2 X7.949 Y2.703 Z-1.000 I-0.259 J-0.397 K0.000 F600.000
G2 X8.387 Y3.308 Z-1.000 I1.975 J-0.969 K0.000 F600.000
G2 X9.415 Y3.735 Z-1.000 I0.947 J-0.827 K0.000 F600.000
G1 X9.494 Y3.815 Z-1.000 F600.000
G3 X9.904 Y3.715 Z-1.000 I0.409 J0.787 K0.000 F600.000
G2 X10.338 Y3.951 Z-1.000 I0.821 J-0.990 K0.000 F600.000
G1 X9.832 Y3.446 Z-1.000 F600.000
G2 X9.996 Y3.241 Z-1.000 I-0.792 J-0.802 K0.000 F600.000
G2 X10.790 Y3.696 Z-1.000 I0.649 J-0.213 K0.000 F600.000
G1 X11.034 Y3.941 Z-1.000 F600.000
G2 X11.563 Y3.763 Z-1.000 I-0.301 J-1.767 K0.000 F600.000
G1 X11.396 Y3.595 Z-1.000 F600.000
G2 X11.798 Y3.291 Z-1.000 I-0.217 J-0.705 K0.000 F600.000
G1 X11.957 Y3.449 Z-1.000 F600.000
G2 X12.645 Y3.430 Z-1.000 I0.229 J-4.177 K0.000 F600.000
G1 X12.534 Y3.319 Z-1.000 F600.000
G1 X12.532 Y3.320 Z-1.000 F600.000
G1 X12.645 Y3.430 Z-1.000 F600.000
G1 X12.534 Y3.319 Z-1.000 F600.000
G2 X13.094 Y3.172 Z-1.000 I-0.570 J-3.305 K0.000 F600.000
G1 X13.240 Y3.318 Z-1.000 F600.000
G2 X13.699 Y3.070 Z-1.000 I-0.015 J-0.577 K0.000 F600.000
G1 X13.559 Y2.930 Z-1.000 F600.000
G2 X13.876 Y2.540 Z-1.000 I-1.315 J-1.388 K0.000 F600.000
G1 X13.959 Y2.623 Z-1.000 F600.000
G3 X13.988 Y2.590 Z-1.000 I0.121 J0.079 K0.000 F600.000
G3 X14.402 Y2.359 Z-1.000 I1.401 J2.016 K0.000 F600.000
G1 X14.290 Y2.246 Z-1.000 F600.000
G2 X14.571 Y1.821 Z-1.000 I-0.995 J-0.965 K0.000 F600.000
G1 X14.720 Y1.970 Z-1.000 F600.000
G2 X14.577 Y1.120 Z-1.000 I-2.220 J-0.064 K0.000 F600.000
G3 X14.307 Y0.822 Z-1.000 I0.539 J-0.760 K0.000 F600.000
G2 X14.733 Y0.568 Z-1.000 I-0.046 J-0.560 K0.000 F600.000
G1 X14.799 Y0.635 Z-1.000 F600.000
G2 X14.906 Y0.035 Z-1.000 I-0.325 J-0.368 K0.000 F600.000
G1 X14.219 Y-0.652 Z-1.000 F600.000
G3 X14.906 Y0.035 Z-1.000 I-0.743 J1.430 K0.000 F600.000
G0 Z5.000
G0 Z5.000
(Finish operation: Pocket_Shape)
(Begin postamble)
M5
G17 G90
M2
