(Exported by FreeCAD)
(Post Processor: script_module)
(Output Time:2025-12-22 14:38:00.231436)
(Begin preamble)
G17 G90
G21
(Begin operation: Fixture)
(Path: Fixture)
G54
(Finish operation: Fixture)
(Begin operation: 3mm_Endmill001)
(Path: 3mm_Endmill001)
(3mm_Endmill001)
(Begin toolchange)
( M6 T2 )
M3 S10000
(Finish operation: 3mm_Endmill001)
(Begin operation: Profile)
(Path: Profile)
(Profile)
(Compensated Tool Path. Diameter: 3.0)
G0 Z5.000
G0 X0.000 Y0.000
G0 Y0.000
G0 Y0.000 Z3.000
G1 X0.000 Y0.000 Z-2.000 F480.000
G1 X-117.000 Y0.000 Z-2.000 F480.000
G2 X-118.500 Y1.500 Z-2.000 I0.000 J1.500 K0.000 F480.000
G1 X-118.500 Y36.000 Z-2.000 F480.000
G1 X-125.000 Y36.000 Z-2.000 F480.000
G2 X-126.500 Y37.500 Z-2.000 I0.000 J1.500 K0.000 F480.000
G1 X-126.500 Y73.500 Z-2.000 F480.000
G2 X-125.000 Y75.000 Z-2.000 I1.500 J-0.000 K0.000 F480.000
G1 X-118.500 Y75.000 Z-2.000 F480.000
G1 X-118.500 Y108.000 Z-2.000 F480.000
G1 X-125.000 Y108.000 Z-2.000 F480.000
G2 X-126.500 Y109.500 Z-2.000 I0.000 J1.500 K0.000 F480.000
G1 X-126.500 Y145.500 Z-2.000 F480.000
G2 X-125.000 Y147.000 Z-2.000 I1.500 J-0.000 K0.000 F480.000
G1 X-118.500 Y147.000 Z-2.000 F480.000
G1 X-118.500 Y181.500 Z-2.000 F480.000
G2 X-117.000 Y183.000 Z-2.000 I1.500 J-0.000 K0.000 F480.000
G1 X117.000 Y183.000 Z-2.000 F480.000
G2 X118.500 Y181.500 Z-2.000 I-0.000 J-1.500 K0.000 F480.000
G1 X118.500 Y147.000 Z-2.000 F480.000
G1 X125.000 Y147.000 Z-2.000 F480.000
G2 X126.500 Y145.500 Z-2.000 I-0.000 J-1.500 K0.000 F480.000
G1 X126.500 Y109.500 Z-2.000 F480.000
G2 X125.000 Y108.000 Z-2.000 I-1.500 J0.000 K0.000 F480.000
G1 X118.500 Y108.000 Z-2.000 F480.000
G1 X118.500 Y75.000 Z-2.000 F480.000
G1 X125.000 Y75.000 Z-2.000 F480.000
G2 X126.500 Y73.500 Z-2.000 I-0.000 J-1.500 K0.000 F480.000
G1 X126.500 Y37.500 Z-2.000 F480.000
G2 X125.000 Y36.000 Z-2.000 I-1.500 J0.000 K0.000 F480.000
G1 X118.500 Y36.000 Z-2.000 F480.000
G1 X118.500 Y1.500 Z-2.000 F480.000
G2 X117.000 Y0.000 Z-2.000 I-1.500 J0.000 K0.000 F480.000
G1 X0.000 Y0.000 Z-2.000 F480.000
G1 X0.000 Y0.000 Z-4.000 F480.000
G1 X-117.000 Y0.000 Z-4.000 F480.000
G2 X-118.500 Y1.500 Z-4.000 I0.000 J1.500 K0.000 F480.000
G1 X-118.500 Y36.000 Z-4.000 F480.000
G1 X-125.000 Y36.000 Z-4.000 F480.000
G2 X-126.500 Y37.500 Z-4.000 I0.000 J1.500 K0.000 F480.000
G1 X-126.500 Y73.500 Z-4.000 F480.000
G2 X-125.000 Y75.000 Z-4.000 I1.500 J-0.000 K0.000 F480.000
G1 X-118.500 Y75.000 Z-4.000 F480.000
G1 X-118.500 Y108.000 Z-4.000 F480.000
G1 X-125.000 Y108.000 Z-4.000 F480.000
G2 X-126.500 Y109.500 Z-4.000 I0.000 J1.500 K0.000 F480.000
G1 X-126.500 Y145.500 Z-4.000 F480.000
G2 X-125.000 Y147.000 Z-4.000 I1.500 J-0.000 K0.000 F480.000
G1 X-118.500 Y147.000 Z-4.000 F480.000
G1 X-118.500 Y181.500 Z-4.000 F480.000
G2 X-117.000 Y183.000 Z-4.000 I1.500 J-0.000 K0.000 F480.000
G1 X117.000 Y183.000 Z-4.000 F480.000
G2 X118.500 Y181.500 Z-4.000 I-0.000 J-1.500 K0.000 F480.000
G1 X118.500 Y147.000 Z-4.000 F480.000
G1 X125.000 Y147.000 Z-4.000 F480.000
G2 X126.500 Y145.500 Z-4.000 I-0.000 J-1.500 K0.000 F480.000
G1 X126.500 Y109.500 Z-4.000 F480.000
G2 X125.000 Y108.000 Z-4.000 I-1.500 J0.000 K0.000 F480.000
G1 X118.500 Y108.000 Z-4.000 F480.000
G1 X118.500 Y75.000 Z-4.000 F480.000
G1 X125.000 Y75.000 Z-4.000 F480.000
G2 X126.500 Y73.500 Z-4.000 I-0.000 J-1.500 K0.000 F480.000
G1 X126.500 Y37.500 Z-4.000 F480.000
G2 X125.000 Y36.000 Z-4.000 I-1.500 J0.000 K0.000 F480.000
G1 X118.500 Y36.000 Z-4.000 F480.000
G1 X118.500 Y1.500 Z-4.000 F480.000
G2 X117.000 Y0.000 Z-4.000 I-1.500 J0.000 K0.000 F480.000
G1 X0.000 Y0.000 Z-4.000 F480.000
G1 X0.000 Y0.000 Z-6.000 F480.000
G1 X-117.000 Y0.000 Z-6.000 F480.000
G2 X-118.500 Y1.500 Z-6.000 I0.000 J1.500 K0.000 F480.000
G1 X-118.500 Y36.000 Z-6.000 F480.000
G1 X-125.000 Y36.000 Z-6.000 F480.000
G2 X-126.500 Y37.500 Z-6.000 I0.000 J1.500 K0.000 F480.000
G1 X-126.500 Y73.500 Z-6.000 F480.000
G2 X-125.000 Y75.000 Z-6.000 I1.500 J-0.000 K0.000 F480.000
G1 X-118.500 Y75.000 Z-6.000 F480.000
G1 X-118.500 Y108.000 Z-6.000 F480.000
G1 X-125.000 Y108.000 Z-6.000 F480.000
G2 X-126.500 Y109.500 Z-6.000 I0.000 J1.500 K0.000 F480.000
G1 X-126.500 Y145.500 Z-6.000 F480.000
G2 X-125.000 Y147.000 Z-6.000 I1.500 J-0.000 K0.000 F480.000
G1 X-118.500 Y147.000 Z-6.000 F480.000
G1 X-118.500 Y181.500 Z-6.000 F480.000
G2 X-117.000 Y183.000 Z-6.000 I1.500 J-0.000 K0.000 F480.000
G1 X117.000 Y183.000 Z-6.000 F480.000
G2 X118.500 Y181.500 Z-6.000 I-0.000 J-1.500 K0.000 F480.000
G1 X118.500 Y147.000 Z-6.000 F480.000
G1 X125.000 Y147.000 Z-6.000 F480.000
G2 X126.500 Y145.500 Z-6.000 I-0.000 J-1.500 K0.000 F480.000
G1 X126.500 Y109.500 Z-6.000 F480.000
G2 X125.000 Y108.000 Z-6.000 I-1.500 J0.000 K0.000 F480.000
G1 X118.500 Y108.000 Z-6.000 F480.000
G1 X118.500 Y75.000 Z-6.000 F480.000
G1 X125.000 Y75.000 Z-6.000 F480.000
G2 X126.500 Y73.500 Z-6.000 I-0.000 J-1.500 K0.000 F480.000
G1 X126.500 Y37.500 Z-6.000 F480.000
G2 X125.000 Y36.000 Z-6.000 I-1.500 J0.000 K0.000 F480.000
G1 X118.500 Y36.000 Z-6.000 F480.000
G1 X118.500 Y1.500 Z-6.000 F480.000
G2 X117.000 Y0.000 Z-6.000 I-1.500 J0.000 K0.000 F480.000
G1 X0.000 Y0.000 Z-6.000 F480.000
G1 X0.000 Y0.000 Z-8.000 F480.000
G1 X-117.000 Y0.000 Z-8.000 F480.000
G2 X-118.500 Y1.500 Z-8.000 I0.000 J1.500 K0.000 F480.000
G1 X-118.500 Y36.000 Z-8.000 F480.000
G1 X-125.000 Y36.000 Z-8.000 F480.000
G2 X-126.500 Y37.500 Z-8.000 I0.000 J1.500 K0.000 F480.000
G1 X-126.500 Y73.500 Z-8.000 F480.000
G2 X-125.000 Y75.000 Z-8.000 I1.500 J-0.000 K0.000 F480.000
G1 X-118.500 Y75.000 Z-8.000 F480.000
G1 X-118.500 Y108.000 Z-8.000 F480.000
G1 X-125.000 Y108.000 Z-8.000 F480.000
G2 X-126.500 Y109.500 Z-8.000 I0.000 J1.500 K0.000 F480.000
G1 X-126.500 Y145.500 Z-8.000 F480.000
G2 X-125.000 Y147.000 Z-8.000 I1.500 J-0.000 K0.000 F480.000
G1 X-118.500 Y147.000 Z-8.000 F480.000
G1 X-118.500 Y181.500 Z-8.000 F480.000
G2 X-117.000 Y183.000 Z-8.000 I1.500 J-0.000 K0.000 F480.000
G1 X117.000 Y183.000 Z-8.000 F480.000
G2 X118.500 Y181.500 Z-8.000 I-0.000 J-1.500 K0.000 F480.000
G1 X118.500 Y147.000 Z-8.000 F480.000
G1 X125.000 Y147.000 Z-8.000 F480.000
G2 X126.500 Y145.500 Z-8.000 I-0.000 J-1.500 K0.000 F480.000
G1 X126.500 Y109.500 Z-8.000 F480.000
G2 X125.000 Y108.000 Z-8.000 I-1.500 J0.000 K0.000 F480.000
G1 X118.500 Y108.000 Z-8.000 F480.000
G1 X118.500 Y75.000 Z-8.000 F480.000
G1 X125.000 Y75.000 Z-8.000 F480.000
G2 X126.500 Y73.500 Z-8.000 I-0.000 J-1.500 K0.000 F480.000
G1 X126.500 Y37.500 Z-8.000 F480.000
G2 X125.000 Y36.000 Z-8.000 I-1.500 J0.000 K0.000 F480.000
G1 X118.500 Y36.000 Z-8.000 F480.000
G1 X118.500 Y1.500 Z-8.000 F480.000
G2 X117.000 Y0.000 Z-8.000 I-1.500 J0.000 K0.000 F480.000
G1 X0.000 Y0.000 Z-8.000 F480.000
G1 X0.000 Y0.000 Z-10.000 F480.000
G1 X-117.000 Y0.000 Z-10.000 F480.000
G2 X-118.500 Y1.500 Z-10.000 I0.000 J1.500 K0.000 F480.000
G1 X-118.500 Y36.000 Z-10.000 F480.000
G1 X-125.000 Y36.000 Z-10.000 F480.000
G2 X-126.500 Y37.500 Z-10.000 I0.000 J1.500 K0.000 F480.000
G1 X-126.500 Y73.500 Z-10.000 F480.000
G2 X-125.000 Y75.000 Z-10.000 I1.500 J-0.000 K0.000 F480.000
G1 X-118.500 Y75.000 Z-10.000 F480.000
G1 X-118.500 Y108.000 Z-10.000 F480.000
G1 X-125.000 Y108.000 Z-10.000 F480.000
G2 X-126.500 Y109.500 Z-10.000 I0.000 J1.500 K0.000 F480.000
G1 X-126.500 Y145.500 Z-10.000 F480.000
G2 X-125.000 Y147.000 Z-10.000 I1.500 J-0.000 K0.000 F480.000
G1 X-118.500 Y147.000 Z-10.000 F480.000
G1 X-118.500 Y181.500 Z-10.000 F480.000
G2 X-117.000 Y183.000 Z-10.000 I1.500 J-0.000 K0.000 F480.000
G1 X117.000 Y183.000 Z-10.000 F480.000
G2 X118.500 Y181.500 Z-10.000 I-0.000 J-1.500 K0.000 F480.000
G1 X118.500 Y147.000 Z-10.000 F480.000
G1 X125.000 Y147.000 Z-10.000 F480.000
G2 X126.500 Y145.500 Z-10.000 I-0.000 J-1.500 K0.000 F480.000
G1 X126.500 Y109.500 Z-10.000 F480.000
G2 X125.000 Y108.000 Z-10.000 I-1.500 J0.000 K0.000 F480.000
G1 X118.500 Y108.000 Z-10.000 F480.000
G1 X118.500 Y75.000 Z-10.000 F480.000
G1 X125.000 Y75.000 Z-10.000 F480.000
G2 X126.500 Y73.500 Z-10.000 I-0.000 J-1.500 K0.000 F480.000
G1 X126.500 Y37.500 Z-10.000 F480.000
G2 X125.000 Y36.000 Z-10.000 I-1.500 J0.000 K0.000 F480.000
G1 X118.500 Y36.000 Z-10.000 F480.000
G1 X118.500 Y1.500 Z-10.000 F480.000
G2 X117.000 Y0.000 Z-10.000 I-1.500 J0.000 K0.000 F480.000
G1 X0.000 Y0.000 Z-10.000 F480.000
G0 Z5.000
G0 Z5.000
(Finish operation: Profile)
(Begin postamble)
M5
G17 G90
M2
