(Exported by FreeCAD)
(Post Processor: script_module)
(Output Time:2026-01-14 17:17:12.130833)
(Begin preamble)
G17 G90
G21
(Begin operation: Fixture)
(Path: Fixture)
G54
(Finish operation: Fixture)
(Begin operation: 3mm_Endmill001)
(Path: 3mm_Endmill001)
(3mm_Endmill001)
(Begin toolchange)
( M6 T2 )
M3 S15000
(Finish operation: 3mm_Endmill001)
(Begin operation: Profile)
(Path: Profile)
(Profile)
(Compensated Tool Path. Diameter: 3.0)
G0 Z5.000
G0 X0.000 Y0.000
G0 X-0.000 Y9.170
G0 X-0.000 Y9.170 Z3.000
G1 X-0.000 Y9.170 Z-2.000 F360.000
G1 X-3.160 Y9.170 Z-2.000 F360.000
G1 X-0.000 Y13.233 Z-2.000 F360.000
G1 X3.160 Y9.170 Z-2.000 F360.000
G1 X-0.000 Y9.170 Z-2.000 F360.000
G1 X-0.000 Y9.170 Z-4.000 F360.000
G1 X-3.160 Y9.170 Z-4.000 F360.000
G1 X-0.000 Y13.233 Z-4.000 F360.000
G1 X3.160 Y9.170 Z-4.000 F360.000
G1 X-0.000 Y9.170 Z-4.000 F360.000
G1 X-0.000 Y9.170 Z-5.500 F360.000
G1 X-3.160 Y9.170 Z-5.500 F360.000
G1 X-0.000 Y13.233 Z-5.500 F360.000
G1 X3.160 Y9.170 Z-5.500 F360.000
G1 X-0.000 Y9.170 Z-5.500 F360.000
G0 Z5.000
G0 Z5.000
(Finish operation: Profile)
(Begin operation: Profile001)
(Path: Profile001)
(Profile001)
(Compensated Tool Path. Diameter: 3.0)
G0 Z5.000
G0 X0.000 Y0.000
G0 X-3.639 Y-0.000
G0 X-3.639 Y-0.000 Z3.000
G1 X-3.639 Y-0.000 Z-2.000 F360.000
G1 X-3.639 Y-2.870 Z-2.000 F360.000
G3 X-5.094 Y-2.093 Z-2.000 I-1058986.985 J-1981219.583 K0.000 F360.000
G1 X-6.483 Y-0.952 Z-2.000 F360.000
G1 X-7.589 Y0.396 Z-2.000 F360.000
G1 X-7.839 Y0.952 Z-2.000 F360.000
G1 X-7.839 Y0.952 Z-2.000 F360.000
G1 X-8.170 Y1.693 Z-2.000 F360.000
G1 X-8.170 Y1.693 Z-2.000 F360.000
G1 X-8.259 Y1.891 Z-2.000 F360.000
G1 X-3.639 Y1.891 Z-2.000 F360.000
G1 X-3.639 Y-0.000 Z-2.000 F360.000
G1 X-3.639 Y-0.000 Z-4.000 F360.000
G1 X-3.639 Y-2.870 Z-4.000 F360.000
G3 X-5.094 Y-2.093 Z-4.000 I-1058986.985 J-1981219.583 K0.000 F360.000
G1 X-6.483 Y-0.952 Z-4.000 F360.000
G1 X-7.589 Y0.396 Z-4.000 F360.000
G1 X-7.839 Y0.952 Z-4.000 F360.000
G1 X-7.839 Y0.952 Z-4.000 F360.000
G1 X-8.170 Y1.693 Z-4.000 F360.000
G1 X-8.170 Y1.693 Z-4.000 F360.000
G1 X-8.259 Y1.891 Z-4.000 F360.000
G1 X-3.639 Y1.891 Z-4.000 F360.000
G1 X-3.639 Y-0.000 Z-4.000 F360.000
G1 X-3.639 Y-0.000 Z-5.500 F360.000
G1 X-3.639 Y-2.870 Z-5.500 F360.000
G3 X-5.094 Y-2.093 Z-5.500 I-1058986.985 J-1981219.583 K0.000 F360.000
G1 X-6.483 Y-0.952 Z-5.500 F360.000
G1 X-7.589 Y0.396 Z-5.500 F360.000
G1 X-7.839 Y0.952 Z-5.500 F360.000
G1 X-7.839 Y0.952 Z-5.500 F360.000
G1 X-8.170 Y1.693 Z-5.500 F360.000
G1 X-8.170 Y1.693 Z-5.500 F360.000
G1 X-8.259 Y1.891 Z-5.500 F360.000
G1 X-3.639 Y1.891 Z-5.500 F360.000
G1 X-3.639 Y-0.000 Z-5.500 F360.000
G0 Z5.000
G0 Z5.000
(Finish operation: Profile001)
(Begin operation: Profile002)
(Path: Profile002)
(Profile002)
(Compensated Tool Path. Diameter: 3.0)
G0 Z5.000
G0 X0.000 Y0.000
G0 X3.639 Y0.000
G0 X3.639 Y0.000 Z3.000
G1 X3.639 Y0.000 Z-2.000 F360.000
G1 X3.639 Y1.891 Z-2.000 F360.000
G1 X8.259 Y1.891 Z-2.000 F360.000
G1 X7.589 Y0.396 Z-2.000 F360.000
G1 X6.483 Y-0.952 Z-2.000 F360.000
G1 X5.094 Y-2.093 Z-2.000 F360.000
G3 X3.639 Y-2.870 Z-2.000 I426885.290 J-798645.273 K0.000 F360.000
G1 X3.639 Y0.000 Z-2.000 F360.000
G1 X3.639 Y0.000 Z-4.000 F360.000
G1 X3.639 Y1.891 Z-4.000 F360.000
G1 X8.259 Y1.891 Z-4.000 F360.000
G1 X7.589 Y0.396 Z-4.000 F360.000
G1 X6.483 Y-0.952 Z-4.000 F360.000
G1 X5.094 Y-2.093 Z-4.000 F360.000
G3 X3.639 Y-2.870 Z-4.000 I426885.290 J-798645.273 K0.000 F360.000
G1 X3.639 Y0.000 Z-4.000 F360.000
G1 X3.639 Y0.000 Z-5.500 F360.000
G1 X3.639 Y1.891 Z-5.500 F360.000
G1 X8.259 Y1.891 Z-5.500 F360.000
G1 X7.589 Y0.396 Z-5.500 F360.000
G1 X6.483 Y-0.952 Z-5.500 F360.000
G1 X5.094 Y-2.093 Z-5.500 F360.000
G3 X3.639 Y-2.870 Z-5.500 I426885.290 J-798645.273 K0.000 F360.000
G1 X3.639 Y0.000 Z-5.500 F360.000
G0 Z5.000
G0 Z5.000
(Finish operation: Profile002)
(Begin operation: Profile003)
(Path: Profile003)
(Profile003)
(Compensated Tool Path. Diameter: 3.0)
G0 Z5.000
G0 X0.000 Y0.000
G0 X-4.843 Y-10.083
G0 X-4.843 Y-10.083 Z3.000
G1 X-4.843 Y-10.083 Z-2.000 F360.000
G1 X-18.135 Y-10.083 Z-2.000 F360.000
G1 X-13.401 Y-3.997 Z-2.000 F360.000
G1 X-11.748 Y-6.010 Z-2.000 F360.000
G3 X-9.027 Y-8.243 Z-2.000 I35.458 J40.431 K0.000 F360.000
G1 X-6.438 Y-9.627 Z-2.000 F360.000
G1 X-6.106 Y-9.756 Z-2.000 F360.000
G1 X-4.843 Y-10.083 Z-2.000 F360.000
G1 X-4.843 Y-10.083 Z-4.000 F360.000
G1 X-18.135 Y-10.083 Z-4.000 F360.000
G1 X-13.401 Y-3.997 Z-4.000 F360.000
G1 X-11.748 Y-6.010 Z-4.000 F360.000
G3 X-9.027 Y-8.243 Z-4.000 I35.458 J40.431 K0.000 F360.000
G1 X-6.438 Y-9.627 Z-4.000 F360.000
G1 X-6.106 Y-9.756 Z-4.000 F360.000
G1 X-4.843 Y-10.083 Z-4.000 F360.000
G1 X-4.843 Y-10.083 Z-5.500 F360.000
G1 X-18.135 Y-10.083 Z-5.500 F360.000
G1 X-13.401 Y-3.997 Z-5.500 F360.000
G1 X-11.748 Y-6.010 Z-5.500 F360.000
G3 X-9.027 Y-8.243 Z-5.500 I35.458 J40.431 K0.000 F360.000
G1 X-6.438 Y-9.627 Z-5.500 F360.000
G1 X-6.106 Y-9.756 Z-5.500 F360.000
G1 X-4.843 Y-10.083 Z-5.500 F360.000
G0 Z5.000
G0 Z5.000
(Finish operation: Profile003)
(Begin operation: Profile004)
(Path: Profile004)
(Profile004)
(Compensated Tool Path. Diameter: 3.0)
G0 Z5.000
G0 X0.000 Y0.000
G0 X4.843 Y-10.083
G0 X4.843 Y-10.083 Z3.000
G1 X4.843 Y-10.083 Z-2.000 F360.000
G1 X6.106 Y-9.756 Z-2.000 F360.000
G1 X6.438 Y-9.627 Z-2.000 F360.000
G1 X9.027 Y-8.243 Z-2.000 F360.000
G3 X9.839 Y-7.614 Z-2.000 I-2.787 J4.436 K0.000 F360.000
G1 X9.839 Y-7.614 Z-2.000 F360.000
G2 X11.540 Y-6.218 Z-2.000 I1922800.361 J-2342935.425 K0.000 F360.000
G3 X13.401 Y-3.997 Z-2.000 I-66.899 J57.915 K0.000 F360.000
G1 X18.135 Y-10.083 Z-2.000 F360.000
G1 X4.843 Y-10.083 Z-2.000 F360.000
G1 X4.843 Y-10.083 Z-4.000 F360.000
G1 X6.106 Y-9.756 Z-4.000 F360.000
G1 X6.438 Y-9.627 Z-4.000 F360.000
G1 X9.027 Y-8.243 Z-4.000 F360.000
G3 X9.839 Y-7.614 Z-4.000 I-2.787 J4.436 K0.000 F360.000
G1 X9.839 Y-7.614 Z-4.000 F360.000
G2 X11.540 Y-6.218 Z-4.000 I1922800.361 J-2342935.425 K0.000 F360.000
G3 X13.401 Y-3.997 Z-4.000 I-66.899 J57.915 K0.000 F360.000
G1 X18.135 Y-10.083 Z-4.000 F360.000
G1 X4.843 Y-10.083 Z-4.000 F360.000
G1 X4.843 Y-10.083 Z-5.500 F360.000
G1 X6.106 Y-9.756 Z-5.500 F360.000
G1 X6.438 Y-9.627 Z-5.500 F360.000
G1 X9.027 Y-8.243 Z-5.500 F360.000
G3 X9.839 Y-7.614 Z-5.500 I-2.787 J4.436 K0.000 F360.000
G1 X9.839 Y-7.614 Z-5.500 F360.000
G2 X11.540 Y-6.218 Z-5.500 I1922800.361 J-2342935.425 K0.000 F360.000
G3 X13.401 Y-3.997 Z-5.500 I-66.899 J57.915 K0.000 F360.000
G1 X18.135 Y-10.083 Z-5.500 F360.000
G1 X4.843 Y-10.083 Z-5.500 F360.000
G0 Z5.000
G0 Z5.000
(Finish operation: Profile004)
(Begin operation: Profile005)
(Path: Profile005)
(Profile005)
(Compensated Tool Path. Diameter: 3.0)
G0 Z5.000
G0 X0.000 Y0.000
G0 X12.158 Y9.456
G0 X12.158 Y9.456 Z3.000
G1 X12.158 Y9.456 Z-2.000 F360.000
G1 X12.381 Y9.170 Z-2.000 F360.000
G1 X25.671 Y9.170 Z-2.000 F360.000
G2 X27.171 Y7.670 Z-2.000 I0.000 J-1.500 K0.000 F360.000
G1 X27.171 Y3.391 Z-2.000 F360.000
G2 X25.671 Y1.891 Z-2.000 I-1.500 J0.000 K0.000 F360.000
G1 X18.042 Y1.891 Z-2.000 F360.000
G1 X31.134 Y-14.941 Z-2.000 F360.000
G2 X29.950 Y-17.362 Z-2.000 I-1.184 J-0.921 K0.000 F360.000
G1 X-29.950 Y-17.362 Z-2.000 F360.000
G2 X-31.134 Y-14.941 Z-2.000 I-0.000 J1.500 K0.000 F360.000
G1 X-18.042 Y1.891 Z-2.000 F360.000
G1 X-25.671 Y1.891 Z-2.000 F360.000
G2 X-27.171 Y3.391 Z-2.000 I-0.000 J1.500 K0.000 F360.000
G1 X-27.171 Y7.670 Z-2.000 F360.000
G2 X-25.671 Y9.170 Z-2.000 I1.500 J-0.000 K0.000 F360.000
G1 X-12.381 Y9.170 Z-2.000 F360.000
G1 X-3.639 Y20.409 Z-2.000 F360.000
G1 X-3.639 Y31.202 Z-2.000 F360.000
G2 X-2.139 Y32.702 Z-2.000 I1.500 J0.000 K0.000 F360.000
G1 X2.139 Y32.702 Z-2.000 F360.000
G2 X3.639 Y31.202 Z-2.000 I-0.000 J-1.500 K0.000 F360.000
G1 X3.639 Y20.409 Z-2.000 F360.000
G1 X12.158 Y9.456 Z-2.000 F360.000
G1 X12.158 Y9.456 Z-4.000 F360.000
G1 X12.381 Y9.170 Z-4.000 F360.000
G1 X25.671 Y9.170 Z-4.000 F360.000
G2 X27.171 Y7.670 Z-4.000 I0.000 J-1.500 K0.000 F360.000
G1 X27.171 Y3.391 Z-4.000 F360.000
G2 X25.671 Y1.891 Z-4.000 I-1.500 J0.000 K0.000 F360.000
G1 X18.042 Y1.891 Z-4.000 F360.000
G1 X31.134 Y-14.941 Z-4.000 F360.000
G2 X29.950 Y-17.362 Z-4.000 I-1.184 J-0.921 K0.000 F360.000
G1 X-29.950 Y-17.362 Z-4.000 F360.000
G2 X-31.134 Y-14.941 Z-4.000 I-0.000 J1.500 K0.000 F360.000
G1 X-18.042 Y1.891 Z-4.000 F360.000
G1 X-25.671 Y1.891 Z-4.000 F360.000
G2 X-27.171 Y3.391 Z-4.000 I-0.000 J1.500 K0.000 F360.000
G1 X-27.171 Y7.670 Z-4.000 F360.000
G2 X-25.671 Y9.170 Z-4.000 I1.500 J-0.000 K0.000 F360.000
G1 X-12.381 Y9.170 Z-4.000 F360.000
G1 X-3.639 Y20.409 Z-4.000 F360.000
G1 X-3.639 Y31.202 Z-4.000 F360.000
G2 X-2.139 Y32.702 Z-4.000 I1.500 J0.000 K0.000 F360.000
G1 X2.139 Y32.702 Z-4.000 F360.000
G2 X3.639 Y31.202 Z-4.000 I-0.000 J-1.500 K0.000 F360.000
G1 X3.639 Y20.409 Z-4.000 F360.000
G1 X12.158 Y9.456 Z-4.000 F360.000
G1 X12.158 Y9.456 Z-5.500 F360.000
G1 X12.381 Y9.170 Z-5.500 F360.000
G1 X25.671 Y9.170 Z-5.500 F360.000
G2 X27.171 Y7.670 Z-5.500 I0.000 J-1.500 K0.000 F360.000
G1 X27.171 Y3.391 Z-5.500 F360.000
G2 X25.671 Y1.891 Z-5.500 I-1.500 J0.000 K0.000 F360.000
G1 X18.042 Y1.891 Z-5.500 F360.000
G1 X31.134 Y-14.941 Z-5.500 F360.000
G2 X29.950 Y-17.362 Z-5.500 I-1.184 J-0.921 K0.000 F360.000
G1 X-29.950 Y-17.362 Z-5.500 F360.000
G2 X-31.134 Y-14.941 Z-5.500 I-0.000 J1.500 K0.000 F360.000
G1 X-18.042 Y1.891 Z-5.500 F360.000
G1 X-25.671 Y1.891 Z-5.500 F360.000
G2 X-27.171 Y3.391 Z-5.500 I-0.000 J1.500 K0.000 F360.000
G1 X-27.171 Y7.670 Z-5.500 F360.000
G2 X-25.671 Y9.170 Z-5.500 I1.500 J-0.000 K0.000 F360.000
G1 X-12.381 Y9.170 Z-5.500 F360.000
G1 X-3.639 Y20.409 Z-5.500 F360.000
G1 X-3.639 Y31.202 Z-5.500 F360.000
G2 X-2.139 Y32.702 Z-5.500 I1.500 J0.000 K0.000 F360.000
G1 X2.139 Y32.702 Z-5.500 F360.000
G2 X3.639 Y31.202 Z-5.500 I-0.000 J-1.500 K0.000 F360.000
G1 X3.639 Y20.409 Z-5.500 F360.000
G1 X12.158 Y9.456 Z-5.500 F360.000
G0 Z5.000
G0 Z5.000
(Finish operation: Profile005)
(Begin postamble)
M5
G17 G90
M2
