(Exported by FreeCAD)
(Post Processor: script_module)
(Output Time:2025-12-17 14:58:27.764212)
(Begin preamble)
G17 G90
G21
(Begin operation: Fixture)
(Path: Fixture)
G54
(Finish operation: Fixture)
(Begin operation: 3mm_Endmill003)
(Path: 3mm_Endmill003)
(3mm_Endmill003)
(Begin toolchange)
( M6 T2 )
M3 S10000
(Finish operation: 3mm_Endmill003)
(Begin operation: Profile)
(Path: Profile)
(Profile)
(Compensated Tool Path. Diameter: 3.0)
G0 Z8.000
G0 X98.500 Y3.500
G0 Z6.000
G1 X98.500 Y3.500 Z2.000 F300.000
G1 X98.500 Y-23.500 Z2.000 F300.000
G1 X-98.500 Y-23.500 Z2.000 F300.000
G1 X-98.500 Y3.500 Z2.000 F300.000
G1 X98.500 Y3.500 Z2.000 F300.000
G1 X98.500 Y3.500 Z1.000 F300.000
G1 X98.500 Y-23.500 Z1.000 F300.000
G1 X-98.500 Y-23.500 Z1.000 F300.000
G1 X-98.500 Y3.500 Z1.000 F300.000
G1 X98.500 Y3.500 Z1.000 F300.000
G1 X98.500 Y3.500 Z0.000 F300.000
G1 X98.500 Y-23.500 Z0.000 F300.000
G1 X-98.500 Y-23.500 Z0.000 F300.000
G1 X-98.500 Y3.500 Z0.000 F300.000
G1 X98.500 Y3.500 Z0.000 F300.000
G0 Z8.000
G0 Z8.000
(Finish operation: Profile)
(Begin operation: Profile010)
(Path: Profile010)
(Profile010)
(Compensated Tool Path. Diameter: 3.0)
G0 Z8.000
G0 X-99.474 Y-41.974
G0 Z6.000
G1 X-99.474 Y-41.974 Z1.500 F300.000
G2 X-99.797 Y-43.215 Z1.500 I-0.526 J-0.526 K0.000 F300.000
G1 X-99.935 Y-43.241 Z1.500 F300.000
G2 X-100.196 Y-41.782 Z1.500 I-0.065 J0.741 K0.000 F300.000
G2 X-99.474 Y-41.974 Z1.500 I0.196 J-0.718 K0.000 F300.000
G1 X-99.474 Y-41.974 Z0.000 F300.000
G2 X-99.797 Y-43.215 Z0.000 I-0.526 J-0.526 K0.000 F300.000
G1 X-99.935 Y-43.241 Z0.000 F300.000
G2 X-100.196 Y-41.782 Z0.000 I-0.065 J0.741 K0.000 F300.000
G2 X-99.474 Y-41.974 Z0.000 I0.196 J-0.718 K0.000 F300.000
G0 Z8.000
G0 Z8.000
(Finish operation: Profile010)
(Begin operation: Profile011)
(Path: Profile011)
(Profile011)
(Compensated Tool Path. Diameter: 3.0)
G0 Z8.000
G0 X-99.474 Y30.526
G0 Z6.000
G1 X-99.474 Y30.526 Z1.500 F300.000
G2 X-99.797 Y29.285 Z1.500 I-0.526 J-0.526 K0.000 F300.000
G1 X-99.935 Y29.259 Z1.500 F300.000
G2 X-100.196 Y30.718 Z1.500 I-0.065 J0.741 K0.000 F300.000
G2 X-99.474 Y30.526 Z1.500 I0.196 J-0.718 K0.000 F300.000
G1 X-99.474 Y30.526 Z0.000 F300.000
G2 X-99.797 Y29.285 Z0.000 I-0.526 J-0.526 K0.000 F300.000
G1 X-99.935 Y29.259 Z0.000 F300.000
G2 X-100.196 Y30.718 Z0.000 I-0.065 J0.741 K0.000 F300.000
G2 X-99.474 Y30.526 Z0.000 I0.196 J-0.718 K0.000 F300.000
G0 Z8.000
G0 Z8.000
(Finish operation: Profile011)
(Begin operation: Profile012)
(Path: Profile012)
(Profile012)
(Compensated Tool Path. Diameter: 3.0)
G0 Z8.000
G0 X100.527 Y30.526
G0 Z6.000
G1 X100.527 Y30.526 Z1.500 F300.000
G2 X100.318 Y29.327 Z1.500 I-0.526 J-0.526 K0.000 F300.000
G1 X100.196 Y29.282 Z1.500 F300.000
G2 X99.797 Y30.715 Z1.500 I-0.196 J0.718 K0.000 F300.000
G2 X100.527 Y30.526 Z1.500 I0.204 J-0.715 K0.000 F300.000
G1 X100.527 Y30.526 Z0.000 F300.000
G2 X100.318 Y29.327 Z0.000 I-0.526 J-0.526 K0.000 F300.000
G1 X100.196 Y29.282 Z0.000 F300.000
G2 X99.797 Y30.715 Z0.000 I-0.196 J0.718 K0.000 F300.000
G2 X100.527 Y30.526 Z0.000 I0.204 J-0.715 K0.000 F300.000
G0 Z8.000
G0 Z8.000
(Finish operation: Profile012)
(Begin operation: Profile013)
(Path: Profile013)
(Profile013)
(Compensated Tool Path. Diameter: 3.0)
G0 Z8.000
G0 X100.527 Y-41.974
G0 Z6.000
G1 X100.527 Y-41.974 Z1.500 F300.000
G2 X100.318 Y-43.173 Z1.500 I-0.526 J-0.526 K0.000 F300.000
G1 X100.196 Y-43.218 Z1.500 F300.000
G2 X99.797 Y-41.785 Z1.500 I-0.196 J0.718 K0.000 F300.000
G2 X100.527 Y-41.974 Z1.500 I0.204 J-0.715 K0.000 F300.000
G1 X100.527 Y-41.974 Z0.000 F300.000
G2 X100.318 Y-43.173 Z0.000 I-0.526 J-0.526 K0.000 F300.000
G1 X100.196 Y-43.218 Z0.000 F300.000
G2 X99.797 Y-41.785 Z0.000 I-0.196 J0.718 K0.000 F300.000
G2 X100.527 Y-41.974 Z0.000 I0.204 J-0.715 K0.000 F300.000
G0 Z8.000
G0 Z8.000
(Finish operation: Profile013)
(Begin operation: Profile014)
(Path: Profile014)
(Profile014)
(Compensated Tool Path. Diameter: 3.0)
G0 Z8.000
G0 X121.061 Y51.061
G0 Z6.000
G1 X121.061 Y51.061 Z2.000 F300.000
G2 X121.500 Y50.000 Z2.000 I-1.061 J-1.061 K0.000 F300.000
G1 X121.500 Y-50.000 Z2.000 F300.000
G2 X120.000 Y-51.500 Z2.000 I-1.500 J0.000 K0.000 F300.000
G1 X-120.000 Y-51.500 Z2.000 F300.000
G2 X-121.500 Y-50.000 Z2.000 I0.000 J1.500 K0.000 F300.000
G1 X-121.500 Y50.000 Z2.000 F300.000
G2 X-120.000 Y51.500 Z2.000 I1.500 J-0.000 K0.000 F300.000
G1 X120.000 Y51.500 Z2.000 F300.000
G2 X121.061 Y51.061 Z2.000 I-0.000 J-1.500 K0.000 F300.000
G1 X121.061 Y51.061 Z1.000 F300.000
G2 X121.500 Y50.000 Z1.000 I-1.061 J-1.061 K0.000 F300.000
G1 X121.500 Y-50.000 Z1.000 F300.000
G2 X120.000 Y-51.500 Z1.000 I-1.500 J0.000 K0.000 F300.000
G1 X-120.000 Y-51.500 Z1.000 F300.000
G2 X-121.500 Y-50.000 Z1.000 I0.000 J1.500 K0.000 F300.000
G1 X-121.500 Y50.000 Z1.000 F300.000
G2 X-120.000 Y51.500 Z1.000 I1.500 J-0.000 K0.000 F300.000
G1 X120.000 Y51.500 Z1.000 F300.000
G2 X121.061 Y51.061 Z1.000 I-0.000 J-1.500 K0.000 F300.000
G1 X121.061 Y51.061 Z0.000 F300.000
G2 X121.500 Y50.000 Z0.000 I-1.061 J-1.061 K0.000 F300.000
G1 X121.500 Y-50.000 Z0.000 F300.000
G2 X120.000 Y-51.500 Z0.000 I-1.500 J0.000 K0.000 F300.000
G1 X-120.000 Y-51.500 Z0.000 F300.000
G2 X-121.500 Y-50.000 Z0.000 I0.000 J1.500 K0.000 F300.000
G1 X-121.500 Y50.000 Z0.000 F300.000
G2 X-120.000 Y51.500 Z0.000 I1.500 J-0.000 K0.000 F300.000
G1 X120.000 Y51.500 Z0.000 F300.000
G2 X121.061 Y51.061 Z0.000 I-0.000 J-1.500 K0.000 F300.000
G0 Z8.000
G0 Z8.000
(Finish operation: Profile014)
(Begin postamble)
M5
G17 G90
M2
