(Exported by FreeCAD)
(Post Processor: script_module)
(Output Time:2026-01-15 15:20:32.263790)
(Begin preamble)
G17 G90
G21
(Begin operation: Fixture)
(Path: Fixture)
G54
(Finish operation: Fixture)
(Begin operation: 3mm_Endmill003)
(Path: 3mm_Endmill003)
(3mm_Endmill003)
(Begin toolchange)
( M6 T2 )
M3 S15000
(Finish operation: 3mm_Endmill003)
(Begin operation: Profile004)
(Path: Profile004)
(Profile004)
(Compensated Tool Path. Diameter: 3.0)
G0 Z5.000
G0 X0.000 Y0.000
G0 X-13.500
G0 X-13.500 Z3.000
G1 X-13.500 Y0.000 Z-2.000 F300.000
G1 X-13.500 Y34.955 Z-2.000 F300.000
G2 X-9.955 Y38.500 Z-2.000 I3.507 J0.038 K0.000 F300.000
G1 X20.955 Y38.500 Z-2.000 F300.000
G2 X24.500 Y34.955 Z-2.000 I0.038 J-3.507 K0.000 F300.000
G1 X24.500 Y-34.955 Z-2.000 F300.000
G2 X20.955 Y-38.500 Z-2.000 I-3.507 J-0.038 K0.000 F300.000
G1 X-9.955 Y-38.500 Z-2.000 F300.000
G2 X-13.500 Y-34.955 Z-2.000 I-0.038 J3.507 K0.000 F300.000
G1 X-13.500 Y0.000 Z-2.000 F300.000
G1 X-13.500 Y0.000 Z-4.000 F300.000
G1 X-13.500 Y34.955 Z-4.000 F300.000
G2 X-9.955 Y38.500 Z-4.000 I3.507 J0.038 K0.000 F300.000
G1 X20.955 Y38.500 Z-4.000 F300.000
G2 X24.500 Y34.955 Z-4.000 I0.038 J-3.507 K0.000 F300.000
G1 X24.500 Y-34.955 Z-4.000 F300.000
G2 X20.955 Y-38.500 Z-4.000 I-3.507 J-0.038 K0.000 F300.000
G1 X-9.955 Y-38.500 Z-4.000 F300.000
G2 X-13.500 Y-34.955 Z-4.000 I-0.038 J3.507 K0.000 F300.000
G1 X-13.500 Y0.000 Z-4.000 F300.000
G1 X-13.500 Y0.000 Z-6.000 F300.000
G1 X-13.500 Y34.955 Z-6.000 F300.000
G2 X-9.955 Y38.500 Z-6.000 I3.507 J0.038 K0.000 F300.000
G1 X20.955 Y38.500 Z-6.000 F300.000
G2 X24.500 Y34.955 Z-6.000 I0.038 J-3.507 K0.000 F300.000
G1 X24.500 Y-34.955 Z-6.000 F300.000
G2 X20.955 Y-38.500 Z-6.000 I-3.507 J-0.038 K0.000 F300.000
G1 X-9.955 Y-38.500 Z-6.000 F300.000
G2 X-13.500 Y-34.955 Z-6.000 I-0.038 J3.507 K0.000 F300.000
G1 X-13.500 Y0.000 Z-6.000 F300.000
G1 X-13.500 Y0.000 Z-8.000 F300.000
G1 X-13.500 Y34.955 Z-8.000 F300.000
G2 X-9.955 Y38.500 Z-8.000 I3.507 J0.038 K0.000 F300.000
G1 X20.955 Y38.500 Z-8.000 F300.000
G2 X24.500 Y34.955 Z-8.000 I0.038 J-3.507 K0.000 F300.000
G1 X24.500 Y-34.955 Z-8.000 F300.000
G2 X20.955 Y-38.500 Z-8.000 I-3.507 J-0.038 K0.000 F300.000
G1 X-9.955 Y-38.500 Z-8.000 F300.000
G2 X-13.500 Y-34.955 Z-8.000 I-0.038 J3.507 K0.000 F300.000
G1 X-13.500 Y0.000 Z-8.000 F300.000
G1 X-13.500 Y0.000 Z-10.000 F300.000
G1 X-13.500 Y34.955 Z-10.000 F300.000
G2 X-9.955 Y38.500 Z-10.000 I3.507 J0.038 K0.000 F300.000
G1 X20.955 Y38.500 Z-10.000 F300.000
G2 X24.500 Y34.955 Z-10.000 I0.038 J-3.507 K0.000 F300.000
G1 X24.500 Y-34.955 Z-10.000 F300.000
G2 X20.955 Y-38.500 Z-10.000 I-3.507 J-0.038 K0.000 F300.000
G1 X-9.955 Y-38.500 Z-10.000 F300.000
G2 X-13.500 Y-34.955 Z-10.000 I-0.038 J3.507 K0.000 F300.000
G1 X-13.500 Y0.000 Z-10.000 F300.000
G1 X-13.500 Y0.000 Z-12.000 F300.000
G1 X-13.500 Y34.955 Z-12.000 F300.000
G2 X-9.955 Y38.500 Z-12.000 I3.507 J0.038 K0.000 F300.000
G1 X20.955 Y38.500 Z-12.000 F300.000
G2 X24.500 Y34.955 Z-12.000 I0.038 J-3.507 K0.000 F300.000
G1 X24.500 Y-34.955 Z-12.000 F300.000
G2 X20.955 Y-38.500 Z-12.000 I-3.507 J-0.038 K0.000 F300.000
G1 X-9.955 Y-38.500 Z-12.000 F300.000
G2 X-13.500 Y-34.955 Z-12.000 I-0.038 J3.507 K0.000 F300.000
G1 X-13.500 Y0.000 Z-12.000 F300.000
G0 Z5.000
G0 Z5.000
(Finish operation: Profile004)
(Begin operation: Pocket_Shape002)
(Path: Pocket_Shape002)
(Pocket_Shape002)
G0 Z5.000
G0 X0.000 Y0.000
G0 X-16.500
G0 X-16.500 Z3.000
G1 X-16.500 Y0.000 Z-2.000 F300.000
G1 X-16.500 Y38.939 Z-2.000 F300.000
G2 X-12.939 Y42.500 Z-2.000 I3.516 J0.046 K0.000 F300.000
G1 X23.939 Y42.500 Z-2.000 F300.000
G2 X27.500 Y38.939 Z-2.000 I0.046 J-3.515 K0.000 F300.000
G1 X27.500 Y-38.939 Z-2.000 F300.000
G2 X23.939 Y-42.500 Z-2.000 I-3.515 J-0.046 K0.000 F300.000
G1 X-12.939 Y-42.500 Z-2.000 F300.000
G2 X-16.500 Y-38.939 Z-2.000 I-0.046 J3.515 K0.000 F300.000
G1 X-16.500 Y0.000 Z-2.000 F300.000
G1 X-16.500 Y0.000 Z-4.000 F300.000
G1 X-16.500 Y38.939 Z-4.000 F300.000
G2 X-12.939 Y42.500 Z-4.000 I3.516 J0.046 K0.000 F300.000
G1 X23.939 Y42.500 Z-4.000 F300.000
G2 X27.500 Y38.939 Z-4.000 I0.046 J-3.515 K0.000 F300.000
G1 X27.500 Y-38.939 Z-4.000 F300.000
G2 X23.939 Y-42.500 Z-4.000 I-3.515 J-0.046 K0.000 F300.000
G1 X-12.939 Y-42.500 Z-4.000 F300.000
G2 X-16.500 Y-38.939 Z-4.000 I-0.046 J3.515 K0.000 F300.000
G1 X-16.500 Y0.000 Z-4.000 F300.000
G1 X-16.500 Y0.000 Z-6.000 F300.000
G1 X-16.500 Y38.939 Z-6.000 F300.000
G2 X-12.939 Y42.500 Z-6.000 I3.516 J0.046 K0.000 F300.000
G1 X23.939 Y42.500 Z-6.000 F300.000
G2 X27.500 Y38.939 Z-6.000 I0.046 J-3.515 K0.000 F300.000
G1 X27.500 Y-38.939 Z-6.000 F300.000
G2 X23.939 Y-42.500 Z-6.000 I-3.515 J-0.046 K0.000 F300.000
G1 X-12.939 Y-42.500 Z-6.000 F300.000
G2 X-16.500 Y-38.939 Z-6.000 I-0.046 J3.515 K0.000 F300.000
G1 X-16.500 Y0.000 Z-6.000 F300.000
G0 Z5.000
G0 X-15.470 Y41.470 Z5.000
G0 X-15.470 Y41.470 Z3.000
G1 X-15.470 Y41.470 Z-2.000 F300.000
G3 X-16.500 Y38.939 Z-2.000 I2.489 J-2.487 K0.000 F300.000
G1 X-16.500 Y36.198 Z-2.000 F300.000
G1 X-10.198 Y42.500 Z-2.000 F300.000
G1 X-5.956 Y42.500 Z-2.000 F300.000
G1 X-16.500 Y31.956 Z-2.000 F300.000
G1 X-16.500 Y27.713 Z-2.000 F300.000
G1 X-1.713 Y42.500 Z-2.000 F300.000
G1 X2.530 Y42.500 Z-2.000 F300.000
G1 X-16.500 Y23.470 Z-2.000 F300.000
G1 X-16.500 Y19.228 Z-2.000 F300.000
G1 X6.772 Y42.500 Z-2.000 F300.000
G1 X11.015 Y42.500 Z-2.000 F300.000
G1 X-16.500 Y14.985 Z-2.000 F300.000
G1 X-16.500 Y10.743 Z-2.000 F300.000
G1 X15.257 Y42.500 Z-2.000 F300.000
G1 X19.500 Y42.500 Z-2.000 F300.000
G1 X-16.500 Y6.500 Z-2.000 F300.000
G1 X-16.500 Y2.257 Z-2.000 F300.000
G1 X23.743 Y42.500 Z-2.000 F300.000
G2 X24.518 Y42.459 Z-2.000 I0.158 J-4.373 K0.000 F300.000
G2 X26.701 Y41.216 Z-2.000 I-0.530 J-3.468 K0.000 F300.000
G1 X-16.500 Y-1.985 Z-2.000 F300.000
G1 X-16.500 Y-6.228 Z-2.000 F300.000
G1 X27.500 Y37.772 Z-2.000 F300.000
G1 X27.500 Y33.529 Z-2.000 F300.000
G1 X-16.500 Y-10.471 Z-2.000 F300.000
G1 X-16.500 Y-14.713 Z-2.000 F300.000
G1 X27.500 Y29.287 Z-2.000 F300.000
G1 X27.500 Y25.044 Z-2.000 F300.000
G1 X-16.500 Y-18.956 Z-2.000 F300.000
G1 X-16.500 Y-23.199 Z-2.000 F300.000
G1 X27.500 Y20.801 Z-2.000 F300.000
G1 X27.500 Y16.559 Z-2.000 F300.000
G1 X-16.500 Y-27.441 Z-2.000 F300.000
G1 X-16.500 Y-31.684 Z-2.000 F300.000
G1 X27.500 Y12.316 Z-2.000 F300.000
G1 X27.500 Y8.073 Z-2.000 F300.000
G1 X-16.500 Y-35.927 Z-2.000 F300.000
G1 X-16.500 Y-38.939 Z-2.000 F300.000
G3 X-16.345 Y-40.014 Z-2.000 I3.501 J-0.044 K0.000 F300.000
G1 X27.500 Y3.831 Z-2.000 F300.000
G1 X27.500 Y-0.412 Z-2.000 F300.000
G1 X-14.322 Y-42.234 Z-2.000 F300.000
G3 X-12.939 Y-42.500 Z-2.000 I1.338 J3.231 K0.000 F300.000
G1 X-10.346 Y-42.500 Z-2.000 F300.000
G1 X27.500 Y-4.654 Z-2.000 F300.000
G1 X27.500 Y-8.897 Z-2.000 F300.000
G1 X-6.103 Y-42.500 Z-2.000 F300.000
G1 X-1.860 Y-42.500 Z-2.000 F300.000
G1 X27.500 Y-13.140 Z-2.000 F300.000
G1 X27.500 Y-17.382 Z-2.000 F300.000
G1 X2.382 Y-42.500 Z-2.000 F300.000
G1 X6.625 Y-42.500 Z-2.000 F300.000
G1 X27.500 Y-21.625 Z-2.000 F300.000
G1 X27.500 Y-25.868 Z-2.000 F300.000
G1 X10.868 Y-42.500 Z-2.000 F300.000
G1 X15.110 Y-42.500 Z-2.000 F300.000
G1 X27.500 Y-30.110 Z-2.000 F300.000
G1 X27.500 Y-34.353 Z-2.000 F300.000
G1 X19.353 Y-42.500 Z-2.000 F300.000
G1 X23.596 Y-42.500 Z-2.000 F300.000
G1 X27.500 Y-38.596 Z-2.000 F300.000
G2 X27.496 Y-39.149 Z-2.000 I-13.872 J-0.172 K0.000 F300.000
G2 X23.939 Y-42.500 Z-2.000 I-3.511 J0.163 K0.000 F300.000
G1 X23.596 Y-42.500 Z-2.000 F300.000
G1 X23.596 Y-42.500 Z-4.000 F300.000
G1 X23.939 Y-42.500 Z-4.000 F300.000
G3 X27.496 Y-39.149 Z-4.000 I0.046 J3.514 K0.000 F300.000
G3 X27.500 Y-38.596 Z-4.000 I-13.867 J0.382 K0.000 F300.000
G1 X23.596 Y-42.500 Z-4.000 F300.000
G1 X19.353 Y-42.500 Z-4.000 F300.000
G1 X27.500 Y-34.353 Z-4.000 F300.000
G1 X27.500 Y-30.110 Z-4.000 F300.000
G1 X15.110 Y-42.500 Z-4.000 F300.000
G1 X10.868 Y-42.500 Z-4.000 F300.000
G1 X27.500 Y-25.868 Z-4.000 F300.000
G1 X27.500 Y-21.625 Z-4.000 F300.000
G1 X6.625 Y-42.500 Z-4.000 F300.000
G1 X2.382 Y-42.500 Z-4.000 F300.000
G1 X27.500 Y-17.382 Z-4.000 F300.000
G1 X27.500 Y-13.140 Z-4.000 F300.000
G1 X-1.860 Y-42.500 Z-4.000 F300.000
G1 X-6.103 Y-42.500 Z-4.000 F300.000
G1 X27.500 Y-8.897 Z-4.000 F300.000
G1 X27.500 Y-4.654 Z-4.000 F300.000
G1 X-10.346 Y-42.500 Z-4.000 F300.000
G1 X-12.939 Y-42.500 Z-4.000 F300.000
G2 X-14.322 Y-42.234 Z-4.000 I-0.046 J3.497 K0.000 F300.000
G1 X27.500 Y-0.412 Z-4.000 F300.000
G1 X27.500 Y3.831 Z-4.000 F300.000
G1 X-16.345 Y-40.014 Z-4.000 F300.000
G2 X-16.500 Y-38.939 Z-4.000 I3.346 J1.031 K0.000 F300.000
G1 X-16.500 Y-35.927 Z-4.000 F300.000
G1 X27.500 Y8.073 Z-4.000 F300.000
G1 X27.500 Y12.316 Z-4.000 F300.000
G1 X-16.500 Y-31.684 Z-4.000 F300.000
G1 X-16.500 Y-27.441 Z-4.000 F300.000
G1 X27.500 Y16.559 Z-4.000 F300.000
G1 X27.500 Y20.801 Z-4.000 F300.000
G1 X-16.500 Y-23.199 Z-4.000 F300.000
G1 X-16.500 Y-18.956 Z-4.000 F300.000
G1 X27.500 Y25.044 Z-4.000 F300.000
G1 X27.500 Y29.287 Z-4.000 F300.000
G1 X-16.500 Y-14.713 Z-4.000 F300.000
G1 X-16.500 Y-10.471 Z-4.000 F300.000
G1 X27.500 Y33.529 Z-4.000 F300.000
G1 X27.500 Y37.772 Z-4.000 F300.000
G1 X-16.500 Y-6.228 Z-4.000 F300.000
G1 X-16.500 Y-1.985 Z-4.000 F300.000
G1 X26.701 Y41.216 Z-4.000 F300.000
G3 X24.518 Y42.459 Z-4.000 I-2.713 J-2.225 K0.000 F300.000
G3 X23.743 Y42.500 Z-4.000 I-0.617 J-4.332 K0.000 F300.000
G1 X-16.500 Y2.257 Z-4.000 F300.000
G1 X-16.500 Y6.500 Z-4.000 F300.000
G1 X19.500 Y42.500 Z-4.000 F300.000
G1 X15.257 Y42.500 Z-4.000 F300.000
G1 X-16.500 Y10.743 Z-4.000 F300.000
G1 X-16.500 Y14.985 Z-4.000 F300.000
G1 X11.015 Y42.500 Z-4.000 F300.000
G1 X6.772 Y42.500 Z-4.000 F300.000
G1 X-16.500 Y19.228 Z-4.000 F300.000
G1 X-16.500 Y23.470 Z-4.000 F300.000
G1 X2.530 Y42.500 Z-4.000 F300.000
G1 X-1.713 Y42.500 Z-4.000 F300.000
G1 X-16.500 Y27.713 Z-4.000 F300.000
G1 X-16.500 Y31.956 Z-4.000 F300.000
G1 X-5.956 Y42.500 Z-4.000 F300.000
G1 X-10.198 Y42.500 Z-4.000 F300.000
G1 X-16.500 Y36.198 Z-4.000 F300.000
G1 X-16.500 Y38.939 Z-4.000 F300.000
G2 X-15.470 Y41.470 Z-4.000 I3.518 J0.044 K0.000 F300.000
G1 X-15.470 Y41.470 Z-6.000 F300.000
G3 X-16.500 Y38.939 Z-6.000 I2.489 J-2.487 K0.000 F300.000
G1 X-16.500 Y36.198 Z-6.000 F300.000
G1 X-10.198 Y42.500 Z-6.000 F300.000
G1 X-5.956 Y42.500 Z-6.000 F300.000
G1 X-16.500 Y31.956 Z-6.000 F300.000
G1 X-16.500 Y27.713 Z-6.000 F300.000
G1 X-1.713 Y42.500 Z-6.000 F300.000
G1 X2.530 Y42.500 Z-6.000 F300.000
G1 X-16.500 Y23.470 Z-6.000 F300.000
G1 X-16.500 Y19.228 Z-6.000 F300.000
G1 X6.772 Y42.500 Z-6.000 F300.000
G1 X11.015 Y42.500 Z-6.000 F300.000
G1 X-16.500 Y14.985 Z-6.000 F300.000
G1 X-16.500 Y10.743 Z-6.000 F300.000
G1 X15.257 Y42.500 Z-6.000 F300.000
G1 X19.500 Y42.500 Z-6.000 F300.000
G1 X-16.500 Y6.500 Z-6.000 F300.000
G1 X-16.500 Y2.257 Z-6.000 F300.000
G1 X23.743 Y42.500 Z-6.000 F300.000
G2 X24.518 Y42.459 Z-6.000 I0.158 J-4.373 K0.000 F300.000
G2 X26.701 Y41.216 Z-6.000 I-0.530 J-3.468 K0.000 F300.000
G1 X-16.500 Y-1.985 Z-6.000 F300.000
G1 X-16.500 Y-6.228 Z-6.000 F300.000
G1 X27.500 Y37.772 Z-6.000 F300.000
G1 X27.500 Y33.529 Z-6.000 F300.000
G1 X-16.500 Y-10.471 Z-6.000 F300.000
G1 X-16.500 Y-14.713 Z-6.000 F300.000
G1 X27.500 Y29.287 Z-6.000 F300.000
G1 X27.500 Y25.044 Z-6.000 F300.000
G1 X-16.500 Y-18.956 Z-6.000 F300.000
G1 X-16.500 Y-23.199 Z-6.000 F300.000
G1 X27.500 Y20.801 Z-6.000 F300.000
G1 X27.500 Y16.559 Z-6.000 F300.000
G1 X-16.500 Y-27.441 Z-6.000 F300.000
G1 X-16.500 Y-31.684 Z-6.000 F300.000
G1 X27.500 Y12.316 Z-6.000 F300.000
G1 X27.500 Y8.073 Z-6.000 F300.000
G1 X-16.500 Y-35.927 Z-6.000 F300.000
G1 X-16.500 Y-38.939 Z-6.000 F300.000
G3 X-16.345 Y-40.014 Z-6.000 I3.501 J-0.044 K0.000 F300.000
G1 X27.500 Y3.831 Z-6.000 F300.000
G1 X27.500 Y-0.412 Z-6.000 F300.000
G1 X-14.322 Y-42.234 Z-6.000 F300.000
G3 X-12.939 Y-42.500 Z-6.000 I1.338 J3.231 K0.000 F300.000
G1 X-10.346 Y-42.500 Z-6.000 F300.000
G1 X27.500 Y-4.654 Z-6.000 F300.000
G1 X27.500 Y-8.897 Z-6.000 F300.000
G1 X-6.103 Y-42.500 Z-6.000 F300.000
G1 X-1.860 Y-42.500 Z-6.000 F300.000
G1 X27.500 Y-13.140 Z-6.000 F300.000
G1 X27.500 Y-17.382 Z-6.000 F300.000
G1 X2.382 Y-42.500 Z-6.000 F300.000
G1 X6.625 Y-42.500 Z-6.000 F300.000
G1 X27.500 Y-21.625 Z-6.000 F300.000
G1 X27.500 Y-25.868 Z-6.000 F300.000
G1 X10.868 Y-42.500 Z-6.000 F300.000
G1 X15.110 Y-42.500 Z-6.000 F300.000
G1 X27.500 Y-30.110 Z-6.000 F300.000
G1 X27.500 Y-34.353 Z-6.000 F300.000
G1 X19.353 Y-42.500 Z-6.000 F300.000
G1 X23.596 Y-42.500 Z-6.000 F300.000
G1 X27.500 Y-38.596 Z-6.000 F300.000
G2 X27.496 Y-39.149 Z-6.000 I-13.872 J-0.172 K0.000 F300.000
G2 X23.939 Y-42.500 Z-6.000 I-3.511 J0.163 K0.000 F300.000
G1 X23.596 Y-42.500 Z-6.000 F300.000
G0 Z5.000
G0 Z5.000
(Finish operation: Pocket_Shape002)
(Begin operation: Profile005)
(Path: Profile005)
(Profile005)
(Compensated Tool Path. Diameter: 3.0)
G0 Z5.000
G0 X0.000 Y0.000
G0 X41.499 Y0.001
G0 X41.499 Y0.001 Z3.000
G1 X41.499 Y0.001 Z-2.000 F300.000
G1 X41.500 Y-50.000 Z-2.000 F300.000
G2 X30.065 Y-61.499 Z-2.000 I-11.501 J0.002 K0.000 F300.000
G1 X-30.000 Y-61.500 Z-2.000 F300.000
G2 X-41.499 Y-50.065 Z-2.000 I0.002 J11.501 K0.000 F300.000
G1 X-41.500 Y50.000 Z-2.000 F300.000
G2 X-30.065 Y61.499 Z-2.000 I11.501 J-0.002 K0.000 F300.000
G1 X30.000 Y61.500 Z-2.000 F300.000
G2 X41.499 Y50.065 Z-2.000 I-0.002 J-11.501 K0.000 F300.000
G1 X41.499 Y0.001 Z-2.000 F300.000
G1 X41.499 Y0.001 Z-4.000 F300.000
G1 X41.500 Y-50.000 Z-4.000 F300.000
G2 X30.065 Y-61.499 Z-4.000 I-11.501 J0.002 K0.000 F300.000
G1 X-30.000 Y-61.500 Z-4.000 F300.000
G2 X-41.499 Y-50.065 Z-4.000 I0.002 J11.501 K0.000 F300.000
G1 X-41.500 Y50.000 Z-4.000 F300.000
G2 X-30.065 Y61.499 Z-4.000 I11.501 J-0.002 K0.000 F300.000
G1 X30.000 Y61.500 Z-4.000 F300.000
G2 X41.499 Y50.065 Z-4.000 I-0.002 J-11.501 K0.000 F300.000
G1 X41.499 Y0.001 Z-4.000 F300.000
G1 X41.499 Y0.001 Z-6.000 F300.000
G1 X41.500 Y-50.000 Z-6.000 F300.000
G2 X30.065 Y-61.499 Z-6.000 I-11.501 J0.002 K0.000 F300.000
G1 X-30.000 Y-61.500 Z-6.000 F300.000
G2 X-41.499 Y-50.065 Z-6.000 I0.002 J11.501 K0.000 F300.000
G1 X-41.500 Y50.000 Z-6.000 F300.000
G2 X-30.065 Y61.499 Z-6.000 I11.501 J-0.002 K0.000 F300.000
G1 X30.000 Y61.500 Z-6.000 F300.000
G2 X41.499 Y50.065 Z-6.000 I-0.002 J-11.501 K0.000 F300.000
G1 X41.499 Y0.001 Z-6.000 F300.000
G1 X41.499 Y0.001 Z-8.000 F300.000
G1 X41.500 Y-50.000 Z-8.000 F300.000
G2 X30.065 Y-61.499 Z-8.000 I-11.501 J0.002 K0.000 F300.000
G1 X-30.000 Y-61.500 Z-8.000 F300.000
G2 X-41.499 Y-50.065 Z-8.000 I0.002 J11.501 K0.000 F300.000
G1 X-41.500 Y50.000 Z-8.000 F300.000
G2 X-30.065 Y61.499 Z-8.000 I11.501 J-0.002 K0.000 F300.000
G1 X30.000 Y61.500 Z-8.000 F300.000
G2 X41.499 Y50.065 Z-8.000 I-0.002 J-11.501 K0.000 F300.000
G1 X41.499 Y0.001 Z-8.000 F300.000
G1 X41.499 Y0.001 Z-10.000 F300.000
G1 X41.500 Y-50.000 Z-10.000 F300.000
G2 X30.065 Y-61.499 Z-10.000 I-11.501 J0.002 K0.000 F300.000
G1 X-30.000 Y-61.500 Z-10.000 F300.000
G2 X-41.499 Y-50.065 Z-10.000 I0.002 J11.501 K0.000 F300.000
G1 X-41.500 Y50.000 Z-10.000 F300.000
G2 X-30.065 Y61.499 Z-10.000 I11.501 J-0.002 K0.000 F300.000
G1 X30.000 Y61.500 Z-10.000 F300.000
G2 X41.499 Y50.065 Z-10.000 I-0.002 J-11.501 K0.000 F300.000
G1 X41.499 Y0.001 Z-10.000 F300.000
G1 X41.499 Y0.001 Z-12.000 F300.000
G1 X41.500 Y-50.000 Z-12.000 F300.000
G2 X30.065 Y-61.499 Z-12.000 I-11.501 J0.002 K0.000 F300.000
G1 X-30.000 Y-61.500 Z-12.000 F300.000
G2 X-41.499 Y-50.065 Z-12.000 I0.002 J11.501 K0.000 F300.000
G1 X-41.500 Y50.000 Z-12.000 F300.000
G2 X-30.065 Y61.499 Z-12.000 I11.501 J-0.002 K0.000 F300.000
G1 X30.000 Y61.500 Z-12.000 F300.000
G2 X41.499 Y50.065 Z-12.000 I-0.002 J-11.501 K0.000 F300.000
G1 X41.499 Y0.001 Z-12.000 F300.000
G0 Z5.000
G0 Z5.000
(Finish operation: Profile005)
(Begin operation: Profile006)
(Path: Profile006)
(Profile006)
(Compensated Tool Path. Diameter: 3.0)
G0 Z5.000
G0 X0.000 Y0.000
G0 X43.093 Y-36.391
G0 X43.093 Y-36.391 Z3.000
G1 X43.093 Y-36.391 Z-2.000 F300.000
G2 X45.000 Y-35.500 Z-2.000 I1.920 J-1.621 K0.000 F300.000
G1 X61.967 Y-35.500 Z-2.000 F300.000
G3 X70.466 Y-27.741 Z-2.000 I0.030 J8.501 K0.000 F300.000
G3 X70.500 Y-25.000 Z-2.000 I-31.369 J1.757 K0.000 F300.000
G2 X71.329 Y-23.658 Z-2.000 I1.500 J-0.000 K0.000 F300.000
G1 X81.329 Y-18.658 Z-2.000 F300.000
G2 X82.000 Y-18.500 Z-2.000 I0.671 J-1.342 K0.000 F300.000
G1 X86.955 Y-18.500 Z-2.000 F300.000
G3 X90.500 Y-14.955 Z-2.000 I0.038 J3.507 K0.000 F300.000
G1 X90.500 Y14.955 Z-2.000 F300.000
G3 X86.955 Y18.500 Z-2.000 I-3.507 J0.038 K0.000 F300.000
G1 X82.000 Y18.500 Z-2.000 F300.000
G2 X81.329 Y18.658 Z-2.000 I0.000 J1.500 K0.000 F300.000
G1 X71.329 Y23.658 Z-2.000 F300.000
G2 X70.500 Y25.029 Z-2.000 I0.671 J1.342 K0.000 F300.000
G3 X70.496 Y27.102 Z-2.000 I-31.654 J0.967 K0.000 F300.000
G3 X61.967 Y35.500 Z-2.000 I-8.497 J-0.099 K0.000 F300.000
G1 X45.000 Y35.500 Z-2.000 F300.000
G2 X42.500 Y38.000 Z-2.000 I0.013 J2.513 K0.000 F300.000
G1 X42.500 Y50.000 Z-2.000 F300.000
G2 X53.935 Y61.499 Z-2.000 I11.501 J-0.002 K0.000 F300.000
G1 X114.000 Y61.500 Z-2.000 F300.000
G2 X125.499 Y50.065 Z-2.000 I-0.002 J-11.501 K0.000 F300.000
G1 X125.500 Y-50.000 Z-2.000 F300.000
G2 X114.065 Y-61.499 Z-2.000 I-11.501 J0.002 K0.000 F300.000
G1 X54.000 Y-61.500 Z-2.000 F300.000
G2 X42.501 Y-50.065 Z-2.000 I0.002 J11.501 K0.000 F300.000
G1 X42.500 Y-38.000 Z-2.000 F300.000
G2 X43.093 Y-36.391 Z-2.000 I2.513 J-0.013 K0.000 F300.000
G1 X43.093 Y-36.391 Z-4.000 F300.000
G2 X45.000 Y-35.500 Z-4.000 I1.920 J-1.621 K0.000 F300.000
G1 X61.967 Y-35.500 Z-4.000 F300.000
G3 X70.466 Y-27.741 Z-4.000 I0.030 J8.501 K0.000 F300.000
G3 X70.500 Y-25.000 Z-4.000 I-31.369 J1.757 K0.000 F300.000
G2 X71.329 Y-23.658 Z-4.000 I1.500 J-0.000 K0.000 F300.000
G1 X81.329 Y-18.658 Z-4.000 F300.000
G2 X82.000 Y-18.500 Z-4.000 I0.671 J-1.342 K0.000 F300.000
G1 X86.955 Y-18.500 Z-4.000 F300.000
G3 X90.500 Y-14.955 Z-4.000 I0.038 J3.507 K0.000 F300.000
G1 X90.500 Y14.955 Z-4.000 F300.000
G3 X86.955 Y18.500 Z-4.000 I-3.507 J0.038 K0.000 F300.000
G1 X82.000 Y18.500 Z-4.000 F300.000
G2 X81.329 Y18.658 Z-4.000 I0.000 J1.500 K0.000 F300.000
G1 X71.329 Y23.658 Z-4.000 F300.000
G2 X70.500 Y25.029 Z-4.000 I0.671 J1.342 K0.000 F300.000
G3 X70.496 Y27.102 Z-4.000 I-31.654 J0.967 K0.000 F300.000
G3 X61.967 Y35.500 Z-4.000 I-8.497 J-0.099 K0.000 F300.000
G1 X45.000 Y35.500 Z-4.000 F300.000
G2 X42.500 Y38.000 Z-4.000 I0.013 J2.513 K0.000 F300.000
G1 X42.500 Y50.000 Z-4.000 F300.000
G2 X53.935 Y61.499 Z-4.000 I11.501 J-0.002 K0.000 F300.000
G1 X114.000 Y61.500 Z-4.000 F300.000
G2 X125.499 Y50.065 Z-4.000 I-0.002 J-11.501 K0.000 F300.000
G1 X125.500 Y-50.000 Z-4.000 F300.000
G2 X114.065 Y-61.499 Z-4.000 I-11.501 J0.002 K0.000 F300.000
G1 X54.000 Y-61.500 Z-4.000 F300.000
G2 X42.501 Y-50.065 Z-4.000 I0.002 J11.501 K0.000 F300.000
G1 X42.500 Y-38.000 Z-4.000 F300.000
G2 X43.093 Y-36.391 Z-4.000 I2.513 J-0.013 K0.000 F300.000
G1 X43.093 Y-36.391 Z-6.000 F300.000
G2 X45.000 Y-35.500 Z-6.000 I1.920 J-1.621 K0.000 F300.000
G1 X61.967 Y-35.500 Z-6.000 F300.000
G3 X70.466 Y-27.741 Z-6.000 I0.030 J8.501 K0.000 F300.000
G3 X70.500 Y-25.000 Z-6.000 I-31.369 J1.757 K0.000 F300.000
G2 X71.329 Y-23.658 Z-6.000 I1.500 J-0.000 K0.000 F300.000
G1 X81.329 Y-18.658 Z-6.000 F300.000
G2 X82.000 Y-18.500 Z-6.000 I0.671 J-1.342 K0.000 F300.000
G1 X86.955 Y-18.500 Z-6.000 F300.000
G3 X90.500 Y-14.955 Z-6.000 I0.038 J3.507 K0.000 F300.000
G1 X90.500 Y14.955 Z-6.000 F300.000
G3 X86.955 Y18.500 Z-6.000 I-3.507 J0.038 K0.000 F300.000
G1 X82.000 Y18.500 Z-6.000 F300.000
G2 X81.329 Y18.658 Z-6.000 I0.000 J1.500 K0.000 F300.000
G1 X71.329 Y23.658 Z-6.000 F300.000
G2 X70.500 Y25.029 Z-6.000 I0.671 J1.342 K0.000 F300.000
G3 X70.496 Y27.102 Z-6.000 I-31.654 J0.967 K0.000 F300.000
G3 X61.967 Y35.500 Z-6.000 I-8.497 J-0.099 K0.000 F300.000
G1 X45.000 Y35.500 Z-6.000 F300.000
G2 X42.500 Y38.000 Z-6.000 I0.013 J2.513 K0.000 F300.000
G1 X42.500 Y50.000 Z-6.000 F300.000
G2 X53.935 Y61.499 Z-6.000 I11.501 J-0.002 K0.000 F300.000
G1 X114.000 Y61.500 Z-6.000 F300.000
G2 X125.499 Y50.065 Z-6.000 I-0.002 J-11.501 K0.000 F300.000
G1 X125.500 Y-50.000 Z-6.000 F300.000
G2 X114.065 Y-61.499 Z-6.000 I-11.501 J0.002 K0.000 F300.000
G1 X54.000 Y-61.500 Z-6.000 F300.000
G2 X42.501 Y-50.065 Z-6.000 I0.002 J11.501 K0.000 F300.000
G1 X42.500 Y-38.000 Z-6.000 F300.000
G2 X43.093 Y-36.391 Z-6.000 I2.513 J-0.013 K0.000 F300.000
G1 X43.093 Y-36.391 Z-8.000 F300.000
G2 X45.000 Y-35.500 Z-8.000 I1.920 J-1.621 K0.000 F300.000
G1 X61.967 Y-35.500 Z-8.000 F300.000
G3 X70.466 Y-27.741 Z-8.000 I0.030 J8.501 K0.000 F300.000
G3 X70.500 Y-25.000 Z-8.000 I-31.369 J1.757 K0.000 F300.000
G2 X71.329 Y-23.658 Z-8.000 I1.500 J-0.000 K0.000 F300.000
G1 X81.329 Y-18.658 Z-8.000 F300.000
G2 X82.000 Y-18.500 Z-8.000 I0.671 J-1.342 K0.000 F300.000
G1 X86.955 Y-18.500 Z-8.000 F300.000
G3 X90.500 Y-14.955 Z-8.000 I0.038 J3.507 K0.000 F300.000
G1 X90.500 Y14.955 Z-8.000 F300.000
G3 X86.955 Y18.500 Z-8.000 I-3.507 J0.038 K0.000 F300.000
G1 X82.000 Y18.500 Z-8.000 F300.000
G2 X81.329 Y18.658 Z-8.000 I0.000 J1.500 K0.000 F300.000
G1 X71.329 Y23.658 Z-8.000 F300.000
G2 X70.500 Y25.029 Z-8.000 I0.671 J1.342 K0.000 F300.000
G3 X70.496 Y27.102 Z-8.000 I-31.654 J0.967 K0.000 F300.000
G3 X61.967 Y35.500 Z-8.000 I-8.497 J-0.099 K0.000 F300.000
G1 X45.000 Y35.500 Z-8.000 F300.000
G2 X42.500 Y38.000 Z-8.000 I0.013 J2.513 K0.000 F300.000
G1 X42.500 Y50.000 Z-8.000 F300.000
G2 X53.935 Y61.499 Z-8.000 I11.501 J-0.002 K0.000 F300.000
G1 X114.000 Y61.500 Z-8.000 F300.000
G2 X125.499 Y50.065 Z-8.000 I-0.002 J-11.501 K0.000 F300.000
G1 X125.500 Y-50.000 Z-8.000 F300.000
G2 X114.065 Y-61.499 Z-8.000 I-11.501 J0.002 K0.000 F300.000
G1 X54.000 Y-61.500 Z-8.000 F300.000
G2 X42.501 Y-50.065 Z-8.000 I0.002 J11.501 K0.000 F300.000
G1 X42.500 Y-38.000 Z-8.000 F300.000
G2 X43.093 Y-36.391 Z-8.000 I2.513 J-0.013 K0.000 F300.000
G1 X43.093 Y-36.391 Z-10.000 F300.000
G2 X45.000 Y-35.500 Z-10.000 I1.920 J-1.621 K0.000 F300.000
G1 X61.967 Y-35.500 Z-10.000 F300.000
G3 X70.466 Y-27.741 Z-10.000 I0.030 J8.501 K0.000 F300.000
G3 X70.500 Y-25.000 Z-10.000 I-31.369 J1.757 K0.000 F300.000
G2 X71.329 Y-23.658 Z-10.000 I1.500 J-0.000 K0.000 F300.000
G1 X81.329 Y-18.658 Z-10.000 F300.000
G2 X82.000 Y-18.500 Z-10.000 I0.671 J-1.342 K0.000 F300.000
G1 X86.955 Y-18.500 Z-10.000 F300.000
G3 X90.500 Y-14.955 Z-10.000 I0.038 J3.507 K0.000 F300.000
G1 X90.500 Y14.955 Z-10.000 F300.000
G3 X86.955 Y18.500 Z-10.000 I-3.507 J0.038 K0.000 F300.000
G1 X82.000 Y18.500 Z-10.000 F300.000
G2 X81.329 Y18.658 Z-10.000 I0.000 J1.500 K0.000 F300.000
G1 X71.329 Y23.658 Z-10.000 F300.000
G2 X70.500 Y25.029 Z-10.000 I0.671 J1.342 K0.000 F300.000
G3 X70.496 Y27.102 Z-10.000 I-31.654 J0.967 K0.000 F300.000
G3 X61.967 Y35.500 Z-10.000 I-8.497 J-0.099 K0.000 F300.000
G1 X45.000 Y35.500 Z-10.000 F300.000
G2 X42.500 Y38.000 Z-10.000 I0.013 J2.513 K0.000 F300.000
G1 X42.500 Y50.000 Z-10.000 F300.000
G2 X53.935 Y61.499 Z-10.000 I11.501 J-0.002 K0.000 F300.000
G1 X114.000 Y61.500 Z-10.000 F300.000
G2 X125.499 Y50.065 Z-10.000 I-0.002 J-11.501 K0.000 F300.000
G1 X125.500 Y-50.000 Z-10.000 F300.000
G2 X114.065 Y-61.499 Z-10.000 I-11.501 J0.002 K0.000 F300.000
G1 X54.000 Y-61.500 Z-10.000 F300.000
G2 X42.501 Y-50.065 Z-10.000 I0.002 J11.501 K0.000 F300.000
G1 X42.500 Y-38.000 Z-10.000 F300.000
G2 X43.093 Y-36.391 Z-10.000 I2.513 J-0.013 K0.000 F300.000
G1 X43.093 Y-36.391 Z-12.000 F300.000
G2 X45.000 Y-35.500 Z-12.000 I1.920 J-1.621 K0.000 F300.000
G1 X61.967 Y-35.500 Z-12.000 F300.000
G3 X70.466 Y-27.741 Z-12.000 I0.030 J8.501 K0.000 F300.000
G3 X70.500 Y-25.000 Z-12.000 I-31.369 J1.757 K0.000 F300.000
G2 X71.329 Y-23.658 Z-12.000 I1.500 J-0.000 K0.000 F300.000
G1 X81.329 Y-18.658 Z-12.000 F300.000
G2 X82.000 Y-18.500 Z-12.000 I0.671 J-1.342 K0.000 F300.000
G1 X86.955 Y-18.500 Z-12.000 F300.000
G3 X90.500 Y-14.955 Z-12.000 I0.038 J3.507 K0.000 F300.000
G1 X90.500 Y14.955 Z-12.000 F300.000
G3 X86.955 Y18.500 Z-12.000 I-3.507 J0.038 K0.000 F300.000
G1 X82.000 Y18.500 Z-12.000 F300.000
G2 X81.329 Y18.658 Z-12.000 I0.000 J1.500 K0.000 F300.000
G1 X71.329 Y23.658 Z-12.000 F300.000
G2 X70.500 Y25.029 Z-12.000 I0.671 J1.342 K0.000 F300.000
G3 X70.496 Y27.102 Z-12.000 I-31.654 J0.967 K0.000 F300.000
G3 X61.967 Y35.500 Z-12.000 I-8.497 J-0.099 K0.000 F300.000
G1 X45.000 Y35.500 Z-12.000 F300.000
G2 X42.500 Y38.000 Z-12.000 I0.013 J2.513 K0.000 F300.000
G1 X42.500 Y50.000 Z-12.000 F300.000
G2 X53.935 Y61.499 Z-12.000 I11.501 J-0.002 K0.000 F300.000
G1 X114.000 Y61.500 Z-12.000 F300.000
G2 X125.499 Y50.065 Z-12.000 I-0.002 J-11.501 K0.000 F300.000
G1 X125.500 Y-50.000 Z-12.000 F300.000
G2 X114.065 Y-61.499 Z-12.000 I-11.501 J0.002 K0.000 F300.000
G1 X54.000 Y-61.500 Z-12.000 F300.000
G2 X42.501 Y-50.065 Z-12.000 I0.002 J11.501 K0.000 F300.000
G1 X42.500 Y-38.000 Z-12.000 F300.000
G2 X43.093 Y-36.391 Z-12.000 I2.513 J-0.013 K0.000 F300.000
G0 Z5.000
G0 Z5.000
(Finish operation: Profile006)
(Begin operation: Profile007)
(Path: Profile007)
(Profile007)
(Compensated Tool Path. Diameter: 3.0)
G0 Z5.000
G0 X0.000 Y0.000
G0 X-42.501 Y-0.001
G0 X-42.501 Y-0.001 Z3.000
G1 X-42.501 Y-0.001 Z-2.000 F300.000
G1 X-42.500 Y-50.000 Z-2.000 F300.000
G2 X-53.935 Y-61.499 Z-2.000 I-11.501 J0.002 K0.000 F300.000
G1 X-114.000 Y-61.500 Z-2.000 F300.000
G2 X-125.499 Y-50.065 Z-2.000 I0.002 J11.501 K0.000 F300.000
G1 X-125.500 Y50.000 Z-2.000 F300.000
G2 X-114.065 Y61.499 Z-2.000 I11.501 J-0.002 K0.000 F300.000
G1 X-54.000 Y61.500 Z-2.000 F300.000
G2 X-42.501 Y50.065 Z-2.000 I-0.002 J-11.501 K0.000 F300.000
G1 X-42.501 Y-0.001 Z-2.000 F300.000
G1 X-42.501 Y-0.001 Z-4.000 F300.000
G1 X-42.500 Y-50.000 Z-4.000 F300.000
G2 X-53.935 Y-61.499 Z-4.000 I-11.501 J0.002 K0.000 F300.000
G1 X-114.000 Y-61.500 Z-4.000 F300.000
G2 X-125.499 Y-50.065 Z-4.000 I0.002 J11.501 K0.000 F300.000
G1 X-125.500 Y50.000 Z-4.000 F300.000
G2 X-114.065 Y61.499 Z-4.000 I11.501 J-0.002 K0.000 F300.000
G1 X-54.000 Y61.500 Z-4.000 F300.000
G2 X-42.501 Y50.065 Z-4.000 I-0.002 J-11.501 K0.000 F300.000
G1 X-42.501 Y-0.001 Z-4.000 F300.000
G1 X-42.501 Y-0.001 Z-6.000 F300.000
G1 X-42.500 Y-50.000 Z-6.000 F300.000
G2 X-53.935 Y-61.499 Z-6.000 I-11.501 J0.002 K0.000 F300.000
G1 X-114.000 Y-61.500 Z-6.000 F300.000
G2 X-125.499 Y-50.065 Z-6.000 I0.002 J11.501 K0.000 F300.000
G1 X-125.500 Y50.000 Z-6.000 F300.000
G2 X-114.065 Y61.499 Z-6.000 I11.501 J-0.002 K0.000 F300.000
G1 X-54.000 Y61.500 Z-6.000 F300.000
G2 X-42.501 Y50.065 Z-6.000 I-0.002 J-11.501 K0.000 F300.000
G1 X-42.501 Y-0.001 Z-6.000 F300.000
G1 X-42.501 Y-0.001 Z-8.000 F300.000
G1 X-42.500 Y-50.000 Z-8.000 F300.000
G2 X-53.935 Y-61.499 Z-8.000 I-11.501 J0.002 K0.000 F300.000
G1 X-114.000 Y-61.500 Z-8.000 F300.000
G2 X-125.499 Y-50.065 Z-8.000 I0.002 J11.501 K0.000 F300.000
G1 X-125.500 Y50.000 Z-8.000 F300.000
G2 X-114.065 Y61.499 Z-8.000 I11.501 J-0.002 K0.000 F300.000
G1 X-54.000 Y61.500 Z-8.000 F300.000
G2 X-42.501 Y50.065 Z-8.000 I-0.002 J-11.501 K0.000 F300.000
G1 X-42.501 Y-0.001 Z-8.000 F300.000
G1 X-42.501 Y-0.001 Z-10.000 F300.000
G1 X-42.500 Y-50.000 Z-10.000 F300.000
G2 X-53.935 Y-61.499 Z-10.000 I-11.501 J0.002 K0.000 F300.000
G1 X-114.000 Y-61.500 Z-10.000 F300.000
G2 X-125.499 Y-50.065 Z-10.000 I0.002 J11.501 K0.000 F300.000
G1 X-125.500 Y50.000 Z-10.000 F300.000
G2 X-114.065 Y61.499 Z-10.000 I11.501 J-0.002 K0.000 F300.000
G1 X-54.000 Y61.500 Z-10.000 F300.000
G2 X-42.501 Y50.065 Z-10.000 I-0.002 J-11.501 K0.000 F300.000
G1 X-42.501 Y-0.001 Z-10.000 F300.000
G1 X-42.501 Y-0.001 Z-12.000 F300.000
G1 X-42.500 Y-50.000 Z-12.000 F300.000
G2 X-53.935 Y-61.499 Z-12.000 I-11.501 J0.002 K0.000 F300.000
G1 X-114.000 Y-61.500 Z-12.000 F300.000
G2 X-125.499 Y-50.065 Z-12.000 I0.002 J11.501 K0.000 F300.000
G1 X-125.500 Y50.000 Z-12.000 F300.000
G2 X-114.065 Y61.499 Z-12.000 I11.501 J-0.002 K0.000 F300.000
G1 X-54.000 Y61.500 Z-12.000 F300.000
G2 X-42.501 Y50.065 Z-12.000 I-0.002 J-11.501 K0.000 F300.000
G1 X-42.501 Y-0.001 Z-12.000 F300.000
G0 Z5.000
G0 Z5.000
(Finish operation: Profile007)
(Begin postamble)
M5
G17 G90
M2
