(Exported by FreeCAD)
(Post Processor: script_module)
(Output Time:2026-01-15 15:13:14.368433)
(Begin preamble)
G17 G90
G21
(Begin operation: Fixture)
(Path: Fixture)
G54
(Finish operation: Fixture)
(Begin operation: 3mm_Endmill001)
(Path: 3mm_Endmill001)
(3mm_Endmill001)
(Begin toolchange)
( M6 T2 )
M3 S15000
(Finish operation: 3mm_Endmill001)
(Begin operation: Profile)
(Path: Profile)
(Profile)
(Compensated Tool Path. Diameter: 3.0)
G0 Z5.000
G0 X0.000 Y0.000
G0 X39.500
G0 X39.500 Z3.000
G1 X39.500 Y0.000 Z-2.000 F300.000
G1 X39.500 Y18.955 Z-2.000 F300.000
G2 X43.045 Y22.500 Z-2.000 I3.507 J0.038 K0.000 F300.000
G1 X48.955 Y22.500 Z-2.000 F300.000
G2 X52.500 Y18.955 Z-2.000 I0.038 J-3.507 K0.000 F300.000
G1 X52.500 Y-18.955 Z-2.000 F300.000
G2 X48.955 Y-22.500 Z-2.000 I-3.507 J-0.038 K0.000 F300.000
G1 X43.045 Y-22.500 Z-2.000 F300.000
G2 X39.500 Y-18.955 Z-2.000 I-0.038 J3.507 K0.000 F300.000
G1 X39.500 Y0.000 Z-2.000 F300.000
G1 X39.500 Y0.000 Z-4.000 F300.000
G1 X39.500 Y18.955 Z-4.000 F300.000
G2 X43.045 Y22.500 Z-4.000 I3.507 J0.038 K0.000 F300.000
G1 X48.955 Y22.500 Z-4.000 F300.000
G2 X52.500 Y18.955 Z-4.000 I0.038 J-3.507 K0.000 F300.000
G1 X52.500 Y-18.955 Z-4.000 F300.000
G2 X48.955 Y-22.500 Z-4.000 I-3.507 J-0.038 K0.000 F300.000
G1 X43.045 Y-22.500 Z-4.000 F300.000
G2 X39.500 Y-18.955 Z-4.000 I-0.038 J3.507 K0.000 F300.000
G1 X39.500 Y0.000 Z-4.000 F300.000
G1 X39.500 Y0.000 Z-6.000 F300.000
G1 X39.500 Y18.955 Z-6.000 F300.000
G2 X43.045 Y22.500 Z-6.000 I3.507 J0.038 K0.000 F300.000
G1 X48.955 Y22.500 Z-6.000 F300.000
G2 X52.500 Y18.955 Z-6.000 I0.038 J-3.507 K0.000 F300.000
G1 X52.500 Y-18.955 Z-6.000 F300.000
G2 X48.955 Y-22.500 Z-6.000 I-3.507 J-0.038 K0.000 F300.000
G1 X43.045 Y-22.500 Z-6.000 F300.000
G2 X39.500 Y-18.955 Z-6.000 I-0.038 J3.507 K0.000 F300.000
G1 X39.500 Y0.000 Z-6.000 F300.000
G1 X39.500 Y0.000 Z-8.000 F300.000
G1 X39.500 Y18.955 Z-8.000 F300.000
G2 X43.045 Y22.500 Z-8.000 I3.507 J0.038 K0.000 F300.000
G1 X48.955 Y22.500 Z-8.000 F300.000
G2 X52.500 Y18.955 Z-8.000 I0.038 J-3.507 K0.000 F300.000
G1 X52.500 Y-18.955 Z-8.000 F300.000
G2 X48.955 Y-22.500 Z-8.000 I-3.507 J-0.038 K0.000 F300.000
G1 X43.045 Y-22.500 Z-8.000 F300.000
G2 X39.500 Y-18.955 Z-8.000 I-0.038 J3.507 K0.000 F300.000
G1 X39.500 Y0.000 Z-8.000 F300.000
G1 X39.500 Y0.000 Z-10.000 F300.000
G1 X39.500 Y18.955 Z-10.000 F300.000
G2 X43.045 Y22.500 Z-10.000 I3.507 J0.038 K0.000 F300.000
G1 X48.955 Y22.500 Z-10.000 F300.000
G2 X52.500 Y18.955 Z-10.000 I0.038 J-3.507 K0.000 F300.000
G1 X52.500 Y-18.955 Z-10.000 F300.000
G2 X48.955 Y-22.500 Z-10.000 I-3.507 J-0.038 K0.000 F300.000
G1 X43.045 Y-22.500 Z-10.000 F300.000
G2 X39.500 Y-18.955 Z-10.000 I-0.038 J3.507 K0.000 F300.000
G1 X39.500 Y0.000 Z-10.000 F300.000
G1 X39.500 Y0.000 Z-12.000 F300.000
G1 X39.500 Y18.955 Z-12.000 F300.000
G2 X43.045 Y22.500 Z-12.000 I3.507 J0.038 K0.000 F300.000
G1 X48.955 Y22.500 Z-12.000 F300.000
G2 X52.500 Y18.955 Z-12.000 I0.038 J-3.507 K0.000 F300.000
G1 X52.500 Y-18.955 Z-12.000 F300.000
G2 X48.955 Y-22.500 Z-12.000 I-3.507 J-0.038 K0.000 F300.000
G1 X43.045 Y-22.500 Z-12.000 F300.000
G2 X39.500 Y-18.955 Z-12.000 I-0.038 J3.507 K0.000 F300.000
G1 X39.500 Y0.000 Z-12.000 F300.000
G0 Z5.000
G0 Z5.000
(Finish operation: Profile)
(Begin operation: Pocket_Shape)
(Path: Pocket_Shape)
(Pocket_Shape)
G0 Z5.000
G0 X0.000 Y0.000
G0 X37.530 Y25.471
G0 X37.530 Y25.471 Z3.000
G1 X37.530 Y25.471 Z-2.000 F300.000
G3 X36.500 Y22.939 Z-2.000 I2.488 J-2.487 K0.000 F300.000
G1 X36.500 Y20.198 Z-2.000 F300.000
G1 X42.802 Y26.500 Z-2.000 F300.000
G1 X47.044 Y26.500 Z-2.000 F300.000
G1 X36.500 Y15.956 Z-2.000 F300.000
G1 X36.500 Y11.713 Z-2.000 F300.000
G1 X51.287 Y26.500 Z-2.000 F300.000
G2 X52.149 Y26.496 Z-2.000 I0.326 J-21.532 K0.000 F300.000
G2 X54.485 Y25.455 Z-2.000 I-0.162 J-3.506 K0.000 F300.000
G1 X36.500 Y7.471 Z-2.000 F300.000
G1 X36.500 Y3.228 Z-2.000 F300.000
G1 X55.500 Y22.228 Z-2.000 F300.000
G1 X55.500 Y17.985 Z-2.000 F300.000
G1 X36.500 Y-1.015 Z-2.000 F300.000
G1 X36.500 Y-5.257 Z-2.000 F300.000
G1 X55.500 Y13.743 Z-2.000 F300.000
G1 X55.500 Y9.500 Z-2.000 F300.000
G1 X36.500 Y-9.500 Z-2.000 F300.000
G1 X36.500 Y-13.743 Z-2.000 F300.000
G1 X55.500 Y5.257 Z-2.000 F300.000
G1 X55.500 Y1.015 Z-2.000 F300.000
G1 X36.500 Y-17.985 Z-2.000 F300.000
G1 X36.500 Y-22.228 Z-2.000 F300.000
G1 X55.500 Y-3.228 Z-2.000 F300.000
G1 X55.500 Y-7.471 Z-2.000 F300.000
G1 X37.515 Y-25.455 Z-2.000 F300.000
G3 X40.061 Y-26.500 Z-2.000 I2.500 J2.470 K0.000 F300.000
G1 X40.713 Y-26.500 Z-2.000 F300.000
G1 X55.500 Y-11.713 Z-2.000 F300.000
G1 X55.500 Y-15.956 Z-2.000 F300.000
G1 X44.956 Y-26.500 Z-2.000 F300.000
G1 X49.199 Y-26.500 Z-2.000 F300.000
G1 X55.500 Y-20.199 Z-2.000 F300.000
G1 X55.500 Y-22.939 Z-2.000 F300.000
G2 X54.471 Y-25.471 Z-2.000 I-3.517 J-0.045 K0.000 F300.000
G3 X55.500 Y-22.939 Z-2.000 I-2.489 J2.487 K0.000 F300.000
G1 X55.500 Y22.939 Z-2.000 F300.000
G3 X51.939 Y26.500 Z-2.000 I-3.516 J0.045 K0.000 F300.000
G1 X40.061 Y26.500 Z-2.000 F300.000
G3 X36.500 Y22.939 Z-2.000 I-0.045 J-3.515 K0.000 F300.000
G1 X36.500 Y-22.939 Z-2.000 F300.000
G3 X40.061 Y-26.500 Z-2.000 I3.515 J-0.045 K0.000 F300.000
G1 X51.939 Y-26.500 Z-2.000 F300.000
G3 X54.471 Y-25.471 Z-2.000 I0.045 J3.517 K0.000 F300.000
G1 X54.471 Y-25.471 Z-4.000 F300.000
G2 X51.939 Y-26.500 Z-4.000 I-2.487 J2.488 K0.000 F300.000
G1 X40.061 Y-26.500 Z-4.000 F300.000
G2 X36.500 Y-22.939 Z-4.000 I-0.045 J3.515 K0.000 F300.000
G1 X36.500 Y22.939 Z-4.000 F300.000
G2 X40.061 Y26.500 Z-4.000 I3.515 J0.045 K0.000 F300.000
G1 X51.939 Y26.500 Z-4.000 F300.000
G2 X55.500 Y22.939 Z-4.000 I0.045 J-3.516 K0.000 F300.000
G1 X55.500 Y-22.939 Z-4.000 F300.000
G2 X54.471 Y-25.471 Z-4.000 I-3.518 J-0.045 K0.000 F300.000
G3 X55.500 Y-22.939 Z-4.000 I-2.488 J2.487 K0.000 F300.000
G1 X55.500 Y-20.199 Z-4.000 F300.000
G1 X49.199 Y-26.500 Z-4.000 F300.000
G1 X44.956 Y-26.500 Z-4.000 F300.000
G1 X55.500 Y-15.956 Z-4.000 F300.000
G1 X55.500 Y-11.713 Z-4.000 F300.000
G1 X40.713 Y-26.500 Z-4.000 F300.000
G1 X40.061 Y-26.500 Z-4.000 F300.000
G2 X37.515 Y-25.455 Z-4.000 I-0.045 J3.514 K0.000 F300.000
G1 X55.500 Y-7.471 Z-4.000 F300.000
G1 X55.500 Y-3.228 Z-4.000 F300.000
G1 X36.500 Y-22.228 Z-4.000 F300.000
G1 X36.500 Y-17.985 Z-4.000 F300.000
G1 X55.500 Y1.015 Z-4.000 F300.000
G1 X55.500 Y5.257 Z-4.000 F300.000
G1 X36.500 Y-13.743 Z-4.000 F300.000
G1 X36.500 Y-9.500 Z-4.000 F300.000
G1 X55.500 Y9.500 Z-4.000 F300.000
G1 X55.500 Y13.743 Z-4.000 F300.000
G1 X36.500 Y-5.257 Z-4.000 F300.000
G1 X36.500 Y-1.015 Z-4.000 F300.000
G1 X55.500 Y17.985 Z-4.000 F300.000
G1 X55.500 Y22.228 Z-4.000 F300.000
G1 X36.500 Y3.228 Z-4.000 F300.000
G1 X36.500 Y7.471 Z-4.000 F300.000
G1 X54.485 Y25.455 Z-4.000 F300.000
G3 X52.149 Y26.496 Z-4.000 I-2.498 J-2.465 K0.000 F300.000
G3 X51.287 Y26.500 Z-4.000 I-0.536 J-21.528 K0.000 F300.000
G1 X36.500 Y11.713 Z-4.000 F300.000
G1 X36.500 Y15.956 Z-4.000 F300.000
G1 X47.044 Y26.500 Z-4.000 F300.000
G1 X42.802 Y26.500 Z-4.000 F300.000
G1 X36.500 Y20.198 Z-4.000 F300.000
G1 X36.500 Y22.939 Z-4.000 F300.000
G2 X37.530 Y25.471 Z-4.000 I3.518 J0.044 K0.000 F300.000
G1 X37.530 Y25.471 Z-6.000 F300.000
G3 X36.500 Y22.939 Z-6.000 I2.488 J-2.487 K0.000 F300.000
G1 X36.500 Y20.198 Z-6.000 F300.000
G1 X42.802 Y26.500 Z-6.000 F300.000
G1 X47.044 Y26.500 Z-6.000 F300.000
G1 X36.500 Y15.956 Z-6.000 F300.000
G1 X36.500 Y11.713 Z-6.000 F300.000
G1 X51.287 Y26.500 Z-6.000 F300.000
G2 X52.149 Y26.496 Z-6.000 I0.326 J-21.532 K0.000 F300.000
G2 X54.485 Y25.455 Z-6.000 I-0.162 J-3.506 K0.000 F300.000
G1 X36.500 Y7.471 Z-6.000 F300.000
G1 X36.500 Y3.228 Z-6.000 F300.000
G1 X55.500 Y22.228 Z-6.000 F300.000
G1 X55.500 Y17.985 Z-6.000 F300.000
G1 X36.500 Y-1.015 Z-6.000 F300.000
G1 X36.500 Y-5.257 Z-6.000 F300.000
G1 X55.500 Y13.743 Z-6.000 F300.000
G1 X55.500 Y9.500 Z-6.000 F300.000
G1 X36.500 Y-9.500 Z-6.000 F300.000
G1 X36.500 Y-13.743 Z-6.000 F300.000
G1 X55.500 Y5.257 Z-6.000 F300.000
G1 X55.500 Y1.015 Z-6.000 F300.000
G1 X36.500 Y-17.985 Z-6.000 F300.000
G1 X36.500 Y-22.228 Z-6.000 F300.000
G1 X55.500 Y-3.228 Z-6.000 F300.000
G1 X55.500 Y-7.471 Z-6.000 F300.000
G1 X37.515 Y-25.455 Z-6.000 F300.000
G3 X40.061 Y-26.500 Z-6.000 I2.500 J2.470 K0.000 F300.000
G1 X40.713 Y-26.500 Z-6.000 F300.000
G1 X55.500 Y-11.713 Z-6.000 F300.000
G1 X55.500 Y-15.956 Z-6.000 F300.000
G1 X44.956 Y-26.500 Z-6.000 F300.000
G1 X49.199 Y-26.500 Z-6.000 F300.000
G1 X55.500 Y-20.199 Z-6.000 F300.000
G1 X55.500 Y-22.939 Z-6.000 F300.000
G2 X54.471 Y-25.471 Z-6.000 I-3.517 J-0.045 K0.000 F300.000
G3 X55.500 Y-22.939 Z-6.000 I-2.489 J2.487 K0.000 F300.000
G1 X55.500 Y22.939 Z-6.000 F300.000
G3 X51.939 Y26.500 Z-6.000 I-3.516 J0.045 K0.000 F300.000
G1 X40.061 Y26.500 Z-6.000 F300.000
G3 X36.500 Y22.939 Z-6.000 I-0.045 J-3.515 K0.000 F300.000
G1 X36.500 Y-22.939 Z-6.000 F300.000
G3 X40.061 Y-26.500 Z-6.000 I3.515 J-0.045 K0.000 F300.000
G1 X51.939 Y-26.500 Z-6.000 F300.000
G3 X54.471 Y-25.471 Z-6.000 I0.045 J3.517 K0.000 F300.000
G0 Z5.000
G0 Z5.000
(Finish operation: Pocket_Shape)
(Begin operation: Profile001)
(Path: Profile001)
(Profile001)
(Compensated Tool Path. Diameter: 3.0)
G0 Z5.000
G0 X0.000 Y0.000
G0 X-22.500
G0 X-22.500 Z3.000
G1 X-22.500 Y0.000 Z-2.000 F300.000
G1 X-22.500 Y-26.955 Z-2.000 F300.000
G2 X-26.045 Y-30.500 Z-2.000 I-3.507 J-0.038 K0.000 F300.000
G1 X-44.955 Y-30.500 Z-2.000 F300.000
G2 X-48.500 Y-26.955 Z-2.000 I-0.038 J3.507 K0.000 F300.000
G1 X-48.500 Y26.955 Z-2.000 F300.000
G2 X-44.955 Y30.500 Z-2.000 I3.507 J0.038 K0.000 F300.000
G1 X-26.045 Y30.500 Z-2.000 F300.000
G2 X-22.500 Y26.955 Z-2.000 I0.038 J-3.507 K0.000 F300.000
G1 X-22.500 Y0.000 Z-2.000 F300.000
G1 X-22.500 Y0.000 Z-4.000 F300.000
G1 X-22.500 Y-26.955 Z-4.000 F300.000
G2 X-26.045 Y-30.500 Z-4.000 I-3.507 J-0.038 K0.000 F300.000
G1 X-44.955 Y-30.500 Z-4.000 F300.000
G2 X-48.500 Y-26.955 Z-4.000 I-0.038 J3.507 K0.000 F300.000
G1 X-48.500 Y26.955 Z-4.000 F300.000
G2 X-44.955 Y30.500 Z-4.000 I3.507 J0.038 K0.000 F300.000
G1 X-26.045 Y30.500 Z-4.000 F300.000
G2 X-22.500 Y26.955 Z-4.000 I0.038 J-3.507 K0.000 F300.000
G1 X-22.500 Y0.000 Z-4.000 F300.000
G1 X-22.500 Y0.000 Z-6.000 F300.000
G1 X-22.500 Y-26.955 Z-6.000 F300.000
G2 X-26.045 Y-30.500 Z-6.000 I-3.507 J-0.038 K0.000 F300.000
G1 X-44.955 Y-30.500 Z-6.000 F300.000
G2 X-48.500 Y-26.955 Z-6.000 I-0.038 J3.507 K0.000 F300.000
G1 X-48.500 Y26.955 Z-6.000 F300.000
G2 X-44.955 Y30.500 Z-6.000 I3.507 J0.038 K0.000 F300.000
G1 X-26.045 Y30.500 Z-6.000 F300.000
G2 X-22.500 Y26.955 Z-6.000 I0.038 J-3.507 K0.000 F300.000
G1 X-22.500 Y0.000 Z-6.000 F300.000
G1 X-22.500 Y0.000 Z-8.000 F300.000
G1 X-22.500 Y-26.955 Z-8.000 F300.000
G2 X-26.045 Y-30.500 Z-8.000 I-3.507 J-0.038 K0.000 F300.000
G1 X-44.955 Y-30.500 Z-8.000 F300.000
G2 X-48.500 Y-26.955 Z-8.000 I-0.038 J3.507 K0.000 F300.000
G1 X-48.500 Y26.955 Z-8.000 F300.000
G2 X-44.955 Y30.500 Z-8.000 I3.507 J0.038 K0.000 F300.000
G1 X-26.045 Y30.500 Z-8.000 F300.000
G2 X-22.500 Y26.955 Z-8.000 I0.038 J-3.507 K0.000 F300.000
G1 X-22.500 Y0.000 Z-8.000 F300.000
G1 X-22.500 Y0.000 Z-10.000 F300.000
G1 X-22.500 Y-26.955 Z-10.000 F300.000
G2 X-26.045 Y-30.500 Z-10.000 I-3.507 J-0.038 K0.000 F300.000
G1 X-44.955 Y-30.500 Z-10.000 F300.000
G2 X-48.500 Y-26.955 Z-10.000 I-0.038 J3.507 K0.000 F300.000
G1 X-48.500 Y26.955 Z-10.000 F300.000
G2 X-44.955 Y30.500 Z-10.000 I3.507 J0.038 K0.000 F300.000
G1 X-26.045 Y30.500 Z-10.000 F300.000
G2 X-22.500 Y26.955 Z-10.000 I0.038 J-3.507 K0.000 F300.000
G1 X-22.500 Y0.000 Z-10.000 F300.000
G1 X-22.500 Y0.000 Z-12.000 F300.000
G1 X-22.500 Y-26.955 Z-12.000 F300.000
G2 X-26.045 Y-30.500 Z-12.000 I-3.507 J-0.038 K0.000 F300.000
G1 X-44.955 Y-30.500 Z-12.000 F300.000
G2 X-48.500 Y-26.955 Z-12.000 I-0.038 J3.507 K0.000 F300.000
G1 X-48.500 Y26.955 Z-12.000 F300.000
G2 X-44.955 Y30.500 Z-12.000 I3.507 J0.038 K0.000 F300.000
G1 X-26.045 Y30.500 Z-12.000 F300.000
G2 X-22.500 Y26.955 Z-12.000 I0.038 J-3.507 K0.000 F300.000
G1 X-22.500 Y0.000 Z-12.000 F300.000
G0 Z5.000
G0 Z5.000
(Finish operation: Profile001)
(Begin operation: Pocket_Shape001)
(Path: Pocket_Shape001)
(Pocket_Shape001)
G0 Z5.000
G0 X0.000 Y0.000
G0 X-20.681 Y-33.618
G0 X-20.681 Y-33.618 Z3.000
G1 X-20.681 Y-33.618 Z-2.000 F300.000
G3 X-19.500 Y-30.955 Z-2.000 I-2.335 J2.629 K0.000 F300.000
G1 X-19.500 Y-28.194 Z-2.000 F300.000
G1 X-25.806 Y-34.500 Z-2.000 F300.000
G1 X-30.048 Y-34.500 Z-2.000 F300.000
G1 X-19.500 Y-23.952 Z-2.000 F300.000
G1 X-19.500 Y-19.709 Z-2.000 F300.000
G1 X-34.291 Y-34.500 Z-2.000 F300.000
G1 X-38.534 Y-34.500 Z-2.000 F300.000
G1 X-19.500 Y-15.466 Z-2.000 F300.000
G1 X-19.500 Y-11.224 Z-2.000 F300.000
G1 X-42.776 Y-34.500 Z-2.000 F300.000
G1 X-47.019 Y-34.500 Z-2.000 F300.000
G1 X-19.500 Y-6.981 Z-2.000 F300.000
G1 X-19.500 Y-2.738 Z-2.000 F300.000
G1 X-50.349 Y-33.588 Z-2.000 F300.000
G2 X-51.500 Y-30.955 Z-2.000 I2.354 J2.597 K0.000 F300.000
G1 X-51.500 Y-30.496 Z-2.000 F300.000
G1 X-19.500 Y1.504 Z-2.000 F300.000
G1 X-19.500 Y5.747 Z-2.000 F300.000
G1 X-51.500 Y-26.253 Z-2.000 F300.000
G1 X-51.500 Y-22.010 Z-2.000 F300.000
G1 X-19.500 Y9.990 Z-2.000 F300.000
G1 X-19.500 Y14.232 Z-2.000 F300.000
G1 X-51.500 Y-17.768 Z-2.000 F300.000
G1 X-51.500 Y-13.525 Z-2.000 F300.000
G1 X-19.500 Y18.475 Z-2.000 F300.000
G1 X-19.500 Y22.717 Z-2.000 F300.000
G1 X-51.500 Y-9.283 Z-2.000 F300.000
G1 X-51.500 Y-5.040 Z-2.000 F300.000
G1 X-19.500 Y26.960 Z-2.000 F300.000
G1 X-19.500 Y30.955 Z-2.000 F300.000
G1 X-19.514 Y31.189 Z-2.000 F300.000
G1 X-51.500 Y-0.797 Z-2.000 F300.000
G1 X-51.500 Y3.445 Z-2.000 F300.000
G1 X-21.047 Y33.898 Z-2.000 F300.000
G3 X-23.045 Y34.500 Z-2.000 I-1.967 J-2.915 K0.000 F300.000
G1 X-24.688 Y34.500 Z-2.000 F300.000
G1 X-51.500 Y7.688 Z-2.000 F300.000
G1 X-51.500 Y11.931 Z-2.000 F300.000
G1 X-28.931 Y34.500 Z-2.000 F300.000
G1 X-33.173 Y34.500 Z-2.000 F300.000
G1 X-51.500 Y16.173 Z-2.000 F300.000
G1 X-51.500 Y20.416 Z-2.000 F300.000
G1 X-37.416 Y34.500 Z-2.000 F300.000
G1 X-41.659 Y34.500 Z-2.000 F300.000
G1 X-51.500 Y24.659 Z-2.000 F300.000
G1 X-51.500 Y28.901 Z-2.000 F300.000
G1 X-45.901 Y34.500 Z-2.000 F300.000
G1 X-47.955 Y34.500 Z-2.000 F300.000
G3 X-51.500 Y30.955 Z-2.000 I-0.038 J-3.507 K0.000 F300.000
G1 X-51.500 Y-30.955 Z-2.000 F300.000
G3 X-47.955 Y-34.500 Z-2.000 I3.507 J-0.038 K0.000 F300.000
G1 X-23.045 Y-34.500 Z-2.000 F300.000
G3 X-19.500 Y-30.955 Z-2.000 I0.038 J3.507 K0.000 F300.000
G1 X-19.500 Y30.955 Z-2.000 F300.000
G3 X-23.045 Y34.500 Z-2.000 I-3.507 J0.038 K0.000 F300.000
G1 X-47.955 Y34.500 Z-2.000 F300.000
G3 X-51.500 Y30.955 Z-2.000 I-0.038 J-3.507 K0.000 F300.000
G1 X-51.500 Y28.901 Z-2.000 F300.000
G1 X-51.500 Y28.901 Z-4.000 F300.000
G1 X-51.500 Y30.955 Z-4.000 F300.000
G2 X-47.955 Y34.500 Z-4.000 I3.507 J0.038 K0.000 F300.000
G1 X-23.045 Y34.500 Z-4.000 F300.000
G2 X-19.500 Y30.955 Z-4.000 I0.038 J-3.507 K0.000 F300.000
G1 X-19.500 Y-30.955 Z-4.000 F300.000
G2 X-23.045 Y-34.500 Z-4.000 I-3.507 J-0.038 K0.000 F300.000
G1 X-47.955 Y-34.500 Z-4.000 F300.000
G2 X-51.500 Y-30.955 Z-4.000 I-0.038 J3.507 K0.000 F300.000
G1 X-51.500 Y30.955 Z-4.000 F300.000
G2 X-47.955 Y34.500 Z-4.000 I3.507 J0.038 K0.000 F300.000
G1 X-45.901 Y34.500 Z-4.000 F300.000
G1 X-51.500 Y28.901 Z-4.000 F300.000
G1 X-51.500 Y24.659 Z-4.000 F300.000
G1 X-41.659 Y34.500 Z-4.000 F300.000
G1 X-37.416 Y34.500 Z-4.000 F300.000
G1 X-51.500 Y20.416 Z-4.000 F300.000
G1 X-51.500 Y16.173 Z-4.000 F300.000
G1 X-33.173 Y34.500 Z-4.000 F300.000
G1 X-28.931 Y34.500 Z-4.000 F300.000
G1 X-51.500 Y11.931 Z-4.000 F300.000
G1 X-51.500 Y7.688 Z-4.000 F300.000
G1 X-24.688 Y34.500 Z-4.000 F300.000
G1 X-23.045 Y34.500 Z-4.000 F300.000
G2 X-21.047 Y33.898 Z-4.000 I0.031 J-3.516 K0.000 F300.000
G1 X-51.500 Y3.445 Z-4.000 F300.000
G1 X-51.500 Y-0.797 Z-4.000 F300.000
G1 X-19.514 Y31.189 Z-4.000 F300.000
G1 X-19.500 Y30.955 Z-4.000 F300.000
G1 X-19.500 Y26.960 Z-4.000 F300.000
G1 X-51.500 Y-5.040 Z-4.000 F300.000
G1 X-51.500 Y-9.283 Z-4.000 F300.000
G1 X-19.500 Y22.717 Z-4.000 F300.000
G1 X-19.500 Y18.475 Z-4.000 F300.000
G1 X-51.500 Y-13.525 Z-4.000 F300.000
G1 X-51.500 Y-17.768 Z-4.000 F300.000
G1 X-19.500 Y14.232 Z-4.000 F300.000
G1 X-19.500 Y9.990 Z-4.000 F300.000
G1 X-51.500 Y-22.010 Z-4.000 F300.000
G1 X-51.500 Y-26.253 Z-4.000 F300.000
G1 X-19.500 Y5.747 Z-4.000 F300.000
G1 X-19.500 Y1.504 Z-4.000 F300.000
G1 X-51.500 Y-30.496 Z-4.000 F300.000
G1 X-51.500 Y-30.955 Z-4.000 F300.000
G3 X-50.349 Y-33.588 Z-4.000 I3.504 J-0.036 K0.000 F300.000
G1 X-19.500 Y-2.738 Z-4.000 F300.000
G1 X-19.500 Y-6.981 Z-4.000 F300.000
G1 X-47.019 Y-34.500 Z-4.000 F300.000
G1 X-42.776 Y-34.500 Z-4.000 F300.000
G1 X-19.500 Y-11.224 Z-4.000 F300.000
G1 X-19.500 Y-15.466 Z-4.000 F300.000
G1 X-38.534 Y-34.500 Z-4.000 F300.000
G1 X-34.291 Y-34.500 Z-4.000 F300.000
G1 X-19.500 Y-19.709 Z-4.000 F300.000
G1 X-19.500 Y-23.952 Z-4.000 F300.000
G1 X-30.048 Y-34.500 Z-4.000 F300.000
G1 X-25.806 Y-34.500 Z-4.000 F300.000
G1 X-19.500 Y-28.194 Z-4.000 F300.000
G1 X-19.500 Y-30.955 Z-4.000 F300.000
G2 X-20.681 Y-33.618 Z-4.000 I-3.516 J-0.034 K0.000 F300.000
G1 X-20.681 Y-33.618 Z-6.000 F300.000
G3 X-19.500 Y-30.955 Z-6.000 I-2.335 J2.629 K0.000 F300.000
G1 X-19.500 Y-28.194 Z-6.000 F300.000
G1 X-25.806 Y-34.500 Z-6.000 F300.000
G1 X-30.048 Y-34.500 Z-6.000 F300.000
G1 X-19.500 Y-23.952 Z-6.000 F300.000
G1 X-19.500 Y-19.709 Z-6.000 F300.000
G1 X-34.291 Y-34.500 Z-6.000 F300.000
G1 X-38.534 Y-34.500 Z-6.000 F300.000
G1 X-19.500 Y-15.466 Z-6.000 F300.000
G1 X-19.500 Y-11.224 Z-6.000 F300.000
G1 X-42.776 Y-34.500 Z-6.000 F300.000
G1 X-47.019 Y-34.500 Z-6.000 F300.000
G1 X-19.500 Y-6.981 Z-6.000 F300.000
G1 X-19.500 Y-2.738 Z-6.000 F300.000
G1 X-50.349 Y-33.588 Z-6.000 F300.000
G2 X-51.500 Y-30.955 Z-6.000 I2.354 J2.597 K0.000 F300.000
G1 X-51.500 Y-30.496 Z-6.000 F300.000
G1 X-19.500 Y1.504 Z-6.000 F300.000
G1 X-19.500 Y5.747 Z-6.000 F300.000
G1 X-51.500 Y-26.253 Z-6.000 F300.000
G1 X-51.500 Y-22.010 Z-6.000 F300.000
G1 X-19.500 Y9.990 Z-6.000 F300.000
G1 X-19.500 Y14.232 Z-6.000 F300.000
G1 X-51.500 Y-17.768 Z-6.000 F300.000
G1 X-51.500 Y-13.525 Z-6.000 F300.000
G1 X-19.500 Y18.475 Z-6.000 F300.000
G1 X-19.500 Y22.717 Z-6.000 F300.000
G1 X-51.500 Y-9.283 Z-6.000 F300.000
G1 X-51.500 Y-5.040 Z-6.000 F300.000
G1 X-19.500 Y26.960 Z-6.000 F300.000
G1 X-19.500 Y30.955 Z-6.000 F300.000
G1 X-19.514 Y31.189 Z-6.000 F300.000
G1 X-51.500 Y-0.797 Z-6.000 F300.000
G1 X-51.500 Y3.445 Z-6.000 F300.000
G1 X-21.047 Y33.898 Z-6.000 F300.000
G3 X-23.045 Y34.500 Z-6.000 I-1.967 J-2.915 K0.000 F300.000
G1 X-24.688 Y34.500 Z-6.000 F300.000
G1 X-51.500 Y7.688 Z-6.000 F300.000
G1 X-51.500 Y11.931 Z-6.000 F300.000
G1 X-28.931 Y34.500 Z-6.000 F300.000
G1 X-33.173 Y34.500 Z-6.000 F300.000
G1 X-51.500 Y16.173 Z-6.000 F300.000
G1 X-51.500 Y20.416 Z-6.000 F300.000
G1 X-37.416 Y34.500 Z-6.000 F300.000
G1 X-41.659 Y34.500 Z-6.000 F300.000
G1 X-51.500 Y24.659 Z-6.000 F300.000
G1 X-51.500 Y28.901 Z-6.000 F300.000
G1 X-45.901 Y34.500 Z-6.000 F300.000
G1 X-47.955 Y34.500 Z-6.000 F300.000
G3 X-51.500 Y30.955 Z-6.000 I-0.038 J-3.507 K0.000 F300.000
G1 X-51.500 Y-30.955 Z-6.000 F300.000
G3 X-47.955 Y-34.500 Z-6.000 I3.507 J-0.038 K0.000 F300.000
G1 X-23.045 Y-34.500 Z-6.000 F300.000
G3 X-19.500 Y-30.955 Z-6.000 I0.038 J3.507 K0.000 F300.000
G1 X-19.500 Y30.955 Z-6.000 F300.000
G3 X-23.045 Y34.500 Z-6.000 I-3.507 J0.038 K0.000 F300.000
G1 X-47.955 Y34.500 Z-6.000 F300.000
G3 X-51.500 Y30.955 Z-6.000 I-0.038 J-3.507 K0.000 F300.000
G1 X-51.500 Y28.901 Z-6.000 F300.000
G0 Z5.000
G0 Z5.000
(Finish operation: Pocket_Shape001)
(Begin operation: Profile002)
(Path: Profile002)
(Profile002)
(Compensated Tool Path. Diameter: 3.0)
G0 Z5.000
G0 X0.000 Y0.000
G0 X-0.501 Y-0.000
G0 X-0.501 Y-0.000 Z3.000
G1 X-0.501 Y-0.000 Z-2.000 F300.000
G1 X-0.500 Y-50.000 Z-2.000 F300.000
G2 X-11.935 Y-61.499 Z-2.000 I-11.501 J0.002 K0.000 F300.000
G1 X-72.000 Y-61.500 Z-2.000 F300.000
G2 X-83.499 Y-50.065 Z-2.000 I0.002 J11.501 K0.000 F300.000
G1 X-83.500 Y50.000 Z-2.000 F300.000
G2 X-72.065 Y61.499 Z-2.000 I11.501 J-0.002 K0.000 F300.000
G1 X-12.000 Y61.500 Z-2.000 F300.000
G2 X-0.501 Y50.065 Z-2.000 I-0.002 J-11.501 K0.000 F300.000
G1 X-0.501 Y-0.000 Z-2.000 F300.000
G1 X-0.501 Y-0.000 Z-4.000 F300.000
G1 X-0.500 Y-50.000 Z-4.000 F300.000
G2 X-11.935 Y-61.499 Z-4.000 I-11.501 J0.002 K0.000 F300.000
G1 X-72.000 Y-61.500 Z-4.000 F300.000
G2 X-83.499 Y-50.065 Z-4.000 I0.002 J11.501 K0.000 F300.000
G1 X-83.500 Y50.000 Z-4.000 F300.000
G2 X-72.065 Y61.499 Z-4.000 I11.501 J-0.002 K0.000 F300.000
G1 X-12.000 Y61.500 Z-4.000 F300.000
G2 X-0.501 Y50.065 Z-4.000 I-0.002 J-11.501 K0.000 F300.000
G1 X-0.501 Y-0.000 Z-4.000 F300.000
G1 X-0.501 Y-0.000 Z-6.000 F300.000
G1 X-0.500 Y-50.000 Z-6.000 F300.000
G2 X-11.935 Y-61.499 Z-6.000 I-11.501 J0.002 K0.000 F300.000
G1 X-72.000 Y-61.500 Z-6.000 F300.000
G2 X-83.499 Y-50.065 Z-6.000 I0.002 J11.501 K0.000 F300.000
G1 X-83.500 Y50.000 Z-6.000 F300.000
G2 X-72.065 Y61.499 Z-6.000 I11.501 J-0.002 K0.000 F300.000
G1 X-12.000 Y61.500 Z-6.000 F300.000
G2 X-0.501 Y50.065 Z-6.000 I-0.002 J-11.501 K0.000 F300.000
G1 X-0.501 Y-0.000 Z-6.000 F300.000
G1 X-0.501 Y-0.000 Z-8.000 F300.000
G1 X-0.500 Y-50.000 Z-8.000 F300.000
G2 X-11.935 Y-61.499 Z-8.000 I-11.501 J0.002 K0.000 F300.000
G1 X-72.000 Y-61.500 Z-8.000 F300.000
G2 X-83.499 Y-50.065 Z-8.000 I0.002 J11.501 K0.000 F300.000
G1 X-83.500 Y50.000 Z-8.000 F300.000
G2 X-72.065 Y61.499 Z-8.000 I11.501 J-0.002 K0.000 F300.000
G1 X-12.000 Y61.500 Z-8.000 F300.000
G2 X-0.501 Y50.065 Z-8.000 I-0.002 J-11.501 K0.000 F300.000
G1 X-0.501 Y-0.000 Z-8.000 F300.000
G1 X-0.501 Y-0.000 Z-10.000 F300.000
G1 X-0.500 Y-50.000 Z-10.000 F300.000
G2 X-11.935 Y-61.499 Z-10.000 I-11.501 J0.002 K0.000 F300.000
G1 X-72.000 Y-61.500 Z-10.000 F300.000
G2 X-83.499 Y-50.065 Z-10.000 I0.002 J11.501 K0.000 F300.000
G1 X-83.500 Y50.000 Z-10.000 F300.000
G2 X-72.065 Y61.499 Z-10.000 I11.501 J-0.002 K0.000 F300.000
G1 X-12.000 Y61.500 Z-10.000 F300.000
G2 X-0.501 Y50.065 Z-10.000 I-0.002 J-11.501 K0.000 F300.000
G1 X-0.501 Y-0.000 Z-10.000 F300.000
G1 X-0.501 Y-0.000 Z-12.000 F300.000
G1 X-0.500 Y-50.000 Z-12.000 F300.000
G2 X-11.935 Y-61.499 Z-12.000 I-11.501 J0.002 K0.000 F300.000
G1 X-72.000 Y-61.500 Z-12.000 F300.000
G2 X-83.499 Y-50.065 Z-12.000 I0.002 J11.501 K0.000 F300.000
G1 X-83.500 Y50.000 Z-12.000 F300.000
G2 X-72.065 Y61.499 Z-12.000 I11.501 J-0.002 K0.000 F300.000
G1 X-12.000 Y61.500 Z-12.000 F300.000
G2 X-0.501 Y50.065 Z-12.000 I-0.002 J-11.501 K0.000 F300.000
G1 X-0.501 Y-0.000 Z-12.000 F300.000
G0 Z5.000
G0 Z5.000
(Finish operation: Profile002)
(Begin operation: Profile003)
(Path: Profile003)
(Profile003)
(Compensated Tool Path. Diameter: 3.0)
G0 Z5.000
G0 X0.000 Y0.000
G0 X0.501 Y0.000
G0 X0.501 Y0.000 Z3.000
G1 X0.501 Y0.000 Z-2.000 F300.000
G1 X0.500 Y50.000 Z-2.000 F300.000
G2 X11.935 Y61.499 Z-2.000 I11.501 J-0.002 K0.000 F300.000
G1 X72.000 Y61.500 Z-2.000 F300.000
G2 X83.499 Y50.065 Z-2.000 I-0.002 J-11.501 K0.000 F300.000
G1 X83.500 Y-50.000 Z-2.000 F300.000
G2 X72.065 Y-61.499 Z-2.000 I-11.501 J0.002 K0.000 F300.000
G1 X12.000 Y-61.500 Z-2.000 F300.000
G2 X0.501 Y-50.065 Z-2.000 I0.002 J11.501 K0.000 F300.000
G1 X0.501 Y0.000 Z-2.000 F300.000
G1 X0.501 Y0.000 Z-4.000 F300.000
G1 X0.500 Y50.000 Z-4.000 F300.000
G2 X11.935 Y61.499 Z-4.000 I11.501 J-0.002 K0.000 F300.000
G1 X72.000 Y61.500 Z-4.000 F300.000
G2 X83.499 Y50.065 Z-4.000 I-0.002 J-11.501 K0.000 F300.000
G1 X83.500 Y-50.000 Z-4.000 F300.000
G2 X72.065 Y-61.499 Z-4.000 I-11.501 J0.002 K0.000 F300.000
G1 X12.000 Y-61.500 Z-4.000 F300.000
G2 X0.501 Y-50.065 Z-4.000 I0.002 J11.501 K0.000 F300.000
G1 X0.501 Y0.000 Z-4.000 F300.000
G1 X0.501 Y0.000 Z-6.000 F300.000
G1 X0.500 Y50.000 Z-6.000 F300.000
G2 X11.935 Y61.499 Z-6.000 I11.501 J-0.002 K0.000 F300.000
G1 X72.000 Y61.500 Z-6.000 F300.000
G2 X83.499 Y50.065 Z-6.000 I-0.002 J-11.501 K0.000 F300.000
G1 X83.500 Y-50.000 Z-6.000 F300.000
G2 X72.065 Y-61.499 Z-6.000 I-11.501 J0.002 K0.000 F300.000
G1 X12.000 Y-61.500 Z-6.000 F300.000
G2 X0.501 Y-50.065 Z-6.000 I0.002 J11.501 K0.000 F300.000
G1 X0.501 Y0.000 Z-6.000 F300.000
G1 X0.501 Y0.000 Z-8.000 F300.000
G1 X0.500 Y50.000 Z-8.000 F300.000
G2 X11.935 Y61.499 Z-8.000 I11.501 J-0.002 K0.000 F300.000
G1 X72.000 Y61.500 Z-8.000 F300.000
G2 X83.499 Y50.065 Z-8.000 I-0.002 J-11.501 K0.000 F300.000
G1 X83.500 Y-50.000 Z-8.000 F300.000
G2 X72.065 Y-61.499 Z-8.000 I-11.501 J0.002 K0.000 F300.000
G1 X12.000 Y-61.500 Z-8.000 F300.000
G2 X0.501 Y-50.065 Z-8.000 I0.002 J11.501 K0.000 F300.000
G1 X0.501 Y0.000 Z-8.000 F300.000
G1 X0.501 Y0.000 Z-10.000 F300.000
G1 X0.500 Y50.000 Z-10.000 F300.000
G2 X11.935 Y61.499 Z-10.000 I11.501 J-0.002 K0.000 F300.000
G1 X72.000 Y61.500 Z-10.000 F300.000
G2 X83.499 Y50.065 Z-10.000 I-0.002 J-11.501 K0.000 F300.000
G1 X83.500 Y-50.000 Z-10.000 F300.000
G2 X72.065 Y-61.499 Z-10.000 I-11.501 J0.002 K0.000 F300.000
G1 X12.000 Y-61.500 Z-10.000 F300.000
G2 X0.501 Y-50.065 Z-10.000 I0.002 J11.501 K0.000 F300.000
G1 X0.501 Y0.000 Z-10.000 F300.000
G1 X0.501 Y0.000 Z-12.000 F300.000
G1 X0.500 Y50.000 Z-12.000 F300.000
G2 X11.935 Y61.499 Z-12.000 I11.501 J-0.002 K0.000 F300.000
G1 X72.000 Y61.500 Z-12.000 F300.000
G2 X83.499 Y50.065 Z-12.000 I-0.002 J-11.501 K0.000 F300.000
G1 X83.500 Y-50.000 Z-12.000 F300.000
G2 X72.065 Y-61.499 Z-12.000 I-11.501 J0.002 K0.000 F300.000
G1 X12.000 Y-61.500 Z-12.000 F300.000
G2 X0.501 Y-50.065 Z-12.000 I0.002 J11.501 K0.000 F300.000
G1 X0.501 Y0.000 Z-12.000 F300.000
G0 Z5.000
G0 Z5.000
(Finish operation: Profile003)
(Begin postamble)
M5
G17 G90
M2
