(Exported by FreeCAD)
(Post Processor: script_module)
(Output Time:2026-04-28 14:05:13.076551)
(Begin preamble)
G17 G90
G21
(Begin operation: Fixture)
(Path: Fixture)
G54
(Finish operation: Fixture)
(Begin operation: 3175001)
(Path: 3175001)
(3175001)
(Begin toolchange)
( M6 T2 )
M3 S10000
(Finish operation: 3175001)
(Begin operation: Profile001)
(Path: Profile001)
(Profile001)
(Compensated Tool Path. Diameter: 3.17)
G0 Z5.000
G0 X-44.085 Y38.415
G0 Z3.000
G1 X-44.085 Y38.415 Z-2.500 F600.000
G1 X-44.085 Y-38.415 Z-2.500 F600.000
G1 X-45.915 Y-38.415 Z-2.500 F600.000
G1 X-45.915 Y38.415 Z-2.500 F600.000
G1 X-44.085 Y38.415 Z-2.500 F600.000
G1 X-44.085 Y38.415 Z-5.000 F600.000
G1 X-44.085 Y-38.415 Z-5.000 F600.000
G1 X-45.915 Y-38.415 Z-5.000 F600.000
G1 X-45.915 Y38.415 Z-5.000 F600.000
G1 X-44.085 Y38.415 Z-5.000 F600.000
G1 X-44.085 Y38.415 Z-7.500 F600.000
G1 X-44.085 Y-38.415 Z-7.500 F600.000
G1 X-45.915 Y-38.415 Z-7.500 F600.000
G1 X-45.915 Y38.415 Z-7.500 F600.000
G1 X-44.085 Y38.415 Z-7.500 F600.000
G1 X-44.085 Y38.415 Z-10.000 F600.000
G1 X-44.085 Y-38.415 Z-10.000 F600.000
G1 X-45.915 Y-38.415 Z-10.000 F600.000
G1 X-45.915 Y38.415 Z-10.000 F600.000
G1 X-44.085 Y38.415 Z-10.000 F600.000
G0 Z5.000
G0 Z5.000
(Finish operation: Profile001)
(Begin operation: Profile002)
(Path: Profile002)
(Profile002)
(Compensated Tool Path. Diameter: 3.17)
G0 Z5.000
G0 X45.915 Y38.415
G0 Z3.000
G1 X45.915 Y38.415 Z-2.500 F600.000
G1 X45.915 Y-38.415 Z-2.500 F600.000
G1 X44.085 Y-38.415 Z-2.500 F600.000
G1 X44.085 Y38.415 Z-2.500 F600.000
G1 X45.915 Y38.415 Z-2.500 F600.000
G1 X45.915 Y38.415 Z-5.000 F600.000
G1 X45.915 Y-38.415 Z-5.000 F600.000
G1 X44.085 Y-38.415 Z-5.000 F600.000
G1 X44.085 Y38.415 Z-5.000 F600.000
G1 X45.915 Y38.415 Z-5.000 F600.000
G1 X45.915 Y38.415 Z-7.500 F600.000
G1 X45.915 Y-38.415 Z-7.500 F600.000
G1 X44.085 Y-38.415 Z-7.500 F600.000
G1 X44.085 Y38.415 Z-7.500 F600.000
G1 X45.915 Y38.415 Z-7.500 F600.000
G1 X45.915 Y38.415 Z-10.000 F600.000
G1 X45.915 Y-38.415 Z-10.000 F600.000
G1 X44.085 Y-38.415 Z-10.000 F600.000
G1 X44.085 Y38.415 Z-10.000 F600.000
G1 X45.915 Y38.415 Z-10.000 F600.000
G0 Z5.000
G0 Z5.000
(Finish operation: Profile002)
(Begin operation: Profile003)
(Path: Profile003)
(Profile003)
(Compensated Tool Path. Diameter: 3.17)
G0 Z5.000
G0 X53.621 Y56.121
G0 Z3.000
G1 X53.621 Y56.121 Z-2.500 F600.000
G2 X54.085 Y55.000 Z-2.500 I-1.121 J-1.121 K0.000 F600.000
G1 X54.085 Y-55.000 Z-2.500 F600.000
G2 X52.500 Y-56.585 Z-2.500 I-1.585 J0.000 K0.000 F600.000
G1 X-52.500 Y-56.585 Z-2.500 F600.000
G2 X-54.085 Y-55.000 Z-2.500 I0.000 J1.585 K0.000 F600.000
G1 X-54.085 Y55.000 Z-2.500 F600.000
G2 X-52.500 Y56.585 Z-2.500 I1.585 J-0.000 K0.000 F600.000
G1 X52.500 Y56.585 Z-2.500 F600.000
G2 X53.621 Y56.121 Z-2.500 I-0.000 J-1.585 K0.000 F600.000
G1 X53.621 Y56.121 Z-5.000 F600.000
G2 X54.085 Y55.000 Z-5.000 I-1.121 J-1.121 K0.000 F600.000
G1 X54.085 Y-55.000 Z-5.000 F600.000
G2 X52.500 Y-56.585 Z-5.000 I-1.585 J0.000 K0.000 F600.000
G1 X-52.500 Y-56.585 Z-5.000 F600.000
G2 X-54.085 Y-55.000 Z-5.000 I0.000 J1.585 K0.000 F600.000
G1 X-54.085 Y55.000 Z-5.000 F600.000
G2 X-52.500 Y56.585 Z-5.000 I1.585 J-0.000 K0.000 F600.000
G1 X52.500 Y56.585 Z-5.000 F600.000
G2 X53.621 Y56.121 Z-5.000 I-0.000 J-1.585 K0.000 F600.000
G1 X53.621 Y56.121 Z-7.500 F600.000
G2 X54.085 Y55.000 Z-7.500 I-1.121 J-1.121 K0.000 F600.000
G1 X54.085 Y-55.000 Z-7.500 F600.000
G2 X52.500 Y-56.585 Z-7.500 I-1.585 J0.000 K0.000 F600.000
G1 X-52.500 Y-56.585 Z-7.500 F600.000
G2 X-54.085 Y-55.000 Z-7.500 I0.000 J1.585 K0.000 F600.000
G1 X-54.085 Y55.000 Z-7.500 F600.000
G2 X-52.500 Y56.585 Z-7.500 I1.585 J-0.000 K0.000 F600.000
G1 X52.500 Y56.585 Z-7.500 F600.000
G2 X53.621 Y56.121 Z-7.500 I-0.000 J-1.585 K0.000 F600.000
G1 X53.621 Y56.121 Z-10.000 F600.000
G2 X54.085 Y55.000 Z-10.000 I-1.121 J-1.121 K0.000 F600.000
G1 X54.085 Y-55.000 Z-10.000 F600.000
G2 X52.500 Y-56.585 Z-10.000 I-1.585 J0.000 K0.000 F600.000
G1 X-52.500 Y-56.585 Z-10.000 F600.000
G2 X-54.085 Y-55.000 Z-10.000 I0.000 J1.585 K0.000 F600.000
G1 X-54.085 Y55.000 Z-10.000 F600.000
G2 X-52.500 Y56.585 Z-10.000 I1.585 J-0.000 K0.000 F600.000
G1 X52.500 Y56.585 Z-10.000 F600.000
G2 X53.621 Y56.121 Z-10.000 I-0.000 J-1.585 K0.000 F600.000
G0 Z5.000
G0 Z5.000
(Finish operation: Profile003)
(Begin postamble)
M5
G17 G90
M2
