(Exported by FreeCAD)
(Post Processor: script_module)
(Output Time:2026-06-07 16:35:04.068590)
(Begin preamble)
G17 G90
G21
(Begin operation: Fixture)
(Path: Fixture)
G54
(Finish operation: Fixture)
(Begin operation: 3175002002002001)
(Path: 3175002002002001)
(3175002002002001)
(Begin toolchange)
( M6 T2 )
M3 S10000
(Finish operation: 3175002002002001)
(Begin operation: Profile006)
(Path: Profile006)
(Profile006)
(Compensated Tool Path. Diameter: 3.17)
G0 Z5.000
G0 X5.101 Y5.101
G0 Z3.000
G1 X5.101 Y5.101 Z-2.000 F240.000
G2 X1.007 Y-7.143 Z-2.000 I-5.101 J-5.101 K0.000 F240.000
G2 X-7.143 Y-1.007 Z-2.000 I-1.007 J7.143 K0.000 F240.000
G2 X-1.007 Y7.143 Z-2.000 I7.143 J1.007 K0.000 F240.000
G2 X5.101 Y5.101 Z-2.000 I1.007 J-7.143 K0.000 F240.000
G1 X5.101 Y5.101 Z-4.000 F240.000
G2 X1.007 Y-7.143 Z-4.000 I-5.101 J-5.101 K0.000 F240.000
G2 X-7.143 Y-1.007 Z-4.000 I-1.007 J7.143 K0.000 F240.000
G2 X-1.007 Y7.143 Z-4.000 I7.143 J1.007 K0.000 F240.000
G2 X5.101 Y5.101 Z-4.000 I1.007 J-7.143 K0.000 F240.000
G1 X5.101 Y5.101 Z-6.000 F240.000
G2 X1.007 Y-7.143 Z-6.000 I-5.101 J-5.101 K0.000 F240.000
G2 X-7.143 Y-1.007 Z-6.000 I-1.007 J7.143 K0.000 F240.000
G2 X-1.007 Y7.143 Z-6.000 I7.143 J1.007 K0.000 F240.000
G2 X5.101 Y5.101 Z-6.000 I1.007 J-7.143 K0.000 F240.000
G0 Z5.000
G0 Z5.000
(Finish operation: Profile006)
(Begin operation: Profile007)
(Path: Profile007)
(Profile007)
(Compensated Tool Path. Diameter: 3.17)
G0 Z5.000
G0 X9.605 Y9.605
G0 Z3.000
G1 X9.605 Y9.605 Z-2.000 F240.000
G3 X-1.672 Y13.481 Z-2.000 I-9.605 J-9.605 K0.000 F240.000
G3 X-13.481 Y-1.672 Z-2.000 I1.672 J-13.481 K0.000 F240.000
G3 X1.672 Y-13.481 Z-2.000 I13.481 J1.672 K0.000 F240.000
G3 X9.605 Y9.605 Z-2.000 I-1.672 J13.481 K0.000 F240.000
G1 X9.605 Y9.605 Z-4.000 F240.000
G3 X-1.672 Y13.481 Z-4.000 I-9.605 J-9.605 K0.000 F240.000
G3 X-13.481 Y-1.672 Z-4.000 I1.672 J-13.481 K0.000 F240.000
G3 X1.672 Y-13.481 Z-4.000 I13.481 J1.672 K0.000 F240.000
G3 X9.605 Y9.605 Z-4.000 I-1.672 J13.481 K0.000 F240.000
G1 X9.605 Y9.605 Z-6.000 F240.000
G3 X-1.672 Y13.481 Z-6.000 I-9.605 J-9.605 K0.000 F240.000
G3 X-13.481 Y-1.672 Z-6.000 I1.672 J-13.481 K0.000 F240.000
G3 X1.672 Y-13.481 Z-6.000 I13.481 J1.672 K0.000 F240.000
G3 X9.605 Y9.605 Z-6.000 I-1.672 J13.481 K0.000 F240.000
G0 Z5.000
G0 Z5.000
(Finish operation: Profile007)
(Begin postamble)
M5
G17 G90
M2
