(Exported by FreeCAD)
(Post Processor: script_module)
(Output Time:2026-06-07 16:15:39.615939)
(Begin preamble)
G17 G90
G21
(Begin operation: Fixture)
(Path: Fixture)
G54
(Finish operation: Fixture)
(Begin operation: 2mm001)
(Path: 2mm001)
(2mm001)
(Begin toolchange)
( M6 T3 )
(Finish operation: 2mm001)
(Begin operation: Profile)
(Path: Profile)
(Profile)
(Compensated Tool Path. Diameter: 2.0)
G0 Z5.000
G0 X5.020 Y5.020
G0 Z3.000
G1 X5.020 Y5.020 Z-2.000
G2 X1.385 Y-6.962 Z-2.000 I-5.020 J-5.020 K0.000
G2 X-1.385 Y6.962 Z-2.000 I-1.385 J6.962 K0.000
G2 X5.020 Y5.020 Z-2.000 I1.385 J-6.962 K0.000
G1 X5.020 Y5.020 Z-4.000
G2 X1.385 Y-6.962 Z-4.000 I-5.020 J-5.020 K0.000
G2 X-1.385 Y6.962 Z-4.000 I-1.385 J6.962 K0.000
G2 X5.020 Y5.020 Z-4.000 I1.385 J-6.962 K0.000
G1 X5.020 Y5.020 Z-6.000
G2 X1.385 Y-6.962 Z-6.000 I-5.020 J-5.020 K0.000
G2 X-1.385 Y6.962 Z-6.000 I-1.385 J6.962 K0.000
G2 X5.020 Y5.020 Z-6.000 I1.385 J-6.962 K0.000
G0 Z5.000
G0 Z5.000
(Finish operation: Profile)
(Begin operation: Profile001)
(Path: Profile001)
(Profile001)
(Compensated Tool Path. Diameter: 2.0)
G0 Z5.000
G0 X8.555 Y8.555
G0 Z3.000
G1 X8.555 Y8.555 Z-2.000
G3 X-2.032 Y11.927 Z-2.000 I-8.555 J-8.555 K0.000
G3 X-11.927 Y-2.032 Z-2.000 I2.032 J-11.927 K0.000
G3 X2.032 Y-11.927 Z-2.000 I11.927 J2.032 K0.000
G3 X8.555 Y8.555 Z-2.000 I-2.032 J11.927 K0.000
G1 X8.555 Y8.555 Z-4.000
G3 X-2.032 Y11.927 Z-4.000 I-8.555 J-8.555 K0.000
G3 X-11.927 Y-2.032 Z-4.000 I2.032 J-11.927 K0.000
G3 X2.032 Y-11.927 Z-4.000 I11.927 J2.032 K0.000
G3 X8.555 Y8.555 Z-4.000 I-2.032 J11.927 K0.000
G1 X8.555 Y8.555 Z-6.000
G3 X-2.032 Y11.927 Z-6.000 I-8.555 J-8.555 K0.000
G3 X-11.927 Y-2.032 Z-6.000 I2.032 J-11.927 K0.000
G3 X2.032 Y-11.927 Z-6.000 I11.927 J2.032 K0.000
G3 X8.555 Y8.555 Z-6.000 I-2.032 J11.927 K0.000
G0 Z5.000
G0 Z5.000
(Finish operation: Profile001)
(Begin postamble)
M5
G17 G90
M2
