(Exported by FreeCAD)
(Post Processor: script_module)
(Output Time:2026-06-07 16:22:16.765218)
(Begin preamble)
G17 G90
G21
(Begin operation: Fixture)
(Path: Fixture)
G54
(Finish operation: Fixture)
(Begin operation: 3175001)
(Path: 3175001)
(3175001)
(Begin toolchange)
( M6 T2 )
M3 S10000
(Finish operation: 3175001)
(Begin operation: Profile)
(Path: Profile)
(Profile)
(Compensated Tool Path. Diameter: 3.17)
G0 Z5.000
G0 X4.605 Y4.605
G0 Z3.000
G1 X4.605 Y4.605 Z-2.000 F240.000
G2 X1.271 Y-6.388 Z-2.000 I-4.605 J-4.605 K0.000 F240.000
G2 X-1.271 Y6.388 Z-2.000 I-1.271 J6.388 K0.000 F240.000
G2 X4.605 Y4.605 Z-2.000 I1.271 J-6.388 K0.000 F240.000
G1 X4.605 Y4.605 Z-4.000 F240.000
G2 X1.271 Y-6.388 Z-4.000 I-4.605 J-4.605 K0.000 F240.000
G2 X-1.271 Y6.388 Z-4.000 I-1.271 J6.388 K0.000 F240.000
G2 X4.605 Y4.605 Z-4.000 I1.271 J-6.388 K0.000 F240.000
G1 X4.605 Y4.605 Z-6.000 F240.000
G2 X1.271 Y-6.388 Z-6.000 I-4.605 J-4.605 K0.000 F240.000
G2 X-1.271 Y6.388 Z-6.000 I-1.271 J6.388 K0.000 F240.000
G2 X4.605 Y4.605 Z-6.000 I1.271 J-6.388 K0.000 F240.000
G0 Z5.000
G0 Z5.000
(Finish operation: Profile)
(Begin operation: Profile001)
(Path: Profile001)
(Profile001)
(Compensated Tool Path. Diameter: 3.17)
G0 Z5.000
G0 X8.969 Y8.969
G0 Z3.000
G1 X8.969 Y8.969 Z-2.000 F240.000
G3 X-2.152 Y12.500 Z-2.000 I-8.969 J-8.969 K0.000 F240.000
G3 X2.152 Y-12.500 Z-2.000 I2.152 J-12.500 K0.000 F240.000
G3 X8.969 Y8.969 Z-2.000 I-2.152 J12.500 K0.000 F240.000
G1 X8.969 Y8.969 Z-4.000 F240.000
G3 X-2.152 Y12.500 Z-4.000 I-8.969 J-8.969 K0.000 F240.000
G3 X2.152 Y-12.500 Z-4.000 I2.152 J-12.500 K0.000 F240.000
G3 X8.969 Y8.969 Z-4.000 I-2.152 J12.500 K0.000 F240.000
G1 X8.969 Y8.969 Z-6.000 F240.000
G3 X-2.152 Y12.500 Z-6.000 I-8.969 J-8.969 K0.000 F240.000
G3 X2.152 Y-12.500 Z-6.000 I2.152 J-12.500 K0.000 F240.000
G3 X8.969 Y8.969 Z-6.000 I-2.152 J12.500 K0.000 F240.000
G0 Z5.000
G0 Z5.000
(Finish operation: Profile001)
(Begin postamble)
M5
G17 G90
M2
