(Exported by FreeCAD)
(Post Processor: script_module)
(Output Time:2026-07-17 16:20:40.986624)
(Begin preamble)
G17 G90
G21
(Begin operation: Fixture)
(Path: Fixture)
G54
(Finish operation: Fixture)
(Begin operation: 3175002002001)
(Path: 3175002002001)
(3175002002001)
(Begin toolchange)
( M6 T2 )
M3 S10000
(Finish operation: 3175002002001)
(Begin operation: Profile004)
(Path: Profile004)
(Profile004)
(Compensated Tool Path. Diameter: 3.17)
G0 Z5.000
G0 X4.747 Y4.747
G0 Z3.000
G1 X4.747 Y4.747 Z-2.000 F240.000
G2 X1.310 Y-6.584 Z-2.000 I-4.747 J-4.747 K0.000 F240.000
G2 X-1.310 Y6.584 Z-2.000 I-1.310 J6.584 K0.000 F240.000
G2 X4.747 Y4.747 Z-2.000 I1.310 J-6.584 K0.000 F240.000
G1 X4.747 Y4.747 Z-4.000 F240.000
G2 X1.310 Y-6.584 Z-4.000 I-4.747 J-4.747 K0.000 F240.000
G2 X-1.310 Y6.584 Z-4.000 I-1.310 J6.584 K0.000 F240.000
G2 X4.747 Y4.747 Z-4.000 I1.310 J-6.584 K0.000 F240.000
G1 X4.747 Y4.747 Z-5.500 F240.000
G2 X1.310 Y-6.584 Z-5.500 I-4.747 J-4.747 K0.000 F240.000
G2 X-1.310 Y6.584 Z-5.500 I-1.310 J6.584 K0.000 F240.000
G2 X4.747 Y4.747 Z-5.500 I1.310 J-6.584 K0.000 F240.000
G0 Z5.000
G0 Z5.000
(Finish operation: Profile004)
(Begin operation: Profile005)
(Path: Profile005)
(Profile005)
(Compensated Tool Path. Diameter: 3.17)
G0 Z5.000
G0 X9.110 Y9.110
G0 Z3.000
G1 X9.110 Y9.110 Z-2.000 F240.000
G3 X-2.185 Y12.697 Z-2.000 I-9.110 J-9.110 K0.000 F240.000
G3 X-12.697 Y-2.185 Z-2.000 I2.185 J-12.697 K0.000 F240.000
G3 X2.185 Y-12.697 Z-2.000 I12.697 J2.185 K0.000 F240.000
G3 X9.110 Y9.110 Z-2.000 I-2.185 J12.697 K0.000 F240.000
G1 X9.110 Y9.110 Z-4.000 F240.000
G3 X-2.185 Y12.697 Z-4.000 I-9.110 J-9.110 K0.000 F240.000
G3 X-12.697 Y-2.185 Z-4.000 I2.185 J-12.697 K0.000 F240.000
G3 X2.185 Y-12.697 Z-4.000 I12.697 J2.185 K0.000 F240.000
G3 X9.110 Y9.110 Z-4.000 I-2.185 J12.697 K0.000 F240.000
G1 X9.110 Y9.110 Z-5.500 F240.000
G3 X-2.185 Y12.697 Z-5.500 I-9.110 J-9.110 K0.000 F240.000
G3 X-12.697 Y-2.185 Z-5.500 I2.185 J-12.697 K0.000 F240.000
G3 X2.185 Y-12.697 Z-5.500 I12.697 J2.185 K0.000 F240.000
G3 X9.110 Y9.110 Z-5.500 I-2.185 J12.697 K0.000 F240.000
G0 Z5.000
G0 Z5.000
(Finish operation: Profile005)
(Begin postamble)
M5
G17 G90
M2
