(Exported by FreeCAD)
(Post Processor: script_module)
(Output Time:2026-05-10 13:49:39.826173)
(Begin preamble)
G17 G90
G21
(Begin operation: Fixture)
(Path: Fixture)
G54
(Finish operation: Fixture)
(Begin operation: 3175002001)
(Path: 3175002001)
(3175002001)
(Begin toolchange)
( M6 T2 )
M3 S10000
(Finish operation: 3175002001)
(Begin operation: Profile002)
(Path: Profile002)
(Profile002)
(Compensated Tool Path. Diameter: 3.17)
G0 Z5.000
G0 X4.888 Y4.888
G0 Z3.000
G1 X4.888 Y4.888 Z-2.000 F240.000
G2 X0.965 Y-6.846 Z-2.000 I-4.888 J-4.888 K0.000 F240.000
G2 X-6.846 Y-0.965 Z-2.000 I-0.965 J6.846 K0.000 F240.000
G2 X-0.965 Y6.846 Z-2.000 I6.846 J0.965 K0.000 F240.000
G2 X4.888 Y4.888 Z-2.000 I0.965 J-6.846 K0.000 F240.000
G1 X4.888 Y4.888 Z-4.000 F240.000
G2 X0.965 Y-6.846 Z-4.000 I-4.888 J-4.888 K0.000 F240.000
G2 X-6.846 Y-0.965 Z-4.000 I-0.965 J6.846 K0.000 F240.000
G2 X-0.965 Y6.846 Z-4.000 I6.846 J0.965 K0.000 F240.000
G2 X4.888 Y4.888 Z-4.000 I0.965 J-6.846 K0.000 F240.000
G1 X4.888 Y4.888 Z-6.000 F240.000
G2 X0.965 Y-6.846 Z-6.000 I-4.888 J-4.888 K0.000 F240.000
G2 X-6.846 Y-0.965 Z-6.000 I-0.965 J6.846 K0.000 F240.000
G2 X-0.965 Y6.846 Z-6.000 I6.846 J0.965 K0.000 F240.000
G2 X4.888 Y4.888 Z-6.000 I0.965 J-6.846 K0.000 F240.000
G0 Z5.000
G0 Z5.000
(Finish operation: Profile002)
(Begin operation: Profile003)
(Path: Profile003)
(Profile003)
(Compensated Tool Path. Diameter: 3.17)
G0 Z5.000
G0 X9.252 Y9.252
G0 Z3.000
G1 X9.252 Y9.252 Z-2.000 F240.000
G2 X2.218 Y-12.894 Z-2.000 I-9.252 J-9.252 K0.000 F240.000
G2 X-2.218 Y12.894 Z-2.000 I-2.218 J12.894 K0.000 F240.000
G2 X9.252 Y9.252 Z-2.000 I2.218 J-12.894 K0.000 F240.000
G1 X9.252 Y9.252 Z-4.000 F240.000
G2 X2.218 Y-12.894 Z-4.000 I-9.252 J-9.252 K0.000 F240.000
G2 X-2.218 Y12.894 Z-4.000 I-2.218 J12.894 K0.000 F240.000
G2 X9.252 Y9.252 Z-4.000 I2.218 J-12.894 K0.000 F240.000
G1 X9.252 Y9.252 Z-6.000 F240.000
G2 X2.218 Y-12.894 Z-6.000 I-9.252 J-9.252 K0.000 F240.000
G2 X-2.218 Y12.894 Z-6.000 I-2.218 J12.894 K0.000 F240.000
G2 X9.252 Y9.252 Z-6.000 I2.218 J-12.894 K0.000 F240.000
G0 Z5.000
G0 Z5.000
(Finish operation: Profile003)
(Begin postamble)
M5
G17 G90
M2
