(Exported by FreeCAD)
(Post Processor: script_module)
(Output Time:2026-07-17 16:40:15.507096)
(Begin preamble)
G17 G90
G21
(Begin operation: Fixture)
(Path: Fixture)
G54
(Finish operation: Fixture)
(Begin operation: 3175mm001)
(Path: 3175mm001)
(3175mm001)
(Begin toolchange)
( M6 T2 )
M3 S10000
(Finish operation: 3175mm001)
(Begin operation: Profile008)
(Path: Profile008)
(Profile008)
(Compensated Tool Path. Diameter: 3.17)
G0 Z5.000
G0 X6.480 Y6.480
G0 Z3.000
G1 X6.480 Y6.480 Z-2.000 F240.000
G2 X1.144 Y-9.092 Z-2.000 I-6.480 J-6.480 K0.000 F240.000
G2 X-9.092 Y-1.144 Z-2.000 I-1.144 J9.092 K0.000 F240.000
G2 X-1.144 Y9.092 Z-2.000 I9.092 J1.144 K0.000 F240.000
G2 X6.480 Y6.480 Z-2.000 I1.144 J-9.092 K0.000 F240.000
G1 X6.480 Y6.480 Z-4.000 F240.000
G2 X1.144 Y-9.092 Z-4.000 I-6.480 J-6.480 K0.000 F240.000
G2 X-9.092 Y-1.144 Z-4.000 I-1.144 J9.092 K0.000 F240.000
G2 X-1.144 Y9.092 Z-4.000 I9.092 J1.144 K0.000 F240.000
G2 X6.480 Y6.480 Z-4.000 I1.144 J-9.092 K0.000 F240.000
G1 X6.480 Y6.480 Z-5.500 F240.000
G2 X1.144 Y-9.092 Z-5.500 I-6.480 J-6.480 K0.000 F240.000
G2 X-9.092 Y-1.144 Z-5.500 I-1.144 J9.092 K0.000 F240.000
G2 X-1.144 Y9.092 Z-5.500 I9.092 J1.144 K0.000 F240.000
G2 X6.480 Y6.480 Z-5.500 I1.144 J-9.092 K0.000 F240.000
G0 Z5.000
G0 Z5.000
(Finish operation: Profile008)
(Begin operation: Profile009)
(Path: Profile009)
(Profile009)
(Compensated Tool Path. Diameter: 3.17)
G0 Z5.000
G0 X11.020 Y11.020
G0 Z3.000
G1 X11.020 Y11.020 Z-2.000 F240.000
G3 X-2.381 Y15.401 Z-2.000 I-11.020 J-11.020 K0.000 F240.000
G3 X-15.401 Y-2.381 Z-2.000 I2.381 J-15.401 K0.000 F240.000
G3 X2.381 Y-15.401 Z-2.000 I15.401 J2.381 K0.000 F240.000
G3 X11.020 Y11.020 Z-2.000 I-2.381 J15.401 K0.000 F240.000
G1 X11.020 Y11.020 Z-4.000 F240.000
G3 X-2.381 Y15.401 Z-4.000 I-11.020 J-11.020 K0.000 F240.000
G3 X-15.401 Y-2.381 Z-4.000 I2.381 J-15.401 K0.000 F240.000
G3 X2.381 Y-15.401 Z-4.000 I15.401 J2.381 K0.000 F240.000
G3 X11.020 Y11.020 Z-4.000 I-2.381 J15.401 K0.000 F240.000
G1 X11.020 Y11.020 Z-5.500 F240.000
G3 X-2.381 Y15.401 Z-5.500 I-11.020 J-11.020 K0.000 F240.000
G3 X-15.401 Y-2.381 Z-5.500 I2.381 J-15.401 K0.000 F240.000
G3 X2.381 Y-15.401 Z-5.500 I15.401 J2.381 K0.000 F240.000
G3 X11.020 Y11.020 Z-5.500 I-2.381 J15.401 K0.000 F240.000
G0 Z5.000
G0 Z5.000
(Finish operation: Profile009)
(Begin postamble)
M5
G17 G90
M2
