(Exported by FreeCAD)
(Post Processor: script_module)
(Output Time:2025-11-05 12:20:17.805448)
(Begin preamble)
G17 G90
G21
(Begin operation: Fixture)
(Path: Fixture)
G54
(Finish operation: Fixture)
(Begin operation: 3mm_Endmill001)
(Path: 3mm_Endmill001)
(3mm_Endmill001)
(Begin toolchange)
( M6 T2 )
M3 S10000
(Finish operation: 3mm_Endmill001)
(Begin operation: Profile)
(Path: Profile)
(Profile)
(Compensated Tool Path. Diameter: 3.0)
G0 Z5.000
G0 X0.000 Y0.000
G0 X-81.500
G0 X-81.500 Z3.000
G1 X-81.500 Y0.000 Z-3.000 F600.000
G1 X-81.500 Y-46.709 Z-3.000 F600.000
G3 X-80.714 Y-48.028 Z-3.000 I1.500 J0.000 K0.000 F600.000
G2 X-80.638 Y-49.927 Z-3.000 I-0.300 J-0.963 K0.000 F600.000
G2 X-81.831 Y-49.547 Z-3.000 I-0.361 J0.927 K0.000 F600.000
G3 X-83.291 Y-48.500 Z-3.000 I-1.490 J-0.536 K0.000 F600.000
G1 X-96.709 Y-48.500 Z-3.000 F600.000
G3 X-98.025 Y-49.281 Z-3.000 I-0.000 J-1.500 K0.000 F600.000
G2 X-98.566 Y-49.894 Z-3.000 I-1.043 J0.374 K0.000 F600.000
G2 X-99.552 Y-48.173 Z-3.000 I-0.434 J0.894 K0.000 F600.000
G3 X-98.500 Y-46.709 Z-3.000 I-0.537 J1.495 K0.000 F600.000
G1 X-98.500 Y46.709 Z-3.000 F600.000
G3 X-99.281 Y48.025 Z-3.000 I-1.500 J0.000 K0.000 F600.000
G2 X-99.894 Y48.566 Z-3.000 I0.374 J1.043 K0.000 F600.000
G2 X-98.173 Y49.552 Z-3.000 I0.894 J0.434 K0.000 F600.000
G3 X-96.709 Y48.500 Z-3.000 I1.495 J0.537 K0.000 F600.000
G1 X-83.291 Y48.500 Z-3.000 F600.000
G3 X-81.972 Y49.285 Z-3.000 I-0.000 J1.500 K0.000 F600.000
G2 X-81.458 Y49.883 Z-3.000 I1.042 J-0.377 K0.000 F600.000
G2 X-80.457 Y48.166 Z-3.000 I0.458 J-0.883 K0.000 F600.000
G3 X-81.500 Y46.709 Z-3.000 I0.536 J-1.485 K0.000 F600.000
G1 X-81.500 Y0.000 Z-3.000 F600.000
G1 X-81.500 Y0.000 Z-6.000 F600.000
G1 X-81.500 Y-46.709 Z-6.000 F600.000
G3 X-80.714 Y-48.028 Z-6.000 I1.500 J0.000 K0.000 F600.000
G2 X-80.638 Y-49.927 Z-6.000 I-0.300 J-0.963 K0.000 F600.000
G2 X-81.831 Y-49.547 Z-6.000 I-0.361 J0.927 K0.000 F600.000
G3 X-83.291 Y-48.500 Z-6.000 I-1.490 J-0.536 K0.000 F600.000
G1 X-96.709 Y-48.500 Z-6.000 F600.000
G3 X-98.025 Y-49.281 Z-6.000 I-0.000 J-1.500 K0.000 F600.000
G2 X-98.566 Y-49.894 Z-6.000 I-1.043 J0.374 K0.000 F600.000
G2 X-99.552 Y-48.173 Z-6.000 I-0.434 J0.894 K0.000 F600.000
G3 X-98.500 Y-46.709 Z-6.000 I-0.537 J1.495 K0.000 F600.000
G1 X-98.500 Y46.709 Z-6.000 F600.000
G3 X-99.281 Y48.025 Z-6.000 I-1.500 J0.000 K0.000 F600.000
G2 X-99.894 Y48.566 Z-6.000 I0.374 J1.043 K0.000 F600.000
G2 X-98.173 Y49.552 Z-6.000 I0.894 J0.434 K0.000 F600.000
G3 X-96.709 Y48.500 Z-6.000 I1.495 J0.537 K0.000 F600.000
G1 X-83.291 Y48.500 Z-6.000 F600.000
G3 X-81.972 Y49.285 Z-6.000 I-0.000 J1.500 K0.000 F600.000
G2 X-81.458 Y49.883 Z-6.000 I1.042 J-0.377 K0.000 F600.000
G2 X-80.457 Y48.166 Z-6.000 I0.458 J-0.883 K0.000 F600.000
G3 X-81.500 Y46.709 Z-6.000 I0.536 J-1.485 K0.000 F600.000
G1 X-81.500 Y0.000 Z-6.000 F600.000
G1 X-81.500 Y0.000 Z-9.000 F600.000
G1 X-81.500 Y-46.709 Z-9.000 F600.000
G3 X-80.714 Y-48.028 Z-9.000 I1.500 J0.000 K0.000 F600.000
G2 X-80.638 Y-49.927 Z-9.000 I-0.300 J-0.963 K0.000 F600.000
G2 X-81.831 Y-49.547 Z-9.000 I-0.361 J0.927 K0.000 F600.000
G3 X-83.291 Y-48.500 Z-9.000 I-1.490 J-0.536 K0.000 F600.000
G1 X-96.709 Y-48.500 Z-9.000 F600.000
G3 X-98.025 Y-49.281 Z-9.000 I-0.000 J-1.500 K0.000 F600.000
G2 X-98.566 Y-49.894 Z-9.000 I-1.043 J0.374 K0.000 F600.000
G2 X-99.552 Y-48.173 Z-9.000 I-0.434 J0.894 K0.000 F600.000
G3 X-98.500 Y-46.709 Z-9.000 I-0.537 J1.495 K0.000 F600.000
G1 X-98.500 Y46.709 Z-9.000 F600.000
G3 X-99.281 Y48.025 Z-9.000 I-1.500 J0.000 K0.000 F600.000
G2 X-99.894 Y48.566 Z-9.000 I0.374 J1.043 K0.000 F600.000
G2 X-98.173 Y49.552 Z-9.000 I0.894 J0.434 K0.000 F600.000
G3 X-96.709 Y48.500 Z-9.000 I1.495 J0.537 K0.000 F600.000
G1 X-83.291 Y48.500 Z-9.000 F600.000
G3 X-81.972 Y49.285 Z-9.000 I-0.000 J1.500 K0.000 F600.000
G2 X-81.458 Y49.883 Z-9.000 I1.042 J-0.377 K0.000 F600.000
G2 X-80.457 Y48.166 Z-9.000 I0.458 J-0.883 K0.000 F600.000
G3 X-81.500 Y46.709 Z-9.000 I0.536 J-1.485 K0.000 F600.000
G1 X-81.500 Y0.000 Z-9.000 F600.000
G1 X-81.500 Y0.000 Z-12.000 F600.000
G1 X-81.500 Y-46.709 Z-12.000 F600.000
G3 X-80.714 Y-48.028 Z-12.000 I1.500 J0.000 K0.000 F600.000
G2 X-80.638 Y-49.927 Z-12.000 I-0.300 J-0.963 K0.000 F600.000
G2 X-81.831 Y-49.547 Z-12.000 I-0.361 J0.927 K0.000 F600.000
G3 X-83.291 Y-48.500 Z-12.000 I-1.490 J-0.536 K0.000 F600.000
G1 X-96.709 Y-48.500 Z-12.000 F600.000
G3 X-98.025 Y-49.281 Z-12.000 I-0.000 J-1.500 K0.000 F600.000
G2 X-98.566 Y-49.894 Z-12.000 I-1.043 J0.374 K0.000 F600.000
G2 X-99.552 Y-48.173 Z-12.000 I-0.434 J0.894 K0.000 F600.000
G3 X-98.500 Y-46.709 Z-12.000 I-0.537 J1.495 K0.000 F600.000
G1 X-98.500 Y46.709 Z-12.000 F600.000
G3 X-99.281 Y48.025 Z-12.000 I-1.500 J0.000 K0.000 F600.000
G2 X-99.894 Y48.566 Z-12.000 I0.374 J1.043 K0.000 F600.000
G2 X-98.173 Y49.552 Z-12.000 I0.894 J0.434 K0.000 F600.000
G3 X-96.709 Y48.500 Z-12.000 I1.495 J0.537 K0.000 F600.000
G1 X-83.291 Y48.500 Z-12.000 F600.000
G3 X-81.972 Y49.285 Z-12.000 I-0.000 J1.500 K0.000 F600.000
G2 X-81.458 Y49.883 Z-12.000 I1.042 J-0.377 K0.000 F600.000
G2 X-80.457 Y48.166 Z-12.000 I0.458 J-0.883 K0.000 F600.000
G3 X-81.500 Y46.709 Z-12.000 I0.536 J-1.485 K0.000 F600.000
G1 X-81.500 Y0.000 Z-12.000 F600.000
G1 X-81.500 Y0.000 Z-15.000 F600.000
G1 X-81.500 Y-46.709 Z-15.000 F600.000
G3 X-80.714 Y-48.028 Z-15.000 I1.500 J0.000 K0.000 F600.000
G2 X-80.638 Y-49.927 Z-15.000 I-0.300 J-0.963 K0.000 F600.000
G2 X-81.831 Y-49.547 Z-15.000 I-0.361 J0.927 K0.000 F600.000
G3 X-83.291 Y-48.500 Z-15.000 I-1.490 J-0.536 K0.000 F600.000
G1 X-96.709 Y-48.500 Z-15.000 F600.000
G3 X-98.025 Y-49.281 Z-15.000 I-0.000 J-1.500 K0.000 F600.000
G2 X-98.566 Y-49.894 Z-15.000 I-1.043 J0.374 K0.000 F600.000
G2 X-99.552 Y-48.173 Z-15.000 I-0.434 J0.894 K0.000 F600.000
G3 X-98.500 Y-46.709 Z-15.000 I-0.537 J1.495 K0.000 F600.000
G1 X-98.500 Y46.709 Z-15.000 F600.000
G3 X-99.281 Y48.025 Z-15.000 I-1.500 J0.000 K0.000 F600.000
G2 X-99.894 Y48.566 Z-15.000 I0.374 J1.043 K0.000 F600.000
G2 X-98.173 Y49.552 Z-15.000 I0.894 J0.434 K0.000 F600.000
G3 X-96.709 Y48.500 Z-15.000 I1.495 J0.537 K0.000 F600.000
G1 X-83.291 Y48.500 Z-15.000 F600.000
G3 X-81.972 Y49.285 Z-15.000 I-0.000 J1.500 K0.000 F600.000
G2 X-81.458 Y49.883 Z-15.000 I1.042 J-0.377 K0.000 F600.000
G2 X-80.457 Y48.166 Z-15.000 I0.458 J-0.883 K0.000 F600.000
G3 X-81.500 Y46.709 Z-15.000 I0.536 J-1.485 K0.000 F600.000
G1 X-81.500 Y0.000 Z-15.000 F600.000
G1 X-81.500 Y0.000 Z-18.000 F600.000
G1 X-81.500 Y-46.709 Z-18.000 F600.000
G3 X-80.714 Y-48.028 Z-18.000 I1.500 J0.000 K0.000 F600.000
G2 X-80.638 Y-49.927 Z-18.000 I-0.300 J-0.963 K0.000 F600.000
G2 X-81.831 Y-49.547 Z-18.000 I-0.361 J0.927 K0.000 F600.000
G3 X-83.291 Y-48.500 Z-18.000 I-1.490 J-0.536 K0.000 F600.000
G1 X-96.709 Y-48.500 Z-18.000 F600.000
G3 X-98.025 Y-49.281 Z-18.000 I-0.000 J-1.500 K0.000 F600.000
G2 X-98.566 Y-49.894 Z-18.000 I-1.043 J0.374 K0.000 F600.000
G2 X-99.552 Y-48.173 Z-18.000 I-0.434 J0.894 K0.000 F600.000
G3 X-98.500 Y-46.709 Z-18.000 I-0.537 J1.495 K0.000 F600.000
G1 X-98.500 Y46.709 Z-18.000 F600.000
G3 X-99.281 Y48.025 Z-18.000 I-1.500 J0.000 K0.000 F600.000
G2 X-99.894 Y48.566 Z-18.000 I0.374 J1.043 K0.000 F600.000
G2 X-98.173 Y49.552 Z-18.000 I0.894 J0.434 K0.000 F600.000
G3 X-96.709 Y48.500 Z-18.000 I1.495 J0.537 K0.000 F600.000
G1 X-83.291 Y48.500 Z-18.000 F600.000
G3 X-81.972 Y49.285 Z-18.000 I-0.000 J1.500 K0.000 F600.000
G2 X-81.458 Y49.883 Z-18.000 I1.042 J-0.377 K0.000 F600.000
G2 X-80.457 Y48.166 Z-18.000 I0.458 J-0.883 K0.000 F600.000
G3 X-81.500 Y46.709 Z-18.000 I0.536 J-1.485 K0.000 F600.000
G1 X-81.500 Y0.000 Z-18.000 F600.000
G1 X-81.500 Y0.000 Z-20.000 F600.000
G1 X-81.500 Y-46.709 Z-20.000 F600.000
G3 X-80.714 Y-48.028 Z-20.000 I1.500 J0.000 K0.000 F600.000
G2 X-80.638 Y-49.927 Z-20.000 I-0.300 J-0.963 K0.000 F600.000
G2 X-81.831 Y-49.547 Z-20.000 I-0.361 J0.927 K0.000 F600.000
G3 X-83.291 Y-48.500 Z-20.000 I-1.490 J-0.536 K0.000 F600.000
G1 X-96.709 Y-48.500 Z-20.000 F600.000
G3 X-98.025 Y-49.281 Z-20.000 I-0.000 J-1.500 K0.000 F600.000
G2 X-98.566 Y-49.894 Z-20.000 I-1.043 J0.374 K0.000 F600.000
G2 X-99.552 Y-48.173 Z-20.000 I-0.434 J0.894 K0.000 F600.000
G3 X-98.500 Y-46.709 Z-20.000 I-0.537 J1.495 K0.000 F600.000
G1 X-98.500 Y46.709 Z-20.000 F600.000
G3 X-99.281 Y48.025 Z-20.000 I-1.500 J0.000 K0.000 F600.000
G2 X-99.894 Y48.566 Z-20.000 I0.374 J1.043 K0.000 F600.000
G2 X-98.173 Y49.552 Z-20.000 I0.894 J0.434 K0.000 F600.000
G3 X-96.709 Y48.500 Z-20.000 I1.495 J0.537 K0.000 F600.000
G1 X-83.291 Y48.500 Z-20.000 F600.000
G3 X-81.972 Y49.285 Z-20.000 I-0.000 J1.500 K0.000 F600.000
G2 X-81.458 Y49.883 Z-20.000 I1.042 J-0.377 K0.000 F600.000
G2 X-80.457 Y48.166 Z-20.000 I0.458 J-0.883 K0.000 F600.000
G3 X-81.500 Y46.709 Z-20.000 I0.536 J-1.485 K0.000 F600.000
G1 X-81.500 Y0.000 Z-20.000 F600.000
G0 Z5.000
G0 Z5.000
(Finish operation: Profile)
(Begin operation: Profile001)
(Path: Profile001)
(Profile008)
(Compensated Tool Path. Diameter: 3.0)
G0 Z5.000
G0 X0.000 Y0.000
G0 X-21.500
G0 X-21.500 Z3.000
G1 X-21.500 Y0.000 Z-3.000 F600.000
G1 X-21.500 Y-46.709 Z-3.000 F600.000
G3 X-20.714 Y-48.028 Z-3.000 I1.500 J0.000 K0.000 F600.000
G2 X-20.638 Y-49.927 Z-3.000 I-0.300 J-0.963 K0.000 F600.000
G2 X-21.831 Y-49.547 Z-3.000 I-0.361 J0.927 K0.000 F600.000
G3 X-23.291 Y-48.500 Z-3.000 I-1.490 J-0.536 K0.000 F600.000
G1 X-36.709 Y-48.500 Z-3.000 F600.000
G3 X-38.025 Y-49.281 Z-3.000 I0.000 J-1.500 K0.000 F600.000
G2 X-38.566 Y-49.894 Z-3.000 I-1.043 J0.374 K0.000 F600.000
G2 X-39.552 Y-48.173 Z-3.000 I-0.434 J0.894 K0.000 F600.000
G3 X-38.500 Y-46.709 Z-3.000 I-0.537 J1.495 K0.000 F600.000
G1 X-38.500 Y46.709 Z-3.000 F600.000
G3 X-39.281 Y48.025 Z-3.000 I-1.500 J0.000 K0.000 F600.000
G2 X-39.894 Y48.566 Z-3.000 I0.374 J1.043 K0.000 F600.000
G2 X-38.173 Y49.552 Z-3.000 I0.894 J0.434 K0.000 F600.000
G3 X-36.709 Y48.500 Z-3.000 I1.495 J0.537 K0.000 F600.000
G1 X-23.291 Y48.500 Z-3.000 F600.000
G3 X-21.972 Y49.285 Z-3.000 I-0.000 J1.500 K0.000 F600.000
G2 X-21.458 Y49.883 Z-3.000 I1.042 J-0.377 K0.000 F600.000
G2 X-20.457 Y48.166 Z-3.000 I0.458 J-0.883 K0.000 F600.000
G3 X-21.500 Y46.709 Z-3.000 I0.536 J-1.485 K0.000 F600.000
G1 X-21.500 Y0.000 Z-3.000 F600.000
G1 X-21.500 Y0.000 Z-6.000 F600.000
G1 X-21.500 Y-46.709 Z-6.000 F600.000
G3 X-20.714 Y-48.028 Z-6.000 I1.500 J0.000 K0.000 F600.000
G2 X-20.638 Y-49.927 Z-6.000 I-0.300 J-0.963 K0.000 F600.000
G2 X-21.831 Y-49.547 Z-6.000 I-0.361 J0.927 K0.000 F600.000
G3 X-23.291 Y-48.500 Z-6.000 I-1.490 J-0.536 K0.000 F600.000
G1 X-36.709 Y-48.500 Z-6.000 F600.000
G3 X-38.025 Y-49.281 Z-6.000 I0.000 J-1.500 K0.000 F600.000
G2 X-38.566 Y-49.894 Z-6.000 I-1.043 J0.374 K0.000 F600.000
G2 X-39.552 Y-48.173 Z-6.000 I-0.434 J0.894 K0.000 F600.000
G3 X-38.500 Y-46.709 Z-6.000 I-0.537 J1.495 K0.000 F600.000
G1 X-38.500 Y46.709 Z-6.000 F600.000
G3 X-39.281 Y48.025 Z-6.000 I-1.500 J0.000 K0.000 F600.000
G2 X-39.894 Y48.566 Z-6.000 I0.374 J1.043 K0.000 F600.000
G2 X-38.173 Y49.552 Z-6.000 I0.894 J0.434 K0.000 F600.000
G3 X-36.709 Y48.500 Z-6.000 I1.495 J0.537 K0.000 F600.000
G1 X-23.291 Y48.500 Z-6.000 F600.000
G3 X-21.972 Y49.285 Z-6.000 I-0.000 J1.500 K0.000 F600.000
G2 X-21.458 Y49.883 Z-6.000 I1.042 J-0.377 K0.000 F600.000
G2 X-20.457 Y48.166 Z-6.000 I0.458 J-0.883 K0.000 F600.000
G3 X-21.500 Y46.709 Z-6.000 I0.536 J-1.485 K0.000 F600.000
G1 X-21.500 Y0.000 Z-6.000 F600.000
G1 X-21.500 Y0.000 Z-9.000 F600.000
G1 X-21.500 Y-46.709 Z-9.000 F600.000
G3 X-20.714 Y-48.028 Z-9.000 I1.500 J0.000 K0.000 F600.000
G2 X-20.638 Y-49.927 Z-9.000 I-0.300 J-0.963 K0.000 F600.000
G2 X-21.831 Y-49.547 Z-9.000 I-0.361 J0.927 K0.000 F600.000
G3 X-23.291 Y-48.500 Z-9.000 I-1.490 J-0.536 K0.000 F600.000
G1 X-36.709 Y-48.500 Z-9.000 F600.000
G3 X-38.025 Y-49.281 Z-9.000 I0.000 J-1.500 K0.000 F600.000
G2 X-38.566 Y-49.894 Z-9.000 I-1.043 J0.374 K0.000 F600.000
G2 X-39.552 Y-48.173 Z-9.000 I-0.434 J0.894 K0.000 F600.000
G3 X-38.500 Y-46.709 Z-9.000 I-0.537 J1.495 K0.000 F600.000
G1 X-38.500 Y46.709 Z-9.000 F600.000
G3 X-39.281 Y48.025 Z-9.000 I-1.500 J0.000 K0.000 F600.000
G2 X-39.894 Y48.566 Z-9.000 I0.374 J1.043 K0.000 F600.000
G2 X-38.173 Y49.552 Z-9.000 I0.894 J0.434 K0.000 F600.000
G3 X-36.709 Y48.500 Z-9.000 I1.495 J0.537 K0.000 F600.000
G1 X-23.291 Y48.500 Z-9.000 F600.000
G3 X-21.972 Y49.285 Z-9.000 I-0.000 J1.500 K0.000 F600.000
G2 X-21.458 Y49.883 Z-9.000 I1.042 J-0.377 K0.000 F600.000
G2 X-20.457 Y48.166 Z-9.000 I0.458 J-0.883 K0.000 F600.000
G3 X-21.500 Y46.709 Z-9.000 I0.536 J-1.485 K0.000 F600.000
G1 X-21.500 Y0.000 Z-9.000 F600.000
G1 X-21.500 Y0.000 Z-12.000 F600.000
G1 X-21.500 Y-46.709 Z-12.000 F600.000
G3 X-20.714 Y-48.028 Z-12.000 I1.500 J0.000 K0.000 F600.000
G2 X-20.638 Y-49.927 Z-12.000 I-0.300 J-0.963 K0.000 F600.000
G2 X-21.831 Y-49.547 Z-12.000 I-0.361 J0.927 K0.000 F600.000
G3 X-23.291 Y-48.500 Z-12.000 I-1.490 J-0.536 K0.000 F600.000
G1 X-36.709 Y-48.500 Z-12.000 F600.000
G3 X-38.025 Y-49.281 Z-12.000 I0.000 J-1.500 K0.000 F600.000
G2 X-38.566 Y-49.894 Z-12.000 I-1.043 J0.374 K0.000 F600.000
G2 X-39.552 Y-48.173 Z-12.000 I-0.434 J0.894 K0.000 F600.000
G3 X-38.500 Y-46.709 Z-12.000 I-0.537 J1.495 K0.000 F600.000
G1 X-38.500 Y46.709 Z-12.000 F600.000
G3 X-39.281 Y48.025 Z-12.000 I-1.500 J0.000 K0.000 F600.000
G2 X-39.894 Y48.566 Z-12.000 I0.374 J1.043 K0.000 F600.000
G2 X-38.173 Y49.552 Z-12.000 I0.894 J0.434 K0.000 F600.000
G3 X-36.709 Y48.500 Z-12.000 I1.495 J0.537 K0.000 F600.000
G1 X-23.291 Y48.500 Z-12.000 F600.000
G3 X-21.972 Y49.285 Z-12.000 I-0.000 J1.500 K0.000 F600.000
G2 X-21.458 Y49.883 Z-12.000 I1.042 J-0.377 K0.000 F600.000
G2 X-20.457 Y48.166 Z-12.000 I0.458 J-0.883 K0.000 F600.000
G3 X-21.500 Y46.709 Z-12.000 I0.536 J-1.485 K0.000 F600.000
G1 X-21.500 Y0.000 Z-12.000 F600.000
G1 X-21.500 Y0.000 Z-15.000 F600.000
G1 X-21.500 Y-46.709 Z-15.000 F600.000
G3 X-20.714 Y-48.028 Z-15.000 I1.500 J0.000 K0.000 F600.000
G2 X-20.638 Y-49.927 Z-15.000 I-0.300 J-0.963 K0.000 F600.000
G2 X-21.831 Y-49.547 Z-15.000 I-0.361 J0.927 K0.000 F600.000
G3 X-23.291 Y-48.500 Z-15.000 I-1.490 J-0.536 K0.000 F600.000
G1 X-36.709 Y-48.500 Z-15.000 F600.000
G3 X-38.025 Y-49.281 Z-15.000 I0.000 J-1.500 K0.000 F600.000
G2 X-38.566 Y-49.894 Z-15.000 I-1.043 J0.374 K0.000 F600.000
G2 X-39.552 Y-48.173 Z-15.000 I-0.434 J0.894 K0.000 F600.000
G3 X-38.500 Y-46.709 Z-15.000 I-0.537 J1.495 K0.000 F600.000
G1 X-38.500 Y46.709 Z-15.000 F600.000
G3 X-39.281 Y48.025 Z-15.000 I-1.500 J0.000 K0.000 F600.000
G2 X-39.894 Y48.566 Z-15.000 I0.374 J1.043 K0.000 F600.000
G2 X-38.173 Y49.552 Z-15.000 I0.894 J0.434 K0.000 F600.000
G3 X-36.709 Y48.500 Z-15.000 I1.495 J0.537 K0.000 F600.000
G1 X-23.291 Y48.500 Z-15.000 F600.000
G3 X-21.972 Y49.285 Z-15.000 I-0.000 J1.500 K0.000 F600.000
G2 X-21.458 Y49.883 Z-15.000 I1.042 J-0.377 K0.000 F600.000
G2 X-20.457 Y48.166 Z-15.000 I0.458 J-0.883 K0.000 F600.000
G3 X-21.500 Y46.709 Z-15.000 I0.536 J-1.485 K0.000 F600.000
G1 X-21.500 Y0.000 Z-15.000 F600.000
G1 X-21.500 Y0.000 Z-18.000 F600.000
G1 X-21.500 Y-46.709 Z-18.000 F600.000
G3 X-20.714 Y-48.028 Z-18.000 I1.500 J0.000 K0.000 F600.000
G2 X-20.638 Y-49.927 Z-18.000 I-0.300 J-0.963 K0.000 F600.000
G2 X-21.831 Y-49.547 Z-18.000 I-0.361 J0.927 K0.000 F600.000
G3 X-23.291 Y-48.500 Z-18.000 I-1.490 J-0.536 K0.000 F600.000
G1 X-36.709 Y-48.500 Z-18.000 F600.000
G3 X-38.025 Y-49.281 Z-18.000 I0.000 J-1.500 K0.000 F600.000
G2 X-38.566 Y-49.894 Z-18.000 I-1.043 J0.374 K0.000 F600.000
G2 X-39.552 Y-48.173 Z-18.000 I-0.434 J0.894 K0.000 F600.000
G3 X-38.500 Y-46.709 Z-18.000 I-0.537 J1.495 K0.000 F600.000
G1 X-38.500 Y46.709 Z-18.000 F600.000
G3 X-39.281 Y48.025 Z-18.000 I-1.500 J0.000 K0.000 F600.000
G2 X-39.894 Y48.566 Z-18.000 I0.374 J1.043 K0.000 F600.000
G2 X-38.173 Y49.552 Z-18.000 I0.894 J0.434 K0.000 F600.000
G3 X-36.709 Y48.500 Z-18.000 I1.495 J0.537 K0.000 F600.000
G1 X-23.291 Y48.500 Z-18.000 F600.000
G3 X-21.972 Y49.285 Z-18.000 I-0.000 J1.500 K0.000 F600.000
G2 X-21.458 Y49.883 Z-18.000 I1.042 J-0.377 K0.000 F600.000
G2 X-20.457 Y48.166 Z-18.000 I0.458 J-0.883 K0.000 F600.000
G3 X-21.500 Y46.709 Z-18.000 I0.536 J-1.485 K0.000 F600.000
G1 X-21.500 Y0.000 Z-18.000 F600.000
G1 X-21.500 Y0.000 Z-20.000 F600.000
G1 X-21.500 Y-46.709 Z-20.000 F600.000
G3 X-20.714 Y-48.028 Z-20.000 I1.500 J0.000 K0.000 F600.000
G2 X-20.638 Y-49.927 Z-20.000 I-0.300 J-0.963 K0.000 F600.000
G2 X-21.831 Y-49.547 Z-20.000 I-0.361 J0.927 K0.000 F600.000
G3 X-23.291 Y-48.500 Z-20.000 I-1.490 J-0.536 K0.000 F600.000
G1 X-36.709 Y-48.500 Z-20.000 F600.000
G3 X-38.025 Y-49.281 Z-20.000 I0.000 J-1.500 K0.000 F600.000
G2 X-38.566 Y-49.894 Z-20.000 I-1.043 J0.374 K0.000 F600.000
G2 X-39.552 Y-48.173 Z-20.000 I-0.434 J0.894 K0.000 F600.000
G3 X-38.500 Y-46.709 Z-20.000 I-0.537 J1.495 K0.000 F600.000
G1 X-38.500 Y46.709 Z-20.000 F600.000
G3 X-39.281 Y48.025 Z-20.000 I-1.500 J0.000 K0.000 F600.000
G2 X-39.894 Y48.566 Z-20.000 I0.374 J1.043 K0.000 F600.000
G2 X-38.173 Y49.552 Z-20.000 I0.894 J0.434 K0.000 F600.000
G3 X-36.709 Y48.500 Z-20.000 I1.495 J0.537 K0.000 F600.000
G1 X-23.291 Y48.500 Z-20.000 F600.000
G3 X-21.972 Y49.285 Z-20.000 I-0.000 J1.500 K0.000 F600.000
G2 X-21.458 Y49.883 Z-20.000 I1.042 J-0.377 K0.000 F600.000
G2 X-20.457 Y48.166 Z-20.000 I0.458 J-0.883 K0.000 F600.000
G3 X-21.500 Y46.709 Z-20.000 I0.536 J-1.485 K0.000 F600.000
G1 X-21.500 Y0.000 Z-20.000 F600.000
G0 Z5.000
G0 Z5.000
(Finish operation: Profile001)
(Begin operation: Profile002)
(Path: Profile002)
(Profile002)
(Compensated Tool Path. Diameter: 3.0)
G0 Z5.000
G0 X0.000 Y0.000
G0 X21.500
G0 X21.500 Z3.000
G1 X21.500 Y0.000 Z-3.000 F600.000
G1 X21.500 Y46.709 Z-3.000 F600.000
G3 X20.719 Y48.025 Z-3.000 I-1.500 J0.000 K0.000 F600.000
G2 X20.106 Y48.566 Z-3.000 I0.374 J1.043 K0.000 F600.000
G2 X21.827 Y49.552 Z-3.000 I0.894 J0.434 K0.000 F600.000
G3 X23.291 Y48.500 Z-3.000 I1.495 J0.537 K0.000 F600.000
G1 X36.709 Y48.500 Z-3.000 F600.000
G3 X38.028 Y49.285 Z-3.000 I-0.000 J1.500 K0.000 F600.000
G2 X38.542 Y49.883 Z-3.000 I1.042 J-0.377 K0.000 F600.000
G2 X39.543 Y48.166 Z-3.000 I0.458 J-0.883 K0.000 F600.000
G3 X38.500 Y46.709 Z-3.000 I0.536 J-1.485 K0.000 F600.000
G1 X38.500 Y-46.709 Z-3.000 F600.000
G3 X39.286 Y-48.028 Z-3.000 I1.500 J0.000 K0.000 F600.000
G2 X39.362 Y-49.927 Z-3.000 I-0.300 J-0.963 K0.000 F600.000
G2 X38.169 Y-49.547 Z-3.000 I-0.361 J0.927 K0.000 F600.000
G3 X36.709 Y-48.500 Z-3.000 I-1.490 J-0.536 K0.000 F600.000
G1 X23.291 Y-48.500 Z-3.000 F600.000
G3 X21.975 Y-49.281 Z-3.000 I0.000 J-1.500 K0.000 F600.000
G2 X21.434 Y-49.894 Z-3.000 I-1.043 J0.374 K0.000 F600.000
G2 X20.448 Y-48.173 Z-3.000 I-0.434 J0.894 K0.000 F600.000
G3 X21.500 Y-46.709 Z-3.000 I-0.537 J1.495 K0.000 F600.000
G1 X21.500 Y0.000 Z-3.000 F600.000
G1 X21.500 Y0.000 Z-6.000 F600.000
G1 X21.500 Y46.709 Z-6.000 F600.000
G3 X20.719 Y48.025 Z-6.000 I-1.500 J0.000 K0.000 F600.000
G2 X20.106 Y48.566 Z-6.000 I0.374 J1.043 K0.000 F600.000
G2 X21.827 Y49.552 Z-6.000 I0.894 J0.434 K0.000 F600.000
G3 X23.291 Y48.500 Z-6.000 I1.495 J0.537 K0.000 F600.000
G1 X36.709 Y48.500 Z-6.000 F600.000
G3 X38.028 Y49.285 Z-6.000 I-0.000 J1.500 K0.000 F600.000
G2 X38.542 Y49.883 Z-6.000 I1.042 J-0.377 K0.000 F600.000
G2 X39.543 Y48.166 Z-6.000 I0.458 J-0.883 K0.000 F600.000
G3 X38.500 Y46.709 Z-6.000 I0.536 J-1.485 K0.000 F600.000
G1 X38.500 Y-46.709 Z-6.000 F600.000
G3 X39.286 Y-48.028 Z-6.000 I1.500 J0.000 K0.000 F600.000
G2 X39.362 Y-49.927 Z-6.000 I-0.300 J-0.963 K0.000 F600.000
G2 X38.169 Y-49.547 Z-6.000 I-0.361 J0.927 K0.000 F600.000
G3 X36.709 Y-48.500 Z-6.000 I-1.490 J-0.536 K0.000 F600.000
G1 X23.291 Y-48.500 Z-6.000 F600.000
G3 X21.975 Y-49.281 Z-6.000 I0.000 J-1.500 K0.000 F600.000
G2 X21.434 Y-49.894 Z-6.000 I-1.043 J0.374 K0.000 F600.000
G2 X20.448 Y-48.173 Z-6.000 I-0.434 J0.894 K0.000 F600.000
G3 X21.500 Y-46.709 Z-6.000 I-0.537 J1.495 K0.000 F600.000
G1 X21.500 Y0.000 Z-6.000 F600.000
G1 X21.500 Y0.000 Z-9.000 F600.000
G1 X21.500 Y46.709 Z-9.000 F600.000
G3 X20.719 Y48.025 Z-9.000 I-1.500 J0.000 K0.000 F600.000
G2 X20.106 Y48.566 Z-9.000 I0.374 J1.043 K0.000 F600.000
G2 X21.827 Y49.552 Z-9.000 I0.894 J0.434 K0.000 F600.000
G3 X23.291 Y48.500 Z-9.000 I1.495 J0.537 K0.000 F600.000
G1 X36.709 Y48.500 Z-9.000 F600.000
G3 X38.028 Y49.285 Z-9.000 I-0.000 J1.500 K0.000 F600.000
G2 X38.542 Y49.883 Z-9.000 I1.042 J-0.377 K0.000 F600.000
G2 X39.543 Y48.166 Z-9.000 I0.458 J-0.883 K0.000 F600.000
G3 X38.500 Y46.709 Z-9.000 I0.536 J-1.485 K0.000 F600.000
G1 X38.500 Y-46.709 Z-9.000 F600.000
G3 X39.286 Y-48.028 Z-9.000 I1.500 J0.000 K0.000 F600.000
G2 X39.362 Y-49.927 Z-9.000 I-0.300 J-0.963 K0.000 F600.000
G2 X38.169 Y-49.547 Z-9.000 I-0.361 J0.927 K0.000 F600.000
G3 X36.709 Y-48.500 Z-9.000 I-1.490 J-0.536 K0.000 F600.000
G1 X23.291 Y-48.500 Z-9.000 F600.000
G3 X21.975 Y-49.281 Z-9.000 I0.000 J-1.500 K0.000 F600.000
G2 X21.434 Y-49.894 Z-9.000 I-1.043 J0.374 K0.000 F600.000
G2 X20.448 Y-48.173 Z-9.000 I-0.434 J0.894 K0.000 F600.000
G3 X21.500 Y-46.709 Z-9.000 I-0.537 J1.495 K0.000 F600.000
G1 X21.500 Y0.000 Z-9.000 F600.000
G1 X21.500 Y0.000 Z-12.000 F600.000
G1 X21.500 Y46.709 Z-12.000 F600.000
G3 X20.719 Y48.025 Z-12.000 I-1.500 J0.000 K0.000 F600.000
G2 X20.106 Y48.566 Z-12.000 I0.374 J1.043 K0.000 F600.000
G2 X21.827 Y49.552 Z-12.000 I0.894 J0.434 K0.000 F600.000
G3 X23.291 Y48.500 Z-12.000 I1.495 J0.537 K0.000 F600.000
G1 X36.709 Y48.500 Z-12.000 F600.000
G3 X38.028 Y49.285 Z-12.000 I-0.000 J1.500 K0.000 F600.000
G2 X38.542 Y49.883 Z-12.000 I1.042 J-0.377 K0.000 F600.000
G2 X39.543 Y48.166 Z-12.000 I0.458 J-0.883 K0.000 F600.000
G3 X38.500 Y46.709 Z-12.000 I0.536 J-1.485 K0.000 F600.000
G1 X38.500 Y-46.709 Z-12.000 F600.000
G3 X39.286 Y-48.028 Z-12.000 I1.500 J0.000 K0.000 F600.000
G2 X39.362 Y-49.927 Z-12.000 I-0.300 J-0.963 K0.000 F600.000
G2 X38.169 Y-49.547 Z-12.000 I-0.361 J0.927 K0.000 F600.000
G3 X36.709 Y-48.500 Z-12.000 I-1.490 J-0.536 K0.000 F600.000
G1 X23.291 Y-48.500 Z-12.000 F600.000
G3 X21.975 Y-49.281 Z-12.000 I0.000 J-1.500 K0.000 F600.000
G2 X21.434 Y-49.894 Z-12.000 I-1.043 J0.374 K0.000 F600.000
G2 X20.448 Y-48.173 Z-12.000 I-0.434 J0.894 K0.000 F600.000
G3 X21.500 Y-46.709 Z-12.000 I-0.537 J1.495 K0.000 F600.000
G1 X21.500 Y0.000 Z-12.000 F600.000
G1 X21.500 Y0.000 Z-15.000 F600.000
G1 X21.500 Y46.709 Z-15.000 F600.000
G3 X20.719 Y48.025 Z-15.000 I-1.500 J0.000 K0.000 F600.000
G2 X20.106 Y48.566 Z-15.000 I0.374 J1.043 K0.000 F600.000
G2 X21.827 Y49.552 Z-15.000 I0.894 J0.434 K0.000 F600.000
G3 X23.291 Y48.500 Z-15.000 I1.495 J0.537 K0.000 F600.000
G1 X36.709 Y48.500 Z-15.000 F600.000
G3 X38.028 Y49.285 Z-15.000 I-0.000 J1.500 K0.000 F600.000
G2 X38.542 Y49.883 Z-15.000 I1.042 J-0.377 K0.000 F600.000
G2 X39.543 Y48.166 Z-15.000 I0.458 J-0.883 K0.000 F600.000
G3 X38.500 Y46.709 Z-15.000 I0.536 J-1.485 K0.000 F600.000
G1 X38.500 Y-46.709 Z-15.000 F600.000
G3 X39.286 Y-48.028 Z-15.000 I1.500 J0.000 K0.000 F600.000
G2 X39.362 Y-49.927 Z-15.000 I-0.300 J-0.963 K0.000 F600.000
G2 X38.169 Y-49.547 Z-15.000 I-0.361 J0.927 K0.000 F600.000
G3 X36.709 Y-48.500 Z-15.000 I-1.490 J-0.536 K0.000 F600.000
G1 X23.291 Y-48.500 Z-15.000 F600.000
G3 X21.975 Y-49.281 Z-15.000 I0.000 J-1.500 K0.000 F600.000
G2 X21.434 Y-49.894 Z-15.000 I-1.043 J0.374 K0.000 F600.000
G2 X20.448 Y-48.173 Z-15.000 I-0.434 J0.894 K0.000 F600.000
G3 X21.500 Y-46.709 Z-15.000 I-0.537 J1.495 K0.000 F600.000
G1 X21.500 Y0.000 Z-15.000 F600.000
G1 X21.500 Y0.000 Z-18.000 F600.000
G1 X21.500 Y46.709 Z-18.000 F600.000
G3 X20.719 Y48.025 Z-18.000 I-1.500 J0.000 K0.000 F600.000
G2 X20.106 Y48.566 Z-18.000 I0.374 J1.043 K0.000 F600.000
G2 X21.827 Y49.552 Z-18.000 I0.894 J0.434 K0.000 F600.000
G3 X23.291 Y48.500 Z-18.000 I1.495 J0.537 K0.000 F600.000
G1 X36.709 Y48.500 Z-18.000 F600.000
G3 X38.028 Y49.285 Z-18.000 I-0.000 J1.500 K0.000 F600.000
G2 X38.542 Y49.883 Z-18.000 I1.042 J-0.377 K0.000 F600.000
G2 X39.543 Y48.166 Z-18.000 I0.458 J-0.883 K0.000 F600.000
G3 X38.500 Y46.709 Z-18.000 I0.536 J-1.485 K0.000 F600.000
G1 X38.500 Y-46.709 Z-18.000 F600.000
G3 X39.286 Y-48.028 Z-18.000 I1.500 J0.000 K0.000 F600.000
G2 X39.362 Y-49.927 Z-18.000 I-0.300 J-0.963 K0.000 F600.000
G2 X38.169 Y-49.547 Z-18.000 I-0.361 J0.927 K0.000 F600.000
G3 X36.709 Y-48.500 Z-18.000 I-1.490 J-0.536 K0.000 F600.000
G1 X23.291 Y-48.500 Z-18.000 F600.000
G3 X21.975 Y-49.281 Z-18.000 I0.000 J-1.500 K0.000 F600.000
G2 X21.434 Y-49.894 Z-18.000 I-1.043 J0.374 K0.000 F600.000
G2 X20.448 Y-48.173 Z-18.000 I-0.434 J0.894 K0.000 F600.000
G3 X21.500 Y-46.709 Z-18.000 I-0.537 J1.495 K0.000 F600.000
G1 X21.500 Y0.000 Z-18.000 F600.000
G1 X21.500 Y0.000 Z-20.000 F600.000
G1 X21.500 Y46.709 Z-20.000 F600.000
G3 X20.719 Y48.025 Z-20.000 I-1.500 J0.000 K0.000 F600.000
G2 X20.106 Y48.566 Z-20.000 I0.374 J1.043 K0.000 F600.000
G2 X21.827 Y49.552 Z-20.000 I0.894 J0.434 K0.000 F600.000
G3 X23.291 Y48.500 Z-20.000 I1.495 J0.537 K0.000 F600.000
G1 X36.709 Y48.500 Z-20.000 F600.000
G3 X38.028 Y49.285 Z-20.000 I-0.000 J1.500 K0.000 F600.000
G2 X38.542 Y49.883 Z-20.000 I1.042 J-0.377 K0.000 F600.000
G2 X39.543 Y48.166 Z-20.000 I0.458 J-0.883 K0.000 F600.000
G3 X38.500 Y46.709 Z-20.000 I0.536 J-1.485 K0.000 F600.000
G1 X38.500 Y-46.709 Z-20.000 F600.000
G3 X39.286 Y-48.028 Z-20.000 I1.500 J0.000 K0.000 F600.000
G2 X39.362 Y-49.927 Z-20.000 I-0.300 J-0.963 K0.000 F600.000
G2 X38.169 Y-49.547 Z-20.000 I-0.361 J0.927 K0.000 F600.000
G3 X36.709 Y-48.500 Z-20.000 I-1.490 J-0.536 K0.000 F600.000
G1 X23.291 Y-48.500 Z-20.000 F600.000
G3 X21.975 Y-49.281 Z-20.000 I0.000 J-1.500 K0.000 F600.000
G2 X21.434 Y-49.894 Z-20.000 I-1.043 J0.374 K0.000 F600.000
G2 X20.448 Y-48.173 Z-20.000 I-0.434 J0.894 K0.000 F600.000
G3 X21.500 Y-46.709 Z-20.000 I-0.537 J1.495 K0.000 F600.000
G1 X21.500 Y0.000 Z-20.000 F600.000
G0 Z5.000
G0 Z5.000
(Finish operation: Profile002)
(Begin operation: Profile003)
(Path: Profile003)
(Profile009)
(Compensated Tool Path. Diameter: 3.0)
G0 Z5.000
G0 X0.000 Y0.000
G0 X81.500
G0 X81.500 Z3.000
G1 X81.500 Y0.000 Z-3.000 F600.000
G1 X81.500 Y46.709 Z-3.000 F600.000
G3 X80.719 Y48.025 Z-3.000 I-1.500 J0.000 K0.000 F600.000
G2 X80.106 Y48.566 Z-3.000 I0.374 J1.043 K0.000 F600.000
G2 X81.827 Y49.552 Z-3.000 I0.894 J0.434 K0.000 F600.000
G3 X83.291 Y48.500 Z-3.000 I1.495 J0.537 K0.000 F600.000
G1 X96.709 Y48.500 Z-3.000 F600.000
G3 X98.028 Y49.285 Z-3.000 I-0.000 J1.500 K0.000 F600.000
G2 X98.542 Y49.883 Z-3.000 I1.042 J-0.377 K0.000 F600.000
G2 X99.543 Y48.166 Z-3.000 I0.458 J-0.883 K0.000 F600.000
G3 X98.500 Y46.709 Z-3.000 I0.536 J-1.485 K0.000 F600.000
G1 X98.500 Y-46.709 Z-3.000 F600.000
G3 X99.286 Y-48.028 Z-3.000 I1.500 J0.000 K0.000 F600.000
G2 X99.362 Y-49.927 Z-3.000 I-0.300 J-0.963 K0.000 F600.000
G2 X98.169 Y-49.547 Z-3.000 I-0.361 J0.927 K0.000 F600.000
G3 X96.709 Y-48.500 Z-3.000 I-1.490 J-0.536 K0.000 F600.000
G1 X83.291 Y-48.500 Z-3.000 F600.000
G3 X81.975 Y-49.281 Z-3.000 I0.000 J-1.500 K0.000 F600.000
G2 X81.434 Y-49.894 Z-3.000 I-1.043 J0.374 K0.000 F600.000
G2 X80.448 Y-48.173 Z-3.000 I-0.434 J0.894 K0.000 F600.000
G3 X81.500 Y-46.709 Z-3.000 I-0.537 J1.495 K0.000 F600.000
G1 X81.500 Y0.000 Z-3.000 F600.000
G1 X81.500 Y0.000 Z-6.000 F600.000
G1 X81.500 Y46.709 Z-6.000 F600.000
G3 X80.719 Y48.025 Z-6.000 I-1.500 J0.000 K0.000 F600.000
G2 X80.106 Y48.566 Z-6.000 I0.374 J1.043 K0.000 F600.000
G2 X81.827 Y49.552 Z-6.000 I0.894 J0.434 K0.000 F600.000
G3 X83.291 Y48.500 Z-6.000 I1.495 J0.537 K0.000 F600.000
G1 X96.709 Y48.500 Z-6.000 F600.000
G3 X98.028 Y49.285 Z-6.000 I-0.000 J1.500 K0.000 F600.000
G2 X98.542 Y49.883 Z-6.000 I1.042 J-0.377 K0.000 F600.000
G2 X99.543 Y48.166 Z-6.000 I0.458 J-0.883 K0.000 F600.000
G3 X98.500 Y46.709 Z-6.000 I0.536 J-1.485 K0.000 F600.000
G1 X98.500 Y-46.709 Z-6.000 F600.000
G3 X99.286 Y-48.028 Z-6.000 I1.500 J0.000 K0.000 F600.000
G2 X99.362 Y-49.927 Z-6.000 I-0.300 J-0.963 K0.000 F600.000
G2 X98.169 Y-49.547 Z-6.000 I-0.361 J0.927 K0.000 F600.000
G3 X96.709 Y-48.500 Z-6.000 I-1.490 J-0.536 K0.000 F600.000
G1 X83.291 Y-48.500 Z-6.000 F600.000
G3 X81.975 Y-49.281 Z-6.000 I0.000 J-1.500 K0.000 F600.000
G2 X81.434 Y-49.894 Z-6.000 I-1.043 J0.374 K0.000 F600.000
G2 X80.448 Y-48.173 Z-6.000 I-0.434 J0.894 K0.000 F600.000
G3 X81.500 Y-46.709 Z-6.000 I-0.537 J1.495 K0.000 F600.000
G1 X81.500 Y0.000 Z-6.000 F600.000
G1 X81.500 Y0.000 Z-9.000 F600.000
G1 X81.500 Y46.709 Z-9.000 F600.000
G3 X80.719 Y48.025 Z-9.000 I-1.500 J0.000 K0.000 F600.000
G2 X80.106 Y48.566 Z-9.000 I0.374 J1.043 K0.000 F600.000
G2 X81.827 Y49.552 Z-9.000 I0.894 J0.434 K0.000 F600.000
G3 X83.291 Y48.500 Z-9.000 I1.495 J0.537 K0.000 F600.000
G1 X96.709 Y48.500 Z-9.000 F600.000
G3 X98.028 Y49.285 Z-9.000 I-0.000 J1.500 K0.000 F600.000
G2 X98.542 Y49.883 Z-9.000 I1.042 J-0.377 K0.000 F600.000
G2 X99.543 Y48.166 Z-9.000 I0.458 J-0.883 K0.000 F600.000
G3 X98.500 Y46.709 Z-9.000 I0.536 J-1.485 K0.000 F600.000
G1 X98.500 Y-46.709 Z-9.000 F600.000
G3 X99.286 Y-48.028 Z-9.000 I1.500 J0.000 K0.000 F600.000
G2 X99.362 Y-49.927 Z-9.000 I-0.300 J-0.963 K0.000 F600.000
G2 X98.169 Y-49.547 Z-9.000 I-0.361 J0.927 K0.000 F600.000
G3 X96.709 Y-48.500 Z-9.000 I-1.490 J-0.536 K0.000 F600.000
G1 X83.291 Y-48.500 Z-9.000 F600.000
G3 X81.975 Y-49.281 Z-9.000 I0.000 J-1.500 K0.000 F600.000
G2 X81.434 Y-49.894 Z-9.000 I-1.043 J0.374 K0.000 F600.000
G2 X80.448 Y-48.173 Z-9.000 I-0.434 J0.894 K0.000 F600.000
G3 X81.500 Y-46.709 Z-9.000 I-0.537 J1.495 K0.000 F600.000
G1 X81.500 Y0.000 Z-9.000 F600.000
G1 X81.500 Y0.000 Z-12.000 F600.000
G1 X81.500 Y46.709 Z-12.000 F600.000
G3 X80.719 Y48.025 Z-12.000 I-1.500 J0.000 K0.000 F600.000
G2 X80.106 Y48.566 Z-12.000 I0.374 J1.043 K0.000 F600.000
G2 X81.827 Y49.552 Z-12.000 I0.894 J0.434 K0.000 F600.000
G3 X83.291 Y48.500 Z-12.000 I1.495 J0.537 K0.000 F600.000
G1 X96.709 Y48.500 Z-12.000 F600.000
G3 X98.028 Y49.285 Z-12.000 I-0.000 J1.500 K0.000 F600.000
G2 X98.542 Y49.883 Z-12.000 I1.042 J-0.377 K0.000 F600.000
G2 X99.543 Y48.166 Z-12.000 I0.458 J-0.883 K0.000 F600.000
G3 X98.500 Y46.709 Z-12.000 I0.536 J-1.485 K0.000 F600.000
G1 X98.500 Y-46.709 Z-12.000 F600.000
G3 X99.286 Y-48.028 Z-12.000 I1.500 J0.000 K0.000 F600.000
G2 X99.362 Y-49.927 Z-12.000 I-0.300 J-0.963 K0.000 F600.000
G2 X98.169 Y-49.547 Z-12.000 I-0.361 J0.927 K0.000 F600.000
G3 X96.709 Y-48.500 Z-12.000 I-1.490 J-0.536 K0.000 F600.000
G1 X83.291 Y-48.500 Z-12.000 F600.000
G3 X81.975 Y-49.281 Z-12.000 I0.000 J-1.500 K0.000 F600.000
G2 X81.434 Y-49.894 Z-12.000 I-1.043 J0.374 K0.000 F600.000
G2 X80.448 Y-48.173 Z-12.000 I-0.434 J0.894 K0.000 F600.000
G3 X81.500 Y-46.709 Z-12.000 I-0.537 J1.495 K0.000 F600.000
G1 X81.500 Y0.000 Z-12.000 F600.000
G1 X81.500 Y0.000 Z-15.000 F600.000
G1 X81.500 Y46.709 Z-15.000 F600.000
G3 X80.719 Y48.025 Z-15.000 I-1.500 J0.000 K0.000 F600.000
G2 X80.106 Y48.566 Z-15.000 I0.374 J1.043 K0.000 F600.000
G2 X81.827 Y49.552 Z-15.000 I0.894 J0.434 K0.000 F600.000
G3 X83.291 Y48.500 Z-15.000 I1.495 J0.537 K0.000 F600.000
G1 X96.709 Y48.500 Z-15.000 F600.000
G3 X98.028 Y49.285 Z-15.000 I-0.000 J1.500 K0.000 F600.000
G2 X98.542 Y49.883 Z-15.000 I1.042 J-0.377 K0.000 F600.000
G2 X99.543 Y48.166 Z-15.000 I0.458 J-0.883 K0.000 F600.000
G3 X98.500 Y46.709 Z-15.000 I0.536 J-1.485 K0.000 F600.000
G1 X98.500 Y-46.709 Z-15.000 F600.000
G3 X99.286 Y-48.028 Z-15.000 I1.500 J0.000 K0.000 F600.000
G2 X99.362 Y-49.927 Z-15.000 I-0.300 J-0.963 K0.000 F600.000
G2 X98.169 Y-49.547 Z-15.000 I-0.361 J0.927 K0.000 F600.000
G3 X96.709 Y-48.500 Z-15.000 I-1.490 J-0.536 K0.000 F600.000
G1 X83.291 Y-48.500 Z-15.000 F600.000
G3 X81.975 Y-49.281 Z-15.000 I0.000 J-1.500 K0.000 F600.000
G2 X81.434 Y-49.894 Z-15.000 I-1.043 J0.374 K0.000 F600.000
G2 X80.448 Y-48.173 Z-15.000 I-0.434 J0.894 K0.000 F600.000
G3 X81.500 Y-46.709 Z-15.000 I-0.537 J1.495 K0.000 F600.000
G1 X81.500 Y0.000 Z-15.000 F600.000
G1 X81.500 Y0.000 Z-18.000 F600.000
G1 X81.500 Y46.709 Z-18.000 F600.000
G3 X80.719 Y48.025 Z-18.000 I-1.500 J0.000 K0.000 F600.000
G2 X80.106 Y48.566 Z-18.000 I0.374 J1.043 K0.000 F600.000
G2 X81.827 Y49.552 Z-18.000 I0.894 J0.434 K0.000 F600.000
G3 X83.291 Y48.500 Z-18.000 I1.495 J0.537 K0.000 F600.000
G1 X96.709 Y48.500 Z-18.000 F600.000
G3 X98.028 Y49.285 Z-18.000 I-0.000 J1.500 K0.000 F600.000
G2 X98.542 Y49.883 Z-18.000 I1.042 J-0.377 K0.000 F600.000
G2 X99.543 Y48.166 Z-18.000 I0.458 J-0.883 K0.000 F600.000
G3 X98.500 Y46.709 Z-18.000 I0.536 J-1.485 K0.000 F600.000
G1 X98.500 Y-46.709 Z-18.000 F600.000
G3 X99.286 Y-48.028 Z-18.000 I1.500 J0.000 K0.000 F600.000
G2 X99.362 Y-49.927 Z-18.000 I-0.300 J-0.963 K0.000 F600.000
G2 X98.169 Y-49.547 Z-18.000 I-0.361 J0.927 K0.000 F600.000
G3 X96.709 Y-48.500 Z-18.000 I-1.490 J-0.536 K0.000 F600.000
G1 X83.291 Y-48.500 Z-18.000 F600.000
G3 X81.975 Y-49.281 Z-18.000 I0.000 J-1.500 K0.000 F600.000
G2 X81.434 Y-49.894 Z-18.000 I-1.043 J0.374 K0.000 F600.000
G2 X80.448 Y-48.173 Z-18.000 I-0.434 J0.894 K0.000 F600.000
G3 X81.500 Y-46.709 Z-18.000 I-0.537 J1.495 K0.000 F600.000
G1 X81.500 Y0.000 Z-18.000 F600.000
G1 X81.500 Y0.000 Z-20.000 F600.000
G1 X81.500 Y46.709 Z-20.000 F600.000
G3 X80.719 Y48.025 Z-20.000 I-1.500 J0.000 K0.000 F600.000
G2 X80.106 Y48.566 Z-20.000 I0.374 J1.043 K0.000 F600.000
G2 X81.827 Y49.552 Z-20.000 I0.894 J0.434 K0.000 F600.000
G3 X83.291 Y48.500 Z-20.000 I1.495 J0.537 K0.000 F600.000
G1 X96.709 Y48.500 Z-20.000 F600.000
G3 X98.028 Y49.285 Z-20.000 I-0.000 J1.500 K0.000 F600.000
G2 X98.542 Y49.883 Z-20.000 I1.042 J-0.377 K0.000 F600.000
G2 X99.543 Y48.166 Z-20.000 I0.458 J-0.883 K0.000 F600.000
G3 X98.500 Y46.709 Z-20.000 I0.536 J-1.485 K0.000 F600.000
G1 X98.500 Y-46.709 Z-20.000 F600.000
G3 X99.286 Y-48.028 Z-20.000 I1.500 J0.000 K0.000 F600.000
G2 X99.362 Y-49.927 Z-20.000 I-0.300 J-0.963 K0.000 F600.000
G2 X98.169 Y-49.547 Z-20.000 I-0.361 J0.927 K0.000 F600.000
G3 X96.709 Y-48.500 Z-20.000 I-1.490 J-0.536 K0.000 F600.000
G1 X83.291 Y-48.500 Z-20.000 F600.000
G3 X81.975 Y-49.281 Z-20.000 I0.000 J-1.500 K0.000 F600.000
G2 X81.434 Y-49.894 Z-20.000 I-1.043 J0.374 K0.000 F600.000
G2 X80.448 Y-48.173 Z-20.000 I-0.434 J0.894 K0.000 F600.000
G3 X81.500 Y-46.709 Z-20.000 I-0.537 J1.495 K0.000 F600.000
G1 X81.500 Y0.000 Z-20.000 F600.000
G0 Z5.000
G0 Z5.000
(Finish operation: Profile003)
(Begin operation: Profile004)
(Path: Profile004)
(Profile004)
(Compensated Tool Path. Diameter: 3.0)
G0 Z5.000
G0 X0.000 Y0.000
G0 X60.002 Y0.002
G0 X60.002 Y0.002 Z3.000
G1 X60.002 Y0.002 Z-3.000 F600.000
G1 X60.000 Y67.000 Z-3.000 F600.000
G2 X64.382 Y71.495 Z-3.000 I4.502 J-0.005 K0.000 F600.000
G1 X115.500 Y71.500 Z-3.000 F600.000
G2 X119.995 Y67.118 Z-3.000 I-0.005 J-4.502 K0.000 F600.000
G1 X120.000 Y-67.000 Z-3.000 F600.000
G2 X115.618 Y-71.495 Z-3.000 I-4.502 J0.005 K0.000 F600.000
G1 X64.500 Y-71.500 Z-3.000 F600.000
G2 X60.005 Y-67.118 Z-3.000 I0.005 J4.502 K0.000 F600.000
G1 X60.002 Y0.002 Z-3.000 F600.000
G1 X60.002 Y0.002 Z-6.000 F600.000
G1 X60.000 Y67.000 Z-6.000 F600.000
G2 X64.382 Y71.495 Z-6.000 I4.502 J-0.005 K0.000 F600.000
G1 X115.500 Y71.500 Z-6.000 F600.000
G2 X119.995 Y67.118 Z-6.000 I-0.005 J-4.502 K0.000 F600.000
G1 X120.000 Y-67.000 Z-6.000 F600.000
G2 X115.618 Y-71.495 Z-6.000 I-4.502 J0.005 K0.000 F600.000
G1 X64.500 Y-71.500 Z-6.000 F600.000
G2 X60.005 Y-67.118 Z-6.000 I0.005 J4.502 K0.000 F600.000
G1 X60.002 Y0.002 Z-6.000 F600.000
G1 X60.002 Y0.002 Z-9.000 F600.000
G1 X60.000 Y67.000 Z-9.000 F600.000
G2 X64.382 Y71.495 Z-9.000 I4.502 J-0.005 K0.000 F600.000
G1 X115.500 Y71.500 Z-9.000 F600.000
G2 X119.995 Y67.118 Z-9.000 I-0.005 J-4.502 K0.000 F600.000
G1 X120.000 Y-67.000 Z-9.000 F600.000
G2 X115.618 Y-71.495 Z-9.000 I-4.502 J0.005 K0.000 F600.000
G1 X64.500 Y-71.500 Z-9.000 F600.000
G2 X60.005 Y-67.118 Z-9.000 I0.005 J4.502 K0.000 F600.000
G1 X60.002 Y0.002 Z-9.000 F600.000
G1 X60.002 Y0.002 Z-12.000 F600.000
G1 X60.000 Y67.000 Z-12.000 F600.000
G2 X64.382 Y71.495 Z-12.000 I4.502 J-0.005 K0.000 F600.000
G1 X115.500 Y71.500 Z-12.000 F600.000
G2 X119.995 Y67.118 Z-12.000 I-0.005 J-4.502 K0.000 F600.000
G1 X120.000 Y-67.000 Z-12.000 F600.000
G2 X115.618 Y-71.495 Z-12.000 I-4.502 J0.005 K0.000 F600.000
G1 X64.500 Y-71.500 Z-12.000 F600.000
G2 X60.005 Y-67.118 Z-12.000 I0.005 J4.502 K0.000 F600.000
G1 X60.002 Y0.002 Z-12.000 F600.000
G1 X60.002 Y0.002 Z-15.000 F600.000
G1 X60.000 Y67.000 Z-15.000 F600.000
G2 X64.382 Y71.495 Z-15.000 I4.502 J-0.005 K0.000 F600.000
G1 X115.500 Y71.500 Z-15.000 F600.000
G2 X119.995 Y67.118 Z-15.000 I-0.005 J-4.502 K0.000 F600.000
G1 X120.000 Y-67.000 Z-15.000 F600.000
G2 X115.618 Y-71.495 Z-15.000 I-4.502 J0.005 K0.000 F600.000
G1 X64.500 Y-71.500 Z-15.000 F600.000
G2 X60.005 Y-67.118 Z-15.000 I0.005 J4.502 K0.000 F600.000
G1 X60.002 Y0.002 Z-15.000 F600.000
G1 X60.002 Y0.002 Z-18.000 F600.000
G1 X60.000 Y67.000 Z-18.000 F600.000
G2 X64.382 Y71.495 Z-18.000 I4.502 J-0.005 K0.000 F600.000
G1 X115.500 Y71.500 Z-18.000 F600.000
G2 X119.995 Y67.118 Z-18.000 I-0.005 J-4.502 K0.000 F600.000
G1 X120.000 Y-67.000 Z-18.000 F600.000
G2 X115.618 Y-71.495 Z-18.000 I-4.502 J0.005 K0.000 F600.000
G1 X64.500 Y-71.500 Z-18.000 F600.000
G2 X60.005 Y-67.118 Z-18.000 I0.005 J4.502 K0.000 F600.000
G1 X60.002 Y0.002 Z-18.000 F600.000
G1 X60.002 Y0.002 Z-20.000 F600.000
G1 X60.000 Y67.000 Z-20.000 F600.000
G2 X64.382 Y71.495 Z-20.000 I4.502 J-0.005 K0.000 F600.000
G1 X115.500 Y71.500 Z-20.000 F600.000
G2 X119.995 Y67.118 Z-20.000 I-0.005 J-4.502 K0.000 F600.000
G1 X120.000 Y-67.000 Z-20.000 F600.000
G2 X115.618 Y-71.495 Z-20.000 I-4.502 J0.005 K0.000 F600.000
G1 X64.500 Y-71.500 Z-20.000 F600.000
G2 X60.005 Y-67.118 Z-20.000 I0.005 J4.502 K0.000 F600.000
G1 X60.002 Y0.002 Z-20.000 F600.000
G0 Z5.000
G0 Z5.000
(Finish operation: Profile004)
(Begin operation: Profile005)
(Path: Profile005)
(Profile005)
(Compensated Tool Path. Diameter: 3.0)
G0 Z5.000
G0 X0.000 Y0.000
G0 X0.002
G0 X0.002 Z3.000
G1 X0.002 Y0.000 Z-3.000 F600.000
G1 X0.000 Y67.000 Z-3.000 F600.000
G2 X4.382 Y71.495 Z-3.000 I4.502 J-0.005 K0.000 F600.000
G1 X55.500 Y71.500 Z-3.000 F600.000
G2 X59.995 Y67.118 Z-3.000 I-0.005 J-4.502 K0.000 F600.000
G1 X60.000 Y-67.000 Z-3.000 F600.000
G2 X55.618 Y-71.495 Z-3.000 I-4.502 J0.005 K0.000 F600.000
G1 X4.500 Y-71.500 Z-3.000 F600.000
G2 X0.005 Y-67.118 Z-3.000 I0.005 J4.502 K0.000 F600.000
G1 X0.002 Y0.000 Z-3.000 F600.000
G1 X0.002 Y0.000 Z-6.000 F600.000
G1 X0.000 Y67.000 Z-6.000 F600.000
G2 X4.382 Y71.495 Z-6.000 I4.502 J-0.005 K0.000 F600.000
G1 X55.500 Y71.500 Z-6.000 F600.000
G2 X59.995 Y67.118 Z-6.000 I-0.005 J-4.502 K0.000 F600.000
G1 X60.000 Y-67.000 Z-6.000 F600.000
G2 X55.618 Y-71.495 Z-6.000 I-4.502 J0.005 K0.000 F600.000
G1 X4.500 Y-71.500 Z-6.000 F600.000
G2 X0.005 Y-67.118 Z-6.000 I0.005 J4.502 K0.000 F600.000
G1 X0.002 Y0.000 Z-6.000 F600.000
G1 X0.002 Y0.000 Z-9.000 F600.000
G1 X0.000 Y67.000 Z-9.000 F600.000
G2 X4.382 Y71.495 Z-9.000 I4.502 J-0.005 K0.000 F600.000
G1 X55.500 Y71.500 Z-9.000 F600.000
G2 X59.995 Y67.118 Z-9.000 I-0.005 J-4.502 K0.000 F600.000
G1 X60.000 Y-67.000 Z-9.000 F600.000
G2 X55.618 Y-71.495 Z-9.000 I-4.502 J0.005 K0.000 F600.000
G1 X4.500 Y-71.500 Z-9.000 F600.000
G2 X0.005 Y-67.118 Z-9.000 I0.005 J4.502 K0.000 F600.000
G1 X0.002 Y0.000 Z-9.000 F600.000
G1 X0.002 Y0.000 Z-12.000 F600.000
G1 X0.000 Y67.000 Z-12.000 F600.000
G2 X4.382 Y71.495 Z-12.000 I4.502 J-0.005 K0.000 F600.000
G1 X55.500 Y71.500 Z-12.000 F600.000
G2 X59.995 Y67.118 Z-12.000 I-0.005 J-4.502 K0.000 F600.000
G1 X60.000 Y-67.000 Z-12.000 F600.000
G2 X55.618 Y-71.495 Z-12.000 I-4.502 J0.005 K0.000 F600.000
G1 X4.500 Y-71.500 Z-12.000 F600.000
G2 X0.005 Y-67.118 Z-12.000 I0.005 J4.502 K0.000 F600.000
G1 X0.002 Y0.000 Z-12.000 F600.000
G1 X0.002 Y0.000 Z-15.000 F600.000
G1 X0.000 Y67.000 Z-15.000 F600.000
G2 X4.382 Y71.495 Z-15.000 I4.502 J-0.005 K0.000 F600.000
G1 X55.500 Y71.500 Z-15.000 F600.000
G2 X59.995 Y67.118 Z-15.000 I-0.005 J-4.502 K0.000 F600.000
G1 X60.000 Y-67.000 Z-15.000 F600.000
G2 X55.618 Y-71.495 Z-15.000 I-4.502 J0.005 K0.000 F600.000
G1 X4.500 Y-71.500 Z-15.000 F600.000
G2 X0.005 Y-67.118 Z-15.000 I0.005 J4.502 K0.000 F600.000
G1 X0.002 Y0.000 Z-15.000 F600.000
G1 X0.002 Y0.000 Z-18.000 F600.000
G1 X0.000 Y67.000 Z-18.000 F600.000
G2 X4.382 Y71.495 Z-18.000 I4.502 J-0.005 K0.000 F600.000
G1 X55.500 Y71.500 Z-18.000 F600.000
G2 X59.995 Y67.118 Z-18.000 I-0.005 J-4.502 K0.000 F600.000
G1 X60.000 Y-67.000 Z-18.000 F600.000
G2 X55.618 Y-71.495 Z-18.000 I-4.502 J0.005 K0.000 F600.000
G1 X4.500 Y-71.500 Z-18.000 F600.000
G2 X0.005 Y-67.118 Z-18.000 I0.005 J4.502 K0.000 F600.000
G1 X0.002 Y0.000 Z-18.000 F600.000
G1 X0.002 Y0.000 Z-20.000 F600.000
G1 X0.000 Y67.000 Z-20.000 F600.000
G2 X4.382 Y71.495 Z-20.000 I4.502 J-0.005 K0.000 F600.000
G1 X55.500 Y71.500 Z-20.000 F600.000
G2 X59.995 Y67.118 Z-20.000 I-0.005 J-4.502 K0.000 F600.000
G1 X60.000 Y-67.000 Z-20.000 F600.000
G2 X55.618 Y-71.495 Z-20.000 I-4.502 J0.005 K0.000 F600.000
G1 X4.500 Y-71.500 Z-20.000 F600.000
G2 X0.005 Y-67.118 Z-20.000 I0.005 J4.502 K0.000 F600.000
G1 X0.002 Y0.000 Z-20.000 F600.000
G0 Z5.000
G0 Z5.000
(Finish operation: Profile005)
(Begin operation: Profile006)
(Path: Profile006)
(Profile006)
(Compensated Tool Path. Diameter: 3.0)
G0 Z5.000
G0 X0.000 Y0.000
G0 X-0.002
G0 X-0.002 Z3.000
G1 X-0.002 Y-0.000 Z-3.000 F600.000
G1 X0.000 Y-67.000 Z-3.000 F600.000
G2 X-4.382 Y-71.495 Z-3.000 I-4.502 J0.005 K0.000 F600.000
G1 X-55.500 Y-71.500 Z-3.000 F600.000
G2 X-59.995 Y-67.118 Z-3.000 I0.005 J4.502 K0.000 F600.000
G1 X-60.000 Y67.000 Z-3.000 F600.000
G2 X-55.618 Y71.495 Z-3.000 I4.502 J-0.005 K0.000 F600.000
G1 X-4.500 Y71.500 Z-3.000 F600.000
G2 X-0.005 Y67.118 Z-3.000 I-0.005 J-4.502 K0.000 F600.000
G1 X-0.002 Y-0.000 Z-3.000 F600.000
G1 X-0.002 Y-0.000 Z-6.000 F600.000
G1 X0.000 Y-67.000 Z-6.000 F600.000
G2 X-4.382 Y-71.495 Z-6.000 I-4.502 J0.005 K0.000 F600.000
G1 X-55.500 Y-71.500 Z-6.000 F600.000
G2 X-59.995 Y-67.118 Z-6.000 I0.005 J4.502 K0.000 F600.000
G1 X-60.000 Y67.000 Z-6.000 F600.000
G2 X-55.618 Y71.495 Z-6.000 I4.502 J-0.005 K0.000 F600.000
G1 X-4.500 Y71.500 Z-6.000 F600.000
G2 X-0.005 Y67.118 Z-6.000 I-0.005 J-4.502 K0.000 F600.000
G1 X-0.002 Y-0.000 Z-6.000 F600.000
G1 X-0.002 Y-0.000 Z-9.000 F600.000
G1 X0.000 Y-67.000 Z-9.000 F600.000
G2 X-4.382 Y-71.495 Z-9.000 I-4.502 J0.005 K0.000 F600.000
G1 X-55.500 Y-71.500 Z-9.000 F600.000
G2 X-59.995 Y-67.118 Z-9.000 I0.005 J4.502 K0.000 F600.000
G1 X-60.000 Y67.000 Z-9.000 F600.000
G2 X-55.618 Y71.495 Z-9.000 I4.502 J-0.005 K0.000 F600.000
G1 X-4.500 Y71.500 Z-9.000 F600.000
G2 X-0.005 Y67.118 Z-9.000 I-0.005 J-4.502 K0.000 F600.000
G1 X-0.002 Y-0.000 Z-9.000 F600.000
G1 X-0.002 Y-0.000 Z-12.000 F600.000
G1 X0.000 Y-67.000 Z-12.000 F600.000
G2 X-4.382 Y-71.495 Z-12.000 I-4.502 J0.005 K0.000 F600.000
G1 X-55.500 Y-71.500 Z-12.000 F600.000
G2 X-59.995 Y-67.118 Z-12.000 I0.005 J4.502 K0.000 F600.000
G1 X-60.000 Y67.000 Z-12.000 F600.000
G2 X-55.618 Y71.495 Z-12.000 I4.502 J-0.005 K0.000 F600.000
G1 X-4.500 Y71.500 Z-12.000 F600.000
G2 X-0.005 Y67.118 Z-12.000 I-0.005 J-4.502 K0.000 F600.000
G1 X-0.002 Y-0.000 Z-12.000 F600.000
G1 X-0.002 Y-0.000 Z-15.000 F600.000
G1 X0.000 Y-67.000 Z-15.000 F600.000
G2 X-4.382 Y-71.495 Z-15.000 I-4.502 J0.005 K0.000 F600.000
G1 X-55.500 Y-71.500 Z-15.000 F600.000
G2 X-59.995 Y-67.118 Z-15.000 I0.005 J4.502 K0.000 F600.000
G1 X-60.000 Y67.000 Z-15.000 F600.000
G2 X-55.618 Y71.495 Z-15.000 I4.502 J-0.005 K0.000 F600.000
G1 X-4.500 Y71.500 Z-15.000 F600.000
G2 X-0.005 Y67.118 Z-15.000 I-0.005 J-4.502 K0.000 F600.000
G1 X-0.002 Y-0.000 Z-15.000 F600.000
G1 X-0.002 Y-0.000 Z-18.000 F600.000
G1 X0.000 Y-67.000 Z-18.000 F600.000
G2 X-4.382 Y-71.495 Z-18.000 I-4.502 J0.005 K0.000 F600.000
G1 X-55.500 Y-71.500 Z-18.000 F600.000
G2 X-59.995 Y-67.118 Z-18.000 I0.005 J4.502 K0.000 F600.000
G1 X-60.000 Y67.000 Z-18.000 F600.000
G2 X-55.618 Y71.495 Z-18.000 I4.502 J-0.005 K0.000 F600.000
G1 X-4.500 Y71.500 Z-18.000 F600.000
G2 X-0.005 Y67.118 Z-18.000 I-0.005 J-4.502 K0.000 F600.000
G1 X-0.002 Y-0.000 Z-18.000 F600.000
G1 X-0.002 Y-0.000 Z-20.000 F600.000
G1 X0.000 Y-67.000 Z-20.000 F600.000
G2 X-4.382 Y-71.495 Z-20.000 I-4.502 J0.005 K0.000 F600.000
G1 X-55.500 Y-71.500 Z-20.000 F600.000
G2 X-59.995 Y-67.118 Z-20.000 I0.005 J4.502 K0.000 F600.000
G1 X-60.000 Y67.000 Z-20.000 F600.000
G2 X-55.618 Y71.495 Z-20.000 I4.502 J-0.005 K0.000 F600.000
G1 X-4.500 Y71.500 Z-20.000 F600.000
G2 X-0.005 Y67.118 Z-20.000 I-0.005 J-4.502 K0.000 F600.000
G1 X-0.002 Y-0.000 Z-20.000 F600.000
G0 Z5.000
G0 Z5.000
(Finish operation: Profile006)
(Begin operation: Profile007)
(Path: Profile007)
(Profile007)
(Compensated Tool Path. Diameter: 3.0)
G0 Z5.000
G0 X0.000 Y0.000
G0 X-60.002 Y-0.002
G0 X-60.002 Y-0.002 Z3.000
G1 X-60.002 Y-0.002 Z-3.000 F600.000
G1 X-60.000 Y-67.000 Z-3.000 F600.000
G2 X-64.382 Y-71.495 Z-3.000 I-4.502 J0.005 K0.000 F600.000
G1 X-115.500 Y-71.500 Z-3.000 F600.000
G2 X-119.995 Y-67.118 Z-3.000 I0.005 J4.502 K0.000 F600.000
G1 X-120.000 Y67.000 Z-3.000 F600.000
G2 X-115.618 Y71.495 Z-3.000 I4.502 J-0.005 K0.000 F600.000
G1 X-64.500 Y71.500 Z-3.000 F600.000
G2 X-60.005 Y67.118 Z-3.000 I-0.005 J-4.502 K0.000 F600.000
G1 X-60.002 Y-0.002 Z-3.000 F600.000
G1 X-60.002 Y-0.002 Z-6.000 F600.000
G1 X-60.000 Y-67.000 Z-6.000 F600.000
G2 X-64.382 Y-71.495 Z-6.000 I-4.502 J0.005 K0.000 F600.000
G1 X-115.500 Y-71.500 Z-6.000 F600.000
G2 X-119.995 Y-67.118 Z-6.000 I0.005 J4.502 K0.000 F600.000
G1 X-120.000 Y67.000 Z-6.000 F600.000
G2 X-115.618 Y71.495 Z-6.000 I4.502 J-0.005 K0.000 F600.000
G1 X-64.500 Y71.500 Z-6.000 F600.000
G2 X-60.005 Y67.118 Z-6.000 I-0.005 J-4.502 K0.000 F600.000
G1 X-60.002 Y-0.002 Z-6.000 F600.000
G1 X-60.002 Y-0.002 Z-9.000 F600.000
G1 X-60.000 Y-67.000 Z-9.000 F600.000
G2 X-64.382 Y-71.495 Z-9.000 I-4.502 J0.005 K0.000 F600.000
G1 X-115.500 Y-71.500 Z-9.000 F600.000
G2 X-119.995 Y-67.118 Z-9.000 I0.005 J4.502 K0.000 F600.000
G1 X-120.000 Y67.000 Z-9.000 F600.000
G2 X-115.618 Y71.495 Z-9.000 I4.502 J-0.005 K0.000 F600.000
G1 X-64.500 Y71.500 Z-9.000 F600.000
G2 X-60.005 Y67.118 Z-9.000 I-0.005 J-4.502 K0.000 F600.000
G1 X-60.002 Y-0.002 Z-9.000 F600.000
G1 X-60.002 Y-0.002 Z-12.000 F600.000
G1 X-60.000 Y-67.000 Z-12.000 F600.000
G2 X-64.382 Y-71.495 Z-12.000 I-4.502 J0.005 K0.000 F600.000
G1 X-115.500 Y-71.500 Z-12.000 F600.000
G2 X-119.995 Y-67.118 Z-12.000 I0.005 J4.502 K0.000 F600.000
G1 X-120.000 Y67.000 Z-12.000 F600.000
G2 X-115.618 Y71.495 Z-12.000 I4.502 J-0.005 K0.000 F600.000
G1 X-64.500 Y71.500 Z-12.000 F600.000
G2 X-60.005 Y67.118 Z-12.000 I-0.005 J-4.502 K0.000 F600.000
G1 X-60.002 Y-0.002 Z-12.000 F600.000
G1 X-60.002 Y-0.002 Z-15.000 F600.000
G1 X-60.000 Y-67.000 Z-15.000 F600.000
G2 X-64.382 Y-71.495 Z-15.000 I-4.502 J0.005 K0.000 F600.000
G1 X-115.500 Y-71.500 Z-15.000 F600.000
G2 X-119.995 Y-67.118 Z-15.000 I0.005 J4.502 K0.000 F600.000
G1 X-120.000 Y67.000 Z-15.000 F600.000
G2 X-115.618 Y71.495 Z-15.000 I4.502 J-0.005 K0.000 F600.000
G1 X-64.500 Y71.500 Z-15.000 F600.000
G2 X-60.005 Y67.118 Z-15.000 I-0.005 J-4.502 K0.000 F600.000
G1 X-60.002 Y-0.002 Z-15.000 F600.000
G1 X-60.002 Y-0.002 Z-18.000 F600.000
G1 X-60.000 Y-67.000 Z-18.000 F600.000
G2 X-64.382 Y-71.495 Z-18.000 I-4.502 J0.005 K0.000 F600.000
G1 X-115.500 Y-71.500 Z-18.000 F600.000
G2 X-119.995 Y-67.118 Z-18.000 I0.005 J4.502 K0.000 F600.000
G1 X-120.000 Y67.000 Z-18.000 F600.000
G2 X-115.618 Y71.495 Z-18.000 I4.502 J-0.005 K0.000 F600.000
G1 X-64.500 Y71.500 Z-18.000 F600.000
G2 X-60.005 Y67.118 Z-18.000 I-0.005 J-4.502 K0.000 F600.000
G1 X-60.002 Y-0.002 Z-18.000 F600.000
G1 X-60.002 Y-0.002 Z-20.000 F600.000
G1 X-60.000 Y-67.000 Z-20.000 F600.000
G2 X-64.382 Y-71.495 Z-20.000 I-4.502 J0.005 K0.000 F600.000
G1 X-115.500 Y-71.500 Z-20.000 F600.000
G2 X-119.995 Y-67.118 Z-20.000 I0.005 J4.502 K0.000 F600.000
G1 X-120.000 Y67.000 Z-20.000 F600.000
G2 X-115.618 Y71.495 Z-20.000 I4.502 J-0.005 K0.000 F600.000
G1 X-64.500 Y71.500 Z-20.000 F600.000
G2 X-60.005 Y67.118 Z-20.000 I-0.005 J-4.502 K0.000 F600.000
G1 X-60.002 Y-0.002 Z-20.000 F600.000
G0 Z5.000
G0 Z5.000
(Finish operation: Profile007)
(Begin postamble)
M5
G17 G90
M2
