(Exported by FreeCAD)
(Post Processor: script_module)
(Output Time:2025-11-05 17:02:34.805926)
(Begin preamble)
G17 G90
G21
(Begin operation: Fixture)
(Path: Fixture)
G54
(Finish operation: Fixture)
(Begin operation: 3mm_Endmill003)
(Path: 3mm_Endmill003)
(3mm_Endmill003)
(Begin toolchange)
( M6 T2 )
M3 S10000
(Finish operation: 3mm_Endmill003)
(Begin operation: Profile010)
(Path: Profile010)
(Profile010)
(Compensated Tool Path. Diameter: 3.0)
G0 Z5.000
G0 X0.000 Y0.000
G0 X11.503 Y3.082
G0 X11.503 Y3.082 Z3.000
G1 X11.503 Y3.082 Z-3.000 F600.000
G1 X15.331 Y-11.204 Z-3.000 F600.000
G2 X14.159 Y-13.067 Z-3.000 I-1.449 J-0.388 K0.000 F600.000
G1 X-16.017 Y-18.748 Z-3.000 F600.000
G2 X-17.743 Y-17.662 Z-3.000 I-0.278 J1.474 K0.000 F600.000
G1 X-38.151 Y58.500 Z-3.000 F600.000
G1 X-112.000 Y58.500 Z-3.000 F600.000
G2 X-113.500 Y60.000 Z-3.000 I0.000 J1.500 K0.000 F600.000
G1 X-113.500 Y85.000 Z-3.000 F600.000
G2 X-112.000 Y86.500 Z-3.000 I1.500 J-0.000 K0.000 F600.000
G1 X-12.000 Y86.500 Z-3.000 F600.000
G2 X-10.551 Y85.388 Z-3.000 I-0.000 J-1.500 K0.000 F600.000
G1 X11.503 Y3.082 Z-3.000 F600.000
G1 X11.503 Y3.082 Z-6.000 F600.000
G1 X15.331 Y-11.204 Z-6.000 F600.000
G2 X14.159 Y-13.067 Z-6.000 I-1.449 J-0.388 K0.000 F600.000
G1 X-16.017 Y-18.748 Z-6.000 F600.000
G2 X-17.743 Y-17.662 Z-6.000 I-0.278 J1.474 K0.000 F600.000
G1 X-38.151 Y58.500 Z-6.000 F600.000
G1 X-112.000 Y58.500 Z-6.000 F600.000
G2 X-113.500 Y60.000 Z-6.000 I0.000 J1.500 K0.000 F600.000
G1 X-113.500 Y85.000 Z-6.000 F600.000
G2 X-112.000 Y86.500 Z-6.000 I1.500 J-0.000 K0.000 F600.000
G1 X-12.000 Y86.500 Z-6.000 F600.000
G2 X-10.551 Y85.388 Z-6.000 I-0.000 J-1.500 K0.000 F600.000
G1 X11.503 Y3.082 Z-6.000 F600.000
G1 X11.503 Y3.082 Z-9.000 F600.000
G1 X15.331 Y-11.204 Z-9.000 F600.000
G2 X14.159 Y-13.067 Z-9.000 I-1.449 J-0.388 K0.000 F600.000
G1 X-16.017 Y-18.748 Z-9.000 F600.000
G2 X-17.743 Y-17.662 Z-9.000 I-0.278 J1.474 K0.000 F600.000
G1 X-38.151 Y58.500 Z-9.000 F600.000
G1 X-112.000 Y58.500 Z-9.000 F600.000
G2 X-113.500 Y60.000 Z-9.000 I0.000 J1.500 K0.000 F600.000
G1 X-113.500 Y85.000 Z-9.000 F600.000
G2 X-112.000 Y86.500 Z-9.000 I1.500 J-0.000 K0.000 F600.000
G1 X-12.000 Y86.500 Z-9.000 F600.000
G2 X-10.551 Y85.388 Z-9.000 I-0.000 J-1.500 K0.000 F600.000
G1 X11.503 Y3.082 Z-9.000 F600.000
G1 X11.503 Y3.082 Z-12.000 F600.000
G1 X15.331 Y-11.204 Z-12.000 F600.000
G2 X14.159 Y-13.067 Z-12.000 I-1.449 J-0.388 K0.000 F600.000
G1 X-16.017 Y-18.748 Z-12.000 F600.000
G2 X-17.743 Y-17.662 Z-12.000 I-0.278 J1.474 K0.000 F600.000
G1 X-38.151 Y58.500 Z-12.000 F600.000
G1 X-112.000 Y58.500 Z-12.000 F600.000
G2 X-113.500 Y60.000 Z-12.000 I0.000 J1.500 K0.000 F600.000
G1 X-113.500 Y85.000 Z-12.000 F600.000
G2 X-112.000 Y86.500 Z-12.000 I1.500 J-0.000 K0.000 F600.000
G1 X-12.000 Y86.500 Z-12.000 F600.000
G2 X-10.551 Y85.388 Z-12.000 I-0.000 J-1.500 K0.000 F600.000
G1 X11.503 Y3.082 Z-12.000 F600.000
G1 X11.503 Y3.082 Z-15.000 F600.000
G1 X15.331 Y-11.204 Z-15.000 F600.000
G2 X14.159 Y-13.067 Z-15.000 I-1.449 J-0.388 K0.000 F600.000
G1 X-16.017 Y-18.748 Z-15.000 F600.000
G2 X-17.743 Y-17.662 Z-15.000 I-0.278 J1.474 K0.000 F600.000
G1 X-38.151 Y58.500 Z-15.000 F600.000
G1 X-112.000 Y58.500 Z-15.000 F600.000
G2 X-113.500 Y60.000 Z-15.000 I0.000 J1.500 K0.000 F600.000
G1 X-113.500 Y85.000 Z-15.000 F600.000
G2 X-112.000 Y86.500 Z-15.000 I1.500 J-0.000 K0.000 F600.000
G1 X-12.000 Y86.500 Z-15.000 F600.000
G2 X-10.551 Y85.388 Z-15.000 I-0.000 J-1.500 K0.000 F600.000
G1 X11.503 Y3.082 Z-15.000 F600.000
G1 X11.503 Y3.082 Z-18.000 F600.000
G1 X15.331 Y-11.204 Z-18.000 F600.000
G2 X14.159 Y-13.067 Z-18.000 I-1.449 J-0.388 K0.000 F600.000
G1 X-16.017 Y-18.748 Z-18.000 F600.000
G2 X-17.743 Y-17.662 Z-18.000 I-0.278 J1.474 K0.000 F600.000
G1 X-38.151 Y58.500 Z-18.000 F600.000
G1 X-112.000 Y58.500 Z-18.000 F600.000
G2 X-113.500 Y60.000 Z-18.000 I0.000 J1.500 K0.000 F600.000
G1 X-113.500 Y85.000 Z-18.000 F600.000
G2 X-112.000 Y86.500 Z-18.000 I1.500 J-0.000 K0.000 F600.000
G1 X-12.000 Y86.500 Z-18.000 F600.000
G2 X-10.551 Y85.388 Z-18.000 I-0.000 J-1.500 K0.000 F600.000
G1 X11.503 Y3.082 Z-18.000 F600.000
G1 X11.503 Y3.082 Z-20.000 F600.000
G1 X15.331 Y-11.204 Z-20.000 F600.000
G2 X14.159 Y-13.067 Z-20.000 I-1.449 J-0.388 K0.000 F600.000
G1 X-16.017 Y-18.748 Z-20.000 F600.000
G2 X-17.743 Y-17.662 Z-20.000 I-0.278 J1.474 K0.000 F600.000
G1 X-38.151 Y58.500 Z-20.000 F600.000
G1 X-112.000 Y58.500 Z-20.000 F600.000
G2 X-113.500 Y60.000 Z-20.000 I0.000 J1.500 K0.000 F600.000
G1 X-113.500 Y85.000 Z-20.000 F600.000
G2 X-112.000 Y86.500 Z-20.000 I1.500 J-0.000 K0.000 F600.000
G1 X-12.000 Y86.500 Z-20.000 F600.000
G2 X-10.551 Y85.388 Z-20.000 I-0.000 J-1.500 K0.000 F600.000
G1 X11.503 Y3.082 Z-20.000 F600.000
G0 Z5.000
G0 Z5.000
(Finish operation: Profile010)
(Begin operation: Profile011)
(Path: Profile011)
(Profile011)
(Compensated Tool Path. Diameter: 3.0)
G0 Z5.000
G0 X0.000 Y0.000
G0 Y-23.500
G0 Y-23.500 Z3.000
G1 X0.000 Y-23.500 Z-3.000 F600.000
G1 X50.000 Y-23.500 Z-3.000 F600.000
G2 X51.500 Y-25.000 Z-3.000 I-0.000 J-1.500 K0.000 F600.000
G1 X51.500 Y-50.000 Z-3.000 F600.000
G2 X50.000 Y-51.500 Z-3.000 I-1.500 J0.000 K0.000 F600.000
G1 X-50.000 Y-51.500 Z-3.000 F600.000
G2 X-51.449 Y-50.388 Z-3.000 I0.000 J1.500 K0.000 F600.000
G1 X-77.331 Y46.204 Z-3.000 F600.000
G2 X-76.159 Y48.067 Z-3.000 I1.449 J0.388 K0.000 F600.000
G1 X-45.983 Y53.748 Z-3.000 F600.000
G2 X-44.257 Y52.662 Z-3.000 I0.278 J-1.474 K0.000 F600.000
G1 X-23.849 Y-23.500 Z-3.000 F600.000
G1 X0.000 Y-23.500 Z-3.000 F600.000
G1 X0.000 Y-23.500 Z-6.000 F600.000
G1 X50.000 Y-23.500 Z-6.000 F600.000
G2 X51.500 Y-25.000 Z-6.000 I-0.000 J-1.500 K0.000 F600.000
G1 X51.500 Y-50.000 Z-6.000 F600.000
G2 X50.000 Y-51.500 Z-6.000 I-1.500 J0.000 K0.000 F600.000
G1 X-50.000 Y-51.500 Z-6.000 F600.000
G2 X-51.449 Y-50.388 Z-6.000 I0.000 J1.500 K0.000 F600.000
G1 X-77.331 Y46.204 Z-6.000 F600.000
G2 X-76.159 Y48.067 Z-6.000 I1.449 J0.388 K0.000 F600.000
G1 X-45.983 Y53.748 Z-6.000 F600.000
G2 X-44.257 Y52.662 Z-6.000 I0.278 J-1.474 K0.000 F600.000
G1 X-23.849 Y-23.500 Z-6.000 F600.000
G1 X0.000 Y-23.500 Z-6.000 F600.000
G1 X0.000 Y-23.500 Z-9.000 F600.000
G1 X50.000 Y-23.500 Z-9.000 F600.000
G2 X51.500 Y-25.000 Z-9.000 I-0.000 J-1.500 K0.000 F600.000
G1 X51.500 Y-50.000 Z-9.000 F600.000
G2 X50.000 Y-51.500 Z-9.000 I-1.500 J0.000 K0.000 F600.000
G1 X-50.000 Y-51.500 Z-9.000 F600.000
G2 X-51.449 Y-50.388 Z-9.000 I0.000 J1.500 K0.000 F600.000
G1 X-77.331 Y46.204 Z-9.000 F600.000
G2 X-76.159 Y48.067 Z-9.000 I1.449 J0.388 K0.000 F600.000
G1 X-45.983 Y53.748 Z-9.000 F600.000
G2 X-44.257 Y52.662 Z-9.000 I0.278 J-1.474 K0.000 F600.000
G1 X-23.849 Y-23.500 Z-9.000 F600.000
G1 X0.000 Y-23.500 Z-9.000 F600.000
G1 X0.000 Y-23.500 Z-12.000 F600.000
G1 X50.000 Y-23.500 Z-12.000 F600.000
G2 X51.500 Y-25.000 Z-12.000 I-0.000 J-1.500 K0.000 F600.000
G1 X51.500 Y-50.000 Z-12.000 F600.000
G2 X50.000 Y-51.500 Z-12.000 I-1.500 J0.000 K0.000 F600.000
G1 X-50.000 Y-51.500 Z-12.000 F600.000
G2 X-51.449 Y-50.388 Z-12.000 I0.000 J1.500 K0.000 F600.000
G1 X-77.331 Y46.204 Z-12.000 F600.000
G2 X-76.159 Y48.067 Z-12.000 I1.449 J0.388 K0.000 F600.000
G1 X-45.983 Y53.748 Z-12.000 F600.000
G2 X-44.257 Y52.662 Z-12.000 I0.278 J-1.474 K0.000 F600.000
G1 X-23.849 Y-23.500 Z-12.000 F600.000
G1 X0.000 Y-23.500 Z-12.000 F600.000
G1 X0.000 Y-23.500 Z-15.000 F600.000
G1 X50.000 Y-23.500 Z-15.000 F600.000
G2 X51.500 Y-25.000 Z-15.000 I-0.000 J-1.500 K0.000 F600.000
G1 X51.500 Y-50.000 Z-15.000 F600.000
G2 X50.000 Y-51.500 Z-15.000 I-1.500 J0.000 K0.000 F600.000
G1 X-50.000 Y-51.500 Z-15.000 F600.000
G2 X-51.449 Y-50.388 Z-15.000 I0.000 J1.500 K0.000 F600.000
G1 X-77.331 Y46.204 Z-15.000 F600.000
G2 X-76.159 Y48.067 Z-15.000 I1.449 J0.388 K0.000 F600.000
G1 X-45.983 Y53.748 Z-15.000 F600.000
G2 X-44.257 Y52.662 Z-15.000 I0.278 J-1.474 K0.000 F600.000
G1 X-23.849 Y-23.500 Z-15.000 F600.000
G1 X0.000 Y-23.500 Z-15.000 F600.000
G1 X0.000 Y-23.500 Z-18.000 F600.000
G1 X50.000 Y-23.500 Z-18.000 F600.000
G2 X51.500 Y-25.000 Z-18.000 I-0.000 J-1.500 K0.000 F600.000
G1 X51.500 Y-50.000 Z-18.000 F600.000
G2 X50.000 Y-51.500 Z-18.000 I-1.500 J0.000 K0.000 F600.000
G1 X-50.000 Y-51.500 Z-18.000 F600.000
G2 X-51.449 Y-50.388 Z-18.000 I0.000 J1.500 K0.000 F600.000
G1 X-77.331 Y46.204 Z-18.000 F600.000
G2 X-76.159 Y48.067 Z-18.000 I1.449 J0.388 K0.000 F600.000
G1 X-45.983 Y53.748 Z-18.000 F600.000
G2 X-44.257 Y52.662 Z-18.000 I0.278 J-1.474 K0.000 F600.000
G1 X-23.849 Y-23.500 Z-18.000 F600.000
G1 X0.000 Y-23.500 Z-18.000 F600.000
G1 X0.000 Y-23.500 Z-20.000 F600.000
G1 X50.000 Y-23.500 Z-20.000 F600.000
G2 X51.500 Y-25.000 Z-20.000 I-0.000 J-1.500 K0.000 F600.000
G1 X51.500 Y-50.000 Z-20.000 F600.000
G2 X50.000 Y-51.500 Z-20.000 I-1.500 J0.000 K0.000 F600.000
G1 X-50.000 Y-51.500 Z-20.000 F600.000
G2 X-51.449 Y-50.388 Z-20.000 I0.000 J1.500 K0.000 F600.000
G1 X-77.331 Y46.204 Z-20.000 F600.000
G2 X-76.159 Y48.067 Z-20.000 I1.449 J0.388 K0.000 F600.000
G1 X-45.983 Y53.748 Z-20.000 F600.000
G2 X-44.257 Y52.662 Z-20.000 I0.278 J-1.474 K0.000 F600.000
G1 X-23.849 Y-23.500 Z-20.000 F600.000
G1 X0.000 Y-23.500 Z-20.000 F600.000
G0 Z5.000
G0 Z5.000
(Finish operation: Profile011)
(Begin operation: Profile012)
(Path: Profile012)
(Profile012)
(Compensated Tool Path. Diameter: 3.0)
G0 Z5.000
G0 X0.000 Y0.000
G0 Y-53.500
G0 Y-53.500 Z3.000
G1 X0.000 Y-53.500 Z-3.000 F600.000
G1 X20.000 Y-53.500 Z-3.000 F600.000
G2 X21.500 Y-55.000 Z-3.000 I-0.000 J-1.500 K0.000 F600.000
G1 X21.500 Y-80.000 Z-3.000 F600.000
G2 X20.000 Y-81.500 Z-3.000 I-1.500 J0.000 K0.000 F600.000
G1 X-80.000 Y-81.500 Z-3.000 F600.000
G2 X-81.449 Y-80.388 Z-3.000 I0.000 J1.500 K0.000 F600.000
G1 X-107.331 Y16.204 Z-3.000 F600.000
G2 X-106.159 Y18.067 Z-3.000 I1.449 J0.388 K0.000 F600.000
G1 X-75.983 Y23.748 Z-3.000 F600.000
G2 X-74.257 Y22.662 Z-3.000 I0.278 J-1.474 K0.000 F600.000
G1 X-53.849 Y-53.500 Z-3.000 F600.000
G1 X0.000 Y-53.500 Z-3.000 F600.000
G1 X0.000 Y-53.500 Z-6.000 F600.000
G1 X20.000 Y-53.500 Z-6.000 F600.000
G2 X21.500 Y-55.000 Z-6.000 I-0.000 J-1.500 K0.000 F600.000
G1 X21.500 Y-80.000 Z-6.000 F600.000
G2 X20.000 Y-81.500 Z-6.000 I-1.500 J0.000 K0.000 F600.000
G1 X-80.000 Y-81.500 Z-6.000 F600.000
G2 X-81.449 Y-80.388 Z-6.000 I0.000 J1.500 K0.000 F600.000
G1 X-107.331 Y16.204 Z-6.000 F600.000
G2 X-106.159 Y18.067 Z-6.000 I1.449 J0.388 K0.000 F600.000
G1 X-75.983 Y23.748 Z-6.000 F600.000
G2 X-74.257 Y22.662 Z-6.000 I0.278 J-1.474 K0.000 F600.000
G1 X-53.849 Y-53.500 Z-6.000 F600.000
G1 X0.000 Y-53.500 Z-6.000 F600.000
G1 X0.000 Y-53.500 Z-9.000 F600.000
G1 X20.000 Y-53.500 Z-9.000 F600.000
G2 X21.500 Y-55.000 Z-9.000 I-0.000 J-1.500 K0.000 F600.000
G1 X21.500 Y-80.000 Z-9.000 F600.000
G2 X20.000 Y-81.500 Z-9.000 I-1.500 J0.000 K0.000 F600.000
G1 X-80.000 Y-81.500 Z-9.000 F600.000
G2 X-81.449 Y-80.388 Z-9.000 I0.000 J1.500 K0.000 F600.000
G1 X-107.331 Y16.204 Z-9.000 F600.000
G2 X-106.159 Y18.067 Z-9.000 I1.449 J0.388 K0.000 F600.000
G1 X-75.983 Y23.748 Z-9.000 F600.000
G2 X-74.257 Y22.662 Z-9.000 I0.278 J-1.474 K0.000 F600.000
G1 X-53.849 Y-53.500 Z-9.000 F600.000
G1 X0.000 Y-53.500 Z-9.000 F600.000
G1 X0.000 Y-53.500 Z-12.000 F600.000
G1 X20.000 Y-53.500 Z-12.000 F600.000
G2 X21.500 Y-55.000 Z-12.000 I-0.000 J-1.500 K0.000 F600.000
G1 X21.500 Y-80.000 Z-12.000 F600.000
G2 X20.000 Y-81.500 Z-12.000 I-1.500 J0.000 K0.000 F600.000
G1 X-80.000 Y-81.500 Z-12.000 F600.000
G2 X-81.449 Y-80.388 Z-12.000 I0.000 J1.500 K0.000 F600.000
G1 X-107.331 Y16.204 Z-12.000 F600.000
G2 X-106.159 Y18.067 Z-12.000 I1.449 J0.388 K0.000 F600.000
G1 X-75.983 Y23.748 Z-12.000 F600.000
G2 X-74.257 Y22.662 Z-12.000 I0.278 J-1.474 K0.000 F600.000
G1 X-53.849 Y-53.500 Z-12.000 F600.000
G1 X0.000 Y-53.500 Z-12.000 F600.000
G1 X0.000 Y-53.500 Z-15.000 F600.000
G1 X20.000 Y-53.500 Z-15.000 F600.000
G2 X21.500 Y-55.000 Z-15.000 I-0.000 J-1.500 K0.000 F600.000
G1 X21.500 Y-80.000 Z-15.000 F600.000
G2 X20.000 Y-81.500 Z-15.000 I-1.500 J0.000 K0.000 F600.000
G1 X-80.000 Y-81.500 Z-15.000 F600.000
G2 X-81.449 Y-80.388 Z-15.000 I0.000 J1.500 K0.000 F600.000
G1 X-107.331 Y16.204 Z-15.000 F600.000
G2 X-106.159 Y18.067 Z-15.000 I1.449 J0.388 K0.000 F600.000
G1 X-75.983 Y23.748 Z-15.000 F600.000
G2 X-74.257 Y22.662 Z-15.000 I0.278 J-1.474 K0.000 F600.000
G1 X-53.849 Y-53.500 Z-15.000 F600.000
G1 X0.000 Y-53.500 Z-15.000 F600.000
G1 X0.000 Y-53.500 Z-18.000 F600.000
G1 X20.000 Y-53.500 Z-18.000 F600.000
G2 X21.500 Y-55.000 Z-18.000 I-0.000 J-1.500 K0.000 F600.000
G1 X21.500 Y-80.000 Z-18.000 F600.000
G2 X20.000 Y-81.500 Z-18.000 I-1.500 J0.000 K0.000 F600.000
G1 X-80.000 Y-81.500 Z-18.000 F600.000
G2 X-81.449 Y-80.388 Z-18.000 I0.000 J1.500 K0.000 F600.000
G1 X-107.331 Y16.204 Z-18.000 F600.000
G2 X-106.159 Y18.067 Z-18.000 I1.449 J0.388 K0.000 F600.000
G1 X-75.983 Y23.748 Z-18.000 F600.000
G2 X-74.257 Y22.662 Z-18.000 I0.278 J-1.474 K0.000 F600.000
G1 X-53.849 Y-53.500 Z-18.000 F600.000
G1 X0.000 Y-53.500 Z-18.000 F600.000
G1 X0.000 Y-53.500 Z-20.000 F600.000
G1 X20.000 Y-53.500 Z-20.000 F600.000
G2 X21.500 Y-55.000 Z-20.000 I-0.000 J-1.500 K0.000 F600.000
G1 X21.500 Y-80.000 Z-20.000 F600.000
G2 X20.000 Y-81.500 Z-20.000 I-1.500 J0.000 K0.000 F600.000
G1 X-80.000 Y-81.500 Z-20.000 F600.000
G2 X-81.449 Y-80.388 Z-20.000 I0.000 J1.500 K0.000 F600.000
G1 X-107.331 Y16.204 Z-20.000 F600.000
G2 X-106.159 Y18.067 Z-20.000 I1.449 J0.388 K0.000 F600.000
G1 X-75.983 Y23.748 Z-20.000 F600.000
G2 X-74.257 Y22.662 Z-20.000 I0.278 J-1.474 K0.000 F600.000
G1 X-53.849 Y-53.500 Z-20.000 F600.000
G1 X0.000 Y-53.500 Z-20.000 F600.000
G0 Z5.000
G0 Z5.000
(Finish operation: Profile012)
(Begin operation: Profile013)
(Path: Profile013)
(Profile013)
(Compensated Tool Path. Diameter: 3.0)
G0 Z5.000
G0 X0.000 Y0.000
G0 X16.470 Y50.308
G0 X16.470 Y50.308 Z3.000
G1 X16.470 Y50.308 Z-3.000 F600.000
G2 X15.488 Y52.122 Z-3.000 I0.467 J1.426 K0.000 F600.000
G1 X21.959 Y76.270 Z-3.000 F600.000
G2 X23.796 Y77.331 Z-3.000 I1.449 J-0.388 K0.000 F600.000
G1 X120.388 Y51.449 Z-3.000 F600.000
G2 X121.500 Y50.000 Z-3.000 I-0.388 J-1.449 K0.000 F600.000
G1 X121.500 Y-50.000 Z-3.000 F600.000
G2 X119.887 Y-51.496 Z-3.000 I-1.500 J-0.000 K0.000 F600.000
G1 X89.268 Y-49.173 Z-3.000 F600.000
G2 X87.881 Y-47.678 Z-3.000 I0.113 J1.496 K0.000 F600.000
G1 X87.881 Y31.171 Z-3.000 F600.000
G1 X16.549 Y50.285 Z-3.000 F600.000
G2 X16.470 Y50.308 Z-3.000 I0.388 J1.449 K0.000 F600.000
G1 X16.470 Y50.308 Z-6.000 F600.000
G2 X15.488 Y52.122 Z-6.000 I0.467 J1.426 K0.000 F600.000
G1 X21.959 Y76.270 Z-6.000 F600.000
G2 X23.796 Y77.331 Z-6.000 I1.449 J-0.388 K0.000 F600.000
G1 X120.388 Y51.449 Z-6.000 F600.000
G2 X121.500 Y50.000 Z-6.000 I-0.388 J-1.449 K0.000 F600.000
G1 X121.500 Y-50.000 Z-6.000 F600.000
G2 X119.887 Y-51.496 Z-6.000 I-1.500 J-0.000 K0.000 F600.000
G1 X89.268 Y-49.173 Z-6.000 F600.000
G2 X87.881 Y-47.678 Z-6.000 I0.113 J1.496 K0.000 F600.000
G1 X87.881 Y31.171 Z-6.000 F600.000
G1 X16.549 Y50.285 Z-6.000 F600.000
G2 X16.470 Y50.308 Z-6.000 I0.388 J1.449 K0.000 F600.000
G1 X16.470 Y50.308 Z-9.000 F600.000
G2 X15.488 Y52.122 Z-9.000 I0.467 J1.426 K0.000 F600.000
G1 X21.959 Y76.270 Z-9.000 F600.000
G2 X23.796 Y77.331 Z-9.000 I1.449 J-0.388 K0.000 F600.000
G1 X120.388 Y51.449 Z-9.000 F600.000
G2 X121.500 Y50.000 Z-9.000 I-0.388 J-1.449 K0.000 F600.000
G1 X121.500 Y-50.000 Z-9.000 F600.000
G2 X119.887 Y-51.496 Z-9.000 I-1.500 J-0.000 K0.000 F600.000
G1 X89.268 Y-49.173 Z-9.000 F600.000
G2 X87.881 Y-47.678 Z-9.000 I0.113 J1.496 K0.000 F600.000
G1 X87.881 Y31.171 Z-9.000 F600.000
G1 X16.549 Y50.285 Z-9.000 F600.000
G2 X16.470 Y50.308 Z-9.000 I0.388 J1.449 K0.000 F600.000
G1 X16.470 Y50.308 Z-12.000 F600.000
G2 X15.488 Y52.122 Z-12.000 I0.467 J1.426 K0.000 F600.000
G1 X21.959 Y76.270 Z-12.000 F600.000
G2 X23.796 Y77.331 Z-12.000 I1.449 J-0.388 K0.000 F600.000
G1 X120.388 Y51.449 Z-12.000 F600.000
G2 X121.500 Y50.000 Z-12.000 I-0.388 J-1.449 K0.000 F600.000
G1 X121.500 Y-50.000 Z-12.000 F600.000
G2 X119.887 Y-51.496 Z-12.000 I-1.500 J-0.000 K0.000 F600.000
G1 X89.268 Y-49.173 Z-12.000 F600.000
G2 X87.881 Y-47.678 Z-12.000 I0.113 J1.496 K0.000 F600.000
G1 X87.881 Y31.171 Z-12.000 F600.000
G1 X16.549 Y50.285 Z-12.000 F600.000
G2 X16.470 Y50.308 Z-12.000 I0.388 J1.449 K0.000 F600.000
G1 X16.470 Y50.308 Z-15.000 F600.000
G2 X15.488 Y52.122 Z-15.000 I0.467 J1.426 K0.000 F600.000
G1 X21.959 Y76.270 Z-15.000 F600.000
G2 X23.796 Y77.331 Z-15.000 I1.449 J-0.388 K0.000 F600.000
G1 X120.388 Y51.449 Z-15.000 F600.000
G2 X121.500 Y50.000 Z-15.000 I-0.388 J-1.449 K0.000 F600.000
G1 X121.500 Y-50.000 Z-15.000 F600.000
G2 X119.887 Y-51.496 Z-15.000 I-1.500 J-0.000 K0.000 F600.000
G1 X89.268 Y-49.173 Z-15.000 F600.000
G2 X87.881 Y-47.678 Z-15.000 I0.113 J1.496 K0.000 F600.000
G1 X87.881 Y31.171 Z-15.000 F600.000
G1 X16.549 Y50.285 Z-15.000 F600.000
G2 X16.470 Y50.308 Z-15.000 I0.388 J1.449 K0.000 F600.000
G1 X16.470 Y50.308 Z-18.000 F600.000
G2 X15.488 Y52.122 Z-18.000 I0.467 J1.426 K0.000 F600.000
G1 X21.959 Y76.270 Z-18.000 F600.000
G2 X23.796 Y77.331 Z-18.000 I1.449 J-0.388 K0.000 F600.000
G1 X120.388 Y51.449 Z-18.000 F600.000
G2 X121.500 Y50.000 Z-18.000 I-0.388 J-1.449 K0.000 F600.000
G1 X121.500 Y-50.000 Z-18.000 F600.000
G2 X119.887 Y-51.496 Z-18.000 I-1.500 J-0.000 K0.000 F600.000
G1 X89.268 Y-49.173 Z-18.000 F600.000
G2 X87.881 Y-47.678 Z-18.000 I0.113 J1.496 K0.000 F600.000
G1 X87.881 Y31.171 Z-18.000 F600.000
G1 X16.549 Y50.285 Z-18.000 F600.000
G2 X16.470 Y50.308 Z-18.000 I0.388 J1.449 K0.000 F600.000
G1 X16.470 Y50.308 Z-20.000 F600.000
G2 X15.488 Y52.122 Z-20.000 I0.467 J1.426 K0.000 F600.000
G1 X21.959 Y76.270 Z-20.000 F600.000
G2 X23.796 Y77.331 Z-20.000 I1.449 J-0.388 K0.000 F600.000
G1 X120.388 Y51.449 Z-20.000 F600.000
G2 X121.500 Y50.000 Z-20.000 I-0.388 J-1.449 K0.000 F600.000
G1 X121.500 Y-50.000 Z-20.000 F600.000
G2 X119.887 Y-51.496 Z-20.000 I-1.500 J-0.000 K0.000 F600.000
G1 X89.268 Y-49.173 Z-20.000 F600.000
G2 X87.881 Y-47.678 Z-20.000 I0.113 J1.496 K0.000 F600.000
G1 X87.881 Y31.171 Z-20.000 F600.000
G1 X16.549 Y50.285 Z-20.000 F600.000
G2 X16.470 Y50.308 Z-20.000 I0.388 J1.449 K0.000 F600.000
G0 Z5.000
G0 Z5.000
(Finish operation: Profile013)
(Begin postamble)
M5
G17 G90
M2
