(Exported by FreeCAD)
(Post Processor: script_module)
(Output Time:2025-05-23 14:15:56.884995)
(Begin preamble)
G17 G90
G21
(Begin operation: Fixture)
(Path: Fixture)
G54
(Finish operation: Fixture)
(Begin operation: 2mm_Endmill001)
(Path: 2mm_Endmill001)
(2mm_Endmill001)
(Begin toolchange)
( M6 T2 )
M3 S10000
(Finish operation: 2mm_Endmill001)
(Begin operation: Pocket_Shape)
(Path: Pocket_Shape)
(Pocket_Shape)
G0 Z7.000
G0 X-58.966 Y59.000
G0 Z5.000
G1 X-58.966 Y59.000 Z0.000 F600.000
G3 X-59.000 Y59.000 Z0.000 I-0.017 J-0.017 K0.000 F600.000
G3 X-59.000 Y58.966 Z0.000 I0.017 J-0.017 K0.000 F600.000
G1 X-58.966 Y59.000 Z0.000 F600.000
G1 X-1.000 Y59.000 Z0.000 F600.000
G1 X-1.000 Y1.000 Z0.000 F600.000
G1 X-59.000 Y1.000 Z0.000 F600.000
G1 X-59.000 Y59.000 Z0.000 F600.000
G1 X-58.966 Y59.000 Z0.000 F600.000
G1 X-56.137 Y59.000 Z0.000 F600.000
G1 X-59.000 Y56.137 Z0.000 F600.000
G1 X-59.000 Y53.309 Z0.000 F600.000
G1 X-53.309 Y59.000 Z0.000 F600.000
G1 X-50.480 Y59.000 Z0.000 F600.000
G1 X-59.000 Y50.480 Z0.000 F600.000
G1 X-59.000 Y47.652 Z0.000 F600.000
G1 X-47.652 Y59.000 Z0.000 F600.000
G1 X-44.823 Y59.000 Z0.000 F600.000
G1 X-59.000 Y44.823 Z0.000 F600.000
G1 X-59.000 Y41.995 Z0.000 F600.000
G1 X-41.995 Y59.000 Z0.000 F600.000
G1 X-39.167 Y59.000 Z0.000 F600.000
G1 X-59.000 Y39.167 Z0.000 F600.000
G1 X-59.000 Y36.338 Z0.000 F600.000
G1 X-36.338 Y59.000 Z0.000 F600.000
G1 X-33.510 Y59.000 Z0.000 F600.000
G1 X-59.000 Y33.510 Z0.000 F600.000
G1 X-59.000 Y30.681 Z0.000 F600.000
G1 X-30.681 Y59.000 Z0.000 F600.000
G1 X-27.853 Y59.000 Z0.000 F600.000
G1 X-59.000 Y27.853 Z0.000 F600.000
G1 X-59.000 Y25.024 Z0.000 F600.000
G1 X-25.024 Y59.000 Z0.000 F600.000
G1 X-22.196 Y59.000 Z0.000 F600.000
G1 X-59.000 Y22.196 Z0.000 F600.000
G1 X-59.000 Y19.368 Z0.000 F600.000
G1 X-19.368 Y59.000 Z0.000 F600.000
G1 X-16.539 Y59.000 Z0.000 F600.000
G1 X-59.000 Y16.539 Z0.000 F600.000
G1 X-59.000 Y13.711 Z0.000 F600.000
G1 X-13.711 Y59.000 Z0.000 F600.000
G1 X-10.882 Y59.000 Z0.000 F600.000
G1 X-59.000 Y10.882 Z0.000 F600.000
G1 X-59.000 Y8.054 Z0.000 F600.000
G1 X-8.054 Y59.000 Z0.000 F600.000
G1 X-5.225 Y59.000 Z0.000 F600.000
G1 X-59.000 Y5.225 Z0.000 F600.000
G1 X-59.000 Y2.397 Z0.000 F600.000
G1 X-2.397 Y59.000 Z0.000 F600.000
G1 X-1.000 Y59.000 Z0.000 F600.000
G1 X-1.000 Y57.569 Z0.000 F600.000
G1 X-57.569 Y1.000 Z0.000 F600.000
G1 X-54.740 Y1.000 Z0.000 F600.000
G1 X-1.000 Y54.740 Z0.000 F600.000
G1 X-1.000 Y51.912 Z0.000 F600.000
G1 X-51.912 Y1.000 Z0.000 F600.000
G1 X-49.083 Y1.000 Z0.000 F600.000
G1 X-1.000 Y49.083 Z0.000 F600.000
G1 X-1.000 Y46.255 Z0.000 F600.000
G1 X-46.255 Y1.000 Z0.000 F600.000
G1 X-43.426 Y1.000 Z0.000 F600.000
G1 X-1.000 Y43.426 Z0.000 F600.000
G1 X-1.000 Y40.598 Z0.000 F600.000
G1 X-40.598 Y1.000 Z0.000 F600.000
G1 X-37.770 Y1.000 Z0.000 F600.000
G1 X-1.000 Y37.770 Z0.000 F600.000
G1 X-1.000 Y34.941 Z0.000 F600.000
G1 X-34.941 Y1.000 Z0.000 F600.000
G1 X-32.113 Y1.000 Z0.000 F600.000
G1 X-1.000 Y32.113 Z0.000 F600.000
G1 X-1.000 Y29.284 Z0.000 F600.000
G1 X-29.284 Y1.000 Z0.000 F600.000
G1 X-26.456 Y1.000 Z0.000 F600.000
G1 X-1.000 Y26.456 Z0.000 F600.000
G1 X-1.000 Y23.627 Z0.000 F600.000
G1 X-23.627 Y1.000 Z0.000 F600.000
G1 X-20.799 Y1.000 Z0.000 F600.000
G1 X-1.000 Y20.799 Z0.000 F600.000
G1 X-1.000 Y17.971 Z0.000 F600.000
G1 X-17.971 Y1.000 Z0.000 F600.000
G1 X-15.142 Y1.000 Z0.000 F600.000
G1 X-1.000 Y15.142 Z0.000 F600.000
G1 X-1.000 Y12.314 Z0.000 F600.000
G1 X-12.314 Y1.000 Z0.000 F600.000
G1 X-9.485 Y1.000 Z0.000 F600.000
G1 X-1.000 Y9.485 Z0.000 F600.000
G1 X-1.000 Y6.657 Z0.000 F600.000
G1 X-6.657 Y1.000 Z0.000 F600.000
G1 X-3.828 Y1.000 Z0.000 F600.000
G1 X-1.000 Y3.828 Z0.000 F600.000
G1 X-1.000 Y1.000 Z0.000 F600.000
G0 Z7.000
G0 Z7.000
(Finish operation: Pocket_Shape)
(Begin operation: Pocket_Shape001)
(Path: Pocket_Shape001)
(Pocket_Shape001)
G0 Z7.000
G0 X1.034 Y59.000
G0 Z5.000
G1 X1.034 Y59.000 Z0.000 F600.000
G3 X1.000 Y58.966 Z0.000 I-0.017 J-0.017 K0.000 F600.000
G1 X1.034 Y59.000 Z0.000 F600.000
G1 X59.000 Y59.000 Z0.000 F600.000
G1 X59.000 Y1.000 Z0.000 F600.000
G1 X1.000 Y1.000 Z0.000 F600.000
G1 X1.000 Y59.000 Z0.000 F600.000
G1 X1.034 Y59.000 Z0.000 F600.000
G1 X3.863 Y59.000 Z0.000 F600.000
G1 X1.000 Y56.137 Z0.000 F600.000
G1 X1.000 Y53.309 Z0.000 F600.000
G1 X6.691 Y59.000 Z0.000 F600.000
G1 X9.520 Y59.000 Z0.000 F600.000
G1 X1.000 Y50.480 Z0.000 F600.000
G1 X1.000 Y47.652 Z0.000 F600.000
G1 X12.348 Y59.000 Z0.000 F600.000
G1 X15.177 Y59.000 Z0.000 F600.000
G1 X1.000 Y44.823 Z0.000 F600.000
G1 X1.000 Y41.995 Z0.000 F600.000
G1 X18.005 Y59.000 Z0.000 F600.000
G1 X20.833 Y59.000 Z0.000 F600.000
G1 X1.000 Y39.167 Z0.000 F600.000
G1 X1.000 Y36.338 Z0.000 F600.000
G1 X23.662 Y59.000 Z0.000 F600.000
G1 X26.490 Y59.000 Z0.000 F600.000
G1 X1.000 Y33.510 Z0.000 F600.000
G1 X1.000 Y30.681 Z0.000 F600.000
G1 X29.319 Y59.000 Z0.000 F600.000
G1 X32.147 Y59.000 Z0.000 F600.000
G1 X1.000 Y27.853 Z0.000 F600.000
G1 X1.000 Y25.024 Z0.000 F600.000
G1 X34.976 Y59.000 Z0.000 F600.000
G1 X37.804 Y59.000 Z0.000 F600.000
G1 X1.000 Y22.196 Z0.000 F600.000
G1 X1.000 Y19.368 Z0.000 F600.000
G1 X40.632 Y59.000 Z0.000 F600.000
G1 X43.461 Y59.000 Z0.000 F600.000
G1 X1.000 Y16.539 Z0.000 F600.000
G1 X1.000 Y13.711 Z0.000 F600.000
G1 X46.289 Y59.000 Z0.000 F600.000
G1 X49.118 Y59.000 Z0.000 F600.000
G1 X1.000 Y10.882 Z0.000 F600.000
G1 X1.000 Y8.054 Z0.000 F600.000
G1 X51.946 Y59.000 Z0.000 F600.000
G1 X54.775 Y59.000 Z0.000 F600.000
G1 X1.000 Y5.225 Z0.000 F600.000
G1 X1.000 Y2.397 Z0.000 F600.000
G1 X57.603 Y59.000 Z0.000 F600.000
G1 X59.000 Y59.000 Z0.000 F600.000
G1 X59.000 Y57.569 Z0.000 F600.000
G1 X2.431 Y1.000 Z0.000 F600.000
G1 X5.260 Y1.000 Z0.000 F600.000
G1 X59.000 Y54.740 Z0.000 F600.000
G1 X59.000 Y51.912 Z0.000 F600.000
G1 X8.088 Y1.000 Z0.000 F600.000
G1 X10.917 Y1.000 Z0.000 F600.000
G1 X59.000 Y49.083 Z0.000 F600.000
G1 X59.000 Y46.255 Z0.000 F600.000
G1 X13.745 Y1.000 Z0.000 F600.000
G1 X16.574 Y1.000 Z0.000 F600.000
G1 X59.000 Y43.426 Z0.000 F600.000
G1 X59.000 Y40.598 Z0.000 F600.000
G1 X19.402 Y1.000 Z0.000 F600.000
G1 X22.230 Y1.000 Z0.000 F600.000
G1 X59.000 Y37.770 Z0.000 F600.000
G1 X59.000 Y34.941 Z0.000 F600.000
G1 X25.059 Y1.000 Z0.000 F600.000
G1 X27.887 Y1.000 Z0.000 F600.000
G1 X59.000 Y32.113 Z0.000 F600.000
G1 X59.000 Y29.284 Z0.000 F600.000
G1 X30.716 Y1.000 Z0.000 F600.000
G1 X33.544 Y1.000 Z0.000 F600.000
G1 X59.000 Y26.456 Z0.000 F600.000
G1 X59.000 Y23.627 Z0.000 F600.000
G1 X36.373 Y1.000 Z0.000 F600.000
G1 X39.201 Y1.000 Z0.000 F600.000
G1 X59.000 Y20.799 Z0.000 F600.000
G1 X59.000 Y17.971 Z0.000 F600.000
G1 X42.029 Y1.000 Z0.000 F600.000
G1 X44.858 Y1.000 Z0.000 F600.000
G1 X59.000 Y15.142 Z0.000 F600.000
G1 X59.000 Y12.314 Z0.000 F600.000
G1 X47.686 Y1.000 Z0.000 F600.000
G1 X50.515 Y1.000 Z0.000 F600.000
G1 X59.000 Y9.485 Z0.000 F600.000
G1 X59.000 Y6.657 Z0.000 F600.000
G1 X53.343 Y1.000 Z0.000 F600.000
G1 X56.172 Y1.000 Z0.000 F600.000
G1 X59.000 Y3.828 Z0.000 F600.000
G1 X59.000 Y1.000 Z0.000 F600.000
G0 Z7.000
G0 Z7.000
(Finish operation: Pocket_Shape001)
(Begin operation: Pocket_Shape002)
(Path: Pocket_Shape002)
(Pocket_Shape002)
G0 Z7.000
G0 X-16.559 Y31.948
G0 Z5.000
G1 X-16.559 Y31.948 Z-2.000 F600.000
G2 X-16.214 Y31.844 Z-2.000 I-1.284 J-4.890 K0.000 F600.000
G2 X-17.286 Y23.047 Z-2.000 I-160.617 J15.117 K0.000 F600.000
G2 X-20.680 Y13.617 Z-2.000 I-27.531 J4.581 K0.000 F600.000
G2 X-25.673 Y8.612 Z-2.000 I-14.658 J9.632 K0.000 F600.000
G2 X-27.243 Y7.697 Z-2.000 I-7.148 J10.470 K0.000 F600.000
G2 X-30.294 Y6.590 Z-2.000 I-7.244 J15.203 K0.000 F600.000
G2 X-32.728 Y6.213 Z-2.000 I-2.377 J7.302 K0.000 F600.000
G2 X-38.936 Y7.544 Z-2.000 I-0.430 J13.142 K0.000 F600.000
G2 X-39.690 Y7.991 Z-2.000 I12.692 J22.274 K0.000 F600.000
G2 X-40.153 Y8.941 Z-2.000 I0.610 J0.885 K0.000 F600.000
G3 X-40.135 Y9.154 Z-2.000 I-1.880 J0.261 K0.000 F600.000
G2 X-40.027 Y10.016 Z-2.000 I2.297 J0.149 K0.000 F600.000
G1 X-40.026 Y10.016 Z-2.000 F600.000
G3 X-39.890 Y9.989 Z-2.000 I0.435 J1.876 K0.000 F600.000
G3 X-29.973 Y15.948 Z-2.000 I0.828 J9.854 K0.000 F600.000
G3 X-28.908 Y19.268 Z-2.000 I-26.814 J10.432 K0.000 F600.000
G3 X-28.892 Y19.342 Z-2.000 I-0.966 J0.257 K0.000 F600.000
G3 X-28.790 Y23.649 Z-2.000 I-21.181 J2.656 K0.000 F600.000
G3 X-29.271 Y27.530 Z-2.000 I-30.006 J-1.750 K0.000 F600.000
G3 X-30.300 Y32.072 Z-2.000 I-160.457 J-33.957 K0.000 F600.000
G3 X-30.308 Y32.104 Z-2.000 I-0.973 J-0.231 K0.000 F600.000
G2 X-30.563 Y32.941 Z-2.000 I333.987 J102.366 K0.000 F600.000
G2 X-27.198 Y33.263 Z-2.000 I4.186 J-25.979 K0.000 F600.000
G1 X-25.348 Y33.127 Z-2.000 F600.000
G1 X-17.089 Y32.057 Z-2.000 F600.000
G2 X-16.559 Y31.948 Z-2.000 I-0.754 J-5.000 K0.000 F600.000
G0 Z7.000
G0 X-30.563 Y32.941 Z7.000
G0 X-30.563 Y32.941 Z5.000
G1 X-30.563 Y32.941 Z-2.000 F600.000
G3 X-30.308 Y32.104 Z-2.000 I334.200 J101.516 K0.000 F600.000
G2 X-30.300 Y32.072 Z-2.000 I-0.965 J-0.263 K0.000 F600.000
G2 X-29.975 Y30.701 Z-2.000 I-98.864 J-24.094 K0.000 F600.000
G1 X-27.421 Y33.254 Z-2.000 F600.000
G1 X-27.198 Y33.263 Z-2.000 F600.000
G1 X-25.348 Y33.127 Z-2.000 F600.000
G1 X-24.793 Y33.055 Z-2.000 F600.000
G1 X-29.456 Y28.391 Z-2.000 F600.000
G2 X-29.272 Y27.539 Z-2.000 I-24.623 J-5.749 K0.000 F600.000
G2 X-29.021 Y25.998 Z-2.000 I-27.725 J-5.314 K0.000 F600.000
G1 X-22.288 Y32.731 Z-2.000 F600.000
G1 X-19.784 Y32.406 Z-2.000 F600.000
G1 X-28.774 Y23.416 Z-2.000 F600.000
G2 X-28.773 Y20.589 Z-2.000 I-20.884 J-1.426 K0.000 F600.000
G1 X-17.280 Y32.082 Z-2.000 F600.000
G2 X-16.214 Y31.844 Z-2.000 I-0.555 J-4.997 K0.000 F600.000
G2 X-16.383 Y30.151 Z-2.000 I-91.622 J8.306 K0.000 F600.000
G1 X-29.617 Y16.917 Z-2.000 F600.000
G2 X-29.973 Y15.948 Z-2.000 I-21.629 J7.405 K0.000 F600.000
G2 X-36.135 Y10.399 Z-2.000 I-9.087 J3.894 K0.000 F600.000
G1 X-38.970 Y7.563 Z-2.000 F600.000
G1 X-38.936 Y7.544 Z-2.000 F600.000
G3 X-36.942 Y6.764 Z-2.000 I5.664 J11.544 K0.000 F600.000
G1 X-16.751 Y26.954 Z-2.000 F600.000
G2 X-17.194 Y23.683 Z-2.000 I-127.478 J15.596 K0.000 F600.000
G1 X-34.591 Y6.286 Z-2.000 F600.000
G3 X-32.729 Y6.213 Z-2.000 I1.441 J13.006 K0.000 F600.000
G3 X-31.784 Y6.264 Z-2.000 I0.070 J7.494 K0.000 F600.000
G1 X-17.940 Y20.108 Z-2.000 F600.000
G2 X-19.646 Y15.574 Z-2.000 I-26.668 J7.444 K0.000 F600.000
G2 X-20.680 Y13.617 Z-2.000 I-24.398 J11.631 K0.000 F600.000
G2 X-25.673 Y8.612 Z-2.000 I-14.658 J9.632 K0.000 F600.000
G2 X-27.760 Y7.460 Z-2.000 I-7.072 J10.347 K0.000 F600.000
G1 X-19.646 Y15.574 Z-2.000 F600.000
G0 Z7.000
G0 X-39.403 Y9.959 Z7.000
G0 X-39.403 Y9.959 Z5.000
G1 X-39.403 Y9.959 Z-2.000 F600.000
G2 X-39.929 Y9.995 Z-2.000 I0.162 J6.270 K0.000 F600.000
G3 X-40.027 Y10.016 Z-2.000 I-0.127 J-0.365 K0.000 F600.000
G3 X-40.136 Y9.226 Z-2.000 I2.101 J-0.693 K0.000 F600.000
G1 X-39.403 Y9.959 Z-2.000 F600.000
G3 X-36.135 Y10.399 Z-2.000 I0.342 J9.828 K0.000 F600.000
G1 X-38.970 Y7.563 Z-2.000 F600.000
G1 X-38.970 Y7.563 Z-3.000 F600.000
G1 X-36.135 Y10.399 Z-3.000 F600.000
G2 X-39.403 Y9.959 Z-3.000 I-2.925 J9.389 K0.000 F600.000
G1 X-40.136 Y9.226 Z-3.000 F600.000
G2 X-40.027 Y10.016 Z-3.000 I2.211 J0.097 K0.000 F600.000
G2 X-39.929 Y9.995 Z-3.000 I-0.029 J-0.385 K0.000 F600.000
G3 X-39.403 Y9.959 Z-3.000 I0.689 J6.234 K0.000 F600.000
G0 Z7.000
G0 X-39.403 Y9.960 Z7.000
G0 X-39.403 Y9.960 Z5.000
G1 X-39.403 Y9.960 Z-3.000 F600.000
G3 X-29.973 Y15.948 Z-3.000 I0.340 J9.883 K0.000 F600.000
G3 X-28.908 Y19.268 Z-3.000 I-26.814 J10.432 K0.000 F600.000
G3 X-28.892 Y19.342 Z-3.000 I-0.966 J0.257 K0.000 F600.000
G3 X-28.790 Y23.649 Z-3.000 I-21.181 J2.656 K0.000 F600.000
G3 X-29.271 Y27.530 Z-3.000 I-30.006 J-1.750 K0.000 F600.000
G3 X-30.300 Y32.072 Z-3.000 I-160.457 J-33.957 K0.000 F600.000
G3 X-30.308 Y32.104 Z-3.000 I-0.973 J-0.231 K0.000 F600.000
G2 X-30.563 Y32.941 Z-3.000 I333.987 J102.366 K0.000 F600.000
G2 X-27.198 Y33.263 Z-3.000 I4.186 J-25.979 K0.000 F600.000
G1 X-25.348 Y33.127 Z-3.000 F600.000
G1 X-17.089 Y32.057 Z-3.000 F600.000
G2 X-16.214 Y31.844 Z-3.000 I-0.754 J-5.000 K0.000 F600.000
G2 X-17.286 Y23.047 Z-3.000 I-160.617 J15.117 K0.000 F600.000
G2 X-20.680 Y13.617 Z-3.000 I-27.531 J4.581 K0.000 F600.000
G2 X-25.673 Y8.612 Z-3.000 I-14.658 J9.632 K0.000 F600.000
G2 X-27.243 Y7.697 Z-3.000 I-7.148 J10.470 K0.000 F600.000
G2 X-30.294 Y6.590 Z-3.000 I-7.244 J15.203 K0.000 F600.000
G2 X-32.728 Y6.213 Z-3.000 I-2.377 J7.302 K0.000 F600.000
G2 X-38.936 Y7.544 Z-3.000 I-0.430 J13.142 K0.000 F600.000
G2 X-39.690 Y7.991 Z-3.000 I12.692 J22.274 K0.000 F600.000
G2 X-40.153 Y8.941 Z-3.000 I0.610 J0.885 K0.000 F600.000
G3 X-40.135 Y9.154 Z-3.000 I-1.880 J0.261 K0.000 F600.000
G2 X-40.027 Y10.016 Z-3.000 I2.297 J0.149 K0.000 F600.000
G1 X-40.026 Y10.016 Z-3.000 F600.000
G3 X-39.890 Y9.989 Z-3.000 I0.435 J1.876 K0.000 F600.000
G3 X-39.403 Y9.960 Z-3.000 I0.828 J9.854 K0.000 F600.000
G0 Z7.000
G0 X-19.646 Y15.574 Z7.000
G0 X-19.646 Y15.574 Z5.000
G1 X-19.646 Y15.574 Z-3.000 F600.000
G1 X-27.760 Y7.460 Z-3.000 F600.000
G3 X-25.673 Y8.612 Z-3.000 I-4.985 J11.499 K0.000 F600.000
G3 X-20.680 Y13.617 Z-3.000 I-9.665 J14.636 K0.000 F600.000
G3 X-19.646 Y15.574 Z-3.000 I-23.364 J13.588 K0.000 F600.000
G3 X-17.940 Y20.108 Z-3.000 I-24.962 J11.978 K0.000 F600.000
G1 X-31.784 Y6.264 Z-3.000 F600.000
G2 X-32.729 Y6.213 Z-3.000 I-0.875 J7.443 K0.000 F600.000
G2 X-34.591 Y6.286 Z-3.000 I-0.421 J13.079 K0.000 F600.000
G1 X-17.194 Y23.683 Z-3.000 F600.000
G3 X-16.751 Y26.954 Z-3.000 I-127.035 J18.867 K0.000 F600.000
G1 X-36.942 Y6.764 Z-3.000 F600.000
G2 X-38.936 Y7.544 Z-3.000 I3.670 J12.324 K0.000 F600.000
G1 X-38.970 Y7.563 Z-3.000 F600.000
G1 X-36.135 Y10.399 Z-3.000 F600.000
G3 X-29.973 Y15.948 Z-3.000 I-2.925 J9.444 K0.000 F600.000
G3 X-29.617 Y16.917 Z-3.000 I-21.273 J8.374 K0.000 F600.000
G1 X-16.383 Y30.151 Z-3.000 F600.000
G3 X-16.214 Y31.844 Z-3.000 I-91.452 J10.000 K0.000 F600.000
G3 X-17.280 Y32.082 Z-3.000 I-1.621 J-4.759 K0.000 F600.000
G1 X-28.773 Y20.589 Z-3.000 F600.000
G3 X-28.774 Y23.416 Z-3.000 I-20.885 J1.401 K0.000 F600.000
G1 X-19.784 Y32.406 Z-3.000 F600.000
G1 X-22.288 Y32.731 Z-3.000 F600.000
G1 X-29.021 Y25.998 Z-3.000 F600.000
G3 X-29.272 Y27.539 Z-3.000 I-27.977 J-3.773 K0.000 F600.000
G3 X-29.456 Y28.391 Z-3.000 I-24.807 J-4.897 K0.000 F600.000
G1 X-24.793 Y33.055 Z-3.000 F600.000
G1 X-25.348 Y33.127 Z-3.000 F600.000
G1 X-27.198 Y33.263 Z-3.000 F600.000
G1 X-27.421 Y33.254 Z-3.000 F600.000
G1 X-29.975 Y30.701 Z-3.000 F600.000
G3 X-30.300 Y32.072 Z-3.000 I-99.188 J-22.722 K0.000 F600.000
G3 X-30.308 Y32.104 Z-3.000 I-0.973 J-0.231 K0.000 F600.000
G2 X-30.563 Y32.941 Z-3.000 I333.944 J102.353 K0.000 F600.000
G0 Z7.000
G0 Z7.000
(Finish operation: Pocket_Shape002)
(Begin operation: Pocket_Shape003)
(Path: Pocket_Shape003)
(Pocket_Shape003)
G0 Z7.000
G0 X39.561 Y9.955
G0 Z5.000
G1 X39.561 Y9.955 Z-2.000 F600.000
G3 X40.012 Y10.027 Z-2.000 I-0.364 J3.683 K0.000 F600.000
G2 X40.051 Y9.998 Z-2.000 I-0.009 J-0.054 K0.000 F600.000
G2 X40.134 Y8.641 Z-2.000 I-7.019 J-1.110 K0.000 F600.000
G2 X39.863 Y8.150 Z-2.000 I-0.776 J0.108 K0.000 F600.000
G2 X35.670 Y6.428 Z-2.000 I-5.997 J8.633 K0.000 F600.000
G2 X32.877 Y6.209 Z-2.000 I-2.691 J16.440 K0.000 F600.000
G2 X30.614 Y6.497 Z-2.000 I0.005 J9.063 K0.000 F600.000
G2 X27.636 Y7.500 Z-2.000 I6.259 J23.527 K0.000 F600.000
G2 X20.731 Y13.536 Z-2.000 I7.872 J15.973 K0.000 F600.000
G2 X18.457 Y18.463 Z-2.000 I21.125 J12.734 K0.000 F600.000
G2 X17.524 Y21.727 Z-2.000 I51.202 J16.405 K0.000 F600.000
G2 X16.209 Y31.821 Z-2.000 I129.469 J22.001 K0.000 F600.000
G1 X16.208 Y31.851 Z-2.000 F600.000
G2 X16.215 Y31.863 Z-2.000 I0.013 J-0.000 K0.000 F600.000
G2 X16.301 Y31.884 Z-2.000 I0.106 J-0.244 K0.000 F600.000
G2 X17.076 Y32.056 Z-2.000 I1.320 J-4.119 K0.000 F600.000
G1 X25.294 Y33.121 Z-2.000 F600.000
G1 X27.202 Y33.264 Z-2.000 F600.000
G2 X30.567 Y32.937 Z-2.000 I-0.576 J-23.447 K0.000 F600.000
G3 X29.688 Y29.379 Z-2.000 I26.798 J-8.506 K0.000 F600.000
G3 X28.770 Y22.729 Z-2.000 I25.394 J-6.891 K0.000 F600.000
G3 X28.827 Y19.873 Z-2.000 I18.736 J-1.058 K0.000 F600.000
G3 X28.888 Y19.340 Z-2.000 I6.388 J0.465 K0.000 F600.000
G3 X29.385 Y17.603 Z-2.000 I69.528 J18.927 K0.000 F600.000
G3 X31.109 Y13.934 Z-2.000 I11.293 J3.069 K0.000 F600.000
G3 X38.207 Y10.015 Z-2.000 I7.921 J5.960 K0.000 F600.000
G3 X40.012 Y10.027 Z-2.000 I0.873 J4.302 K0.000 F600.000
G2 X40.051 Y9.998 Z-2.000 I-0.009 J-0.054 K0.000 F600.000
G2 X40.134 Y8.641 Z-2.000 I-7.019 J-1.110 K0.000 F600.000
G2 X39.863 Y8.150 Z-2.000 I-0.776 J0.108 K0.000 F600.000
G2 X36.125 Y6.519 Z-2.000 I-5.968 J8.577 K0.000 F600.000
G1 X39.561 Y9.955 Z-2.000 F600.000
G2 X38.207 Y10.015 Z-2.000 I-0.484 J4.332 K0.000 F600.000
G2 X36.975 Y10.198 Z-2.000 I0.744 J9.279 K0.000 F600.000
G1 X32.988 Y6.210 Z-2.000 F600.000
G2 X30.483 Y6.534 Z-2.000 I-0.109 J8.995 K0.000 F600.000
G1 X34.854 Y10.905 Z-2.000 F600.000
G2 X33.084 Y11.963 Z-2.000 I4.061 J8.801 K0.000 F600.000
G1 X28.344 Y7.223 Z-2.000 F600.000
G2 X27.636 Y7.500 Z-2.000 I6.620 J17.960 K0.000 F600.000
G2 X26.440 Y8.147 Z-2.000 I7.664 J15.591 K0.000 F600.000
G1 X31.611 Y13.319 Z-2.000 F600.000
G2 X31.152 Y13.876 Z-2.000 I7.236 J6.429 K0.000 F600.000
G2 X30.450 Y14.986 Z-2.000 I8.961 J6.441 K0.000 F600.000
G1 X24.749 Y9.285 Z-2.000 F600.000
G2 X23.221 Y10.585 Z-2.000 I10.195 J13.526 K0.000 F600.000
G1 X29.584 Y16.948 Z-2.000 F600.000
G2 X28.943 Y19.135 Z-2.000 I74.086 J22.915 K0.000 F600.000
G1 X21.852 Y12.044 Z-2.000 F600.000
G2 X20.731 Y13.536 Z-2.000 I13.450 J11.276 K0.000 F600.000
G1 X20.651 Y13.672 Z-2.000 F600.000
G1 X28.741 Y21.762 Z-2.000 F600.000
G2 X28.770 Y22.729 Z-2.000 I15.462 J0.014 K0.000 F600.000
G2 X28.865 Y24.715 Z-2.000 I25.111 J-0.201 K0.000 F600.000
G1 X19.661 Y15.510 Z-2.000 F600.000
G2 X18.807 Y17.485 Z-2.000 I21.573 J10.493 K0.000 F600.000
G1 X29.363 Y28.041 Z-2.000 F600.000
G2 X29.688 Y29.379 Z-2.000 I20.140 J-4.176 K0.000 F600.000
G2 X30.211 Y31.717 Z-2.000 I27.319 J-4.881 K0.000 F600.000
G1 X18.104 Y19.611 Z-2.000 F600.000
G2 X17.524 Y21.727 Z-2.000 I38.694 J11.735 K0.000 F600.000
G1 X17.506 Y21.841 Z-2.000 F600.000
G1 X28.831 Y33.166 Z-2.000 F600.000
G3 X27.202 Y33.264 Z-2.000 I-2.163 J-22.412 K0.000 F600.000
G1 X26.011 Y33.175 Z-2.000 F600.000
G1 X17.117 Y24.280 Z-2.000 F600.000
G2 X16.769 Y26.761 Z-2.000 I126.653 J19.008 K0.000 F600.000
G1 X22.807 Y32.799 Z-2.000 F600.000
G1 X19.557 Y32.377 Z-2.000 F600.000
G1 X16.465 Y29.285 Z-2.000 F600.000
G2 X16.209 Y31.821 Z-2.000 I86.951 J10.050 K0.000 F600.000
G1 X16.208 Y31.851 Z-2.000 F600.000
G2 X16.218 Y31.864 Z-2.000 I0.013 J-0.000 K0.000 F600.000
G1 X16.218 Y31.864 Z-3.000 F600.000
G3 X16.208 Y31.851 Z-3.000 I0.004 J-0.013 K0.000 F600.000
G1 X16.209 Y31.821 Z-3.000 F600.000
G3 X16.465 Y29.285 Z-3.000 I87.207 J7.515 K0.000 F600.000
G1 X19.557 Y32.377 Z-3.000 F600.000
G1 X22.807 Y32.799 Z-3.000 F600.000
G1 X16.769 Y26.761 Z-3.000 F600.000
G3 X17.117 Y24.280 Z-3.000 I127.001 J16.527 K0.000 F600.000
G1 X26.011 Y33.175 Z-3.000 F600.000
G1 X27.202 Y33.264 Z-3.000 F600.000
G2 X28.831 Y33.166 Z-3.000 I-0.534 J-22.509 K0.000 F600.000
G1 X17.506 Y21.841 Z-3.000 F600.000
G1 X17.524 Y21.727 Z-3.000 F600.000
G3 X18.104 Y19.611 Z-3.000 I39.274 J9.619 K0.000 F600.000
G1 X30.211 Y31.717 Z-3.000 F600.000
G3 X29.688 Y29.379 Z-3.000 I26.796 J-7.219 K0.000 F600.000
G3 X29.363 Y28.041 Z-3.000 I19.815 J-5.514 K0.000 F600.000
G1 X18.807 Y17.485 Z-3.000 F600.000
G3 X19.661 Y15.510 Z-3.000 I22.426 J8.518 K0.000 F600.000
G1 X28.865 Y24.715 Z-3.000 F600.000
G3 X28.770 Y22.729 Z-3.000 I25.016 J-2.186 K0.000 F600.000
G3 X28.741 Y21.762 Z-3.000 I15.432 J-0.953 K0.000 F600.000
G1 X20.651 Y13.672 Z-3.000 F600.000
G1 X20.731 Y13.536 Z-3.000 F600.000
G3 X21.852 Y12.044 Z-3.000 I14.570 J9.784 K0.000 F600.000
G1 X28.943 Y19.135 Z-3.000 F600.000
G3 X29.584 Y16.948 Z-3.000 I74.728 J20.728 K0.000 F600.000
G1 X23.221 Y10.585 Z-3.000 F600.000
G3 X24.749 Y9.285 Z-3.000 I11.723 J12.225 K0.000 F600.000
G1 X30.450 Y14.986 Z-3.000 F600.000
G3 X31.152 Y13.876 Z-3.000 I9.663 J5.331 K0.000 F600.000
G3 X31.611 Y13.319 Z-3.000 I7.695 J5.872 K0.000 F600.000
G1 X26.440 Y8.147 Z-3.000 F600.000
G3 X27.636 Y7.500 Z-3.000 I8.860 J14.943 K0.000 F600.000
G3 X28.344 Y7.223 Z-3.000 I7.327 J17.683 K0.000 F600.000
G1 X33.084 Y11.963 Z-3.000 F600.000
G3 X34.854 Y10.905 Z-3.000 I5.831 J7.743 K0.000 F600.000
G1 X30.483 Y6.534 Z-3.000 F600.000
G3 X32.988 Y6.210 Z-3.000 I2.395 J8.671 K0.000 F600.000
G1 X36.975 Y10.198 Z-3.000 F600.000
G3 X38.207 Y10.015 Z-3.000 I1.976 J9.097 K0.000 F600.000
G3 X39.561 Y9.955 Z-3.000 I0.870 J4.271 K0.000 F600.000
G1 X36.125 Y6.519 Z-3.000 F600.000
G3 X39.863 Y8.150 Z-3.000 I-2.230 J10.208 K0.000 F600.000
G3 X40.134 Y8.641 Z-3.000 I-0.505 J0.599 K0.000 F600.000
G3 X40.051 Y9.998 Z-3.000 I-7.102 J0.246 K0.000 F600.000
G3 X40.012 Y10.027 Z-3.000 I-0.049 J-0.024 K0.000 F600.000
G2 X38.207 Y10.015 Z-3.000 I-0.932 J4.290 K0.000 F600.000
G2 X31.109 Y13.934 Z-3.000 I0.824 J9.879 K0.000 F600.000
G2 X29.385 Y17.603 Z-3.000 I9.569 J6.737 K0.000 F600.000
G2 X28.888 Y19.340 Z-3.000 I69.032 J20.664 K0.000 F600.000
G2 X28.827 Y19.873 Z-3.000 I6.327 J0.998 K0.000 F600.000
G2 X28.770 Y22.729 Z-3.000 I18.680 J1.798 K0.000 F600.000
G2 X29.688 Y29.379 Z-3.000 I26.311 J-0.241 K0.000 F600.000
G2 X30.567 Y32.937 Z-3.000 I27.676 J-4.948 K0.000 F600.000
G3 X27.202 Y33.264 Z-3.000 I-3.941 J-23.121 K0.000 F600.000
G1 X25.294 Y33.121 Z-3.000 F600.000
G1 X17.076 Y32.056 Z-3.000 F600.000
G3 X16.301 Y31.884 Z-3.000 I0.545 J-4.290 K0.000 F600.000
G3 X16.215 Y31.863 Z-3.000 I0.019 J-0.265 K0.000 F600.000
G3 X16.208 Y31.851 Z-3.000 I0.007 J-0.012 K0.000 F600.000
G1 X16.209 Y31.821 Z-3.000 F600.000
G3 X17.524 Y21.727 Z-3.000 I130.784 J11.908 K0.000 F600.000
G3 X18.457 Y18.463 Z-3.000 I52.135 J13.142 K0.000 F600.000
G3 X20.731 Y13.536 Z-3.000 I23.399 J7.806 K0.000 F600.000
G3 X27.636 Y7.500 Z-3.000 I14.777 J9.938 K0.000 F600.000
G3 X30.614 Y6.497 Z-3.000 I9.238 J22.525 K0.000 F600.000
G3 X32.877 Y6.209 Z-3.000 I2.268 J8.774 K0.000 F600.000
G3 X35.670 Y6.428 Z-3.000 I0.102 J16.659 K0.000 F600.000
G3 X39.863 Y8.150 Z-3.000 I-1.804 J10.356 K0.000 F600.000
G3 X40.134 Y8.641 Z-3.000 I-0.505 J0.599 K0.000 F600.000
G3 X40.051 Y9.998 Z-3.000 I-7.102 J0.246 K0.000 F600.000
G3 X40.012 Y10.027 Z-3.000 I-0.049 J-0.024 K0.000 F600.000
G2 X39.561 Y9.955 Z-3.000 I-0.815 J3.610 K0.000 F600.000
G0 Z7.000
G0 Z7.000
(Finish operation: Pocket_Shape003)
(Begin postamble)
M5
G17 G90
M2
