(Exported by FreeCAD)
(Post Processor: script_module)
(Output Time:2025-08-14 11:47:54.713423)
(Begin preamble)
G17 G90
G21
(Begin operation: Fixture)
(Path: Fixture)
G54
(Finish operation: Fixture)
(Begin operation: 1.5mm001)
(Path: 1.5mm001)
(1.5mm001)
(Begin toolchange)
( M6 T2 )
M3 S10000
(Finish operation: 1.5mm001)
(Begin operation: Pocket_Shape)
(Path: Pocket_Shape)
(Pocket_Shape)
G0 Z5.000
G0 X8.274 Y8.546
G0 Z3.000
G1 X8.274 Y8.546 Z-1.000 F600.000
G1 X8.309 Y7.376 Z-1.000 F600.000
G3 X-8.259 Y7.155 Z-1.000 I13.438 J-1634.339 K0.000 F600.000
G1 X-8.303 Y8.299 Z-1.000 F600.000
G3 X0.698 Y8.394 Z-1.000 I-5.926 J987.389 K0.000 F600.000
G3 X1.289 Y8.695 Z-1.000 I-0.010 J0.750 K0.000 F600.000
G1 X2.091 Y9.770 Z-1.000 F600.000
G3 X2.825 Y11.051 Z-1.000 I-6.275 J4.443 K0.000 F600.000
G1 X4.295 Y10.904 Z-1.000 F600.000
G2 X3.552 Y9.624 Z-1.000 I-6.719 J3.042 K0.000 F600.000
G3 X4.202 Y8.475 Z-1.000 I0.635 J-0.398 K0.000 F600.000
G2 X8.274 Y8.546 Z-1.000 I8.821 J-392.297 K0.000 F600.000
G0 Z5.000
G0 X8.309 Y7.376 Z5.000
G0 X8.309 Y7.376 Z3.000
G1 X8.309 Y7.376 Z-1.000 F600.000
G1 X8.274 Y8.546 Z-1.000 F600.000
G1 X7.345 Y8.533 Z-1.000 F600.000
G1 X6.166 Y7.353 Z-1.000 F600.000
G2 X4.025 Y7.334 Z-1.000 I-23.102 J2397.149 K0.000 F600.000
G1 X5.186 Y8.494 Z-1.000 F600.000
G1 X4.202 Y8.475 Z-1.000 F600.000
G2 X3.502 Y8.932 Z-1.000 I-0.018 J0.737 K0.000 F600.000
G1 X1.885 Y7.315 Z-1.000 F600.000
G3 X-0.263 Y7.288 Z-1.000 I0.572 J-133.364 K0.000 F600.000
G1 X0.864 Y8.416 Z-1.000 F600.000
G1 X0.698 Y8.394 Z-1.000 F600.000
G1 X-1.306 Y8.367 Z-1.000 F600.000
G1 X-2.420 Y7.253 Z-1.000 F600.000
G1 X-4.577 Y7.217 Z-1.000 F600.000
G1 X-3.454 Y8.340 Z-1.000 F600.000
G2 X-4.069 Y8.345 Z-1.000 I-0.293 J1.901 K0.000 F600.000
G1 X-4.140 Y8.334 Z-1.000 F600.000
G1 X-5.594 Y8.322 Z-1.000 F600.000
G1 X-6.735 Y7.181 Z-1.000 F600.000
G1 X-8.259 Y7.155 Z-1.000 F600.000
G1 X-8.282 Y7.755 Z-1.000 F600.000
G1 X-7.733 Y8.304 Z-1.000 F600.000
G1 X-8.303 Y8.299 Z-1.000 F600.000
G1 X-8.282 Y7.755 Z-1.000 F600.000
G0 Z5.000
G0 X-4.324 Y10.742 Z5.000
G0 X-4.324 Y10.742 Z3.000
G1 X-4.324 Y10.742 Z-1.000 F600.000
G1 X-3.229 Y11.052 Z-1.000 F600.000
G2 X-2.426 Y10.287 Z-1.000 I-2.077 J-2.986 K0.000 F600.000
G1 X-3.730 Y9.935 Z-1.000 F600.000
G3 X-4.324 Y10.742 Z-1.000 I-4.513 J-2.694 K0.000 F600.000
G0 Z5.000
G0 X-3.825 Y10.090 Z5.000
G0 X-3.825 Y10.090 Z3.000
G1 X-3.825 Y10.090 Z-1.000 F600.000
G2 X-3.730 Y9.935 Z-1.000 I-3.332 J-2.134 K0.000 F600.000
G1 X-2.426 Y10.287 Z-1.000 F600.000
G3 X-3.021 Y10.895 Z-1.000 I-2.267 J-1.625 K0.000 F600.000
G1 X-3.825 Y10.090 Z-1.000 F600.000
G3 X-4.324 Y10.742 Z-1.000 I-4.536 J-2.954 K0.000 F600.000
G1 X-3.229 Y11.052 Z-1.000 F600.000
G1 X-3.021 Y10.895 Z-1.000 F600.000
G0 Z5.000
G0 X1.716 Y9.268 Z5.000
G0 X1.716 Y9.268 Z3.000
G1 X1.716 Y9.268 Z-1.000 F600.000
G3 X2.825 Y11.051 Z-1.000 I-6.595 J5.336 K0.000 F600.000
G1 X3.438 Y10.990 Z-1.000 F600.000
G1 X1.716 Y9.268 Z-1.000 F600.000
G0 Z5.000
G0 Z5.000
G0 X1.716 Y9.268
G0 X7.604 Y12.868
G0 X7.604 Y12.868 Z3.000
G1 X7.604 Y12.868 Z-1.000 F600.000
G1 X7.604 Y13.880 Z-1.000 F600.000
G1 X6.471 Y13.856 Z-1.000 F600.000
G1 X5.433 Y12.818 Z-1.000 F600.000
G1 X3.266 Y12.773 Z-1.000 F600.000
G1 X4.303 Y13.809 Z-1.000 F600.000
G1 X2.135 Y13.763 Z-1.000 F600.000
G1 X1.101 Y12.729 Z-1.000 F600.000
G1 X-1.063 Y12.686 Z-1.000 F600.000
G1 X0.778 Y14.527 Z-1.000 F600.000
G3 X0.574 Y14.732 Z-1.000 I-0.856 J-0.648 K0.000 F600.000
G1 X-0.970 Y14.565 Z-1.000 F600.000
G2 X-1.681 Y13.674 Z-1.000 I-0.723 J-0.152 K0.000 F600.000
G1 X-2.209 Y13.661 Z-1.000 F600.000
G1 X-3.227 Y12.643 Z-1.000 F600.000
G1 X-5.391 Y12.601 Z-1.000 F600.000
G1 X-4.382 Y13.610 Z-1.000 F600.000
G2 X-6.524 Y13.589 Z-1.000 I-1.798 J74.128 K0.000 F600.000
G1 X-7.574 Y13.579 Z-1.000 F600.000
G1 X-7.533 Y12.580 Z-1.000 F600.000
G1 X-6.524 Y13.589 Z-1.000 F600.000
G1 X-7.574 Y13.579 Z-1.000 F600.000
G1 X-7.533 Y12.558 Z-1.000 F600.000
G3 X7.604 Y12.868 Z-1.000 I-45.822 J2611.602 K0.000 F600.000
G1 X7.604 Y13.880 Z-1.000 F600.000
G1 X1.755 Y13.755 Z-1.000 F600.000
G2 X1.143 Y14.049 Z-1.000 I-0.016 J0.750 K0.000 F600.000
G3 X0.574 Y14.732 Z-1.000 I-2.797 J-1.753 K0.000 F600.000
G1 X-0.970 Y14.565 Z-1.000 F600.000
G2 X-1.681 Y13.674 Z-1.000 I-0.723 J-0.152 K0.000 F600.000
G2 X-6.524 Y13.589 Z-1.000 I-5.329 J165.497 K0.000 F600.000
G0 Z5.000
G0 Z5.000
G0 X-6.524 Y13.589
G0 X-6.341 Y16.407
G0 X-6.341 Y16.407 Z3.000
G1 X-6.341 Y16.407 Z-1.000 F600.000
G3 X-6.555 Y22.509 Z-1.000 I-55.708 J1.103 K0.000 F600.000
G1 X-4.919 Y22.765 Z-1.000 F600.000
G3 X-4.258 Y22.412 Z-1.000 I0.626 J0.378 K0.000 F600.000
G2 X5.013 Y22.433 Z-1.000 I4.906 J-118.081 K0.000 F600.000
G2 X6.075 Y22.060 Z-1.000 I-0.017 J-1.743 K0.000 F600.000
G2 X6.560 Y20.817 Z-1.000 I-1.208 J-1.187 K0.000 F600.000
G2 X6.334 Y16.558 Z-1.000 I-29.341 J-0.583 K0.000 F600.000
G2 X-6.341 Y16.407 Z-1.000 I-13.014 J562.492 K0.000 F600.000
G0 Z5.000
G0 X-5.066 Y17.293 Z5.000
G0 X-5.066 Y17.293 Z3.000
G1 X-5.066 Y17.293 Z-1.000 F600.000
G3 X-4.444 Y16.970 Z-1.000 I0.616 J0.428 K0.000 F600.000
G3 X4.185 Y17.133 Z-1.000 I-2.840 J380.768 K0.000 F600.000
G3 X4.916 Y17.846 Z-1.000 I-0.018 J0.750 K0.000 F600.000
G1 X4.956 Y18.675 Z-1.000 F600.000
G3 X4.202 Y19.461 Z-1.000 I-0.749 J0.036 K0.000 F600.000
G1 X-4.476 Y19.401 Z-1.000 F600.000
G3 X-5.220 Y18.634 Z-1.000 I0.005 J-0.750 K0.000 F600.000
G1 X-5.200 Y17.704 Z-1.000 F600.000
G3 X-5.066 Y17.293 Z-1.000 I0.750 J0.016 K0.000 F600.000
G0 Z5.000
G0 X-6.352 Y18.721 Z5.000
G0 X-6.352 Y18.721 Z3.000
G1 X-6.352 Y18.721 Z-1.000 F600.000
G1 X-5.155 Y19.918 Z-1.000 F600.000
G3 X-4.460 Y19.459 Z-1.000 I0.679 J0.272 K0.000 F600.000
G1 X-3.479 Y19.472 Z-1.000 F600.000
G1 X-3.544 Y19.407 Z-1.000 F600.000
G1 X-4.476 Y19.401 Z-1.000 F600.000
G3 X-5.220 Y18.634 Z-1.000 I0.005 J-0.750 K0.000 F600.000
G1 X-5.201 Y17.751 Z-1.000 F600.000
G1 X-6.338 Y16.613 Z-1.000 F600.000
G1 X-6.341 Y16.407 Z-1.000 F600.000
G3 X-4.413 Y16.417 Z-1.000 I0.166 J157.384 K0.000 F600.000
G1 X-3.856 Y16.975 Z-1.000 F600.000
G3 X-1.708 Y17.001 Z-1.000 I-0.586 J137.770 K0.000 F600.000
G1 X-2.279 Y16.430 Z-1.000 F600.000
G3 X-0.140 Y16.448 Z-1.000 I0.280 J97.956 K0.000 F600.000
G1 X0.457 Y17.044 Z-1.000 F600.000
G1 X2.629 Y17.096 Z-1.000 F600.000
G1 X2.018 Y16.484 Z-1.000 F600.000
G1 X4.176 Y16.521 Z-1.000 F600.000
G1 X6.519 Y18.864 Z-1.000 F600.000
G2 X6.334 Y16.558 Z-1.000 I-30.881 J1.316 K0.000 F600.000
G0 Z5.000
G0 X4.749 Y19.215 Z5.000
G0 X4.749 Y19.215 Z3.000
G1 X4.749 Y19.215 Z-1.000 F600.000
G1 X6.534 Y21.001 Z-1.000 F600.000
G3 X5.698 Y22.286 Z-1.000 I-1.391 J0.010 K0.000 F600.000
G1 X4.683 Y21.271 Z-1.000 F600.000
G3 X3.508 Y21.885 Z-1.000 I-1.291 J-1.038 K0.000 F600.000
G3 X3.202 Y21.911 Z-1.000 I-0.789 J-7.528 K0.000 F600.000
G1 X3.757 Y22.466 Z-1.000 F600.000
G3 X1.664 Y22.495 Z-1.000 I-1.976 J-67.913 K0.000 F600.000
G1 X1.134 Y21.964 Z-1.000 F600.000
G3 X-0.998 Y21.954 Z-1.000 I-0.802 J-53.951 K0.000 F600.000
G1 X-0.444 Y22.507 Z-1.000 F600.000
G3 X-2.595 Y22.478 Z-1.000 I-0.561 J-38.376 K0.000 F600.000
G1 X-3.162 Y21.911 Z-1.000 F600.000
G3 X-4.515 Y21.868 Z-1.000 I2.646 J-103.933 K0.000 F600.000
G3 X-5.240 Y21.102 Z-1.000 I0.024 J-0.750 K0.000 F600.000
G1 X-5.220 Y20.192 Z-1.000 F600.000
G3 X-5.155 Y19.918 Z-1.000 I0.457 J-0.036 K0.000 F600.000
G1 X-6.352 Y18.721 Z-1.000 F600.000
G3 X-6.428 Y20.767 Z-1.000 I-32.369 J-0.170 K0.000 F600.000
G1 X-4.673 Y22.521 Z-1.000 F600.000
G2 X-4.919 Y22.765 Z-1.000 I0.305 J0.553 K0.000 F600.000
G1 X-6.555 Y22.509 Z-1.000 F600.000
G2 X-6.428 Y20.767 Z-1.000 I-33.986 J-3.353 K0.000 F600.000
G0 Z5.000
G0 X-3.479 Y19.472 Z5.000
G0 X-3.479 Y19.472 Z3.000
G1 X-3.479 Y19.472 Z-1.000 F600.000
G1 X4.258 Y19.580 Z-1.000 F600.000
G1 X4.258 Y19.580 Z-1.000 F600.000
G3 X4.975 Y20.512 Z-1.000 I-0.010 J0.750 K0.000 F600.000
G3 X4.010 Y21.777 Z-1.000 I-1.492 J-0.137 K0.000 F600.000
G3 X2.504 Y21.944 Z-1.000 I-1.339 J-5.213 K0.000 F600.000
G3 X-4.515 Y21.868 Z-1.000 I-2.367 J-106.105 K0.000 F600.000
G3 X-5.240 Y21.102 Z-1.000 I0.024 J-0.750 K0.000 F600.000
G1 X-5.220 Y20.192 Z-1.000 F600.000
G3 X-4.460 Y19.459 Z-1.000 I0.750 J0.016 K0.000 F600.000
G1 X-3.479 Y19.472 Z-1.000 F600.000
G1 X-3.544 Y19.407 Z-1.000 F600.000
G1 X-1.408 Y19.422 Z-1.000 F600.000
G1 X-1.328 Y19.502 Z-1.000 F600.000
G1 X0.823 Y19.532 Z-1.000 F600.000
G1 X0.728 Y19.437 Z-1.000 F600.000
G1 X2.864 Y19.452 Z-1.000 F600.000
G1 X2.974 Y19.562 Z-1.000 F600.000
G0 Z5.000
G0 Z5.000
G0 X2.974 Y19.562
G0 X7.600 Y27.328
G0 X7.600 Y27.328 Z3.000
G1 X7.600 Y27.328 Z-1.000 F600.000
G1 X7.963 Y28.277 Z-1.000 F600.000
G1 X6.546 Y28.396 Z-1.000 F600.000
G1 X5.704 Y27.554 Z-1.000 F600.000
G3 X3.789 Y27.760 Z-1.000 I-6.908 J-55.135 K0.000 F600.000
G1 X4.576 Y28.547 Z-1.000 F600.000
G1 X2.582 Y28.674 Z-1.000 F600.000
G1 X1.844 Y27.936 Z-1.000 F600.000
G1 X-0.113 Y28.101 Z-1.000 F600.000
G1 X1.183 Y29.397 Z-1.000 F600.000
G1 X1.172 Y29.467 Z-1.000 F600.000
G1 X1.172 Y30.237 Z-1.000 F600.000
G2 X1.913 Y30.986 Z-1.000 I0.750 J0.000 K0.000 F600.000
G1 X2.783 Y30.997 Z-1.000 F600.000
G1 X3.512 Y31.726 Z-1.000 F600.000
G1 X1.888 Y31.711 Z-1.000 F600.000
G2 X1.492 Y31.827 Z-1.000 I-0.018 J0.672 K0.000 F600.000
G1 X-0.461 Y29.874 Z-1.000 F600.000
G1 X-0.413 Y32.043 Z-1.000 F600.000
G1 X1.129 Y33.585 Z-1.000 F600.000
G2 X1.748 Y34.205 Z-1.000 I0.697 J-0.078 K0.000 F600.000
G1 X2.496 Y34.952 Z-1.000 F600.000
G3 X0.350 Y34.928 Z-1.000 I0.611 J-148.150 K0.000 F600.000
G1 X-0.606 Y33.972 Z-1.000 F600.000
G3 X-1.148 Y34.202 Z-1.000 I-0.520 J-0.473 K0.000 F600.000
G1 X-2.525 Y34.174 Z-1.000 F600.000
G1 X-1.801 Y34.898 Z-1.000 F600.000
G1 X-3.964 Y34.856 Z-1.000 F600.000
G1 X-4.690 Y34.131 Z-1.000 F600.000
G3 X-6.872 Y34.070 Z-1.000 I2.552 J-130.571 K0.000 F600.000
G1 X-6.127 Y34.815 Z-1.000 F600.000
G1 X-7.920 Y34.780 Z-1.000 F600.000
G1 X-7.873 Y34.041 Z-1.000 F600.000
G1 X-6.872 Y34.070 Z-1.000 F600.000
G0 Z5.000
G0 X-5.898 Y30.801 Z5.000
G0 X-5.898 Y30.801 Z3.000
G1 X-5.898 Y30.801 Z-1.000 F600.000
G3 X-5.614 Y32.096 Z-1.000 I-6.615 J2.131 K0.000 F600.000
G1 X-4.329 Y32.058 Z-1.000 F600.000
G2 X-4.527 Y30.150 Z-1.000 I-34.611 J2.616 K0.000 F600.000
G3 X-3.832 Y29.082 Z-1.000 I0.724 J-0.289 K0.000 F600.000
G2 X-1.240 Y29.021 Z-1.000 I-0.011 J-56.324 K0.000 F600.000
G3 X-0.464 Y29.755 Z-1.000 I0.026 J0.750 K0.000 F600.000
G1 X-0.383 Y33.436 Z-1.000 F600.000
G3 X-1.148 Y34.202 Z-1.000 I-0.750 J0.016 K0.000 F600.000
G3 X-7.873 Y34.041 Z-1.000 I6.236 J-400.671 K0.000 F600.000
G1 X-7.920 Y34.780 Z-1.000 F600.000
G2 X5.831 Y34.968 Z-1.000 I15.564 J-636.931 K0.000 F600.000
G2 X7.473 Y34.830 Z-1.000 I0.151 J-8.058 K0.000 F600.000
G2 X7.921 Y34.644 Z-1.000 I-0.151 J-0.996 K0.000 F600.000
G2 X8.039 Y34.251 Z-1.000 I-0.808 J-0.457 K0.000 F600.000
G2 X7.812 Y33.098 Z-1.000 I-2.522 J-0.101 K0.000 F600.000
G3 X7.147 Y32.249 Z-1.000 I0.062 J-0.734 K0.000 F600.000
G1 X7.325 Y31.064 Z-1.000 F600.000
G2 X1.913 Y30.986 Z-1.000 I-9.532 J476.465 K0.000 F600.000
G3 X1.172 Y30.237 Z-1.000 I0.009 J-0.750 K0.000 F600.000
G1 X1.172 Y29.467 Z-1.000 F600.000
G3 X1.874 Y28.719 Z-1.000 I0.750 J-0.000 K0.000 F600.000
G2 X7.963 Y28.277 Z-1.000 I-7.953 J-151.832 K0.000 F600.000
G1 X7.600 Y27.328 Z-1.000 F600.000
G3 X-4.545 Y28.376 Z-1.000 I-19.216 J-151.850 K0.000 F600.000
G3 X-5.162 Y28.114 Z-1.000 I-0.046 J-0.749 K0.000 F600.000
G2 X-5.891 Y27.303 Z-1.000 I-4.281 J3.115 K0.000 F600.000
G1 X-7.614 Y27.801 Z-1.000 F600.000
G1 X-7.614 Y27.801 Z-1.000 F600.000
G3 X-5.614 Y32.096 Z-1.000 I-5.665 J5.250 K0.000 F600.000
G1 X-4.632 Y32.067 Z-1.000 F600.000
G1 X-5.898 Y30.801 Z-1.000 F600.000
G2 X-7.614 Y27.801 Z-1.000 I-7.144 J2.095 K0.000 F600.000
G1 X-6.964 Y27.613 Z-1.000 F600.000
G1 X-4.548 Y30.030 Z-1.000 F600.000
G3 X-4.048 Y29.116 Z-1.000 I0.727 J-0.196 K0.000 F600.000
G3 X-3.380 Y29.076 Z-1.000 I0.469 J2.240 K0.000 F600.000
G1 X-4.108 Y28.349 Z-1.000 F600.000
G1 X-2.108 Y28.227 Z-1.000 F600.000
G1 X-1.311 Y29.024 Z-1.000 F600.000
G0 Z5.000
G0 X1.371 Y31.912 Z5.000
G0 X1.371 Y31.912 Z3.000
G1 X1.371 Y31.912 Z-1.000 F600.000
G3 X1.888 Y31.711 Z-1.000 I0.510 J0.550 K0.000 F600.000
G1 X6.298 Y31.752 Z-1.000 F600.000
G3 X7.039 Y32.454 Z-1.000 I-0.007 J0.750 K0.000 F600.000
G3 X6.186 Y33.273 Z-1.000 I-0.791 J0.031 K0.000 F600.000
G3 X6.132 Y33.488 Z-1.000 I-0.631 J-0.043 K0.000 F600.000
G3 X5.189 Y34.151 Z-1.000 I-1.066 J-0.515 K0.000 F600.000
G3 X1.863 Y34.223 Z-1.000 I-2.447 J-36.349 K0.000 F600.000
G3 X1.111 Y33.458 Z-1.000 I-0.002 J-0.750 K0.000 F600.000
G1 X1.131 Y32.446 Z-1.000 F600.000
G3 X1.371 Y31.912 Z-1.000 I0.750 J0.015 K0.000 F600.000
G0 Z5.000
G0 X3.512 Y31.726 Z5.000
G0 X3.512 Y31.726 Z3.000
G1 X3.512 Y31.726 Z-1.000 F600.000
G1 X2.783 Y30.997 Z-1.000 F600.000
G3 X4.932 Y31.024 Z-1.000 I-6.027 J561.049 K0.000 F600.000
G1 X5.653 Y31.746 Z-1.000 F600.000
G0 Z5.000
G0 X7.295 Y31.266 Z5.000
G0 X7.295 Y31.266 Z3.000
G1 X7.295 Y31.266 Z-1.000 F600.000
G1 X7.325 Y31.064 Z-1.000 F600.000
G1 X7.088 Y31.059 Z-1.000 F600.000
G1 X7.295 Y31.266 Z-1.000 F600.000
G1 X7.147 Y32.249 Z-1.000 F600.000
G2 X7.812 Y33.098 Z-1.000 I0.727 J0.116 K0.000 F600.000
G3 X8.045 Y34.137 Z-1.000 I-2.426 J1.090 K0.000 F600.000
G1 X6.871 Y32.963 Z-1.000 F600.000
G3 X6.186 Y33.273 Z-1.000 I-0.642 J-0.508 K0.000 F600.000
G3 X5.732 Y33.946 Z-1.000 I-0.908 J-0.123 K0.000 F600.000
G1 X6.716 Y34.930 Z-1.000 F600.000
G3 X4.627 Y34.962 Z-1.000 I-1.382 J-21.992 K0.000 F600.000
G1 X3.875 Y34.211 Z-1.000 F600.000
G3 X1.748 Y34.205 Z-1.000 I-0.920 J-50.975 K0.000 F600.000
G1 X2.496 Y34.952 Z-1.000 F600.000
G0 Z5.000
G0 Z5.000
G0 X2.496 Y34.952
G0 X3.835 Y36.780
G0 X3.835 Y36.780 Z3.000
G1 X3.835 Y36.780 Z-1.000 F600.000
G3 X3.903 Y38.123 Z-1.000 I-46.138 J3.010 K0.000 F600.000
G3 X2.503 Y38.657 Z-1.000 I-0.751 J0.133 K0.000 F600.000
G2 X1.093 Y36.827 Z-1.000 I-4.774 J2.221 K0.000 F600.000
G1 X0.332 Y37.381 Z-1.000 F600.000
G3 X2.316 Y39.428 Z-1.000 I-3.459 J5.338 K0.000 F600.000
G3 X1.895 Y40.542 Z-1.000 I-0.637 J0.396 K0.000 F600.000
G3 X0.960 Y40.564 Z-1.000 I-0.538 J-3.020 K0.000 F600.000
G1 X0.945 Y41.512 Z-1.000 F600.000
G3 X3.006 Y41.583 Z-1.000 I-0.167 J34.808 K0.000 F600.000
G3 X3.691 Y42.115 Z-1.000 I-0.033 J0.749 K0.000 F600.000
G3 X3.711 Y42.735 Z-1.000 I-2.929 J0.402 K0.000 F600.000
G1 X4.531 Y42.757 Z-1.000 F600.000
G1 X4.551 Y42.392 Z-1.000 F600.000
G3 X5.309 Y41.683 Z-1.000 I0.749 J0.042 K0.000 F600.000
G1 X8.017 Y41.715 Z-1.000 F600.000
G1 X8.030 Y41.519 Z-1.000 F600.000
G1 X7.286 Y40.775 Z-1.000 F600.000
G1 X8.079 Y40.796 Z-1.000 F600.000
G1 X8.030 Y41.519 Z-1.000 F600.000
G1 X8.079 Y40.796 Z-1.000 F600.000
G1 X6.554 Y40.756 Z-1.000 F600.000
G3 X6.066 Y39.454 Z-1.000 I0.020 J-0.750 K0.000 F600.000
G2 X8.111 Y37.358 Z-1.000 I-12.420 J-14.164 K0.000 F600.000
G1 X7.299 Y37.046 Z-1.000 F600.000
G1 X5.940 Y38.858 Z-1.000 F600.000
G3 X4.590 Y38.408 Z-1.000 I-0.600 J-0.450 K0.000 F600.000
G1 X4.590 Y36.806 Z-1.000 F600.000
G1 X3.835 Y36.780 Z-1.000 F600.000
G0 Z5.000
G0 X4.590 Y38.079 Z5.000
G0 X4.590 Y38.079 Z3.000
G1 X4.590 Y38.079 Z-1.000 F600.000
G1 X4.590 Y36.806 Z-1.000 F600.000
G1 X3.835 Y36.780 Z-1.000 F600.000
G3 X3.868 Y37.357 Z-1.000 I-82.592 J5.071 K0.000 F600.000
G1 X4.590 Y38.079 Z-1.000 F600.000
G2 X4.731 Y38.846 Z-1.000 I0.969 J0.218 K0.000 F600.000
G2 X5.611 Y39.100 Z-1.000 I0.596 J-0.415 K0.000 F600.000
G1 X6.021 Y39.510 Z-1.000 F600.000
G2 X6.554 Y40.756 Z-1.000 I0.549 J0.502 K0.000 F600.000
G1 X7.286 Y40.775 Z-1.000 F600.000
G1 X8.030 Y41.519 Z-1.000 F600.000
G1 X8.017 Y41.715 Z-1.000 F600.000
G1 X6.082 Y41.693 Z-1.000 F600.000
G1 X3.383 Y38.994 Z-1.000 F600.000
G3 X2.503 Y38.657 Z-1.000 I-0.238 J-0.696 K0.000 F600.000
G2 X1.093 Y36.827 Z-1.000 I-4.774 J2.221 K0.000 F600.000
G1 X0.332 Y37.381 Z-1.000 F600.000
G3 X2.406 Y39.638 Z-1.000 I-3.174 J4.998 K0.000 F600.000
G3 X2.372 Y40.104 Z-1.000 I-0.488 J0.199 K0.000 F600.000
G1 X4.570 Y42.302 Z-1.000 F600.000
G2 X4.531 Y42.757 Z-1.000 I1.459 J0.355 K0.000 F600.000
G1 X3.711 Y42.735 Z-1.000 F600.000
G2 X3.691 Y42.115 Z-1.000 I-2.949 J-0.218 K0.000 F600.000
G2 X3.006 Y41.583 Z-1.000 I-0.718 J0.217 K0.000 F600.000
G1 X1.671 Y41.524 Z-1.000 F600.000
G1 X0.956 Y40.809 Z-1.000 F600.000
G1 X0.945 Y41.512 Z-1.000 F600.000
G3 X1.671 Y41.524 Z-1.000 I0.147 J12.739 K0.000 F600.000
G0 Z5.000
G0 X6.021 Y39.510 Z5.000
G0 X6.021 Y39.510 Z3.000
G1 X6.021 Y39.510 Z-1.000 F600.000
G1 X5.611 Y39.100 Z-1.000 F600.000
G2 X5.940 Y38.858 Z-1.000 I-0.211 J-0.630 K0.000 F600.000
G1 X6.604 Y37.972 Z-1.000 F600.000
G1 X7.095 Y38.463 Z-1.000 F600.000
G2 X8.111 Y37.358 Z-1.000 I-8.793 J-9.099 K0.000 F600.000
G0 Z5.000
G0 Z5.000
G0 X8.111 Y37.358
G0 X-1.467 Y38.725
G0 X-1.467 Y38.725 Z3.000
G1 X-1.467 Y38.725 Z-1.000 F600.000
G3 X-2.260 Y39.378 Z-1.000 I-4.282 J-4.390 K0.000 F600.000
G2 X-2.537 Y39.777 Z-1.000 I0.255 J0.473 K0.000 F600.000
G1 X-3.110 Y39.203 Z-1.000 F600.000
G0 Z5.000
G0 X-3.989 Y38.325 Z5.000
G0 X-3.989 Y38.325 Z3.000
G1 X-3.989 Y38.325 Z-1.000 F600.000
G1 X-4.015 Y36.697 Z-1.000 F600.000
G1 X-4.741 Y36.685 Z-1.000 F600.000
G3 X-4.717 Y37.597 Z-1.000 I-16.812 J0.900 K0.000 F600.000
G1 X-3.989 Y38.325 Z-1.000 F600.000
G0 Z5.000
G0 X-6.379 Y38.056 Z5.000
G0 X-6.379 Y38.056 Z3.000
G1 X-6.379 Y38.056 Z-1.000 F600.000
G2 X-7.218 Y36.918 Z-1.000 I-5.608 J3.260 K0.000 F600.000
G1 X-7.390 Y37.044 Z-1.000 F600.000
G1 X-6.379 Y38.056 Z-1.000 F600.000
G2 X-5.935 Y38.686 Z-1.000 I2.153 J-1.045 K0.000 F600.000
G2 X-5.604 Y38.831 Z-1.000 I0.382 J-0.421 K0.000 F600.000
G1 X-2.779 Y41.656 Z-1.000 F600.000
G2 X-3.485 Y41.647 Z-1.000 I-0.381 J2.180 K0.000 F600.000
G2 X-4.052 Y42.504 Z-1.000 I0.221 J0.762 K0.000 F600.000
G1 X-6.309 Y40.247 Z-1.000 F600.000
G3 X-6.905 Y40.533 Z-1.000 I-0.587 J-0.460 K0.000 F600.000
G1 X-7.999 Y40.521 Z-1.000 F600.000
G1 X-8.005 Y40.672 Z-1.000 F600.000
G1 X-7.205 Y41.472 Z-1.000 F600.000
G1 X-8.038 Y41.456 Z-1.000 F600.000
G2 X-7.999 Y40.521 Z-1.000 I-829543.296 J-34658.383 K0.000 F600.000
G1 X-6.905 Y40.533 Z-1.000 F600.000
G2 X-6.253 Y39.398 Z-1.000 I0.008 J-0.750 K0.000 F600.000
G2 X-7.990 Y37.485 Z-1.000 I-4.988 J2.781 K0.000 F600.000
G1 X-7.218 Y36.918 Z-1.000 F600.000
G3 X-6.095 Y38.505 Z-1.000 I-5.981 J5.424 K0.000 F600.000
G2 X-4.711 Y38.096 Z-1.000 I0.634 J-0.400 K0.000 F600.000
G2 X-4.741 Y36.685 Z-1.000 I-25.964 J-0.161 K0.000 F600.000
G1 X-4.015 Y36.697 Z-1.000 F600.000
G1 X-3.986 Y38.481 Z-1.000 F600.000
G2 X-2.687 Y38.979 Z-1.000 I0.750 J-0.012 K0.000 F600.000
G1 X-2.076 Y38.321 Z-1.000 F600.000
G1 X-1.467 Y38.725 Z-1.000 F600.000
G3 X-2.260 Y39.378 Z-1.000 I-4.282 J-4.390 K0.000 F600.000
G2 X-1.832 Y40.736 Z-1.000 I0.439 J0.608 K0.000 F600.000
G1 X-1.272 Y40.744 Z-1.000 F600.000
G1 X-1.343 Y41.695 Z-1.000 F600.000
G3 X-3.247 Y41.625 Z-1.000 I-0.093 J-23.189 K0.000 F600.000
G2 X-4.046 Y42.346 Z-1.000 I-0.050 J0.748 K0.000 F600.000
G1 X-4.060 Y42.730 Z-1.000 F600.000
G1 X-4.887 Y42.701 Z-1.000 F600.000
G2 X-4.905 Y42.074 Z-1.000 I-2.776 J-0.232 K0.000 F600.000
G2 X-5.590 Y41.543 Z-1.000 I-0.718 J0.217 K0.000 F600.000
G2 X-8.038 Y41.456 Z-1.000 I-3.066 J51.963 K0.000 F600.000
G1 X-8.005 Y40.672 Z-1.000 F600.000
G0 Z5.000
G0 X-2.779 Y41.656 Z5.000
G0 X-2.779 Y41.656 Z3.000
G1 X-2.779 Y41.656 Z-1.000 F600.000
G1 X-5.604 Y38.831 Z-1.000 F600.000
G2 X-4.747 Y38.335 Z-1.000 I0.164 J-0.705 K0.000 F600.000
G2 X-4.717 Y37.597 Z-1.000 I-2.247 J-0.463 K0.000 F600.000
G1 X-3.989 Y38.325 Z-1.000 F600.000
G2 X-3.110 Y39.203 Z-1.000 I0.756 J0.122 K0.000 F600.000
G1 X-2.537 Y39.777 Z-1.000 F600.000
G2 X-2.432 Y40.421 Z-1.000 I0.688 J0.218 K0.000 F600.000
G2 X-1.574 Y40.740 Z-1.000 I0.689 J-0.539 K0.000 F600.000
G1 X-1.293 Y41.021 Z-1.000 F600.000
G1 X-1.272 Y40.744 Z-1.000 F600.000
G1 X-1.574 Y40.740 Z-1.000 F600.000
G0 Z5.000
G0 Z5.000
(Finish operation: Pocket_Shape)
(Begin postamble)
M5
G17 G90
M2
