(Exported by FreeCAD)
(Post Processor: script_module)
(Output Time:2026-02-03 15:31:58.817742)
(Begin preamble)
G17 G90
G21
(Begin operation: Fixture)
(Path: Fixture)
G54
(Finish operation: Fixture)
(Begin operation: 2_5mmEndMill002)
(Path: 2_5mmEndMill002)
(2_5mmEndMill002)
(Begin toolchange)
( M6 T2 )
M3 S10000
(Finish operation: 2_5mmEndMill002)
(Begin operation: Pocket_Shape)
(Path: Pocket_Shape)
(Pocket_Shape)
G0 Z5.000
G0 X0.000 Y0.000
G0 X5.565 Y32.268
G0 X5.565 Y32.268 Z3.000
G1 X5.565 Y32.268 Z-2.000 F360.000
G3 X6.379 Y36.617 Z-2.000 I-2.561 J2.730 K0.000 F360.000
G1 X1.387 Y31.625 Z-2.000 F360.000
G2 X-0.383 Y33.391 Z-2.000 I1.552 J3.327 K0.000 F360.000
G1 X4.605 Y38.378 Z-2.000 F360.000
G3 X1.195 Y31.716 Z-2.000 I-1.610 J-3.380 K0.000 F360.000
G3 X4.805 Y38.284 Z-2.000 I1.805 J3.284 K0.000 F360.000
G3 X-0.383 Y33.391 Z-2.000 I-1.806 J-3.283 K0.000 F360.000
G0 Z5.000
G0 Z5.000
G0 X-0.383 Y33.391
G0 X5.565 Y67.268
G0 X5.565 Y67.268 Z3.000
G1 X5.565 Y67.268 Z-2.000 F360.000
G3 X6.379 Y71.617 Z-2.000 I-2.561 J2.730 K0.000 F360.000
G1 X1.387 Y66.625 Z-2.000 F360.000
G2 X-0.383 Y68.391 Z-2.000 I1.552 J3.327 K0.000 F360.000
G1 X4.605 Y73.378 Z-2.000 F360.000
G3 X1.195 Y66.716 Z-2.000 I-1.610 J-3.380 K0.000 F360.000
G3 X4.805 Y73.284 Z-2.000 I1.805 J3.284 K0.000 F360.000
G3 X-0.383 Y68.391 Z-2.000 I-1.806 J-3.283 K0.000 F360.000
G0 Z5.000
G0 Z5.000
G0 X-0.383 Y68.391
G0 X-30.435 Y67.268
G0 X-30.435 Y67.268 Z3.000
G1 X-30.435 Y67.268 Z-2.000 F360.000
G3 X-29.621 Y71.617 Z-2.000 I-2.561 J2.730 K0.000 F360.000
G1 X-34.613 Y66.625 Z-2.000 F360.000
G2 X-36.383 Y68.391 Z-2.000 I1.552 J3.327 K0.000 F360.000
G1 X-31.395 Y73.378 Z-2.000 F360.000
G3 X-34.805 Y66.716 Z-2.000 I-1.610 J-3.380 K0.000 F360.000
G3 X-31.195 Y73.284 Z-2.000 I1.805 J3.284 K0.000 F360.000
G3 X-36.383 Y68.391 Z-2.000 I-1.806 J-3.283 K0.000 F360.000
G0 Z5.000
G0 Z5.000
G0 X-36.383 Y68.391
G0 X-59.435 Y67.268
G0 X-59.435 Y67.268 Z3.000
G1 X-59.435 Y67.268 Z-2.000 F360.000
G3 X-58.621 Y71.617 Z-2.000 I-2.561 J2.730 K0.000 F360.000
G1 X-63.613 Y66.625 Z-2.000 F360.000
G2 X-65.383 Y68.391 Z-2.000 I1.552 J3.327 K0.000 F360.000
G1 X-60.395 Y73.378 Z-2.000 F360.000
G3 X-63.805 Y66.716 Z-2.000 I-1.610 J-3.380 K0.000 F360.000
G3 X-60.195 Y73.284 Z-2.000 I1.805 J3.284 K0.000 F360.000
G3 X-65.383 Y68.391 Z-2.000 I-1.806 J-3.283 K0.000 F360.000
G0 Z5.000
G0 Z5.000
G0 X-65.383 Y68.391
G0 Y33.391
G0 Y33.391 Z3.000
G1 X-65.383 Y33.391 Z-2.000 F360.000
G2 X-60.195 Y38.284 Z-2.000 I3.383 J1.610 K0.000 F360.000
G2 X-63.805 Y31.716 Z-2.000 I-1.805 J-3.284 K0.000 F360.000
G2 X-60.395 Y38.378 Z-2.000 I1.800 J3.282 K0.000 F360.000
G1 X-65.383 Y33.391 Z-2.000 F360.000
G3 X-63.613 Y31.625 Z-2.000 I3.322 J1.562 K0.000 F360.000
G1 X-58.621 Y36.617 Z-2.000 F360.000
G2 X-59.435 Y32.268 Z-2.000 I-3.374 J-1.619 K0.000 F360.000
G0 Z5.000
G0 Z5.000
G0 X-59.435 Y32.268
G0 X-36.383 Y33.391
G0 X-36.383 Y33.391 Z3.000
G1 X-36.383 Y33.391 Z-2.000 F360.000
G2 X-31.195 Y38.284 Z-2.000 I3.383 J1.610 K0.000 F360.000
G2 X-34.805 Y31.716 Z-2.000 I-1.805 J-3.284 K0.000 F360.000
G2 X-31.395 Y38.378 Z-2.000 I1.800 J3.282 K0.000 F360.000
G1 X-36.383 Y33.391 Z-2.000 F360.000
G3 X-34.613 Y31.625 Z-2.000 I3.322 J1.562 K0.000 F360.000
G1 X-29.621 Y36.617 Z-2.000 F360.000
G2 X-30.435 Y32.268 Z-2.000 I-3.374 J-1.619 K0.000 F360.000
G0 Z5.000
G0 Z5.000
G0 X-30.435 Y32.268
G0 X-55.025 Y-3.464
G0 X-55.025 Y-3.464 Z3.000
G1 X-55.025 Y-3.464 Z-2.000 F360.000
G2 X-54.653 Y-3.033 Z-2.000 I1.828 J-1.201 K0.000 F360.000
G2 X-52.864 Y-2.141 Z-2.000 I2.576 J-2.929 K0.000 F360.000
G2 X-47.289 Y-3.329 Z-2.000 I1.399 J-7.112 K0.000 F360.000
G2 X-45.240 Y-5.919 Z-2.000 I-2.768 J-4.295 K0.000 F360.000
G2 X-45.907 Y-8.487 Z-2.000 I-2.284 J-0.778 K0.000 F360.000
G2 X-47.696 Y-9.379 Z-2.000 I-2.576 J2.929 K0.000 F360.000
G2 X-53.272 Y-8.191 Z-2.000 I-1.399 J7.112 K0.000 F360.000
G2 X-55.320 Y-5.601 Z-2.000 I2.768 J4.295 K0.000 F360.000
G2 X-54.346 Y-2.785 Z-2.000 I2.294 J0.783 K0.000 F360.000
G1 X-55.025 Y-3.464 Z-2.000 F360.000
G3 X-55.313 Y-4.013 Z-2.000 I1.461 J-1.115 K0.000 F360.000
G3 X-54.750 Y-6.724 Z-2.000 I2.832 J-0.826 K0.000 F360.000
G1 X-50.161 Y-2.135 Z-2.000 F360.000
G2 X-47.615 Y-3.124 Z-2.000 I-1.275 J-7.054 K0.000 F360.000
G1 X-52.909 Y-8.419 Z-2.000 F360.000
G3 X-50.350 Y-9.395 Z-2.000 I3.799 J6.119 K0.000 F360.000
G1 X-45.785 Y-4.831 Z-2.000 F360.000
G2 X-45.240 Y-5.919 Z-2.000 I-2.514 J-1.940 K0.000 F360.000
G2 X-45.907 Y-8.487 Z-2.000 I-2.284 J-0.778 K0.000 F360.000
G0 Z5.000
G0 Z5.000
G0 X-45.907 Y-8.487
G0 X-51.736 Y-27.541
G0 X-51.736 Y-27.541 Z3.000
G1 X-51.736 Y-27.541 Z-2.000 F360.000
G3 X-51.013 Y-24.915 Z-2.000 I-1.692 J1.878 K0.000 F360.000
G3 X-51.454 Y-23.813 Z-2.000 I-4.338 J-1.095 K0.000 F360.000
G1 X-51.487 Y-23.759 Z-2.000 F360.000
G1 X-55.848 Y-28.120 Z-2.000 F360.000
G2 X-58.264 Y-27.001 Z-2.000 I1.826 J7.113 K0.000 F360.000
G1 X-53.149 Y-21.885 Z-2.000 F360.000
G3 X-55.447 Y-20.648 Z-2.000 I-4.634 J-5.853 K0.000 F360.000
G1 X-60.033 Y-25.234 Z-2.000 F360.000
G2 X-60.805 Y-23.286 Z-2.000 I3.563 J2.539 K0.000 F360.000
G2 X-60.774 Y-22.439 Z-2.000 I2.125 J0.346 K0.000 F360.000
G1 X-58.825 Y-20.490 Z-2.000 F360.000
G3 X-60.728 Y-22.215 Z-2.000 I0.553 J-2.523 K0.000 F360.000
G3 X-60.596 Y-24.152 Z-2.000 I2.960 J-0.771 K0.000 F360.000
G3 X-57.608 Y-27.415 Z-2.000 I6.093 J2.579 K0.000 F360.000
G3 X-53.955 Y-28.333 Z-2.000 I3.444 J5.978 K0.000 F360.000
G3 X-52.038 Y-27.767 Z-2.000 I-0.109 J3.899 K0.000 F360.000
G3 X-50.935 Y-25.353 Z-2.000 I-1.281 J2.045 K0.000 F360.000
G3 X-52.501 Y-22.447 Z-2.000 I-5.040 J-0.841 K0.000 F360.000
G3 X-57.785 Y-20.307 Z-2.000 I-5.144 J-5.107 K0.000 F360.000
G3 X-59.698 Y-20.871 Z-2.000 I0.109 J-3.895 K0.000 F360.000
G3 X-60.774 Y-22.439 Z-2.000 I1.194 J-1.973 K0.000 F360.000
G0 Z5.000
G0 Z5.000
G0 X-60.774 Y-22.439
G0 X-49.036 Y-50.803
G0 X-49.036 Y-50.803 Z3.000
G1 X-49.036 Y-50.803 Z-2.000 F360.000
G2 X-47.962 Y-49.233 Z-2.000 I2.260 J-0.394 K0.000 F360.000
G2 X-46.045 Y-48.667 Z-2.000 I2.026 J-3.333 K0.000 F360.000
G2 X-40.761 Y-50.807 Z-2.000 I0.140 J-7.247 K0.000 F360.000
G2 X-39.195 Y-53.714 Z-2.000 I-3.474 J-3.747 K0.000 F360.000
G2 X-40.302 Y-56.129 Z-2.000 I-2.378 J-0.371 K0.000 F360.000
G2 X-42.215 Y-56.693 Z-2.000 I-2.022 J3.332 K0.000 F360.000
G2 X-45.868 Y-55.775 Z-2.000 I-0.209 J6.895 K0.000 F360.000
G2 X-48.856 Y-52.512 Z-2.000 I3.105 J5.843 K0.000 F360.000
G2 X-48.926 Y-50.395 Z-2.000 I2.730 J1.150 K0.000 F360.000
G2 X-47.082 Y-48.849 Z-2.000 I2.410 J-1.002 K0.000 F360.000
G1 X-49.036 Y-50.803 Z-2.000 F360.000
G3 X-49.065 Y-51.647 Z-2.000 I2.370 J-0.506 K0.000 F360.000
G3 X-48.293 Y-53.595 Z-2.000 I4.336 J0.591 K0.000 F360.000
G1 X-43.706 Y-49.008 Z-2.000 F360.000
G2 X-41.408 Y-50.246 Z-2.000 I-2.338 J-7.092 K0.000 F360.000
G1 X-46.523 Y-55.362 Z-2.000 F360.000
G3 X-44.107 Y-56.480 Z-2.000 I4.243 J5.997 K0.000 F360.000
G1 X-39.747 Y-52.120 Z-2.000 F360.000
G2 X-39.195 Y-53.714 Z-2.000 I-3.604 J-2.141 K0.000 F360.000
G2 X-39.962 Y-55.871 Z-2.000 I-2.390 J-0.365 K0.000 F360.000
G0 Z5.000
G0 Z5.000
G0 X-39.962 Y-55.871
G0 X-45.350 Y-73.970
G0 X-45.350 Y-73.970 Z3.000
G1 X-45.350 Y-73.970 Z-2.000 F360.000
G3 X-44.680 Y-71.399 Z-2.000 I-1.607 J1.792 K0.000 F360.000
G3 X-45.226 Y-70.310 Z-2.000 I-3.061 J-0.853 K0.000 F360.000
G1 X-49.790 Y-74.875 Z-2.000 F360.000
G2 X-52.349 Y-73.898 Z-2.000 I1.240 J7.094 K0.000 F360.000
G1 X-47.055 Y-68.604 Z-2.000 F360.000
G3 X-49.602 Y-67.615 Z-2.000 I-3.821 J-6.065 K0.000 F360.000
G1 X-54.191 Y-72.204 Z-2.000 F360.000
G2 X-54.841 Y-69.825 Z-2.000 I2.327 J1.914 K0.000 F360.000
G2 X-54.452 Y-68.930 Z-2.000 I2.054 J-0.360 K0.000 F360.000
G1 X-53.788 Y-68.266 Z-2.000 F360.000
G3 X-54.760 Y-71.081 Z-2.000 I1.324 J-2.032 K0.000 F360.000
G3 X-52.711 Y-73.671 Z-2.000 I4.817 J1.706 K0.000 F360.000
G3 X-47.136 Y-74.859 Z-2.000 I4.176 J5.924 K0.000 F360.000
G3 X-45.350 Y-73.970 Z-2.000 I-0.785 J3.817 K0.000 F360.000
G3 X-44.680 Y-71.399 Z-2.000 I-1.607 J1.792 K0.000 F360.000
G3 X-46.728 Y-68.809 Z-2.000 I-4.817 J-1.705 K0.000 F360.000
G3 X-52.304 Y-67.621 Z-2.000 I-4.177 J-5.924 K0.000 F360.000
G3 X-54.093 Y-68.512 Z-2.000 I0.786 J-3.821 K0.000 F360.000
G3 X-54.452 Y-68.930 Z-2.000 I1.298 J-1.480 K0.000 F360.000
G0 Z5.000
G0 Z5.000
G0 X-54.452 Y-68.930
G0 X55.546 Y-68.933
G0 X55.546 Y-68.933 Z3.000
G1 X55.546 Y-68.933 Z-2.000 F360.000
G2 X55.907 Y-68.512 Z-2.000 I1.666 J-1.067 K0.000 F360.000
G2 X57.696 Y-67.621 Z-2.000 I2.576 J-2.930 K0.000 F360.000
G2 X63.272 Y-68.809 Z-2.000 I1.399 J-7.112 K0.000 F360.000
G2 X65.320 Y-71.399 Z-2.000 I-2.768 J-4.295 K0.000 F360.000
G2 X64.653 Y-73.967 Z-2.000 I-2.260 J-0.784 K0.000 F360.000
G2 X62.864 Y-74.859 Z-2.000 I-2.576 J2.929 K0.000 F360.000
G2 X57.289 Y-73.671 Z-2.000 I-1.399 J7.112 K0.000 F360.000
G2 X55.240 Y-71.081 Z-2.000 I2.768 J4.295 K0.000 F360.000
G2 X56.214 Y-68.264 Z-2.000 I2.295 J0.783 K0.000 F360.000
G1 X55.546 Y-68.933 Z-2.000 F360.000
G3 X55.159 Y-69.825 Z-2.000 I1.665 J-1.252 K0.000 F360.000
G3 X55.810 Y-72.204 Z-2.000 I2.977 J-0.465 K0.000 F360.000
G1 X60.399 Y-67.615 Z-2.000 F360.000
G2 X62.945 Y-68.604 Z-2.000 I-1.275 J-7.054 K0.000 F360.000
G1 X57.651 Y-73.899 Z-2.000 F360.000
G3 X60.210 Y-74.875 Z-2.000 I3.799 J6.119 K0.000 F360.000
G1 X64.775 Y-70.311 Z-2.000 F360.000
G2 X65.320 Y-71.399 Z-2.000 I-2.514 J-1.941 K0.000 F360.000
G2 X64.653 Y-73.967 Z-2.000 I-2.260 J-0.784 K0.000 F360.000
G0 Z5.000
G0 Z5.000
G0 X64.653 Y-73.967
G0 X70.038 Y-55.871
G0 X70.038 Y-55.871 Z3.000
G1 X70.038 Y-55.871 Z-2.000 F360.000
G3 X70.805 Y-53.714 Z-2.000 I-1.623 J1.792 K0.000 F360.000
G3 X70.253 Y-52.120 Z-2.000 I-4.156 J-0.547 K0.000 F360.000
G1 X65.893 Y-56.480 Z-2.000 F360.000
G2 X63.477 Y-55.362 Z-2.000 I1.826 J7.115 K0.000 F360.000
G1 X68.592 Y-50.246 Z-2.000 F360.000
G3 X66.294 Y-49.008 Z-2.000 I-4.636 J-5.854 K0.000 F360.000
G1 X61.707 Y-53.595 Z-2.000 F360.000
G2 X60.935 Y-51.647 Z-2.000 I3.564 J2.540 K0.000 F360.000
G2 X60.964 Y-50.803 Z-2.000 I2.400 J0.338 K0.000 F360.000
G1 X62.918 Y-48.849 Z-2.000 F360.000
G3 X61.074 Y-50.395 Z-2.000 I0.566 J-2.547 K0.000 F360.000
G3 X61.144 Y-52.512 Z-2.000 I2.800 J-0.966 K0.000 F360.000
G3 X64.132 Y-55.775 Z-2.000 I6.094 J2.580 K0.000 F360.000
G3 X67.785 Y-56.693 Z-2.000 I3.444 J5.978 K0.000 F360.000
G3 X69.698 Y-56.129 Z-2.000 I-0.109 J3.896 K0.000 F360.000
G3 X70.805 Y-53.714 Z-2.000 I-1.270 J2.044 K0.000 F360.000
G3 X69.239 Y-50.807 Z-2.000 I-5.040 J-0.841 K0.000 F360.000
G3 X63.955 Y-48.667 Z-2.000 I-5.144 J-5.107 K0.000 F360.000
G3 X62.038 Y-49.233 Z-2.000 I0.109 J-3.899 K0.000 F360.000
G3 X60.964 Y-50.803 Z-2.000 I1.186 J-1.964 K0.000 F360.000
G0 Z5.000
G0 Z5.000
G0 X60.964 Y-50.803
G0 X58.264 Y-27.541
G0 X58.264 Y-27.541 Z3.000
G1 X58.264 Y-27.541 Z-2.000 F360.000
G3 X58.987 Y-24.915 Z-2.000 I-1.692 J1.878 K0.000 F360.000
G3 X58.546 Y-23.813 Z-2.000 I-4.337 J-1.095 K0.000 F360.000
G1 X58.513 Y-23.759 Z-2.000 F360.000
G1 X54.152 Y-28.120 Z-2.000 F360.000
G2 X51.736 Y-27.001 Z-2.000 I1.826 J7.113 K0.000 F360.000
G1 X56.851 Y-21.885 Z-2.000 F360.000
G3 X54.553 Y-20.648 Z-2.000 I-4.634 J-5.853 K0.000 F360.000
G1 X49.967 Y-25.234 Z-2.000 F360.000
G2 X49.195 Y-23.286 Z-2.000 I3.563 J2.539 K0.000 F360.000
G2 X49.228 Y-22.437 Z-2.000 I1.737 J0.357 K0.000 F360.000
G1 X51.175 Y-20.490 Z-2.000 F360.000
G3 X49.341 Y-22.019 Z-2.000 I0.563 J-2.540 K0.000 F360.000
G3 X49.404 Y-24.151 Z-2.000 I2.811 J-0.984 K0.000 F360.000
G3 X52.392 Y-27.415 Z-2.000 I6.094 J2.579 K0.000 F360.000
G3 X56.045 Y-28.333 Z-2.000 I3.444 J5.978 K0.000 F360.000
G3 X57.962 Y-27.767 Z-2.000 I-0.109 J3.899 K0.000 F360.000
G3 X59.065 Y-25.354 Z-2.000 I-1.281 J2.045 K0.000 F360.000
G3 X57.499 Y-22.447 Z-2.000 I-5.040 J-0.841 K0.000 F360.000
G3 X52.215 Y-20.307 Z-2.000 I-5.144 J-5.107 K0.000 F360.000
G3 X50.298 Y-20.873 Z-2.000 I0.110 J-3.899 K0.000 F360.000
G3 X49.228 Y-22.437 Z-2.000 I1.183 J-1.957 K0.000 F360.000
G0 Z5.000
G0 Z5.000
G0 X49.228 Y-22.437
G0 X54.975 Y-3.464
G0 X54.975 Y-3.464 Z3.000
G1 X54.975 Y-3.464 Z-2.000 F360.000
G2 X55.347 Y-3.033 Z-2.000 I1.828 J-1.201 K0.000 F360.000
G2 X57.136 Y-2.141 Z-2.000 I2.576 J-2.929 K0.000 F360.000
G2 X62.711 Y-3.329 Z-2.000 I1.399 J-7.112 K0.000 F360.000
G2 X64.760 Y-5.919 Z-2.000 I-2.768 J-4.295 K0.000 F360.000
G2 X64.093 Y-8.487 Z-2.000 I-2.284 J-0.778 K0.000 F360.000
G2 X62.304 Y-9.379 Z-2.000 I-2.576 J2.929 K0.000 F360.000
G2 X56.728 Y-8.191 Z-2.000 I-1.399 J7.112 K0.000 F360.000
G2 X54.680 Y-5.601 Z-2.000 I2.768 J4.295 K0.000 F360.000
G2 X55.654 Y-2.785 Z-2.000 I2.294 J0.783 K0.000 F360.000
G1 X54.975 Y-3.464 Z-2.000 F360.000
G3 X54.687 Y-4.013 Z-2.000 I1.461 J-1.115 K0.000 F360.000
G3 X55.250 Y-6.724 Z-2.000 I2.832 J-0.826 K0.000 F360.000
G1 X59.839 Y-2.135 Z-2.000 F360.000
G2 X62.385 Y-3.124 Z-2.000 I-1.275 J-7.054 K0.000 F360.000
G1 X57.091 Y-8.419 Z-2.000 F360.000
G3 X59.650 Y-9.395 Z-2.000 I3.799 J6.119 K0.000 F360.000
G1 X64.215 Y-4.831 Z-2.000 F360.000
G2 X64.760 Y-5.919 Z-2.000 I-2.514 J-1.940 K0.000 F360.000
G2 X64.093 Y-8.487 Z-2.000 I-2.284 J-0.778 K0.000 F360.000
G0 Z5.000
G0 Z5.000
G0 X64.093 Y-8.487
G0 X-95.435 Y32.268
G0 X-95.435 Y32.268 Z3.000
G1 X-95.435 Y32.268 Z-2.000 F360.000
G3 X-94.621 Y36.617 Z-2.000 I-2.561 J2.730 K0.000 F360.000
G1 X-99.613 Y31.625 Z-2.000 F360.000
G2 X-101.383 Y33.391 Z-2.000 I1.552 J3.327 K0.000 F360.000
G1 X-96.395 Y38.378 Z-2.000 F360.000
G3 X-99.805 Y31.716 Z-2.000 I-1.610 J-3.380 K0.000 F360.000
G3 X-96.195 Y38.284 Z-2.000 I1.805 J3.284 K0.000 F360.000
G3 X-101.383 Y33.391 Z-2.000 I-1.806 J-3.283 K0.000 F360.000
G0 Z5.000
G0 Z5.000
G0 X-101.383 Y33.391
G0 X-95.435 Y67.268
G0 X-95.435 Y67.268 Z3.000
G1 X-95.435 Y67.268 Z-2.000 F360.000
G3 X-94.621 Y71.617 Z-2.000 I-2.561 J2.730 K0.000 F360.000
G1 X-99.613 Y66.625 Z-2.000 F360.000
G2 X-101.383 Y68.391 Z-2.000 I1.552 J3.327 K0.000 F360.000
G1 X-96.395 Y73.378 Z-2.000 F360.000
G3 X-99.805 Y66.716 Z-2.000 I-1.610 J-3.380 K0.000 F360.000
G3 X-96.195 Y73.284 Z-2.000 I1.805 J3.284 K0.000 F360.000
G3 X-101.383 Y68.391 Z-2.000 I-1.806 J-3.283 K0.000 F360.000
G0 Z5.000
G0 Z5.000
(Finish operation: Pocket_Shape)
(Begin operation: Profile)
(Path: Profile)
(Profile)
(Compensated Tool Path. Diameter: 2.5)
G0 Z5.000
G0 X0.000 Y0.000
G0 X-0.001 Y18.752
G0 X-0.001 Y18.752 Z3.000
G1 X-0.001 Y18.752 Z-2.500 F360.000
G1 X-40.000 Y18.750 Z-2.500 F360.000
G2 X-46.248 Y24.925 Z-2.500 I0.003 J6.252 K0.000 F360.000
G1 X-46.250 Y45.000 Z-2.500 F360.000
G2 X-40.075 Y51.248 Z-2.500 I6.252 J-0.003 K0.000 F360.000
G1 X10.000 Y51.250 Z-2.500 F360.000
G2 X16.248 Y45.075 Z-2.500 I-0.003 J-6.252 K0.000 F360.000
G1 X16.250 Y25.000 Z-2.500 F360.000
G2 X10.075 Y18.752 Z-2.500 I-6.252 J0.003 K0.000 F360.000
G1 X-0.001 Y18.752 Z-2.500 F360.000
G0 Z5.000
G0 X-0.002 Y53.752 Z5.000
G0 X-0.002 Y53.752 Z3.000
G1 X-0.002 Y53.752 Z-2.500 F360.000
G1 X-40.000 Y53.750 Z-2.500 F360.000
G2 X-46.248 Y59.925 Z-2.500 I0.003 J6.252 K0.000 F360.000
G1 X-46.250 Y80.000 Z-2.500 F360.000
G2 X-40.075 Y86.248 Z-2.500 I6.252 J-0.003 K0.000 F360.000
G1 X10.000 Y86.250 Z-2.500 F360.000
G2 X16.248 Y80.075 Z-2.500 I-0.003 J-6.252 K0.000 F360.000
G1 X16.250 Y60.000 Z-2.500 F360.000
G2 X10.075 Y53.752 Z-2.500 I-6.252 J0.003 K0.000 F360.000
G1 X-0.002 Y53.752 Z-2.500 F360.000
G0 Z5.000
G0 X-48.790 Y59.297 Z5.000
G0 X-48.790 Y59.297 Z3.000
G1 X-48.790 Y59.297 Z-2.500 F360.000
G2 X-54.925 Y53.752 Z-2.500 I-6.212 J0.706 K0.000 F360.000
G1 X-105.000 Y53.750 Z-2.500 F360.000
G2 X-111.248 Y59.925 Z-2.500 I0.003 J6.252 K0.000 F360.000
G1 X-111.250 Y80.000 Z-2.500 F360.000
G2 X-105.075 Y86.248 Z-2.500 I6.252 J-0.003 K0.000 F360.000
G1 X-55.000 Y86.250 Z-2.500 F360.000
G2 X-48.752 Y80.075 Z-2.500 I-0.003 J-6.252 K0.000 F360.000
G1 X-48.750 Y60.000 Z-2.500 F360.000
G2 X-48.790 Y59.297 Z-2.500 I-6.252 J0.003 K0.000 F360.000
G0 Z5.000
G0 X-52.512 Y50.732 Z5.000
G0 X-52.512 Y50.732 Z3.000
G1 X-52.512 Y50.732 Z-2.500 F360.000
G2 X-48.752 Y45.075 Z-2.500 I-2.491 J-5.734 K0.000 F360.000
G1 X-48.750 Y25.000 Z-2.500 F360.000
G2 X-54.925 Y18.752 Z-2.500 I-6.252 J0.003 K0.000 F360.000
G1 X-105.000 Y18.750 Z-2.500 F360.000
G2 X-111.248 Y24.925 Z-2.500 I0.003 J6.252 K0.000 F360.000
G1 X-111.250 Y45.000 Z-2.500 F360.000
G2 X-105.075 Y51.248 Z-2.500 I6.252 J-0.003 K0.000 F360.000
G1 X-55.000 Y51.250 Z-2.500 F360.000
G2 X-52.512 Y50.732 Z-2.500 I-0.003 J-6.252 K0.000 F360.000
G1 X-52.512 Y50.732 Z-5.000 F360.000
G2 X-48.752 Y45.075 Z-5.000 I-2.491 J-5.734 K0.000 F360.000
G1 X-48.750 Y25.000 Z-5.000 F360.000
G2 X-54.925 Y18.752 Z-5.000 I-6.252 J0.003 K0.000 F360.000
G1 X-105.000 Y18.750 Z-5.000 F360.000
G2 X-111.248 Y24.925 Z-5.000 I0.003 J6.252 K0.000 F360.000
G1 X-111.250 Y45.000 Z-5.000 F360.000
G2 X-105.075 Y51.248 Z-5.000 I6.252 J-0.003 K0.000 F360.000
G1 X-55.000 Y51.250 Z-5.000 F360.000
G2 X-52.512 Y50.732 Z-5.000 I-0.003 J-6.252 K0.000 F360.000
G0 Z5.000
G0 X-53.380 Y53.966 Z5.000
G0 X-53.380 Y53.966 Z3.000
G1 X-53.380 Y53.966 Z-5.000 F360.000
G2 X-54.925 Y53.752 Z-5.000 I-1.621 J6.038 K0.000 F360.000
G1 X-105.000 Y53.750 Z-5.000 F360.000
G2 X-111.248 Y59.925 Z-5.000 I0.003 J6.252 K0.000 F360.000
G1 X-111.250 Y80.000 Z-5.000 F360.000
G2 X-105.075 Y86.248 Z-5.000 I6.252 J-0.003 K0.000 F360.000
G1 X-55.000 Y86.250 Z-5.000 F360.000
G2 X-48.752 Y80.075 Z-5.000 I-0.003 J-6.252 K0.000 F360.000
G1 X-48.750 Y60.000 Z-5.000 F360.000
G2 X-53.380 Y53.966 Z-5.000 I-6.252 J0.003 K0.000 F360.000
G0 Z5.000
G0 X-45.695 Y57.431 Z5.000
G0 X-45.695 Y57.431 Z3.000
G1 X-45.695 Y57.431 Z-5.000 F360.000
G2 X-46.248 Y59.925 Z-5.000 I5.699 J2.570 K0.000 F360.000
G1 X-46.250 Y80.000 Z-5.000 F360.000
G2 X-40.075 Y86.248 Z-5.000 I6.252 J-0.003 K0.000 F360.000
G1 X10.000 Y86.250 Z-5.000 F360.000
G2 X16.248 Y80.075 Z-5.000 I-0.003 J-6.252 K0.000 F360.000
G1 X16.250 Y60.000 Z-5.000 F360.000
G2 X10.075 Y53.752 Z-5.000 I-6.252 J0.003 K0.000 F360.000
G1 X-40.000 Y53.750 Z-5.000 F360.000
G2 X-45.695 Y57.431 Z-5.000 I0.003 J6.252 K0.000 F360.000
G0 Z5.000
G0 X-42.602 Y50.680 Z5.000
G0 X-42.602 Y50.680 Z3.000
G1 X-42.602 Y50.680 Z-5.000 F360.000
G2 X-40.075 Y51.248 Z-5.000 I2.604 J-5.683 K0.000 F360.000
G1 X10.000 Y51.250 Z-5.000 F360.000
G2 X16.248 Y45.075 Z-5.000 I-0.003 J-6.252 K0.000 F360.000
G1 X16.250 Y25.000 Z-5.000 F360.000
G2 X10.075 Y18.752 Z-5.000 I-6.252 J0.003 K0.000 F360.000
G1 X-40.000 Y18.750 Z-5.000 F360.000
G2 X-46.248 Y24.925 Z-5.000 I0.003 J6.252 K0.000 F360.000
G1 X-46.250 Y45.000 Z-5.000 F360.000
G2 X-42.602 Y50.680 Z-5.000 I6.252 J-0.003 K0.000 F360.000
G0 Z5.000
G0 Z5.000
(Finish operation: Profile)
(Begin operation: Profile001)
(Path: Profile001)
(Profile001)
(Compensated Tool Path. Diameter: 2.5)
G0 Z5.000
G0 X0.000 Y0.000
G0 X19.116 Y19.116
G0 X19.116 Y19.116 Z3.000
G1 X19.116 Y19.116 Z-2.500 F360.000
G2 X19.776 Y21.230 Z-2.500 I0.884 J0.884 K0.000 F360.000
G1 X52.776 Y27.230 Z-2.500 F360.000
G2 X54.250 Y26.000 Z-2.500 I0.224 J-1.230 K0.000 F360.000
G1 X54.250 Y23.250 Z-2.500 F360.000
G1 X60.000 Y23.250 Z-2.500 F360.000
G2 X61.250 Y22.000 Z-2.500 I0.000 J-1.250 K0.000 F360.000
G1 X61.250 Y18.000 Z-2.500 F360.000
G2 X60.000 Y16.750 Z-2.500 I-1.250 J-0.000 K0.000 F360.000
G1 X54.250 Y16.750 Z-2.500 F360.000
G1 X54.250 Y14.000 Z-2.500 F360.000
G2 X53.679 Y12.950 Z-2.500 I-1.250 J-0.000 K0.000 F360.000
G2 X52.776 Y12.770 Z-2.500 I-0.679 J1.050 K0.000 F360.000
G1 X19.776 Y18.770 Z-2.500 F360.000
G2 X19.116 Y19.116 Z-2.500 I0.224 J1.230 K0.000 F360.000
G0 Z5.000
G0 X21.716 Y33.417 Z5.000
G0 X21.716 Y33.417 Z3.000
G1 X21.716 Y33.417 Z-2.500 F360.000
G1 X19.776 Y33.770 Z-2.500 F360.000
G2 X19.776 Y36.230 Z-2.500 I0.224 J1.230 K0.000 F360.000
G1 X52.776 Y42.230 Z-2.500 F360.000
G2 X54.250 Y41.000 Z-2.500 I0.224 J-1.230 K0.000 F360.000
G1 X54.250 Y38.250 Z-2.500 F360.000
G1 X60.000 Y38.250 Z-2.500 F360.000
G2 X61.250 Y37.000 Z-2.500 I0.000 J-1.250 K0.000 F360.000
G1 X61.250 Y33.000 Z-2.500 F360.000
G2 X60.000 Y31.750 Z-2.500 I-1.250 J-0.000 K0.000 F360.000
G1 X54.250 Y31.750 Z-2.500 F360.000
G1 X54.250 Y29.000 Z-2.500 F360.000
G2 X53.679 Y27.950 Z-2.500 I-1.250 J-0.000 K0.000 F360.000
G2 X52.776 Y27.770 Z-2.500 I-0.679 J1.050 K0.000 F360.000
G1 X21.716 Y33.417 Z-2.500 F360.000
G0 Z5.000
G0 X68.751 Y34.959 Z5.000
G0 X68.751 Y34.959 Z3.000
G1 X68.751 Y34.959 Z-2.500 F360.000
G2 X69.776 Y36.230 Z-2.500 I1.249 J0.041 K0.000 F360.000
G1 X102.776 Y42.230 Z-2.500 F360.000
G2 X104.250 Y41.000 Z-2.500 I0.224 J-1.230 K0.000 F360.000
G1 X104.250 Y38.250 Z-2.500 F360.000
G1 X110.000 Y38.250 Z-2.500 F360.000
G2 X111.250 Y37.000 Z-2.500 I0.000 J-1.250 K0.000 F360.000
G1 X111.250 Y33.000 Z-2.500 F360.000
G2 X110.000 Y31.750 Z-2.500 I-1.250 J-0.000 K0.000 F360.000
G1 X104.250 Y31.750 Z-2.500 F360.000
G1 X104.250 Y29.000 Z-2.500 F360.000
G2 X103.679 Y27.950 Z-2.500 I-1.250 J-0.000 K0.000 F360.000
G2 X102.776 Y27.770 Z-2.500 I-0.679 J1.050 K0.000 F360.000
G1 X69.776 Y33.770 Z-2.500 F360.000
G2 X68.751 Y34.959 Z-2.500 I0.224 J1.230 K0.000 F360.000
G0 Z5.000
G0 X71.200 Y21.489 Z5.000
G0 X71.200 Y21.489 Z3.000
G1 X71.200 Y21.489 Z-2.500 F360.000
G1 X102.776 Y27.230 Z-2.500 F360.000
G2 X104.250 Y26.000 Z-2.500 I0.224 J-1.230 K0.000 F360.000
G1 X104.250 Y23.250 Z-2.500 F360.000
G1 X110.000 Y23.250 Z-2.500 F360.000
G2 X111.250 Y22.000 Z-2.500 I0.000 J-1.250 K0.000 F360.000
G1 X111.250 Y18.000 Z-2.500 F360.000
G2 X110.000 Y16.750 Z-2.500 I-1.250 J-0.000 K0.000 F360.000
G1 X104.250 Y16.750 Z-2.500 F360.000
G1 X104.250 Y14.000 Z-2.500 F360.000
G2 X103.679 Y12.950 Z-2.500 I-1.250 J-0.000 K0.000 F360.000
G2 X102.776 Y12.770 Z-2.500 I-0.679 J1.050 K0.000 F360.000
G1 X69.776 Y18.770 Z-2.500 F360.000
G2 X69.776 Y21.230 Z-2.500 I0.224 J1.230 K0.000 F360.000
G1 X71.200 Y21.489 Z-2.500 F360.000
G1 X71.200 Y21.489 Z-5.000 F360.000
G1 X102.776 Y27.230 Z-5.000 F360.000
G2 X104.250 Y26.000 Z-5.000 I0.224 J-1.230 K0.000 F360.000
G1 X104.250 Y23.250 Z-5.000 F360.000
G1 X110.000 Y23.250 Z-5.000 F360.000
G2 X111.250 Y22.000 Z-5.000 I0.000 J-1.250 K0.000 F360.000
G1 X111.250 Y18.000 Z-5.000 F360.000
G2 X110.000 Y16.750 Z-5.000 I-1.250 J-0.000 K0.000 F360.000
G1 X104.250 Y16.750 Z-5.000 F360.000
G1 X104.250 Y14.000 Z-5.000 F360.000
G2 X103.679 Y12.950 Z-5.000 I-1.250 J-0.000 K0.000 F360.000
G2 X102.776 Y12.770 Z-5.000 I-0.679 J1.050 K0.000 F360.000
G1 X69.776 Y18.770 Z-5.000 F360.000
G2 X69.776 Y21.230 Z-5.000 I0.224 J1.230 K0.000 F360.000
G1 X71.200 Y21.489 Z-5.000 F360.000
G0 Z5.000
G0 X61.250 Z5.000
G0 X61.250 Z3.000
G1 X61.250 Y21.489 Z-5.000 F360.000
G1 X61.250 Y18.000 Z-5.000 F360.000
G2 X60.000 Y16.750 Z-5.000 I-1.250 J-0.000 K0.000 F360.000
G1 X54.250 Y16.750 Z-5.000 F360.000
G1 X54.250 Y14.000 Z-5.000 F360.000
G2 X53.679 Y12.950 Z-5.000 I-1.250 J-0.000 K0.000 F360.000
G2 X52.776 Y12.770 Z-5.000 I-0.679 J1.050 K0.000 F360.000
G1 X19.776 Y18.770 Z-5.000 F360.000
G2 X19.776 Y21.230 Z-5.000 I0.224 J1.230 K0.000 F360.000
G1 X52.776 Y27.230 Z-5.000 F360.000
G2 X54.250 Y26.000 Z-5.000 I0.224 J-1.230 K0.000 F360.000
G1 X54.250 Y23.250 Z-5.000 F360.000
G1 X60.000 Y23.250 Z-5.000 F360.000
G2 X61.250 Y22.000 Z-5.000 I0.000 J-1.250 K0.000 F360.000
G1 X61.250 Y21.489 Z-5.000 F360.000
G0 Z5.000
G0 X53.924 Y28.158 Z5.000
G0 X53.924 Y28.158 Z3.000
G1 X53.924 Y28.158 Z-5.000 F360.000
G2 X53.679 Y27.950 Z-5.000 I-0.924 J0.842 K0.000 F360.000
G2 X52.776 Y27.770 Z-5.000 I-0.679 J1.050 K0.000 F360.000
G1 X19.776 Y33.770 Z-5.000 F360.000
G2 X19.776 Y36.230 Z-5.000 I0.224 J1.230 K0.000 F360.000
G1 X52.776 Y42.230 Z-5.000 F360.000
G2 X54.250 Y41.000 Z-5.000 I0.224 J-1.230 K0.000 F360.000
G1 X54.250 Y38.250 Z-5.000 F360.000
G1 X60.000 Y38.250 Z-5.000 F360.000
G2 X61.250 Y37.000 Z-5.000 I0.000 J-1.250 K0.000 F360.000
G1 X61.250 Y33.000 Z-5.000 F360.000
G2 X60.000 Y31.750 Z-5.000 I-1.250 J-0.000 K0.000 F360.000
G1 X54.250 Y31.750 Z-5.000 F360.000
G1 X54.250 Y29.000 Z-5.000 F360.000
G2 X53.924 Y28.158 Z-5.000 I-1.250 J-0.000 K0.000 F360.000
G0 Z5.000
G0 X68.850 Y34.511 Z5.000
G0 X68.850 Y34.511 Z3.000
G1 X68.850 Y34.511 Z-5.000 F360.000
G2 X69.776 Y36.230 Z-5.000 I1.150 J0.489 K0.000 F360.000
G1 X102.776 Y42.230 Z-5.000 F360.000
G2 X104.250 Y41.000 Z-5.000 I0.224 J-1.230 K0.000 F360.000
G1 X104.250 Y38.250 Z-5.000 F360.000
G1 X110.000 Y38.250 Z-5.000 F360.000
G2 X111.250 Y37.000 Z-5.000 I0.000 J-1.250 K0.000 F360.000
G1 X111.250 Y33.000 Z-5.000 F360.000
G2 X110.000 Y31.750 Z-5.000 I-1.250 J-0.000 K0.000 F360.000
G1 X104.250 Y31.750 Z-5.000 F360.000
G1 X104.250 Y29.000 Z-5.000 F360.000
G2 X103.679 Y27.950 Z-5.000 I-1.250 J-0.000 K0.000 F360.000
G2 X102.776 Y27.770 Z-5.000 I-0.679 J1.050 K0.000 F360.000
G1 X69.776 Y33.770 Z-5.000 F360.000
G2 X68.850 Y34.511 Z-5.000 I0.224 J1.230 K0.000 F360.000
G0 Z5.000
G0 Z5.000
(Finish operation: Profile001)
(Begin operation: Profile002)
(Path: Profile002)
(Profile002)
(Compensated Tool Path. Diameter: 2.5)
G0 Z5.000
G0 X0.000 Y0.000
G0 X-0.103 Y-0.103
G0 X-0.103 Y-0.103 Z3.000
G1 X-0.103 Y-0.103 Z-2.500 F360.000
G1 X1.681 Y-1.880 Z-2.500 F360.000
G1 X4.843 Y-5.446 Z-2.500 F360.000
G1 X6.830 Y-7.965 Z-2.500 F360.000
G1 X8.386 Y-10.448 Z-2.500 F360.000
G1 X8.866 Y-11.365 Z-2.500 F360.000
G2 X9.027 Y-12.531 Z-2.500 I-2.303 J-0.912 K0.000 F360.000
G2 X8.428 Y-13.891 Z-2.500 I-3.164 J0.583 K0.000 F360.000
G2 X7.393 Y-14.574 Z-2.500 I-3.222 J3.754 K0.000 F360.000
G2 X6.328 Y-14.690 Z-2.500 I-0.655 J1.064 K0.000 F360.000
G1 X5.316 Y-14.340 Z-2.500 F360.000
G1 X5.064 Y-14.219 Z-2.500 F360.000
G2 X0.239 Y-11.150 Z-2.500 I125.892 J203.240 K0.000 F360.000
G2 X0.683 Y-12.782 Z-2.500 I-3.488 J-1.824 K0.000 F360.000
G2 X0.107 Y-13.960 Z-2.500 I-2.282 J0.385 K0.000 F360.000
G2 X-1.128 Y-14.486 Z-2.500 I-1.471 J1.739 K0.000 F360.000
G2 X-2.533 Y-14.207 Z-2.500 I0.036 J3.860 K0.000 F360.000
G2 X-3.888 Y-13.437 Z-2.500 I4.508 J9.511 K0.000 F360.000
G1 X-5.107 Y-12.498 Z-2.500 F360.000
G3 X-9.284 Y-8.499 Z-2.500 I-55.767 J-54.066 K0.000 F360.000
G1 X-12.476 Y-6.653 Z-2.500 F360.000
G3 X-20.103 Y-4.738 Z-2.500 I-19.111 J-59.963 K0.000 F360.000
G1 X-21.036 Y-4.667 Z-2.500 F360.000
G3 X-26.167 Y-4.469 Z-2.500 I-4.557 J-51.556 K0.000 F360.000
G1 X-26.519 Y-4.618 Z-2.500 F360.000
G1 X-26.418 Y-5.566 Z-2.500 F360.000
G1 X-26.320 Y-7.899 Z-2.500 F360.000
G2 X-27.297 Y-15.626 Z-2.500 I-103.346 J9.154 K0.000 F360.000
G1 X-28.497 Y-21.514 Z-2.500 F360.000
G1 X-29.526 Y-25.296 Z-2.500 F360.000
G1 X-30.677 Y-28.530 Z-2.500 F360.000
G1 X-31.944 Y-31.237 Z-2.500 F360.000
G1 X-33.382 Y-33.725 Z-2.500 F360.000
G1 X-33.491 Y-34.031 Z-2.500 F360.000
G1 X-32.841 Y-34.906 Z-2.500 F360.000
G1 X-31.383 Y-36.564 Z-2.500 F360.000
G1 X-29.491 Y-38.032 Z-2.500 F360.000
G1 X-27.388 Y-39.195 Z-2.500 F360.000
G1 X-24.862 Y-39.783 Z-2.500 F360.000
G1 X-21.556 Y-40.079 Z-2.500 F360.000
G1 X-18.540 Y-40.079 Z-2.500 F360.000
G1 X-16.089 Y-39.656 Z-2.500 F360.000
G2 X-10.170 Y-37.417 Z-2.500 I118.252 J-303.631 K0.000 F360.000
G1 X-9.940 Y-37.356 Z-2.500 F360.000
G1 X-8.637 Y-37.141 Z-2.500 F360.000
G1 X-8.374 Y-37.125 Z-2.500 F360.000
G2 X-7.264 Y-37.425 Z-2.500 I-0.634 J-4.540 K0.000 F360.000
G2 X-6.718 Y-37.767 Z-2.500 I-0.368 J-1.195 K0.000 F360.000
G2 X-6.165 Y-38.699 Z-2.500 I-3.410 J-2.654 K0.000 F360.000
G2 X-6.167 Y-39.899 Z-2.500 I-1.097 J-0.599 K0.000 F360.000
G2 X-7.010 Y-40.855 Z-2.500 I-4.208 J2.858 K0.000 F360.000
G1 X-6.498 Y-40.734 Z-2.500 F360.000
G2 X-5.423 Y-40.212 Z-2.500 I7.519 J-14.117 K0.000 F360.000
G2 X-3.770 Y-39.620 Z-2.500 I4.113 J-8.888 K0.000 F360.000
G1 X-2.323 Y-39.528 Z-2.500 F360.000
G2 X-0.943 Y-39.655 Z-2.500 I-0.064 J-8.231 K0.000 F360.000
G2 X-0.291 Y-39.924 Z-2.500 I-0.131 J-1.243 K0.000 F360.000
G2 X0.480 Y-40.888 Z-2.500 I-3.431 J-3.535 K0.000 F360.000
G2 X0.730 Y-41.638 Z-2.500 I-1.000 J-0.749 K0.000 F360.000
G1 X0.730 Y-42.670 Z-2.500 F360.000
G2 X0.261 Y-43.646 Z-2.500 I-1.250 J0.000 K0.000 F360.000
G1 X-1.832 Y-45.320 Z-2.500 F360.000
G1 X-4.430 Y-47.058 Z-2.500 F360.000
G1 X-8.395 Y-49.135 Z-2.500 F360.000
G1 X-12.439 Y-50.776 Z-2.500 F360.000
G1 X-12.642 Y-50.839 Z-2.500 F360.000
G1 X-16.492 Y-51.676 Z-2.500 F360.000
G1 X-16.711 Y-51.703 Z-2.500 F360.000
G1 X-21.231 Y-51.871 Z-2.500 F360.000
G1 X-21.457 Y-51.859 Z-2.500 F360.000
G1 X-26.060 Y-51.189 Z-2.500 F360.000
G1 X-26.230 Y-51.152 Z-2.500 F360.000
G1 X-30.248 Y-49.980 Z-2.500 F360.000
G1 X-30.530 Y-49.859 Z-2.500 F360.000
G1 X-33.495 Y-48.121 Z-2.500 F360.000
G1 X-36.785 Y-45.868 Z-2.500 F360.000
G2 X-39.545 Y-43.746 Z-2.500 I41.852 J57.295 K0.000 F360.000
G2 X-45.839 Y-37.609 Z-2.500 I25.196 J32.132 K0.000 F360.000
G1 X-45.977 Y-37.414 Z-2.500 F360.000
G1 X-46.743 Y-36.072 Z-2.500 F360.000
G2 X-50.536 Y-35.702 Z-2.500 I10.655 J128.809 K0.000 F360.000
G1 X-52.606 Y-35.269 Z-2.500 F360.000
G2 X-55.076 Y-34.466 Z-2.500 I56.296 J177.315 K0.000 F360.000
G2 X-61.403 Y-32.028 Z-2.500 I14.911 J48.123 K0.000 F360.000
G1 X-61.636 Y-31.892 Z-2.500 F360.000
G1 X-63.216 Y-30.726 Z-2.500 F360.000
G1 X-63.367 Y-30.595 Z-2.500 F360.000
G1 X-64.625 Y-29.309 Z-2.500 F360.000
G1 X-64.810 Y-29.067 Z-2.500 F360.000
G2 X-66.389 Y-26.106 Z-2.500 I26.618 J16.101 K0.000 F360.000
G1 X-66.916 Y-24.451 Z-2.500 F360.000
G2 X-67.284 Y-22.105 Z-2.500 I24.905 J5.107 K0.000 F360.000
G2 X-70.382 Y-22.356 Z-2.500 I-6.802 J64.846 K0.000 F360.000
G1 X-74.638 Y-22.359 Z-2.500 F360.000
G2 X-80.021 Y-21.775 Z-2.500 I2.166 J45.049 K0.000 F360.000
G1 X-82.834 Y-20.914 Z-2.500 F360.000
G1 X-86.148 Y-19.708 Z-2.500 F360.000
G2 X-91.295 Y-16.745 Z-2.500 I48.455 J90.118 K0.000 F360.000
G2 X-93.936 Y-14.563 Z-2.500 I29.886 J38.868 K0.000 F360.000
G2 X-94.288 Y-14.060 Z-2.500 I0.817 J0.946 K0.000 F360.000
G2 X-94.430 Y-13.138 Z-2.500 I3.576 J1.022 K0.000 F360.000
G2 X-94.207 Y-12.277 Z-2.500 I1.242 J0.138 K0.000 F360.000
G2 X-90.613 Y-7.837 Z-2.500 I28.292 J-19.228 K0.000 F360.000
G2 X-89.003 Y-6.628 Z-2.500 I14.095 J-17.087 K0.000 F360.000
G2 X-91.492 Y-2.603 Z-2.500 I9.948 J8.933 K0.000 F360.000
G1 X-91.581 Y-2.307 Z-2.500 F360.000
G2 X-92.094 Y3.922 Z-2.500 I24.875 J5.184 K0.000 F360.000
G1 X-91.876 Y5.646 Z-2.500 F360.000
G1 X-91.776 Y5.999 Z-2.500 F360.000
G1 X-91.280 Y7.092 Z-2.500 F360.000
G1 X-91.051 Y7.434 Z-2.500 F360.000
G1 X-90.138 Y8.403 Z-2.500 F360.000
G2 X-89.229 Y8.795 Z-2.500 I0.910 J-0.857 K0.000 F360.000
G1 X-84.982 Y8.795 Z-2.500 F360.000
G2 X-83.800 Y7.961 Z-2.500 I-0.004 J-1.259 K0.000 F360.000
G1 X-83.182 Y6.254 Z-2.500 F360.000
G1 X-82.646 Y5.226 Z-2.500 F360.000
G1 X-81.715 Y4.671 Z-2.500 F360.000
G1 X-80.595 Y4.504 Z-2.500 F360.000
G3 X-77.964 Y4.542 Z-2.500 I0.812 J34.717 K0.000 F360.000
G2 X-78.245 Y4.949 Z-2.500 I2.629 J2.116 K0.000 F360.000
G2 X-78.541 Y6.012 Z-2.500 I4.059 J1.701 K0.000 F360.000
G2 X-78.474 Y6.796 Z-2.500 I1.215 J0.292 K0.000 F360.000
G2 X-78.025 Y7.813 Z-2.500 I7.523 J-2.714 K0.000 F360.000
G2 X-77.443 Y8.438 Z-2.500 I2.766 J-1.990 K0.000 F360.000
G2 X-76.568 Y8.795 Z-2.500 I0.875 J-0.893 K0.000 F360.000
G1 X-62.282 Y8.795 Z-2.500 F360.000
G2 X-61.475 Y8.500 Z-2.500 I-0.000 J-1.250 K0.000 F360.000
G1 X-60.622 Y7.780 Z-2.500 F360.000
G2 X-58.032 Y4.712 Z-2.500 I-31.553 J-29.266 K0.000 F360.000
G1 X-57.909 Y4.794 Z-2.500 F360.000
G1 X-56.006 Y5.830 Z-2.500 F360.000
G1 X-55.750 Y5.934 Z-2.500 F360.000
G1 X-54.020 Y6.423 Z-2.500 F360.000
G1 X-53.737 Y6.469 Z-2.500 F360.000
G2 X-47.753 Y6.583 Z-2.500 I4.621 J-85.174 K0.000 F360.000
G1 X-47.549 Y6.565 Z-2.500 F360.000
G2 X-41.981 Y5.421 Z-2.500 I-6.358 J-45.063 K0.000 F360.000
G1 X-39.865 Y4.774 Z-2.500 F360.000
G3 X-38.200 Y4.171 Z-2.500 I4.446 J9.671 K0.000 F360.000
G1 X-38.181 Y4.191 Z-2.500 F360.000
G1 X-37.216 Y4.926 Z-2.500 F360.000
G1 X-37.012 Y5.052 Z-2.500 F360.000
G1 X-34.880 Y6.105 Z-2.500 F360.000
G1 X-34.564 Y6.211 Z-2.500 F360.000
G1 X-30.316 Y7.034 Z-2.500 F360.000
G1 X-30.153 Y7.054 Z-2.500 F360.000
G1 X-25.562 Y7.328 Z-2.500 F360.000
G1 X-20.759 Y7.331 Z-2.500 F360.000
G1 X-15.434 Y7.124 Z-2.500 F360.000
G1 X-15.254 Y7.104 Z-2.500 F360.000
G1 X-10.377 Y6.198 Z-2.500 F360.000
G1 X-10.138 Y6.128 Z-2.500 F360.000
G1 X-6.628 Y4.712 Z-2.500 F360.000
G1 X-6.438 Y4.616 Z-2.500 F360.000
G1 X-3.051 Y2.522 Z-2.500 F360.000
G1 X-2.885 Y2.399 Z-2.500 F360.000
G1 X-0.637 Y0.428 Z-2.500 F360.000
G1 X-0.103 Y-0.103 Z-2.500 F360.000
G0 Z5.000
G0 X17.944 Y1.136 Z5.000
G0 X17.944 Y1.136 Z3.000
G1 X17.944 Y1.136 Z-2.500 F360.000
G2 X17.906 Y3.922 Z-2.500 I25.350 J1.741 K0.000 F360.000
G1 X18.124 Y5.646 Z-2.500 F360.000
G1 X18.224 Y5.999 Z-2.500 F360.000
G1 X18.720 Y7.092 Z-2.500 F360.000
G1 X18.949 Y7.434 Z-2.500 F360.000
G1 X19.862 Y8.403 Z-2.500 F360.000
G2 X20.771 Y8.795 Z-2.500 I0.910 J-0.857 K0.000 F360.000
G1 X25.018 Y8.795 Z-2.500 F360.000
G2 X26.200 Y7.961 Z-2.500 I-0.004 J-1.259 K0.000 F360.000
G1 X26.818 Y6.254 Z-2.500 F360.000
G1 X27.354 Y5.226 Z-2.500 F360.000
G1 X28.285 Y4.671 Z-2.500 F360.000
G1 X29.405 Y4.504 Z-2.500 F360.000
G3 X32.036 Y4.542 Z-2.500 I0.812 J34.717 K0.000 F360.000
G2 X31.755 Y4.949 Z-2.500 I2.629 J2.116 K0.000 F360.000
G2 X31.459 Y6.012 Z-2.500 I4.059 J1.701 K0.000 F360.000
G2 X31.526 Y6.796 Z-2.500 I1.215 J0.292 K0.000 F360.000
G2 X31.975 Y7.813 Z-2.500 I7.523 J-2.714 K0.000 F360.000
G2 X32.557 Y8.438 Z-2.500 I2.766 J-1.990 K0.000 F360.000
G2 X33.432 Y8.795 Z-2.500 I0.875 J-0.893 K0.000 F360.000
G1 X47.718 Y8.795 Z-2.500 F360.000
G2 X48.525 Y8.500 Z-2.500 I-0.000 J-1.250 K0.000 F360.000
G1 X49.378 Y7.780 Z-2.500 F360.000
G2 X51.968 Y4.712 Z-2.500 I-31.553 J-29.266 K0.000 F360.000
G1 X52.091 Y4.794 Z-2.500 F360.000
G1 X53.994 Y5.830 Z-2.500 F360.000
G1 X54.250 Y5.934 Z-2.500 F360.000
G1 X55.980 Y6.423 Z-2.500 F360.000
G1 X56.263 Y6.469 Z-2.500 F360.000
G2 X62.247 Y6.583 Z-2.500 I4.621 J-85.175 K0.000 F360.000
G1 X62.451 Y6.565 Z-2.500 F360.000
G2 X68.019 Y5.421 Z-2.500 I-6.358 J-45.063 K0.000 F360.000
G1 X70.135 Y4.774 Z-2.500 F360.000
G3 X71.800 Y4.171 Z-2.500 I4.446 J9.671 K0.000 F360.000
G1 X71.819 Y4.191 Z-2.500 F360.000
G1 X72.784 Y4.926 Z-2.500 F360.000
G1 X72.988 Y5.052 Z-2.500 F360.000
G1 X75.120 Y6.105 Z-2.500 F360.000
G1 X75.436 Y6.211 Z-2.500 F360.000
G1 X79.684 Y7.034 Z-2.500 F360.000
G1 X79.847 Y7.054 Z-2.500 F360.000
G1 X84.438 Y7.328 Z-2.500 F360.000
G1 X89.241 Y7.331 Z-2.500 F360.000
G1 X94.566 Y7.124 Z-2.500 F360.000
G1 X94.746 Y7.104 Z-2.500 F360.000
G1 X99.623 Y6.198 Z-2.500 F360.000
G1 X99.862 Y6.128 Z-2.500 F360.000
G1 X103.372 Y4.712 Z-2.500 F360.000
G1 X103.562 Y4.616 Z-2.500 F360.000
G1 X106.949 Y2.522 Z-2.500 F360.000
G1 X107.115 Y2.399 Z-2.500 F360.000
G1 X109.363 Y0.428 Z-2.500 F360.000
G1 X111.681 Y-1.880 Z-2.500 F360.000
G1 X114.843 Y-5.446 Z-2.500 F360.000
G1 X116.830 Y-7.965 Z-2.500 F360.000
G1 X118.386 Y-10.448 Z-2.500 F360.000
G1 X118.866 Y-11.365 Z-2.500 F360.000
G2 X119.027 Y-12.531 Z-2.500 I-2.303 J-0.912 K0.000 F360.000
G2 X118.428 Y-13.891 Z-2.500 I-3.164 J0.583 K0.000 F360.000
G2 X117.393 Y-14.574 Z-2.500 I-3.222 J3.754 K0.000 F360.000
G2 X116.328 Y-14.690 Z-2.500 I-0.655 J1.064 K0.000 F360.000
G1 X115.316 Y-14.340 Z-2.500 F360.000
G1 X115.064 Y-14.219 Z-2.500 F360.000
G2 X110.239 Y-11.150 Z-2.500 I125.891 J203.240 K0.000 F360.000
G2 X110.683 Y-12.782 Z-2.500 I-3.488 J-1.824 K0.000 F360.000
G2 X110.107 Y-13.960 Z-2.500 I-2.282 J0.385 K0.000 F360.000
G2 X108.872 Y-14.486 Z-2.500 I-1.471 J1.739 K0.000 F360.000
G2 X107.467 Y-14.207 Z-2.500 I0.036 J3.860 K0.000 F360.000
G2 X106.112 Y-13.437 Z-2.500 I4.508 J9.511 K0.000 F360.000
G1 X104.893 Y-12.498 Z-2.500 F360.000
G3 X100.716 Y-8.499 Z-2.500 I-55.767 J-54.066 K0.000 F360.000
G1 X97.524 Y-6.653 Z-2.500 F360.000
G3 X89.897 Y-4.738 Z-2.500 I-19.111 J-59.963 K0.000 F360.000
G1 X88.964 Y-4.667 Z-2.500 F360.000
G3 X83.833 Y-4.469 Z-2.500 I-4.557 J-51.556 K0.000 F360.000
G1 X83.481 Y-4.618 Z-2.500 F360.000
G1 X83.582 Y-5.566 Z-2.500 F360.000
G1 X83.680 Y-7.899 Z-2.500 F360.000
G2 X82.703 Y-15.626 Z-2.500 I-103.346 J9.154 K0.000 F360.000
G1 X81.503 Y-21.514 Z-2.500 F360.000
G1 X80.474 Y-25.296 Z-2.500 F360.000
G1 X79.323 Y-28.530 Z-2.500 F360.000
G1 X78.056 Y-31.237 Z-2.500 F360.000
G1 X76.618 Y-33.725 Z-2.500 F360.000
G1 X76.509 Y-34.031 Z-2.500 F360.000
G1 X77.159 Y-34.906 Z-2.500 F360.000
G1 X78.617 Y-36.564 Z-2.500 F360.000
G1 X80.509 Y-38.032 Z-2.500 F360.000
G1 X82.612 Y-39.195 Z-2.500 F360.000
G1 X85.138 Y-39.783 Z-2.500 F360.000
G1 X88.444 Y-40.079 Z-2.500 F360.000
G1 X91.460 Y-40.079 Z-2.500 F360.000
G1 X93.911 Y-39.656 Z-2.500 F360.000
G2 X99.830 Y-37.417 Z-2.500 I118.252 J-303.632 K0.000 F360.000
G1 X100.060 Y-37.356 Z-2.500 F360.000
G1 X101.363 Y-37.141 Z-2.500 F360.000
G1 X101.626 Y-37.125 Z-2.500 F360.000
G2 X102.736 Y-37.425 Z-2.500 I-0.634 J-4.540 K0.000 F360.000
G2 X103.282 Y-37.767 Z-2.500 I-0.368 J-1.195 K0.000 F360.000
G2 X103.835 Y-38.699 Z-2.500 I-3.410 J-2.654 K0.000 F360.000
G2 X103.833 Y-39.899 Z-2.500 I-1.097 J-0.599 K0.000 F360.000
G2 X102.990 Y-40.855 Z-2.500 I-4.208 J2.858 K0.000 F360.000
G1 X103.502 Y-40.734 Z-2.500 F360.000
G2 X104.577 Y-40.212 Z-2.500 I7.519 J-14.117 K0.000 F360.000
G2 X106.230 Y-39.620 Z-2.500 I4.113 J-8.888 K0.000 F360.000
G1 X107.677 Y-39.528 Z-2.500 F360.000
G2 X109.057 Y-39.655 Z-2.500 I-0.064 J-8.231 K0.000 F360.000
G2 X109.709 Y-39.924 Z-2.500 I-0.131 J-1.243 K0.000 F360.000
G2 X110.480 Y-40.888 Z-2.500 I-3.431 J-3.535 K0.000 F360.000
G2 X110.730 Y-41.638 Z-2.500 I-1.000 J-0.749 K0.000 F360.000
G1 X110.730 Y-42.670 Z-2.500 F360.000
G2 X110.261 Y-43.646 Z-2.500 I-1.250 J-0.000 K0.000 F360.000
G1 X108.168 Y-45.320 Z-2.500 F360.000
G1 X105.570 Y-47.058 Z-2.500 F360.000
G1 X101.605 Y-49.135 Z-2.500 F360.000
G1 X97.561 Y-50.776 Z-2.500 F360.000
G1 X97.358 Y-50.839 Z-2.500 F360.000
G1 X93.508 Y-51.676 Z-2.500 F360.000
G1 X93.289 Y-51.703 Z-2.500 F360.000
G1 X88.769 Y-51.871 Z-2.500 F360.000
G1 X88.543 Y-51.859 Z-2.500 F360.000
G1 X83.940 Y-51.189 Z-2.500 F360.000
G1 X83.770 Y-51.152 Z-2.500 F360.000
G1 X79.752 Y-49.980 Z-2.500 F360.000
G1 X79.470 Y-49.859 Z-2.500 F360.000
G1 X76.505 Y-48.121 Z-2.500 F360.000
G1 X73.215 Y-45.868 Z-2.500 F360.000
G2 X70.455 Y-43.746 Z-2.500 I41.851 J57.294 K0.000 F360.000
G2 X64.161 Y-37.609 Z-2.500 I25.196 J32.132 K0.000 F360.000
G1 X64.023 Y-37.414 Z-2.500 F360.000
G1 X63.257 Y-36.072 Z-2.500 F360.000
G2 X59.464 Y-35.702 Z-2.500 I10.655 J128.810 K0.000 F360.000
G1 X57.394 Y-35.269 Z-2.500 F360.000
G2 X54.924 Y-34.466 Z-2.500 I56.296 J177.315 K0.000 F360.000
G2 X48.597 Y-32.028 Z-2.500 I14.911 J48.123 K0.000 F360.000
G1 X48.364 Y-31.892 Z-2.500 F360.000
G1 X46.784 Y-30.726 Z-2.500 F360.000
G1 X46.633 Y-30.595 Z-2.500 F360.000
G1 X45.375 Y-29.309 Z-2.500 F360.000
G1 X45.190 Y-29.067 Z-2.500 F360.000
G2 X43.611 Y-26.106 Z-2.500 I26.618 J16.101 K0.000 F360.000
G1 X43.084 Y-24.451 Z-2.500 F360.000
G2 X42.716 Y-22.105 Z-2.500 I24.905 J5.107 K0.000 F360.000
G2 X39.618 Y-22.356 Z-2.500 I-6.802 J64.846 K0.000 F360.000
G1 X35.362 Y-22.359 Z-2.500 F360.000
G2 X29.979 Y-21.775 Z-2.500 I2.166 J45.049 K0.000 F360.000
G1 X27.166 Y-20.914 Z-2.500 F360.000
G1 X23.852 Y-19.708 Z-2.500 F360.000
G2 X18.705 Y-16.745 Z-2.500 I48.455 J90.118 K0.000 F360.000
G2 X16.064 Y-14.563 Z-2.500 I29.886 J38.868 K0.000 F360.000
G2 X15.712 Y-14.060 Z-2.500 I0.817 J0.946 K0.000 F360.000
G2 X15.570 Y-13.138 Z-2.500 I3.576 J1.022 K0.000 F360.000
G2 X15.793 Y-12.277 Z-2.500 I1.242 J0.138 K0.000 F360.000
G2 X19.387 Y-7.837 Z-2.500 I28.292 J-19.228 K0.000 F360.000
G2 X20.997 Y-6.628 Z-2.500 I14.095 J-17.087 K0.000 F360.000
G2 X18.508 Y-2.603 Z-2.500 I9.948 J8.933 K0.000 F360.000
G1 X18.419 Y-2.307 Z-2.500 F360.000
G2 X17.944 Y1.136 Z-2.500 I24.875 J5.184 K0.000 F360.000
G0 Z5.000
G0 X23.822 Y-25.905 Z5.000
G0 X23.822 Y-25.905 Z3.000
G1 X23.822 Y-25.905 Z-2.500 F360.000
G1 X26.492 Y-25.324 Z-2.500 F360.000
G1 X26.711 Y-25.297 Z-2.500 F360.000
G1 X31.231 Y-25.129 Z-2.500 F360.000
G1 X31.457 Y-25.141 Z-2.500 F360.000
G1 X36.060 Y-25.811 Z-2.500 F360.000
G1 X36.230 Y-25.848 Z-2.500 F360.000
G1 X40.248 Y-27.020 Z-2.500 F360.000
G1 X40.530 Y-27.141 Z-2.500 F360.000
G1 X43.495 Y-28.879 Z-2.500 F360.000
G1 X46.785 Y-31.132 Z-2.500 F360.000
G2 X49.545 Y-33.254 Z-2.500 I-41.852 J-57.295 K0.000 F360.000
G2 X55.839 Y-39.391 Z-2.500 I-25.196 J-32.132 K0.000 F360.000
G1 X55.977 Y-39.586 Z-2.500 F360.000
G1 X56.743 Y-40.928 Z-2.500 F360.000
G2 X60.536 Y-41.298 Z-2.500 I-10.655 J-128.810 K0.000 F360.000
G1 X62.606 Y-41.731 Z-2.500 F360.000
G2 X65.076 Y-42.534 Z-2.500 I-56.296 J-177.315 K0.000 F360.000
G2 X71.403 Y-44.972 Z-2.500 I-14.911 J-48.123 K0.000 F360.000
G1 X71.636 Y-45.108 Z-2.500 F360.000
G1 X73.216 Y-46.274 Z-2.500 F360.000
G1 X73.367 Y-46.405 Z-2.500 F360.000
G1 X74.625 Y-47.691 Z-2.500 F360.000
G1 X74.810 Y-47.933 Z-2.500 F360.000
G2 X76.389 Y-50.894 Z-2.500 I-26.618 J-16.101 K0.000 F360.000
G1 X76.916 Y-52.549 Z-2.500 F360.000
G2 X77.284 Y-54.895 Z-2.500 I-24.905 J-5.107 K0.000 F360.000
G2 X80.382 Y-54.644 Z-2.500 I6.802 J-64.846 K0.000 F360.000
G1 X84.638 Y-54.641 Z-2.500 F360.000
G2 X90.021 Y-55.225 Z-2.500 I-2.166 J-45.049 K0.000 F360.000
G1 X92.834 Y-56.086 Z-2.500 F360.000
G1 X96.148 Y-57.292 Z-2.500 F360.000
G2 X101.295 Y-60.255 Z-2.500 I-48.455 J-90.118 K0.000 F360.000
G2 X103.936 Y-62.437 Z-2.500 I-29.886 J-38.868 K0.000 F360.000
G2 X104.288 Y-62.940 Z-2.500 I-0.817 J-0.946 K0.000 F360.000
G2 X104.430 Y-63.862 Z-2.500 I-3.576 J-1.022 K0.000 F360.000
G2 X104.207 Y-64.723 Z-2.500 I-1.242 J-0.138 K0.000 F360.000
G2 X100.613 Y-69.163 Z-2.500 I-28.292 J19.228 K0.000 F360.000
G2 X99.003 Y-70.372 Z-2.500 I-14.095 J17.087 K0.000 F360.000
G2 X101.492 Y-74.397 Z-2.500 I-9.948 J-8.933 K0.000 F360.000
G1 X101.581 Y-74.693 Z-2.500 F360.000
G2 X102.094 Y-80.922 Z-2.500 I-24.876 J-5.184 K0.000 F360.000
G1 X101.876 Y-82.646 Z-2.500 F360.000
G1 X101.776 Y-82.999 Z-2.500 F360.000
G1 X101.280 Y-84.092 Z-2.500 F360.000
G1 X101.051 Y-84.434 Z-2.500 F360.000
G1 X100.138 Y-85.403 Z-2.500 F360.000
G2 X99.229 Y-85.795 Z-2.500 I-0.910 J0.857 K0.000 F360.000
G1 X94.982 Y-85.795 Z-2.500 F360.000
G2 X93.800 Y-84.961 Z-2.500 I0.004 J1.259 K0.000 F360.000
G1 X93.182 Y-83.254 Z-2.500 F360.000
G1 X92.646 Y-82.226 Z-2.500 F360.000
G1 X91.715 Y-81.671 Z-2.500 F360.000
G1 X90.595 Y-81.504 Z-2.500 F360.000
G3 X87.964 Y-81.542 Z-2.500 I-0.812 J-34.717 K0.000 F360.000
G2 X88.245 Y-81.949 Z-2.500 I-2.629 J-2.116 K0.000 F360.000
G2 X88.541 Y-83.012 Z-2.500 I-4.059 J-1.701 K0.000 F360.000
G2 X88.474 Y-83.796 Z-2.500 I-1.215 J-0.292 K0.000 F360.000
G2 X88.025 Y-84.813 Z-2.500 I-7.523 J2.714 K0.000 F360.000
G2 X87.443 Y-85.438 Z-2.500 I-2.766 J1.990 K0.000 F360.000
G2 X86.568 Y-85.795 Z-2.500 I-0.875 J0.893 K0.000 F360.000
G1 X72.282 Y-85.795 Z-2.500 F360.000
G2 X71.475 Y-85.500 Z-2.500 I0.000 J1.250 K0.000 F360.000
G1 X70.622 Y-84.780 Z-2.500 F360.000
G2 X68.032 Y-81.712 Z-2.500 I31.553 J29.266 K0.000 F360.000
G1 X67.909 Y-81.794 Z-2.500 F360.000
G1 X66.006 Y-82.830 Z-2.500 F360.000
G1 X65.750 Y-82.934 Z-2.500 F360.000
G1 X64.020 Y-83.423 Z-2.500 F360.000
G1 X63.737 Y-83.469 Z-2.500 F360.000
G2 X57.753 Y-83.583 Z-2.500 I-4.621 J85.174 K0.000 F360.000
G1 X57.549 Y-83.565 Z-2.500 F360.000
G2 X51.981 Y-82.421 Z-2.500 I6.358 J45.063 K0.000 F360.000
G1 X49.865 Y-81.774 Z-2.500 F360.000
G3 X48.200 Y-81.171 Z-2.500 I-4.446 J-9.671 K0.000 F360.000
G1 X48.181 Y-81.191 Z-2.500 F360.000
G1 X47.216 Y-81.926 Z-2.500 F360.000
G1 X47.012 Y-82.052 Z-2.500 F360.000
G1 X44.880 Y-83.105 Z-2.500 F360.000
G1 X44.564 Y-83.211 Z-2.500 F360.000
G1 X40.316 Y-84.034 Z-2.500 F360.000
G1 X40.153 Y-84.054 Z-2.500 F360.000
G1 X35.562 Y-84.328 Z-2.500 F360.000
G1 X30.759 Y-84.331 Z-2.500 F360.000
G1 X25.434 Y-84.124 Z-2.500 F360.000
G1 X25.254 Y-84.104 Z-2.500 F360.000
G1 X20.377 Y-83.198 Z-2.500 F360.000
G1 X20.138 Y-83.128 Z-2.500 F360.000
G1 X16.628 Y-81.712 Z-2.500 F360.000
G1 X16.438 Y-81.616 Z-2.500 F360.000
G1 X13.051 Y-79.522 Z-2.500 F360.000
G1 X12.885 Y-79.399 Z-2.500 F360.000
G1 X10.637 Y-77.428 Z-2.500 F360.000
G1 X8.319 Y-75.120 Z-2.500 F360.000
G1 X5.157 Y-71.554 Z-2.500 F360.000
G1 X3.170 Y-69.035 Z-2.500 F360.000
G1 X1.614 Y-66.552 Z-2.500 F360.000
G1 X1.134 Y-65.635 Z-2.500 F360.000
G2 X0.973 Y-64.469 Z-2.500 I2.303 J0.912 K0.000 F360.000
G2 X1.572 Y-63.109 Z-2.500 I3.164 J-0.583 K0.000 F360.000
G2 X2.607 Y-62.426 Z-2.500 I3.222 J-3.754 K0.000 F360.000
G2 X3.672 Y-62.310 Z-2.500 I0.655 J-1.064 K0.000 F360.000
G1 X4.684 Y-62.660 Z-2.500 F360.000
G1 X4.936 Y-62.781 Z-2.500 F360.000
G2 X9.761 Y-65.850 Z-2.500 I-125.891 J-203.239 K0.000 F360.000
G2 X9.317 Y-64.218 Z-2.500 I3.488 J1.824 K0.000 F360.000
G2 X9.893 Y-63.040 Z-2.500 I2.282 J-0.385 K0.000 F360.000
G2 X11.128 Y-62.514 Z-2.500 I1.471 J-1.739 K0.000 F360.000
G2 X12.533 Y-62.793 Z-2.500 I-0.036 J-3.860 K0.000 F360.000
G2 X13.888 Y-63.563 Z-2.500 I-4.508 J-9.511 K0.000 F360.000
G1 X15.107 Y-64.502 Z-2.500 F360.000
G3 X19.284 Y-68.501 Z-2.500 I55.767 J54.066 K0.000 F360.000
G1 X22.476 Y-70.347 Z-2.500 F360.000
G3 X30.103 Y-72.262 Z-2.500 I19.111 J59.963 K0.000 F360.000
G1 X31.036 Y-72.333 Z-2.500 F360.000
G3 X36.167 Y-72.531 Z-2.500 I4.557 J51.557 K0.000 F360.000
G1 X36.519 Y-72.382 Z-2.500 F360.000
G1 X36.418 Y-71.434 Z-2.500 F360.000
G1 X36.320 Y-69.101 Z-2.500 F360.000
G2 X37.297 Y-61.374 Z-2.500 I103.346 J-9.154 K0.000 F360.000
G1 X38.497 Y-55.486 Z-2.500 F360.000
G1 X39.526 Y-51.704 Z-2.500 F360.000
G1 X40.677 Y-48.470 Z-2.500 F360.000
G1 X41.944 Y-45.763 Z-2.500 F360.000
G1 X43.382 Y-43.275 Z-2.500 F360.000
G1 X43.491 Y-42.969 Z-2.500 F360.000
G1 X42.841 Y-42.094 Z-2.500 F360.000
G1 X41.383 Y-40.436 Z-2.500 F360.000
G1 X39.491 Y-38.968 Z-2.500 F360.000
G1 X37.388 Y-37.805 Z-2.500 F360.000
G1 X34.862 Y-37.217 Z-2.500 F360.000
G1 X31.556 Y-36.921 Z-2.500 F360.000
G1 X28.540 Y-36.921 Z-2.500 F360.000
G1 X26.089 Y-37.344 Z-2.500 F360.000
G2 X20.170 Y-39.583 Z-2.500 I-118.252 J303.631 K0.000 F360.000
G1 X19.940 Y-39.644 Z-2.500 F360.000
G1 X18.637 Y-39.859 Z-2.500 F360.000
G1 X18.374 Y-39.875 Z-2.500 F360.000
G2 X17.264 Y-39.575 Z-2.500 I0.634 J4.540 K0.000 F360.000
G2 X16.718 Y-39.233 Z-2.500 I0.368 J1.195 K0.000 F360.000
G2 X16.165 Y-38.301 Z-2.500 I3.410 J2.654 K0.000 F360.000
G2 X16.167 Y-37.101 Z-2.500 I1.097 J0.599 K0.000 F360.000
G2 X17.010 Y-36.145 Z-2.500 I4.208 J-2.858 K0.000 F360.000
G1 X16.498 Y-36.266 Z-2.500 F360.000
G2 X15.423 Y-36.788 Z-2.500 I-7.519 J14.117 K0.000 F360.000
G2 X13.770 Y-37.380 Z-2.500 I-4.113 J8.888 K0.000 F360.000
G1 X12.323 Y-37.472 Z-2.500 F360.000
G2 X10.943 Y-37.345 Z-2.500 I0.064 J8.231 K0.000 F360.000
G2 X10.291 Y-37.076 Z-2.500 I0.131 J1.243 K0.000 F360.000
G2 X9.520 Y-36.112 Z-2.500 I3.431 J3.535 K0.000 F360.000
G2 X9.270 Y-35.362 Z-2.500 I1.000 J0.749 K0.000 F360.000
G1 X9.270 Y-34.330 Z-2.500 F360.000
G2 X9.739 Y-33.354 Z-2.500 I1.250 J0.000 K0.000 F360.000
G1 X11.832 Y-31.680 Z-2.500 F360.000
G1 X14.430 Y-29.942 Z-2.500 F360.000
G1 X18.395 Y-27.865 Z-2.500 F360.000
G1 X22.439 Y-26.224 Z-2.500 F360.000
G1 X22.642 Y-26.161 Z-2.500 F360.000
G1 X23.822 Y-25.905 Z-2.500 F360.000
G0 Z5.000
G0 X-6.785 Y-61.811 Z5.000
G0 X-6.785 Y-61.811 Z3.000
G1 X-6.785 Y-61.811 Z-2.500 F360.000
G2 X-6.064 Y-62.437 Z-2.500 I-31.806 J-37.313 K0.000 F360.000
G2 X-5.712 Y-62.940 Z-2.500 I-0.817 J-0.946 K0.000 F360.000
G2 X-5.570 Y-63.862 Z-2.500 I-3.576 J-1.022 K0.000 F360.000
G2 X-5.793 Y-64.723 Z-2.500 I-1.242 J-0.138 K0.000 F360.000
G2 X-9.387 Y-69.163 Z-2.500 I-28.292 J19.228 K0.000 F360.000
G2 X-10.997 Y-70.372 Z-2.500 I-14.095 J17.087 K0.000 F360.000
G2 X-8.508 Y-74.397 Z-2.500 I-9.948 J-8.933 K0.000 F360.000
G1 X-8.419 Y-74.693 Z-2.500 F360.000
G2 X-7.906 Y-80.922 Z-2.500 I-24.876 J-5.184 K0.000 F360.000
G1 X-8.124 Y-82.646 Z-2.500 F360.000
G1 X-8.224 Y-82.999 Z-2.500 F360.000
G1 X-8.720 Y-84.092 Z-2.500 F360.000
G1 X-8.949 Y-84.434 Z-2.500 F360.000
G1 X-9.862 Y-85.403 Z-2.500 F360.000
G2 X-10.771 Y-85.795 Z-2.500 I-0.910 J0.857 K0.000 F360.000
G1 X-15.018 Y-85.795 Z-2.500 F360.000
G2 X-16.200 Y-84.961 Z-2.500 I0.004 J1.259 K0.000 F360.000
G1 X-16.818 Y-83.254 Z-2.500 F360.000
G1 X-17.354 Y-82.226 Z-2.500 F360.000
G1 X-18.285 Y-81.671 Z-2.500 F360.000
G1 X-19.405 Y-81.504 Z-2.500 F360.000
G3 X-22.036 Y-81.542 Z-2.500 I-0.812 J-34.717 K0.000 F360.000
G2 X-21.755 Y-81.949 Z-2.500 I-2.629 J-2.116 K0.000 F360.000
G2 X-21.459 Y-83.012 Z-2.500 I-4.059 J-1.701 K0.000 F360.000
G2 X-21.526 Y-83.796 Z-2.500 I-1.215 J-0.292 K0.000 F360.000
G2 X-21.975 Y-84.813 Z-2.500 I-7.523 J2.714 K0.000 F360.000
G2 X-22.557 Y-85.438 Z-2.500 I-2.766 J1.990 K0.000 F360.000
G2 X-23.432 Y-85.795 Z-2.500 I-0.875 J0.893 K0.000 F360.000
G1 X-37.718 Y-85.795 Z-2.500 F360.000
G2 X-38.525 Y-85.500 Z-2.500 I0.000 J1.250 K0.000 F360.000
G1 X-39.378 Y-84.780 Z-2.500 F360.000
G2 X-41.968 Y-81.712 Z-2.500 I31.553 J29.266 K0.000 F360.000
G1 X-42.091 Y-81.794 Z-2.500 F360.000
G1 X-43.994 Y-82.830 Z-2.500 F360.000
G1 X-44.250 Y-82.934 Z-2.500 F360.000
G1 X-45.980 Y-83.423 Z-2.500 F360.000
G1 X-46.263 Y-83.469 Z-2.500 F360.000
G2 X-52.247 Y-83.583 Z-2.500 I-4.621 J85.175 K0.000 F360.000
G1 X-52.451 Y-83.565 Z-2.500 F360.000
G2 X-58.019 Y-82.421 Z-2.500 I6.358 J45.063 K0.000 F360.000
G1 X-60.135 Y-81.774 Z-2.500 F360.000
G3 X-61.800 Y-81.171 Z-2.500 I-4.446 J-9.671 K0.000 F360.000
G1 X-61.819 Y-81.191 Z-2.500 F360.000
G1 X-62.784 Y-81.926 Z-2.500 F360.000
G1 X-62.988 Y-82.052 Z-2.500 F360.000
G1 X-65.120 Y-83.105 Z-2.500 F360.000
G1 X-65.436 Y-83.211 Z-2.500 F360.000
G1 X-69.684 Y-84.034 Z-2.500 F360.000
G1 X-69.847 Y-84.054 Z-2.500 F360.000
G1 X-74.438 Y-84.328 Z-2.500 F360.000
G1 X-79.241 Y-84.331 Z-2.500 F360.000
G1 X-84.566 Y-84.124 Z-2.500 F360.000
G1 X-84.746 Y-84.104 Z-2.500 F360.000
G1 X-89.623 Y-83.198 Z-2.500 F360.000
G1 X-89.862 Y-83.128 Z-2.500 F360.000
G1 X-93.372 Y-81.712 Z-2.500 F360.000
G1 X-93.562 Y-81.616 Z-2.500 F360.000
G1 X-96.949 Y-79.522 Z-2.500 F360.000
G1 X-97.115 Y-79.399 Z-2.500 F360.000
G1 X-99.363 Y-77.428 Z-2.500 F360.000
G1 X-101.681 Y-75.120 Z-2.500 F360.000
G1 X-104.843 Y-71.554 Z-2.500 F360.000
G1 X-106.830 Y-69.035 Z-2.500 F360.000
G1 X-108.386 Y-66.552 Z-2.500 F360.000
G1 X-108.866 Y-65.635 Z-2.500 F360.000
G2 X-109.027 Y-64.469 Z-2.500 I2.303 J0.912 K0.000 F360.000
G2 X-108.428 Y-63.109 Z-2.500 I3.164 J-0.583 K0.000 F360.000
G2 X-107.393 Y-62.426 Z-2.500 I3.222 J-3.754 K0.000 F360.000
G2 X-106.328 Y-62.310 Z-2.500 I0.655 J-1.064 K0.000 F360.000
G1 X-105.316 Y-62.660 Z-2.500 F360.000
G1 X-105.064 Y-62.781 Z-2.500 F360.000
G2 X-100.239 Y-65.850 Z-2.500 I-125.891 J-203.239 K0.000 F360.000
G2 X-100.683 Y-64.218 Z-2.500 I3.488 J1.824 K0.000 F360.000
G2 X-100.107 Y-63.040 Z-2.500 I2.282 J-0.385 K0.000 F360.000
G2 X-98.872 Y-62.514 Z-2.500 I1.471 J-1.739 K0.000 F360.000
G2 X-97.467 Y-62.793 Z-2.500 I-0.036 J-3.860 K0.000 F360.000
G2 X-96.112 Y-63.563 Z-2.500 I-4.508 J-9.512 K0.000 F360.000
G1 X-94.893 Y-64.502 Z-2.500 F360.000
G3 X-90.716 Y-68.501 Z-2.500 I55.767 J54.066 K0.000 F360.000
G1 X-87.524 Y-70.347 Z-2.500 F360.000
G3 X-79.897 Y-72.262 Z-2.500 I19.111 J59.963 K0.000 F360.000
G1 X-78.964 Y-72.333 Z-2.500 F360.000
G3 X-73.833 Y-72.531 Z-2.500 I4.557 J51.556 K0.000 F360.000
G1 X-73.481 Y-72.382 Z-2.500 F360.000
G1 X-73.582 Y-71.434 Z-2.500 F360.000
G1 X-73.680 Y-69.101 Z-2.500 F360.000
G2 X-72.703 Y-61.374 Z-2.500 I103.346 J-9.154 K0.000 F360.000
G1 X-71.503 Y-55.486 Z-2.500 F360.000
G1 X-70.474 Y-51.704 Z-2.500 F360.000
G1 X-69.323 Y-48.470 Z-2.500 F360.000
G1 X-68.056 Y-45.763 Z-2.500 F360.000
G1 X-66.618 Y-43.275 Z-2.500 F360.000
G1 X-66.509 Y-42.969 Z-2.500 F360.000
G1 X-67.159 Y-42.094 Z-2.500 F360.000
G1 X-68.617 Y-40.436 Z-2.500 F360.000
G1 X-70.509 Y-38.968 Z-2.500 F360.000
G1 X-72.612 Y-37.805 Z-2.500 F360.000
G1 X-75.138 Y-37.217 Z-2.500 F360.000
G1 X-78.444 Y-36.921 Z-2.500 F360.000
G1 X-81.460 Y-36.921 Z-2.500 F360.000
G1 X-83.911 Y-37.344 Z-2.500 F360.000
G2 X-89.830 Y-39.583 Z-2.500 I-118.252 J303.632 K0.000 F360.000
G1 X-90.060 Y-39.644 Z-2.500 F360.000
G1 X-91.363 Y-39.859 Z-2.500 F360.000
G1 X-91.626 Y-39.875 Z-2.500 F360.000
G2 X-92.736 Y-39.575 Z-2.500 I0.634 J4.540 K0.000 F360.000
G2 X-93.282 Y-39.233 Z-2.500 I0.368 J1.195 K0.000 F360.000
G2 X-93.835 Y-38.301 Z-2.500 I3.410 J2.654 K0.000 F360.000
G2 X-93.833 Y-37.101 Z-2.500 I1.097 J0.599 K0.000 F360.000
G2 X-92.990 Y-36.145 Z-2.500 I4.208 J-2.858 K0.000 F360.000
G1 X-93.502 Y-36.266 Z-2.500 F360.000
G2 X-94.577 Y-36.788 Z-2.500 I-7.519 J14.117 K0.000 F360.000
G2 X-96.230 Y-37.380 Z-2.500 I-4.113 J8.888 K0.000 F360.000
G1 X-97.677 Y-37.472 Z-2.500 F360.000
G2 X-99.057 Y-37.345 Z-2.500 I0.064 J8.231 K0.000 F360.000
G2 X-99.709 Y-37.076 Z-2.500 I0.131 J1.243 K0.000 F360.000
G2 X-100.480 Y-36.112 Z-2.500 I3.431 J3.535 K0.000 F360.000
G2 X-100.730 Y-35.362 Z-2.500 I1.000 J0.749 K0.000 F360.000
G1 X-100.730 Y-34.330 Z-2.500 F360.000
G2 X-100.261 Y-33.354 Z-2.500 I1.250 J0.000 K0.000 F360.000
G1 X-98.168 Y-31.680 Z-2.500 F360.000
G1 X-95.570 Y-29.942 Z-2.500 F360.000
G1 X-91.605 Y-27.865 Z-2.500 F360.000
G1 X-87.561 Y-26.224 Z-2.500 F360.000
G1 X-87.358 Y-26.161 Z-2.500 F360.000
G1 X-83.508 Y-25.324 Z-2.500 F360.000
G1 X-83.289 Y-25.297 Z-2.500 F360.000
G1 X-78.769 Y-25.129 Z-2.500 F360.000
G1 X-78.543 Y-25.141 Z-2.500 F360.000
G1 X-73.940 Y-25.811 Z-2.500 F360.000
G1 X-73.770 Y-25.848 Z-2.500 F360.000
G1 X-69.752 Y-27.020 Z-2.500 F360.000
G1 X-69.470 Y-27.141 Z-2.500 F360.000
G1 X-66.505 Y-28.879 Z-2.500 F360.000
G1 X-63.215 Y-31.132 Z-2.500 F360.000
G2 X-60.455 Y-33.254 Z-2.500 I-41.852 J-57.295 K0.000 F360.000
G2 X-54.161 Y-39.391 Z-2.500 I-25.196 J-32.132 K0.000 F360.000
G1 X-54.023 Y-39.586 Z-2.500 F360.000
G1 X-53.257 Y-40.928 Z-2.500 F360.000
G2 X-49.464 Y-41.298 Z-2.500 I-10.655 J-128.811 K0.000 F360.000
G1 X-47.394 Y-41.731 Z-2.500 F360.000
G2 X-44.924 Y-42.534 Z-2.500 I-56.297 J-177.316 K0.000 F360.000
G2 X-38.597 Y-44.972 Z-2.500 I-14.911 J-48.123 K0.000 F360.000
G1 X-38.364 Y-45.108 Z-2.500 F360.000
G1 X-36.784 Y-46.274 Z-2.500 F360.000
G1 X-36.633 Y-46.405 Z-2.500 F360.000
G1 X-35.375 Y-47.691 Z-2.500 F360.000
G1 X-35.190 Y-47.933 Z-2.500 F360.000
G2 X-33.611 Y-50.894 Z-2.500 I-26.618 J-16.101 K0.000 F360.000
G1 X-33.084 Y-52.549 Z-2.500 F360.000
G2 X-32.716 Y-54.895 Z-2.500 I-24.905 J-5.107 K0.000 F360.000
G2 X-29.618 Y-54.644 Z-2.500 I6.802 J-64.846 K0.000 F360.000
G1 X-25.362 Y-54.641 Z-2.500 F360.000
G2 X-19.979 Y-55.225 Z-2.500 I-2.166 J-45.049 K0.000 F360.000
G1 X-17.166 Y-56.086 Z-2.500 F360.000
G1 X-13.852 Y-57.292 Z-2.500 F360.000
G2 X-8.705 Y-60.255 Z-2.500 I-48.455 J-90.118 K0.000 F360.000
G2 X-6.785 Y-61.811 Z-2.500 I-29.886 J-38.868 K0.000 F360.000
G1 X-6.785 Y-61.811 Z-5.000 F360.000
G2 X-6.064 Y-62.437 Z-5.000 I-31.806 J-37.313 K0.000 F360.000
G2 X-5.712 Y-62.940 Z-5.000 I-0.817 J-0.946 K0.000 F360.000
G2 X-5.570 Y-63.862 Z-5.000 I-3.576 J-1.022 K0.000 F360.000
G2 X-5.793 Y-64.723 Z-5.000 I-1.242 J-0.138 K0.000 F360.000
G2 X-9.387 Y-69.163 Z-5.000 I-28.292 J19.228 K0.000 F360.000
G2 X-10.997 Y-70.372 Z-5.000 I-14.095 J17.087 K0.000 F360.000
G2 X-8.508 Y-74.397 Z-5.000 I-9.948 J-8.933 K0.000 F360.000
G1 X-8.419 Y-74.693 Z-5.000 F360.000
G2 X-7.906 Y-80.922 Z-5.000 I-24.876 J-5.184 K0.000 F360.000
G1 X-8.124 Y-82.646 Z-5.000 F360.000
G1 X-8.224 Y-82.999 Z-5.000 F360.000
G1 X-8.720 Y-84.092 Z-5.000 F360.000
G1 X-8.949 Y-84.434 Z-5.000 F360.000
G1 X-9.862 Y-85.403 Z-5.000 F360.000
G2 X-10.771 Y-85.795 Z-5.000 I-0.910 J0.857 K0.000 F360.000
G1 X-15.018 Y-85.795 Z-5.000 F360.000
G2 X-16.200 Y-84.961 Z-5.000 I0.004 J1.259 K0.000 F360.000
G1 X-16.818 Y-83.254 Z-5.000 F360.000
G1 X-17.354 Y-82.226 Z-5.000 F360.000
G1 X-18.285 Y-81.671 Z-5.000 F360.000
G1 X-19.405 Y-81.504 Z-5.000 F360.000
G3 X-22.036 Y-81.542 Z-5.000 I-0.812 J-34.717 K0.000 F360.000
G2 X-21.755 Y-81.949 Z-5.000 I-2.629 J-2.116 K0.000 F360.000
G2 X-21.459 Y-83.012 Z-5.000 I-4.059 J-1.701 K0.000 F360.000
G2 X-21.526 Y-83.796 Z-5.000 I-1.215 J-0.292 K0.000 F360.000
G2 X-21.975 Y-84.813 Z-5.000 I-7.523 J2.714 K0.000 F360.000
G2 X-22.557 Y-85.438 Z-5.000 I-2.766 J1.990 K0.000 F360.000
G2 X-23.432 Y-85.795 Z-5.000 I-0.875 J0.893 K0.000 F360.000
G1 X-37.718 Y-85.795 Z-5.000 F360.000
G2 X-38.525 Y-85.500 Z-5.000 I0.000 J1.250 K0.000 F360.000
G1 X-39.378 Y-84.780 Z-5.000 F360.000
G2 X-41.968 Y-81.712 Z-5.000 I31.553 J29.266 K0.000 F360.000
G1 X-42.091 Y-81.794 Z-5.000 F360.000
G1 X-43.994 Y-82.830 Z-5.000 F360.000
G1 X-44.250 Y-82.934 Z-5.000 F360.000
G1 X-45.980 Y-83.423 Z-5.000 F360.000
G1 X-46.263 Y-83.469 Z-5.000 F360.000
G2 X-52.247 Y-83.583 Z-5.000 I-4.621 J85.175 K0.000 F360.000
G1 X-52.451 Y-83.565 Z-5.000 F360.000
G2 X-58.019 Y-82.421 Z-5.000 I6.358 J45.063 K0.000 F360.000
G1 X-60.135 Y-81.774 Z-5.000 F360.000
G3 X-61.800 Y-81.171 Z-5.000 I-4.446 J-9.671 K0.000 F360.000
G1 X-61.819 Y-81.191 Z-5.000 F360.000
G1 X-62.784 Y-81.926 Z-5.000 F360.000
G1 X-62.988 Y-82.052 Z-5.000 F360.000
G1 X-65.120 Y-83.105 Z-5.000 F360.000
G1 X-65.436 Y-83.211 Z-5.000 F360.000
G1 X-69.684 Y-84.034 Z-5.000 F360.000
G1 X-69.847 Y-84.054 Z-5.000 F360.000
G1 X-74.438 Y-84.328 Z-5.000 F360.000
G1 X-79.241 Y-84.331 Z-5.000 F360.000
G1 X-84.566 Y-84.124 Z-5.000 F360.000
G1 X-84.746 Y-84.104 Z-5.000 F360.000
G1 X-89.623 Y-83.198 Z-5.000 F360.000
G1 X-89.862 Y-83.128 Z-5.000 F360.000
G1 X-93.372 Y-81.712 Z-5.000 F360.000
G1 X-93.562 Y-81.616 Z-5.000 F360.000
G1 X-96.949 Y-79.522 Z-5.000 F360.000
G1 X-97.115 Y-79.399 Z-5.000 F360.000
G1 X-99.363 Y-77.428 Z-5.000 F360.000
G1 X-101.681 Y-75.120 Z-5.000 F360.000
G1 X-104.843 Y-71.554 Z-5.000 F360.000
G1 X-106.830 Y-69.035 Z-5.000 F360.000
G1 X-108.386 Y-66.552 Z-5.000 F360.000
G1 X-108.866 Y-65.635 Z-5.000 F360.000
G2 X-109.027 Y-64.469 Z-5.000 I2.303 J0.912 K0.000 F360.000
G2 X-108.428 Y-63.109 Z-5.000 I3.164 J-0.583 K0.000 F360.000
G2 X-107.393 Y-62.426 Z-5.000 I3.222 J-3.754 K0.000 F360.000
G2 X-106.328 Y-62.310 Z-5.000 I0.655 J-1.064 K0.000 F360.000
G1 X-105.316 Y-62.660 Z-5.000 F360.000
G1 X-105.064 Y-62.781 Z-5.000 F360.000
G2 X-100.239 Y-65.850 Z-5.000 I-125.891 J-203.239 K0.000 F360.000
G2 X-100.683 Y-64.218 Z-5.000 I3.488 J1.824 K0.000 F360.000
G2 X-100.107 Y-63.040 Z-5.000 I2.282 J-0.385 K0.000 F360.000
G2 X-98.872 Y-62.514 Z-5.000 I1.471 J-1.739 K0.000 F360.000
G2 X-97.467 Y-62.793 Z-5.000 I-0.036 J-3.860 K0.000 F360.000
G2 X-96.112 Y-63.563 Z-5.000 I-4.508 J-9.512 K0.000 F360.000
G1 X-94.893 Y-64.502 Z-5.000 F360.000
G3 X-90.716 Y-68.501 Z-5.000 I55.767 J54.066 K0.000 F360.000
G1 X-87.524 Y-70.347 Z-5.000 F360.000
G3 X-79.897 Y-72.262 Z-5.000 I19.111 J59.963 K0.000 F360.000
G1 X-78.964 Y-72.333 Z-5.000 F360.000
G3 X-73.833 Y-72.531 Z-5.000 I4.557 J51.556 K0.000 F360.000
G1 X-73.481 Y-72.382 Z-5.000 F360.000
G1 X-73.582 Y-71.434 Z-5.000 F360.000
G1 X-73.680 Y-69.101 Z-5.000 F360.000
G2 X-72.703 Y-61.374 Z-5.000 I103.346 J-9.154 K0.000 F360.000
G1 X-71.503 Y-55.486 Z-5.000 F360.000
G1 X-70.474 Y-51.704 Z-5.000 F360.000
G1 X-69.323 Y-48.470 Z-5.000 F360.000
G1 X-68.056 Y-45.763 Z-5.000 F360.000
G1 X-66.618 Y-43.275 Z-5.000 F360.000
G1 X-66.509 Y-42.969 Z-5.000 F360.000
G1 X-67.159 Y-42.094 Z-5.000 F360.000
G1 X-68.617 Y-40.436 Z-5.000 F360.000
G1 X-70.509 Y-38.968 Z-5.000 F360.000
G1 X-72.612 Y-37.805 Z-5.000 F360.000
G1 X-75.138 Y-37.217 Z-5.000 F360.000
G1 X-78.444 Y-36.921 Z-5.000 F360.000
G1 X-81.460 Y-36.921 Z-5.000 F360.000
G1 X-83.911 Y-37.344 Z-5.000 F360.000
G2 X-89.830 Y-39.583 Z-5.000 I-118.252 J303.632 K0.000 F360.000
G1 X-90.060 Y-39.644 Z-5.000 F360.000
G1 X-91.363 Y-39.859 Z-5.000 F360.000
G1 X-91.626 Y-39.875 Z-5.000 F360.000
G2 X-92.736 Y-39.575 Z-5.000 I0.634 J4.540 K0.000 F360.000
G2 X-93.282 Y-39.233 Z-5.000 I0.368 J1.195 K0.000 F360.000
G2 X-93.835 Y-38.301 Z-5.000 I3.410 J2.654 K0.000 F360.000
G2 X-93.833 Y-37.101 Z-5.000 I1.097 J0.599 K0.000 F360.000
G2 X-92.990 Y-36.145 Z-5.000 I4.208 J-2.858 K0.000 F360.000
G1 X-93.502 Y-36.266 Z-5.000 F360.000
G2 X-94.577 Y-36.788 Z-5.000 I-7.519 J14.117 K0.000 F360.000
G2 X-96.230 Y-37.380 Z-5.000 I-4.113 J8.888 K0.000 F360.000
G1 X-97.677 Y-37.472 Z-5.000 F360.000
G2 X-99.057 Y-37.345 Z-5.000 I0.064 J8.231 K0.000 F360.000
G2 X-99.709 Y-37.076 Z-5.000 I0.131 J1.243 K0.000 F360.000
G2 X-100.480 Y-36.112 Z-5.000 I3.431 J3.535 K0.000 F360.000
G2 X-100.730 Y-35.362 Z-5.000 I1.000 J0.749 K0.000 F360.000
G1 X-100.730 Y-34.330 Z-5.000 F360.000
G2 X-100.261 Y-33.354 Z-5.000 I1.250 J0.000 K0.000 F360.000
G1 X-98.168 Y-31.680 Z-5.000 F360.000
G1 X-95.570 Y-29.942 Z-5.000 F360.000
G1 X-91.605 Y-27.865 Z-5.000 F360.000
G1 X-87.561 Y-26.224 Z-5.000 F360.000
G1 X-87.358 Y-26.161 Z-5.000 F360.000
G1 X-83.508 Y-25.324 Z-5.000 F360.000
G1 X-83.289 Y-25.297 Z-5.000 F360.000
G1 X-78.769 Y-25.129 Z-5.000 F360.000
G1 X-78.543 Y-25.141 Z-5.000 F360.000
G1 X-73.940 Y-25.811 Z-5.000 F360.000
G1 X-73.770 Y-25.848 Z-5.000 F360.000
G1 X-69.752 Y-27.020 Z-5.000 F360.000
G1 X-69.470 Y-27.141 Z-5.000 F360.000
G1 X-66.505 Y-28.879 Z-5.000 F360.000
G1 X-63.215 Y-31.132 Z-5.000 F360.000
G2 X-60.455 Y-33.254 Z-5.000 I-41.852 J-57.295 K0.000 F360.000
G2 X-54.161 Y-39.391 Z-5.000 I-25.196 J-32.132 K0.000 F360.000
G1 X-54.023 Y-39.586 Z-5.000 F360.000
G1 X-53.257 Y-40.928 Z-5.000 F360.000
G2 X-49.464 Y-41.298 Z-5.000 I-10.655 J-128.811 K0.000 F360.000
G1 X-47.394 Y-41.731 Z-5.000 F360.000
G2 X-44.924 Y-42.534 Z-5.000 I-56.297 J-177.316 K0.000 F360.000
G2 X-38.597 Y-44.972 Z-5.000 I-14.911 J-48.123 K0.000 F360.000
G1 X-38.364 Y-45.108 Z-5.000 F360.000
G1 X-36.784 Y-46.274 Z-5.000 F360.000
G1 X-36.633 Y-46.405 Z-5.000 F360.000
G1 X-35.375 Y-47.691 Z-5.000 F360.000
G1 X-35.190 Y-47.933 Z-5.000 F360.000
G2 X-33.611 Y-50.894 Z-5.000 I-26.618 J-16.101 K0.000 F360.000
G1 X-33.084 Y-52.549 Z-5.000 F360.000
G2 X-32.716 Y-54.895 Z-5.000 I-24.905 J-5.107 K0.000 F360.000
G2 X-29.618 Y-54.644 Z-5.000 I6.802 J-64.846 K0.000 F360.000
G1 X-25.362 Y-54.641 Z-5.000 F360.000
G2 X-19.979 Y-55.225 Z-5.000 I-2.166 J-45.049 K0.000 F360.000
G1 X-17.166 Y-56.086 Z-5.000 F360.000
G1 X-13.852 Y-57.292 Z-5.000 F360.000
G2 X-8.705 Y-60.255 Z-5.000 I-48.455 J-90.118 K0.000 F360.000
G2 X-6.785 Y-61.811 Z-5.000 I-29.886 J-38.868 K0.000 F360.000
G0 Z5.000
G0 X1.053 Y-64.137 Z5.000
G0 X1.053 Y-64.137 Z3.000
G1 X1.053 Y-64.137 Z-5.000 F360.000
G2 X1.572 Y-63.109 Z-5.000 I3.084 J-0.915 K0.000 F360.000
G2 X2.607 Y-62.426 Z-5.000 I3.222 J-3.754 K0.000 F360.000
G2 X3.672 Y-62.310 Z-5.000 I0.655 J-1.064 K0.000 F360.000
G1 X4.684 Y-62.660 Z-5.000 F360.000
G1 X4.936 Y-62.781 Z-5.000 F360.000
G2 X9.761 Y-65.850 Z-5.000 I-125.891 J-203.239 K0.000 F360.000
G2 X9.317 Y-64.218 Z-5.000 I3.488 J1.824 K0.000 F360.000
G2 X9.893 Y-63.040 Z-5.000 I2.282 J-0.385 K0.000 F360.000
G2 X11.128 Y-62.514 Z-5.000 I1.471 J-1.739 K0.000 F360.000
G2 X12.533 Y-62.793 Z-5.000 I-0.036 J-3.860 K0.000 F360.000
G2 X13.888 Y-63.563 Z-5.000 I-4.508 J-9.511 K0.000 F360.000
G1 X15.107 Y-64.502 Z-5.000 F360.000
G3 X19.284 Y-68.501 Z-5.000 I55.767 J54.066 K0.000 F360.000
G1 X22.476 Y-70.347 Z-5.000 F360.000
G3 X30.103 Y-72.262 Z-5.000 I19.111 J59.963 K0.000 F360.000
G1 X31.036 Y-72.333 Z-5.000 F360.000
G3 X36.167 Y-72.531 Z-5.000 I4.557 J51.557 K0.000 F360.000
G1 X36.519 Y-72.382 Z-5.000 F360.000
G1 X36.418 Y-71.434 Z-5.000 F360.000
G1 X36.320 Y-69.101 Z-5.000 F360.000
G2 X37.297 Y-61.374 Z-5.000 I103.346 J-9.154 K0.000 F360.000
G1 X38.497 Y-55.486 Z-5.000 F360.000
G1 X39.526 Y-51.704 Z-5.000 F360.000
G1 X40.677 Y-48.470 Z-5.000 F360.000
G1 X41.944 Y-45.763 Z-5.000 F360.000
G1 X43.382 Y-43.275 Z-5.000 F360.000
G1 X43.491 Y-42.969 Z-5.000 F360.000
G1 X42.841 Y-42.094 Z-5.000 F360.000
G1 X41.383 Y-40.436 Z-5.000 F360.000
G1 X39.491 Y-38.968 Z-5.000 F360.000
G1 X37.388 Y-37.805 Z-5.000 F360.000
G1 X34.862 Y-37.217 Z-5.000 F360.000
G1 X31.556 Y-36.921 Z-5.000 F360.000
G1 X28.540 Y-36.921 Z-5.000 F360.000
G1 X26.089 Y-37.344 Z-5.000 F360.000
G2 X20.170 Y-39.583 Z-5.000 I-118.252 J303.631 K0.000 F360.000
G1 X19.940 Y-39.644 Z-5.000 F360.000
G1 X18.637 Y-39.859 Z-5.000 F360.000
G1 X18.374 Y-39.875 Z-5.000 F360.000
G2 X17.264 Y-39.575 Z-5.000 I0.634 J4.540 K0.000 F360.000
G2 X16.718 Y-39.233 Z-5.000 I0.368 J1.195 K0.000 F360.000
G2 X16.165 Y-38.301 Z-5.000 I3.410 J2.654 K0.000 F360.000
G2 X16.167 Y-37.101 Z-5.000 I1.097 J0.599 K0.000 F360.000
G2 X17.010 Y-36.145 Z-5.000 I4.208 J-2.858 K0.000 F360.000
G1 X16.498 Y-36.266 Z-5.000 F360.000
G2 X15.423 Y-36.788 Z-5.000 I-7.519 J14.117 K0.000 F360.000
G2 X13.770 Y-37.380 Z-5.000 I-4.113 J8.888 K0.000 F360.000
G1 X12.323 Y-37.472 Z-5.000 F360.000
G2 X10.943 Y-37.345 Z-5.000 I0.064 J8.231 K0.000 F360.000
G2 X10.291 Y-37.076 Z-5.000 I0.131 J1.243 K0.000 F360.000
G2 X9.520 Y-36.112 Z-5.000 I3.431 J3.535 K0.000 F360.000
G2 X9.270 Y-35.362 Z-5.000 I1.000 J0.749 K0.000 F360.000
G1 X9.270 Y-34.330 Z-5.000 F360.000
G2 X9.739 Y-33.354 Z-5.000 I1.250 J0.000 K0.000 F360.000
G1 X11.832 Y-31.680 Z-5.000 F360.000
G1 X14.430 Y-29.942 Z-5.000 F360.000
G1 X18.395 Y-27.865 Z-5.000 F360.000
G1 X22.439 Y-26.224 Z-5.000 F360.000
G1 X22.642 Y-26.161 Z-5.000 F360.000
G1 X26.492 Y-25.324 Z-5.000 F360.000
G1 X26.711 Y-25.297 Z-5.000 F360.000
G1 X31.231 Y-25.129 Z-5.000 F360.000
G1 X31.457 Y-25.141 Z-5.000 F360.000
G1 X36.060 Y-25.811 Z-5.000 F360.000
G1 X36.230 Y-25.848 Z-5.000 F360.000
G1 X40.248 Y-27.020 Z-5.000 F360.000
G1 X40.530 Y-27.141 Z-5.000 F360.000
G1 X43.495 Y-28.879 Z-5.000 F360.000
G1 X46.785 Y-31.132 Z-5.000 F360.000
G2 X49.545 Y-33.254 Z-5.000 I-41.852 J-57.295 K0.000 F360.000
G2 X55.839 Y-39.391 Z-5.000 I-25.196 J-32.132 K0.000 F360.000
G1 X55.977 Y-39.586 Z-5.000 F360.000
G1 X56.743 Y-40.928 Z-5.000 F360.000
G2 X60.536 Y-41.298 Z-5.000 I-10.655 J-128.810 K0.000 F360.000
G1 X62.606 Y-41.731 Z-5.000 F360.000
G2 X65.076 Y-42.534 Z-5.000 I-56.296 J-177.315 K0.000 F360.000
G2 X71.403 Y-44.972 Z-5.000 I-14.911 J-48.123 K0.000 F360.000
G1 X71.636 Y-45.108 Z-5.000 F360.000
G1 X73.216 Y-46.274 Z-5.000 F360.000
G1 X73.367 Y-46.405 Z-5.000 F360.000
G1 X74.625 Y-47.691 Z-5.000 F360.000
G1 X74.810 Y-47.933 Z-5.000 F360.000
G2 X76.389 Y-50.894 Z-5.000 I-26.618 J-16.101 K0.000 F360.000
G1 X76.916 Y-52.549 Z-5.000 F360.000
G2 X77.284 Y-54.895 Z-5.000 I-24.905 J-5.107 K0.000 F360.000
G2 X80.382 Y-54.644 Z-5.000 I6.802 J-64.846 K0.000 F360.000
G1 X84.638 Y-54.641 Z-5.000 F360.000
G2 X90.021 Y-55.225 Z-5.000 I-2.166 J-45.049 K0.000 F360.000
G1 X92.834 Y-56.086 Z-5.000 F360.000
G1 X96.148 Y-57.292 Z-5.000 F360.000
G2 X101.295 Y-60.255 Z-5.000 I-48.455 J-90.118 K0.000 F360.000
G2 X103.936 Y-62.437 Z-5.000 I-29.886 J-38.868 K0.000 F360.000
G2 X104.288 Y-62.940 Z-5.000 I-0.817 J-0.946 K0.000 F360.000
G2 X104.430 Y-63.862 Z-5.000 I-3.576 J-1.022 K0.000 F360.000
G2 X104.207 Y-64.723 Z-5.000 I-1.242 J-0.138 K0.000 F360.000
G2 X100.613 Y-69.163 Z-5.000 I-28.292 J19.228 K0.000 F360.000
G2 X99.003 Y-70.372 Z-5.000 I-14.095 J17.087 K0.000 F360.000
G2 X101.492 Y-74.397 Z-5.000 I-9.948 J-8.933 K0.000 F360.000
G1 X101.581 Y-74.693 Z-5.000 F360.000
G2 X102.094 Y-80.922 Z-5.000 I-24.876 J-5.184 K0.000 F360.000
G1 X101.876 Y-82.646 Z-5.000 F360.000
G1 X101.776 Y-82.999 Z-5.000 F360.000
G1 X101.280 Y-84.092 Z-5.000 F360.000
G1 X101.051 Y-84.434 Z-5.000 F360.000
G1 X100.138 Y-85.403 Z-5.000 F360.000
G2 X99.229 Y-85.795 Z-5.000 I-0.910 J0.857 K0.000 F360.000
G1 X94.982 Y-85.795 Z-5.000 F360.000
G2 X93.800 Y-84.961 Z-5.000 I0.004 J1.259 K0.000 F360.000
G1 X93.182 Y-83.254 Z-5.000 F360.000
G1 X92.646 Y-82.226 Z-5.000 F360.000
G1 X91.715 Y-81.671 Z-5.000 F360.000
G1 X90.595 Y-81.504 Z-5.000 F360.000
G3 X87.964 Y-81.542 Z-5.000 I-0.812 J-34.717 K0.000 F360.000
G2 X88.245 Y-81.949 Z-5.000 I-2.629 J-2.116 K0.000 F360.000
G2 X88.541 Y-83.012 Z-5.000 I-4.059 J-1.701 K0.000 F360.000
G2 X88.474 Y-83.796 Z-5.000 I-1.215 J-0.292 K0.000 F360.000
G2 X88.025 Y-84.813 Z-5.000 I-7.523 J2.714 K0.000 F360.000
G2 X87.443 Y-85.438 Z-5.000 I-2.766 J1.990 K0.000 F360.000
G2 X86.568 Y-85.795 Z-5.000 I-0.875 J0.893 K0.000 F360.000
G1 X72.282 Y-85.795 Z-5.000 F360.000
G2 X71.475 Y-85.500 Z-5.000 I0.000 J1.250 K0.000 F360.000
G1 X70.622 Y-84.780 Z-5.000 F360.000
G2 X68.032 Y-81.712 Z-5.000 I31.553 J29.266 K0.000 F360.000
G1 X67.909 Y-81.794 Z-5.000 F360.000
G1 X66.006 Y-82.830 Z-5.000 F360.000
G1 X65.750 Y-82.934 Z-5.000 F360.000
G1 X64.020 Y-83.423 Z-5.000 F360.000
G1 X63.737 Y-83.469 Z-5.000 F360.000
G2 X57.753 Y-83.583 Z-5.000 I-4.621 J85.174 K0.000 F360.000
G1 X57.549 Y-83.565 Z-5.000 F360.000
G2 X51.981 Y-82.421 Z-5.000 I6.358 J45.063 K0.000 F360.000
G1 X49.865 Y-81.774 Z-5.000 F360.000
G3 X48.200 Y-81.171 Z-5.000 I-4.446 J-9.671 K0.000 F360.000
G1 X48.181 Y-81.191 Z-5.000 F360.000
G1 X47.216 Y-81.926 Z-5.000 F360.000
G1 X47.012 Y-82.052 Z-5.000 F360.000
G1 X44.880 Y-83.105 Z-5.000 F360.000
G1 X44.564 Y-83.211 Z-5.000 F360.000
G1 X40.316 Y-84.034 Z-5.000 F360.000
G1 X40.153 Y-84.054 Z-5.000 F360.000
G1 X35.562 Y-84.328 Z-5.000 F360.000
G1 X30.759 Y-84.331 Z-5.000 F360.000
G1 X25.434 Y-84.124 Z-5.000 F360.000
G1 X25.254 Y-84.104 Z-5.000 F360.000
G1 X20.377 Y-83.198 Z-5.000 F360.000
G1 X20.138 Y-83.128 Z-5.000 F360.000
G1 X16.628 Y-81.712 Z-5.000 F360.000
G1 X16.438 Y-81.616 Z-5.000 F360.000
G1 X13.051 Y-79.522 Z-5.000 F360.000
G1 X12.885 Y-79.399 Z-5.000 F360.000
G1 X10.637 Y-77.428 Z-5.000 F360.000
G1 X8.319 Y-75.120 Z-5.000 F360.000
G1 X5.157 Y-71.554 Z-5.000 F360.000
G1 X3.170 Y-69.035 Z-5.000 F360.000
G1 X1.614 Y-66.552 Z-5.000 F360.000
G1 X1.134 Y-65.635 Z-5.000 F360.000
G2 X0.973 Y-64.469 Z-5.000 I2.303 J0.912 K0.000 F360.000
G2 X1.053 Y-64.137 Z-5.000 I3.164 J-0.583 K0.000 F360.000
G0 Z5.000
G0 X-7.147 Y-48.482 Z5.000
G0 X-7.147 Y-48.482 Z3.000
G1 X-7.147 Y-48.482 Z-5.000 F360.000
G1 X-8.395 Y-49.135 Z-5.000 F360.000
G1 X-12.439 Y-50.776 Z-5.000 F360.000
G1 X-12.642 Y-50.839 Z-5.000 F360.000
G1 X-16.492 Y-51.676 Z-5.000 F360.000
G1 X-16.711 Y-51.703 Z-5.000 F360.000
G1 X-21.231 Y-51.871 Z-5.000 F360.000
G1 X-21.457 Y-51.859 Z-5.000 F360.000
G1 X-26.060 Y-51.189 Z-5.000 F360.000
G1 X-26.230 Y-51.152 Z-5.000 F360.000
G1 X-30.248 Y-49.980 Z-5.000 F360.000
G1 X-30.530 Y-49.859 Z-5.000 F360.000
G1 X-33.495 Y-48.121 Z-5.000 F360.000
G1 X-36.785 Y-45.868 Z-5.000 F360.000
G2 X-39.545 Y-43.746 Z-5.000 I41.852 J57.295 K0.000 F360.000
G2 X-45.839 Y-37.609 Z-5.000 I25.196 J32.132 K0.000 F360.000
G1 X-45.977 Y-37.414 Z-5.000 F360.000
G1 X-46.743 Y-36.072 Z-5.000 F360.000
G2 X-50.536 Y-35.702 Z-5.000 I10.655 J128.809 K0.000 F360.000
G1 X-52.606 Y-35.269 Z-5.000 F360.000
G2 X-55.076 Y-34.466 Z-5.000 I56.296 J177.315 K0.000 F360.000
G2 X-61.403 Y-32.028 Z-5.000 I14.911 J48.123 K0.000 F360.000
G1 X-61.636 Y-31.892 Z-5.000 F360.000
G1 X-63.216 Y-30.726 Z-5.000 F360.000
G1 X-63.367 Y-30.595 Z-5.000 F360.000
G1 X-64.625 Y-29.309 Z-5.000 F360.000
G1 X-64.810 Y-29.067 Z-5.000 F360.000
G2 X-66.389 Y-26.106 Z-5.000 I26.618 J16.101 K0.000 F360.000
G1 X-66.916 Y-24.451 Z-5.000 F360.000
G2 X-67.284 Y-22.105 Z-5.000 I24.905 J5.107 K0.000 F360.000
G2 X-70.382 Y-22.356 Z-5.000 I-6.802 J64.846 K0.000 F360.000
G1 X-74.638 Y-22.359 Z-5.000 F360.000
G2 X-80.021 Y-21.775 Z-5.000 I2.166 J45.049 K0.000 F360.000
G1 X-82.834 Y-20.914 Z-5.000 F360.000
G1 X-86.148 Y-19.708 Z-5.000 F360.000
G2 X-91.295 Y-16.745 Z-5.000 I48.455 J90.118 K0.000 F360.000
G2 X-93.936 Y-14.563 Z-5.000 I29.886 J38.868 K0.000 F360.000
G2 X-94.288 Y-14.060 Z-5.000 I0.817 J0.946 K0.000 F360.000
G2 X-94.430 Y-13.138 Z-5.000 I3.576 J1.022 K0.000 F360.000
G2 X-94.207 Y-12.277 Z-5.000 I1.242 J0.138 K0.000 F360.000
G2 X-90.613 Y-7.837 Z-5.000 I28.292 J-19.228 K0.000 F360.000
G2 X-89.003 Y-6.628 Z-5.000 I14.095 J-17.087 K0.000 F360.000
G2 X-91.492 Y-2.603 Z-5.000 I9.948 J8.933 K0.000 F360.000
G1 X-91.581 Y-2.307 Z-5.000 F360.000
G2 X-92.094 Y3.922 Z-5.000 I24.875 J5.184 K0.000 F360.000
G1 X-91.876 Y5.646 Z-5.000 F360.000
G1 X-91.776 Y5.999 Z-5.000 F360.000
G1 X-91.280 Y7.092 Z-5.000 F360.000
G1 X-91.051 Y7.434 Z-5.000 F360.000
G1 X-90.138 Y8.403 Z-5.000 F360.000
G2 X-89.229 Y8.795 Z-5.000 I0.910 J-0.857 K0.000 F360.000
G1 X-84.982 Y8.795 Z-5.000 F360.000
G2 X-83.800 Y7.961 Z-5.000 I-0.004 J-1.259 K0.000 F360.000
G1 X-83.182 Y6.254 Z-5.000 F360.000
G1 X-82.646 Y5.226 Z-5.000 F360.000
G1 X-81.715 Y4.671 Z-5.000 F360.000
G1 X-80.595 Y4.504 Z-5.000 F360.000
G3 X-77.964 Y4.542 Z-5.000 I0.812 J34.717 K0.000 F360.000
G2 X-78.245 Y4.949 Z-5.000 I2.629 J2.116 K0.000 F360.000
G2 X-78.541 Y6.012 Z-5.000 I4.059 J1.701 K0.000 F360.000
G2 X-78.474 Y6.796 Z-5.000 I1.215 J0.292 K0.000 F360.000
G2 X-78.025 Y7.813 Z-5.000 I7.523 J-2.714 K0.000 F360.000
G2 X-77.443 Y8.438 Z-5.000 I2.766 J-1.990 K0.000 F360.000
G2 X-76.568 Y8.795 Z-5.000 I0.875 J-0.893 K0.000 F360.000
G1 X-62.282 Y8.795 Z-5.000 F360.000
G2 X-61.475 Y8.500 Z-5.000 I-0.000 J-1.250 K0.000 F360.000
G1 X-60.622 Y7.780 Z-5.000 F360.000
G2 X-58.032 Y4.712 Z-5.000 I-31.553 J-29.266 K0.000 F360.000
G1 X-57.909 Y4.794 Z-5.000 F360.000
G1 X-56.006 Y5.830 Z-5.000 F360.000
G1 X-55.750 Y5.934 Z-5.000 F360.000
G1 X-54.020 Y6.423 Z-5.000 F360.000
G1 X-53.737 Y6.469 Z-5.000 F360.000
G2 X-47.753 Y6.583 Z-5.000 I4.621 J-85.174 K0.000 F360.000
G1 X-47.549 Y6.565 Z-5.000 F360.000
G2 X-41.981 Y5.421 Z-5.000 I-6.358 J-45.063 K0.000 F360.000
G1 X-39.865 Y4.774 Z-5.000 F360.000
G3 X-38.200 Y4.171 Z-5.000 I4.446 J9.671 K0.000 F360.000
G1 X-38.181 Y4.191 Z-5.000 F360.000
G1 X-37.216 Y4.926 Z-5.000 F360.000
G1 X-37.012 Y5.052 Z-5.000 F360.000
G1 X-34.880 Y6.105 Z-5.000 F360.000
G1 X-34.564 Y6.211 Z-5.000 F360.000
G1 X-30.316 Y7.034 Z-5.000 F360.000
G1 X-30.153 Y7.054 Z-5.000 F360.000
G1 X-25.562 Y7.328 Z-5.000 F360.000
G1 X-20.759 Y7.331 Z-5.000 F360.000
G1 X-15.434 Y7.124 Z-5.000 F360.000
G1 X-15.254 Y7.104 Z-5.000 F360.000
G1 X-10.377 Y6.198 Z-5.000 F360.000
G1 X-10.138 Y6.128 Z-5.000 F360.000
G1 X-6.628 Y4.712 Z-5.000 F360.000
G1 X-6.438 Y4.616 Z-5.000 F360.000
G1 X-3.051 Y2.522 Z-5.000 F360.000
G1 X-2.885 Y2.399 Z-5.000 F360.000
G1 X-0.637 Y0.428 Z-5.000 F360.000
G1 X1.681 Y-1.880 Z-5.000 F360.000
G1 X4.843 Y-5.446 Z-5.000 F360.000
G1 X6.830 Y-7.965 Z-5.000 F360.000
G1 X8.386 Y-10.448 Z-5.000 F360.000
G1 X8.866 Y-11.365 Z-5.000 F360.000
G2 X9.027 Y-12.531 Z-5.000 I-2.303 J-0.912 K0.000 F360.000
G2 X8.428 Y-13.891 Z-5.000 I-3.164 J0.583 K0.000 F360.000
G2 X7.393 Y-14.574 Z-5.000 I-3.222 J3.754 K0.000 F360.000
G2 X6.328 Y-14.690 Z-5.000 I-0.655 J1.064 K0.000 F360.000
G1 X5.316 Y-14.340 Z-5.000 F360.000
G1 X5.064 Y-14.219 Z-5.000 F360.000
G2 X0.239 Y-11.150 Z-5.000 I125.892 J203.240 K0.000 F360.000
G2 X0.683 Y-12.782 Z-5.000 I-3.488 J-1.824 K0.000 F360.000
G2 X0.107 Y-13.960 Z-5.000 I-2.282 J0.385 K0.000 F360.000
G2 X-1.128 Y-14.486 Z-5.000 I-1.471 J1.739 K0.000 F360.000
G2 X-2.533 Y-14.207 Z-5.000 I0.036 J3.860 K0.000 F360.000
G2 X-3.888 Y-13.437 Z-5.000 I4.508 J9.511 K0.000 F360.000
G1 X-5.107 Y-12.498 Z-5.000 F360.000
G3 X-9.284 Y-8.499 Z-5.000 I-55.767 J-54.066 K0.000 F360.000
G1 X-12.476 Y-6.653 Z-5.000 F360.000
G3 X-20.103 Y-4.738 Z-5.000 I-19.111 J-59.963 K0.000 F360.000
G1 X-21.036 Y-4.667 Z-5.000 F360.000
G3 X-26.167 Y-4.469 Z-5.000 I-4.557 J-51.556 K0.000 F360.000
G1 X-26.519 Y-4.618 Z-5.000 F360.000
G1 X-26.418 Y-5.566 Z-5.000 F360.000
G1 X-26.320 Y-7.899 Z-5.000 F360.000
G2 X-27.297 Y-15.626 Z-5.000 I-103.346 J9.154 K0.000 F360.000
G1 X-28.497 Y-21.514 Z-5.000 F360.000
G1 X-29.526 Y-25.296 Z-5.000 F360.000
G1 X-30.677 Y-28.530 Z-5.000 F360.000
G1 X-31.944 Y-31.237 Z-5.000 F360.000
G1 X-33.382 Y-33.725 Z-5.000 F360.000
G1 X-33.491 Y-34.031 Z-5.000 F360.000
G1 X-32.841 Y-34.906 Z-5.000 F360.000
G1 X-31.383 Y-36.564 Z-5.000 F360.000
G1 X-29.491 Y-38.032 Z-5.000 F360.000
G1 X-27.388 Y-39.195 Z-5.000 F360.000
G1 X-24.862 Y-39.783 Z-5.000 F360.000
G1 X-21.556 Y-40.079 Z-5.000 F360.000
G1 X-18.540 Y-40.079 Z-5.000 F360.000
G1 X-16.089 Y-39.656 Z-5.000 F360.000
G2 X-10.170 Y-37.417 Z-5.000 I118.252 J-303.631 K0.000 F360.000
G1 X-9.940 Y-37.356 Z-5.000 F360.000
G1 X-8.637 Y-37.141 Z-5.000 F360.000
G1 X-8.374 Y-37.125 Z-5.000 F360.000
G2 X-7.264 Y-37.425 Z-5.000 I-0.634 J-4.540 K0.000 F360.000
G2 X-6.718 Y-37.767 Z-5.000 I-0.368 J-1.195 K0.000 F360.000
G2 X-6.165 Y-38.699 Z-5.000 I-3.410 J-2.654 K0.000 F360.000
G2 X-6.167 Y-39.899 Z-5.000 I-1.097 J-0.599 K0.000 F360.000
G2 X-7.010 Y-40.855 Z-5.000 I-4.208 J2.858 K0.000 F360.000
G1 X-6.498 Y-40.734 Z-5.000 F360.000
G2 X-5.423 Y-40.212 Z-5.000 I7.519 J-14.117 K0.000 F360.000
G2 X-3.770 Y-39.620 Z-5.000 I4.113 J-8.888 K0.000 F360.000
G1 X-2.323 Y-39.528 Z-5.000 F360.000
G2 X-0.943 Y-39.655 Z-5.000 I-0.064 J-8.231 K0.000 F360.000
G2 X-0.291 Y-39.924 Z-5.000 I-0.131 J-1.243 K0.000 F360.000
G2 X0.480 Y-40.888 Z-5.000 I-3.431 J-3.535 K0.000 F360.000
G2 X0.730 Y-41.638 Z-5.000 I-1.000 J-0.749 K0.000 F360.000
G1 X0.730 Y-42.670 Z-5.000 F360.000
G2 X0.261 Y-43.646 Z-5.000 I-1.250 J0.000 K0.000 F360.000
G1 X-1.832 Y-45.320 Z-5.000 F360.000
G1 X-4.430 Y-47.058 Z-5.000 F360.000
G1 X-7.147 Y-48.482 Z-5.000 F360.000
G0 Z5.000
G0 X18.211 Y-16.360 Z5.000
G0 X18.211 Y-16.360 Z3.000
G1 X18.211 Y-16.360 Z-5.000 F360.000
G2 X16.064 Y-14.563 Z-5.000 I30.380 J38.483 K0.000 F360.000
G2 X15.712 Y-14.060 Z-5.000 I0.817 J0.946 K0.000 F360.000
G2 X15.570 Y-13.138 Z-5.000 I3.576 J1.022 K0.000 F360.000
G2 X15.793 Y-12.277 Z-5.000 I1.242 J0.138 K0.000 F360.000
G2 X19.387 Y-7.837 Z-5.000 I28.292 J-19.228 K0.000 F360.000
G2 X20.997 Y-6.628 Z-5.000 I14.095 J-17.087 K0.000 F360.000
G2 X18.508 Y-2.603 Z-5.000 I9.948 J8.933 K0.000 F360.000
G1 X18.419 Y-2.307 Z-5.000 F360.000
G2 X17.906 Y3.922 Z-5.000 I24.875 J5.184 K0.000 F360.000
G1 X18.124 Y5.646 Z-5.000 F360.000
G1 X18.224 Y5.999 Z-5.000 F360.000
G1 X18.720 Y7.092 Z-5.000 F360.000
G1 X18.949 Y7.434 Z-5.000 F360.000
G1 X19.862 Y8.403 Z-5.000 F360.000
G2 X20.771 Y8.795 Z-5.000 I0.910 J-0.857 K0.000 F360.000
G1 X25.018 Y8.795 Z-5.000 F360.000
G2 X26.200 Y7.961 Z-5.000 I-0.004 J-1.259 K0.000 F360.000
G1 X26.818 Y6.254 Z-5.000 F360.000
G1 X27.354 Y5.226 Z-5.000 F360.000
G1 X28.285 Y4.671 Z-5.000 F360.000
G1 X29.405 Y4.504 Z-5.000 F360.000
G3 X32.036 Y4.542 Z-5.000 I0.812 J34.717 K0.000 F360.000
G2 X31.755 Y4.949 Z-5.000 I2.629 J2.116 K0.000 F360.000
G2 X31.459 Y6.012 Z-5.000 I4.059 J1.701 K0.000 F360.000
G2 X31.526 Y6.796 Z-5.000 I1.215 J0.292 K0.000 F360.000
G2 X31.975 Y7.813 Z-5.000 I7.523 J-2.714 K0.000 F360.000
G2 X32.557 Y8.438 Z-5.000 I2.766 J-1.990 K0.000 F360.000
G2 X33.432 Y8.795 Z-5.000 I0.875 J-0.893 K0.000 F360.000
G1 X47.718 Y8.795 Z-5.000 F360.000
G2 X48.525 Y8.500 Z-5.000 I-0.000 J-1.250 K0.000 F360.000
G1 X49.378 Y7.780 Z-5.000 F360.000
G2 X51.968 Y4.712 Z-5.000 I-31.553 J-29.266 K0.000 F360.000
G1 X52.091 Y4.794 Z-5.000 F360.000
G1 X53.994 Y5.830 Z-5.000 F360.000
G1 X54.250 Y5.934 Z-5.000 F360.000
G1 X55.980 Y6.423 Z-5.000 F360.000
G1 X56.263 Y6.469 Z-5.000 F360.000
G2 X62.247 Y6.583 Z-5.000 I4.621 J-85.175 K0.000 F360.000
G1 X62.451 Y6.565 Z-5.000 F360.000
G2 X68.019 Y5.421 Z-5.000 I-6.358 J-45.063 K0.000 F360.000
G1 X70.135 Y4.774 Z-5.000 F360.000
G3 X71.800 Y4.171 Z-5.000 I4.446 J9.671 K0.000 F360.000
G1 X71.819 Y4.191 Z-5.000 F360.000
G1 X72.784 Y4.926 Z-5.000 F360.000
G1 X72.988 Y5.052 Z-5.000 F360.000
G1 X75.120 Y6.105 Z-5.000 F360.000
G1 X75.436 Y6.211 Z-5.000 F360.000
G1 X79.684 Y7.034 Z-5.000 F360.000
G1 X79.847 Y7.054 Z-5.000 F360.000
G1 X84.438 Y7.328 Z-5.000 F360.000
G1 X89.241 Y7.331 Z-5.000 F360.000
G1 X94.566 Y7.124 Z-5.000 F360.000
G1 X94.746 Y7.104 Z-5.000 F360.000
G1 X99.623 Y6.198 Z-5.000 F360.000
G1 X99.862 Y6.128 Z-5.000 F360.000
G1 X103.372 Y4.712 Z-5.000 F360.000
G1 X103.562 Y4.616 Z-5.000 F360.000
G1 X106.949 Y2.522 Z-5.000 F360.000
G1 X107.115 Y2.399 Z-5.000 F360.000
G1 X109.363 Y0.428 Z-5.000 F360.000
G1 X111.681 Y-1.880 Z-5.000 F360.000
G1 X114.843 Y-5.446 Z-5.000 F360.000
G1 X116.830 Y-7.965 Z-5.000 F360.000
G1 X118.386 Y-10.448 Z-5.000 F360.000
G1 X118.866 Y-11.365 Z-5.000 F360.000
G2 X119.027 Y-12.531 Z-5.000 I-2.303 J-0.912 K0.000 F360.000
G2 X118.428 Y-13.891 Z-5.000 I-3.164 J0.583 K0.000 F360.000
G2 X117.393 Y-14.574 Z-5.000 I-3.222 J3.754 K0.000 F360.000
G2 X116.328 Y-14.690 Z-5.000 I-0.655 J1.064 K0.000 F360.000
G1 X115.316 Y-14.340 Z-5.000 F360.000
G1 X115.064 Y-14.219 Z-5.000 F360.000
G2 X110.239 Y-11.150 Z-5.000 I125.891 J203.240 K0.000 F360.000
G2 X110.683 Y-12.782 Z-5.000 I-3.488 J-1.824 K0.000 F360.000
G2 X110.107 Y-13.960 Z-5.000 I-2.282 J0.385 K0.000 F360.000
G2 X108.872 Y-14.486 Z-5.000 I-1.471 J1.739 K0.000 F360.000
G2 X107.467 Y-14.207 Z-5.000 I0.036 J3.860 K0.000 F360.000
G2 X106.112 Y-13.437 Z-5.000 I4.508 J9.511 K0.000 F360.000
G1 X104.893 Y-12.498 Z-5.000 F360.000
G3 X100.716 Y-8.499 Z-5.000 I-55.767 J-54.066 K0.000 F360.000
G1 X97.524 Y-6.653 Z-5.000 F360.000
G3 X89.897 Y-4.738 Z-5.000 I-19.111 J-59.963 K0.000 F360.000
G1 X88.964 Y-4.667 Z-5.000 F360.000
G3 X83.833 Y-4.469 Z-5.000 I-4.557 J-51.556 K0.000 F360.000
G1 X83.481 Y-4.618 Z-5.000 F360.000
G1 X83.582 Y-5.566 Z-5.000 F360.000
G1 X83.680 Y-7.899 Z-5.000 F360.000
G2 X82.703 Y-15.626 Z-5.000 I-103.346 J9.154 K0.000 F360.000
G1 X81.503 Y-21.514 Z-5.000 F360.000
G1 X80.474 Y-25.296 Z-5.000 F360.000
G1 X79.323 Y-28.530 Z-5.000 F360.000
G1 X78.056 Y-31.237 Z-5.000 F360.000
G1 X76.618 Y-33.725 Z-5.000 F360.000
G1 X76.509 Y-34.031 Z-5.000 F360.000
G1 X77.159 Y-34.906 Z-5.000 F360.000
G1 X78.617 Y-36.564 Z-5.000 F360.000
G1 X80.509 Y-38.032 Z-5.000 F360.000
G1 X82.612 Y-39.195 Z-5.000 F360.000
G1 X85.138 Y-39.783 Z-5.000 F360.000
G1 X88.444 Y-40.079 Z-5.000 F360.000
G1 X91.460 Y-40.079 Z-5.000 F360.000
G1 X93.911 Y-39.656 Z-5.000 F360.000
G2 X99.830 Y-37.417 Z-5.000 I118.252 J-303.632 K0.000 F360.000
G1 X100.060 Y-37.356 Z-5.000 F360.000
G1 X101.363 Y-37.141 Z-5.000 F360.000
G1 X101.626 Y-37.125 Z-5.000 F360.000
G2 X102.736 Y-37.425 Z-5.000 I-0.634 J-4.540 K0.000 F360.000
G2 X103.282 Y-37.767 Z-5.000 I-0.368 J-1.195 K0.000 F360.000
G2 X103.835 Y-38.699 Z-5.000 I-3.410 J-2.654 K0.000 F360.000
G2 X103.833 Y-39.899 Z-5.000 I-1.097 J-0.599 K0.000 F360.000
G2 X102.990 Y-40.855 Z-5.000 I-4.208 J2.858 K0.000 F360.000
G1 X103.502 Y-40.734 Z-5.000 F360.000
G2 X104.577 Y-40.212 Z-5.000 I7.519 J-14.117 K0.000 F360.000
G2 X106.230 Y-39.620 Z-5.000 I4.113 J-8.888 K0.000 F360.000
G1 X107.677 Y-39.528 Z-5.000 F360.000
G2 X109.057 Y-39.655 Z-5.000 I-0.064 J-8.231 K0.000 F360.000
G2 X109.709 Y-39.924 Z-5.000 I-0.131 J-1.243 K0.000 F360.000
G2 X110.480 Y-40.888 Z-5.000 I-3.431 J-3.535 K0.000 F360.000
G2 X110.730 Y-41.638 Z-5.000 I-1.000 J-0.749 K0.000 F360.000
G1 X110.730 Y-42.670 Z-5.000 F360.000
G2 X110.261 Y-43.646 Z-5.000 I-1.250 J-0.000 K0.000 F360.000
G1 X108.168 Y-45.320 Z-5.000 F360.000
G1 X105.570 Y-47.058 Z-5.000 F360.000
G1 X101.605 Y-49.135 Z-5.000 F360.000
G1 X97.561 Y-50.776 Z-5.000 F360.000
G1 X97.358 Y-50.839 Z-5.000 F360.000
G1 X93.508 Y-51.676 Z-5.000 F360.000
G1 X93.289 Y-51.703 Z-5.000 F360.000
G1 X88.769 Y-51.871 Z-5.000 F360.000
G1 X88.543 Y-51.859 Z-5.000 F360.000
G1 X83.940 Y-51.189 Z-5.000 F360.000
G1 X83.770 Y-51.152 Z-5.000 F360.000
G1 X79.752 Y-49.980 Z-5.000 F360.000
G1 X79.470 Y-49.859 Z-5.000 F360.000
G1 X76.505 Y-48.121 Z-5.000 F360.000
G1 X73.215 Y-45.868 Z-5.000 F360.000
G2 X70.455 Y-43.746 Z-5.000 I41.851 J57.294 K0.000 F360.000
G2 X64.161 Y-37.609 Z-5.000 I25.196 J32.132 K0.000 F360.000
G1 X64.023 Y-37.414 Z-5.000 F360.000
G1 X63.257 Y-36.072 Z-5.000 F360.000
G2 X59.464 Y-35.702 Z-5.000 I10.655 J128.810 K0.000 F360.000
G1 X57.394 Y-35.269 Z-5.000 F360.000
G2 X54.924 Y-34.466 Z-5.000 I56.296 J177.315 K0.000 F360.000
G2 X48.597 Y-32.028 Z-5.000 I14.911 J48.123 K0.000 F360.000
G1 X48.364 Y-31.892 Z-5.000 F360.000
G1 X46.784 Y-30.726 Z-5.000 F360.000
G1 X46.633 Y-30.595 Z-5.000 F360.000
G1 X45.375 Y-29.309 Z-5.000 F360.000
G1 X45.190 Y-29.067 Z-5.000 F360.000
G2 X43.611 Y-26.106 Z-5.000 I26.618 J16.101 K0.000 F360.000
G1 X43.084 Y-24.451 Z-5.000 F360.000
G2 X42.716 Y-22.105 Z-5.000 I24.905 J5.107 K0.000 F360.000
G2 X39.618 Y-22.356 Z-5.000 I-6.802 J64.846 K0.000 F360.000
G1 X35.362 Y-22.359 Z-5.000 F360.000
G2 X29.979 Y-21.775 Z-5.000 I2.166 J45.049 K0.000 F360.000
G1 X27.166 Y-20.914 Z-5.000 F360.000
G1 X23.852 Y-19.708 Z-5.000 F360.000
G2 X18.705 Y-16.745 Z-5.000 I48.455 J90.118 K0.000 F360.000
G2 X18.211 Y-16.360 Z-5.000 I29.886 J38.868 K0.000 F360.000
G0 Z5.000
G0 Z5.000
(Finish operation: Profile002)
(Begin postamble)
M5
G17 G90
M2
