(Exported by FreeCAD)
(Post Processor: script_module)
(Output Time:2025-09-24 14:44:07.638022)
(Begin preamble)
G17 G90
G21
(Begin operation: Fixture)
(Path: Fixture)
G54
(Finish operation: Fixture)
(Begin operation: 1.5mm_Endmill003)
(Path: 1.5mm_Endmill003)
(1.5mm_Endmill003)
(Begin toolchange)
( M6 T2 )
M3 S10000
(Finish operation: 1.5mm_Endmill003)
(Begin operation: Profile002)
(Path: Profile002)
(Profile002)
(Compensated Tool Path. Diameter: 1.5)
G0 Z5.000
G0 X0.000 Y0.000
G0 X1.463 Y-7.355
G0 X1.463 Y-7.355 Z3.000
G1 X1.463 Y-7.355 Z-1.500 F300.000
G2 X-1.463 Y7.355 Z-1.500 I-1.463 J7.355 K0.000 F300.000
G2 X7.355 Y1.463 Z-1.500 I1.463 J-7.355 K0.000 F300.000
G2 X1.463 Y-7.355 Z-1.500 I-7.355 J-1.463 K0.000 F300.000
G1 X1.463 Y-7.355 Z-3.000 F300.000
G2 X-1.463 Y7.355 Z-3.000 I-1.463 J7.355 K0.000 F300.000
G2 X7.355 Y1.463 Z-3.000 I1.463 J-7.355 K0.000 F300.000
G2 X1.463 Y-7.355 Z-3.000 I-7.355 J-1.463 K0.000 F300.000
G1 X1.463 Y-7.355 Z-4.500 F300.000
G2 X-1.463 Y7.355 Z-4.500 I-1.463 J7.355 K0.000 F300.000
G2 X7.355 Y1.463 Z-4.500 I1.463 J-7.355 K0.000 F300.000
G2 X1.463 Y-7.355 Z-4.500 I-7.355 J-1.463 K0.000 F300.000
G1 X1.463 Y-7.355 Z-5.000 F300.000
G2 X-1.463 Y7.355 Z-5.000 I-1.463 J7.355 K0.000 F300.000
G2 X7.355 Y1.463 Z-5.000 I1.463 J-7.355 K0.000 F300.000
G2 X1.463 Y-7.355 Z-5.000 I-7.355 J-1.463 K0.000 F300.000
G0 Z5.000
G0 Z5.000
(Finish operation: Profile002)
(Begin operation: Profile003)
(Path: Profile003)
(Profile003)
(Compensated Tool Path. Diameter: 1.5)
G0 Z5.000
G0 X0.000 Y0.000
G0 X2.006 Y-11.831
G0 X2.006 Y-11.831 Z3.000
G1 X2.006 Y-11.831 Z-1.500 F300.000
G2 X-11.831 Y-2.006 Z-1.500 I-2.006 J11.831 K0.000 F300.000
G2 X-2.006 Y11.831 Z-1.500 I11.831 J2.006 K0.000 F300.000
G2 X2.006 Y-11.831 Z-1.500 I2.006 J-11.831 K0.000 F300.000
G1 X2.006 Y-11.831 Z-3.000 F300.000
G2 X-11.831 Y-2.006 Z-3.000 I-2.006 J11.831 K0.000 F300.000
G2 X-2.006 Y11.831 Z-3.000 I11.831 J2.006 K0.000 F300.000
G2 X2.006 Y-11.831 Z-3.000 I2.006 J-11.831 K0.000 F300.000
G1 X2.006 Y-11.831 Z-4.500 F300.000
G2 X-11.831 Y-2.006 Z-4.500 I-2.006 J11.831 K0.000 F300.000
G2 X-2.006 Y11.831 Z-4.500 I11.831 J2.006 K0.000 F300.000
G2 X2.006 Y-11.831 Z-4.500 I2.006 J-11.831 K0.000 F300.000
G1 X2.006 Y-11.831 Z-5.000 F300.000
G2 X-11.831 Y-2.006 Z-5.000 I-2.006 J11.831 K0.000 F300.000
G2 X-2.006 Y11.831 Z-5.000 I11.831 J2.006 K0.000 F300.000
G2 X2.006 Y-11.831 Z-5.000 I2.006 J-11.831 K0.000 F300.000
G0 Z5.000
G0 Z5.000
(Finish operation: Profile003)
(Begin postamble)
M5
G17 G90
M2
