(Exported by FreeCAD)
(Post Processor: script_module)
(Output Time:2026-03-26 13:00:51.070022)
(Begin preamble)
G17 G90
G21
(Begin operation: Fixture)
(Path: Fixture)
G54
(Finish operation: Fixture)
(Begin operation: 3mm001)
(Path: 3mm001)
(3mm001)
(Begin toolchange)
( M6 T2 )
M3 S10000
(Finish operation: 3mm001)
(Begin operation: Profile)
(Path: Profile)
(Profile)
(Compensated Tool Path. Diameter: 3.0)
G0 Z5.000
G0 X0.000 Y0.000
G0 X1.041 Y-7.830
G0 X1.041 Y-7.830 Z3.000
G1 X1.041 Y-7.830 Z-3.000 F360.000
G2 X-1.041 Y7.830 Z-3.000 I-1.041 J7.830 K0.000 F360.000
G2 X7.830 Y1.041 Z-3.000 I1.041 J-7.830 K0.000 F360.000
G2 X1.041 Y-7.830 Z-3.000 I-7.830 J-1.041 K0.000 F360.000
G1 X1.041 Y-7.830 Z-6.000 F360.000
G2 X-1.041 Y7.830 Z-6.000 I-1.041 J7.830 K0.000 F360.000
G2 X7.830 Y1.041 Z-6.000 I1.041 J-7.830 K0.000 F360.000
G2 X1.041 Y-7.830 Z-6.000 I-7.830 J-1.041 K0.000 F360.000
G1 X1.041 Y-7.830 Z-7.000 F360.000
G2 X-1.041 Y7.830 Z-7.000 I-1.041 J7.830 K0.000 F360.000
G2 X7.830 Y1.041 Z-7.000 I1.041 J-7.830 K0.000 F360.000
G2 X1.041 Y-7.830 Z-7.000 I-7.830 J-1.041 K0.000 F360.000
G0 Z5.000
G0 Z5.000
(Finish operation: Profile)
(Begin operation: Profile001)
(Path: Profile001)
(Profile001)
(Compensated Tool Path. Diameter: 3.0)
G0 Z5.000
G0 X0.000 Y0.000
G0 X1.692 Y-14.400
G0 X1.692 Y-14.400 Z3.000
G1 X1.692 Y-14.400 Z-3.000 F360.000
G2 X-14.400 Y-1.692 Z-3.000 I-1.692 J14.400 K0.000 F360.000
G2 X-1.692 Y14.400 Z-3.000 I14.400 J1.692 K0.000 F360.000
G2 X14.400 Y1.692 Z-3.000 I1.692 J-14.400 K0.000 F360.000
G2 X1.692 Y-14.400 Z-3.000 I-14.400 J-1.692 K0.000 F360.000
G1 X1.692 Y-14.400 Z-6.000 F360.000
G2 X-14.400 Y-1.692 Z-6.000 I-1.692 J14.400 K0.000 F360.000
G2 X-1.692 Y14.400 Z-6.000 I14.400 J1.692 K0.000 F360.000
G2 X14.400 Y1.692 Z-6.000 I1.692 J-14.400 K0.000 F360.000
G2 X1.692 Y-14.400 Z-6.000 I-14.400 J-1.692 K0.000 F360.000
G1 X1.692 Y-14.400 Z-7.000 F360.000
G2 X-14.400 Y-1.692 Z-7.000 I-1.692 J14.400 K0.000 F360.000
G2 X-1.692 Y14.400 Z-7.000 I14.400 J1.692 K0.000 F360.000
G2 X14.400 Y1.692 Z-7.000 I1.692 J-14.400 K0.000 F360.000
G2 X1.692 Y-14.400 Z-7.000 I-14.400 J-1.692 K0.000 F360.000
G0 Z5.000
G0 Z5.000
(Finish operation: Profile001)
(Begin postamble)
M5
G17 G90
M2
