(Exported by FreeCAD)
(Post Processor: script_module)
(Output Time:2025-09-24 15:10:07.148375)
(Begin preamble)
G17 G90
G21
(Begin operation: Fixture)
(Path: Fixture)
G54
(Finish operation: Fixture)
(Begin operation: 3mm_Endmill001)
(Path: 3mm_Endmill001)
(3mm_Endmill001)
(Begin toolchange)
( M6 T3 )
M3 S10000
(Finish operation: 3mm_Endmill001)
(Begin operation: Pocket_Shape)
(Path: Pocket_Shape)
(Pocket_Shape)
G0 Z13.000
G0 X0.000 Y0.000
G0 X9.001 Y-3.026
G0 X9.001 Y-3.026 Z11.000
G1 X9.001 Y-3.026 Z5.000 F600.000
G2 X2.932 Y-9.033 Z5.000 I-8.997 J3.019 K0.000 F600.000
G2 X-2.932 Y9.033 Z5.000 I-2.932 J9.033 K0.000 F600.000
G2 X3.025 Y-9.001 Z5.000 I2.932 J-9.032 K0.000 F600.000
G1 X9.001 Y-3.026 Z5.000 F600.000
G3 X9.363 Y1.580 Z5.000 I-8.954 J3.022 K0.000 F600.000
G1 X-1.580 Y-9.363 Z5.000 F600.000
G2 X-4.706 Y-8.247 Z5.000 I1.549 J9.277 K0.000 F600.000
G1 X8.247 Y4.706 Z5.000 F600.000
G3 X6.354 Y7.056 Z5.000 I-8.169 J-4.644 K0.000 F600.000
G1 X-7.056 Y-6.354 Z5.000 F600.000
G2 X-8.715 Y-3.771 Z5.000 I6.983 J6.309 K0.000 F600.000
G1 X3.770 Y8.715 Z5.000 F600.000
G3 X0.304 Y9.491 Z5.000 I-3.757 J-8.648 K0.000 F600.000
G1 X-9.491 Y-0.304 Z5.000 F600.000
G2 X-6.630 Y6.800 Z5.000 I9.483 J0.309 K0.000 F600.000
G0 Z13.000
G0 Z13.000
(Finish operation: Pocket_Shape)
(Begin operation: Profile006)
(Path: Profile006)
(Profile006)
(Compensated Tool Path. Diameter: 3.0)
G0 Z13.000
G0 X0.000 Y0.000
G0 X-1.268 Y6.373
G0 X-1.268 Y6.373 Z11.000
G1 X-1.268 Y6.373 Z5.000 F600.000
G2 X6.373 Y1.268 Z5.000 I1.268 J-6.373 K0.000 F600.000
G2 X1.268 Y-6.373 Z5.000 I-6.373 J-1.268 K0.000 F600.000
G2 X-1.268 Y6.373 Z5.000 I-1.268 J6.373 K0.000 F600.000
G1 X-1.268 Y6.373 Z2.000 F600.000
G2 X6.373 Y1.268 Z2.000 I1.268 J-6.373 K0.000 F600.000
G2 X1.268 Y-6.373 Z2.000 I-6.373 J-1.268 K0.000 F600.000
G2 X-1.268 Y6.373 Z2.000 I-1.268 J6.373 K0.000 F600.000
G1 X-1.268 Y6.373 Z0.000 F600.000
G2 X6.373 Y1.268 Z0.000 I1.268 J-6.373 K0.000 F600.000
G2 X1.268 Y-6.373 Z0.000 I-6.373 J-1.268 K0.000 F600.000
G2 X-1.268 Y6.373 Z0.000 I-1.268 J6.373 K0.000 F600.000
G0 Z13.000
G0 Z13.000
(Finish operation: Profile006)
(Begin operation: Profile007)
(Path: Profile007)
(Profile007)
(Compensated Tool Path. Diameter: 3.0)
G0 Z13.000
G0 X0.000 Y0.000
G0 X12.274 Y2.359
G0 X12.274 Y2.359 Z11.000
G1 X12.274 Y2.359 Z5.000 F600.000
G2 X1.651 Y-12.389 Z5.000 I-12.274 J-2.359 K0.000 F600.000
G2 X-12.389 Y-1.651 Z5.000 I-1.651 J12.389 K0.000 F600.000
G2 X-1.651 Y12.389 Z5.000 I12.389 J1.651 K0.000 F600.000
G2 X12.274 Y2.359 Z5.000 I1.651 J-12.389 K0.000 F600.000
G1 X12.274 Y2.359 Z2.000 F600.000
G2 X1.651 Y-12.389 Z2.000 I-12.274 J-2.359 K0.000 F600.000
G2 X-12.389 Y-1.651 Z2.000 I-1.651 J12.389 K0.000 F600.000
G2 X-1.651 Y12.389 Z2.000 I12.389 J1.651 K0.000 F600.000
G2 X12.274 Y2.359 Z2.000 I1.651 J-12.389 K0.000 F600.000
G1 X12.274 Y2.359 Z0.000 F600.000
G2 X1.651 Y-12.389 Z0.000 I-12.274 J-2.359 K0.000 F600.000
G2 X-12.389 Y-1.651 Z0.000 I-1.651 J12.389 K0.000 F600.000
G2 X-1.651 Y12.389 Z0.000 I12.389 J1.651 K0.000 F600.000
G2 X12.274 Y2.359 Z0.000 I1.651 J-12.389 K0.000 F600.000
G0 Z13.000
G0 Z13.000
(Finish operation: Profile007)
(Begin postamble)
M5
G17 G90
M2
