(Exported by FreeCAD)
(Post Processor: script_module)
(Output Time:2026-01-02 15:32:44.927490)
(Begin preamble)
G17 G90
G21
(Begin operation: Fixture)
(Path: Fixture)
G54
(Finish operation: Fixture)
(Begin operation: 3mm_Endmill001)
(Path: 3mm_Endmill001)
(3mm_Endmill001)
(Begin toolchange)
( M6 T2 )
M3 S15000
(Finish operation: 3mm_Endmill001)
(Begin operation: Profile)
(Path: Profile)
(Profile)
(Compensated Tool Path. Diameter: 3.0)
G0 Z5.000
G0 X4.666 Y4.666
G0 Z3.000
G1 X4.666 Y4.666 Z-2.000 F480.000
G2 X1.287 Y-6.471 Z-2.000 I-4.666 J-4.666 K0.000 F480.000
G2 X-1.287 Y6.471 Z-2.000 I-1.287 J6.471 K0.000 F480.000
G2 X4.666 Y4.666 Z-2.000 I1.287 J-6.471 K0.000 F480.000
G1 X4.666 Y4.666 Z-4.000 F480.000
G2 X1.287 Y-6.471 Z-4.000 I-4.666 J-4.666 K0.000 F480.000
G2 X-1.287 Y6.471 Z-4.000 I-1.287 J6.471 K0.000 F480.000
G2 X4.666 Y4.666 Z-4.000 I1.287 J-6.471 K0.000 F480.000
G1 X4.666 Y4.666 Z-5.000 F480.000
G2 X1.287 Y-6.471 Z-5.000 I-4.666 J-4.666 K0.000 F480.000
G2 X-1.287 Y6.471 Z-5.000 I-1.287 J6.471 K0.000 F480.000
G2 X4.666 Y4.666 Z-5.000 I1.287 J-6.471 K0.000 F480.000
G0 Z5.000
G0 Z5.000
(Finish operation: Profile)
(Begin operation: Profile001)
(Path: Profile001)
(Profile001)
(Compensated Tool Path. Diameter: 3.0)
G0 Z5.000
G0 X0.000 Y0.000
G0 X1.621 Y-12.393
G0 X1.621 Y-12.393 Z3.000
G1 X1.621 Y-12.393 Z-2.000 F480.000
G2 X-1.621 Y12.393 Z-2.000 I-1.621 J12.393 K0.000 F480.000
G2 X12.393 Y1.621 Z-2.000 I1.621 J-12.393 K0.000 F480.000
G2 X1.621 Y-12.393 Z-2.000 I-12.393 J-1.621 K0.000 F480.000
G1 X1.621 Y-12.393 Z-4.000 F480.000
G2 X-1.621 Y12.393 Z-4.000 I-1.621 J12.393 K0.000 F480.000
G2 X12.393 Y1.621 Z-4.000 I1.621 J-12.393 K0.000 F480.000
G2 X1.621 Y-12.393 Z-4.000 I-12.393 J-1.621 K0.000 F480.000
G1 X1.621 Y-12.393 Z-5.000 F480.000
G2 X-1.621 Y12.393 Z-5.000 I-1.621 J12.393 K0.000 F480.000
G2 X12.393 Y1.621 Z-5.000 I1.621 J-12.393 K0.000 F480.000
G2 X1.621 Y-12.393 Z-5.000 I-12.393 J-1.621 K0.000 F480.000
G0 Z5.000
G0 Z5.000
(Finish operation: Profile001)
(Begin postamble)
M5
G17 G90
M2
