(Exported by FreeCAD)
(Post Processor: script_module)
(Output Time:2025-12-19 15:36:12.405011)
(Begin preamble)
G17 G90
G21
(Begin operation: Fixture)
(Path: Fixture)
G54
(Finish operation: Fixture)
(Begin operation: 3mm_Endmill001)
(Path: 3mm_Endmill001)
(3mm_Endmill001)
(Begin toolchange)
( M6 T2 )
M3 S10000
(Finish operation: 3mm_Endmill001)
(Begin operation: Profile)
(Path: Profile)
(Profile)
(Compensated Tool Path. Diameter: 3.0)
G0 Z5.000
G0 X0.000 Y0.000
G0 X1.060 Y-7.978
G0 X1.060 Y-7.978 Z3.000
G1 X1.060 Y-7.978 Z-2.000 F480.000
G2 X-7.978 Y-1.060 Z-2.000 I-1.060 J7.978 K0.000 F480.000
G2 X-1.060 Y7.978 Z-2.000 I7.978 J1.060 K0.000 F480.000
G2 X7.978 Y1.060 Z-2.000 I1.060 J-7.978 K0.000 F480.000
G2 X1.060 Y-7.978 Z-2.000 I-7.978 J-1.060 K0.000 F480.000
G1 X1.060 Y-7.978 Z-4.000 F480.000
G2 X-7.978 Y-1.060 Z-4.000 I-1.060 J7.978 K0.000 F480.000
G2 X-1.060 Y7.978 Z-4.000 I7.978 J1.060 K0.000 F480.000
G2 X7.978 Y1.060 Z-4.000 I1.060 J-7.978 K0.000 F480.000
G2 X1.060 Y-7.978 Z-4.000 I-7.978 J-1.060 K0.000 F480.000
G1 X1.060 Y-7.978 Z-6.000 F480.000
G2 X-7.978 Y-1.060 Z-6.000 I-1.060 J7.978 K0.000 F480.000
G2 X-1.060 Y7.978 Z-6.000 I7.978 J1.060 K0.000 F480.000
G2 X7.978 Y1.060 Z-6.000 I1.060 J-7.978 K0.000 F480.000
G2 X1.060 Y-7.978 Z-6.000 I-7.978 J-1.060 K0.000 F480.000
G1 X1.060 Y-7.978 Z-8.000 F480.000
G2 X-7.978 Y-1.060 Z-8.000 I-1.060 J7.978 K0.000 F480.000
G2 X-1.060 Y7.978 Z-8.000 I7.978 J1.060 K0.000 F480.000
G2 X7.978 Y1.060 Z-8.000 I1.060 J-7.978 K0.000 F480.000
G2 X1.060 Y-7.978 Z-8.000 I-7.978 J-1.060 K0.000 F480.000
G0 Z5.000
G0 Z5.000
(Finish operation: Profile)
(Begin operation: Profile001)
(Path: Profile001)
(Profile001)
(Compensated Tool Path. Diameter: 3.0)
G0 Z5.000
G0 X0.000 Y0.000
G0 X2.248 Y-13.817
G0 X2.248 Y-13.817 Z3.000
G1 X2.248 Y-13.817 Z-2.000 F480.000
G2 X-13.817 Y-2.248 Z-2.000 I-2.248 J13.817 K0.000 F480.000
G2 X-2.248 Y13.817 Z-2.000 I13.817 J2.248 K0.000 F480.000
G2 X2.248 Y-13.817 Z-2.000 I2.248 J-13.817 K0.000 F480.000
G1 X2.248 Y-13.817 Z-4.000 F480.000
G2 X-13.817 Y-2.248 Z-4.000 I-2.248 J13.817 K0.000 F480.000
G2 X-2.248 Y13.817 Z-4.000 I13.817 J2.248 K0.000 F480.000
G2 X2.248 Y-13.817 Z-4.000 I2.248 J-13.817 K0.000 F480.000
G1 X2.248 Y-13.817 Z-6.000 F480.000
G2 X-13.817 Y-2.248 Z-6.000 I-2.248 J13.817 K0.000 F480.000
G2 X-2.248 Y13.817 Z-6.000 I13.817 J2.248 K0.000 F480.000
G2 X2.248 Y-13.817 Z-6.000 I2.248 J-13.817 K0.000 F480.000
G1 X2.248 Y-13.817 Z-8.000 F480.000
G2 X-13.817 Y-2.248 Z-8.000 I-2.248 J13.817 K0.000 F480.000
G2 X-2.248 Y13.817 Z-8.000 I13.817 J2.248 K0.000 F480.000
G2 X2.248 Y-13.817 Z-8.000 I2.248 J-13.817 K0.000 F480.000
G0 Z5.000
G0 Z5.000
(Finish operation: Profile001)
(Begin postamble)
M5
G17 G90
M2
