(Exported by FreeCAD)
(Post Processor: script_module)
(Output Time:2026-04-10 14:41:50.558340)
(Begin preamble)
G17 G90
G21
(Begin operation: Fixture)
(Path: Fixture)
G54
(Finish operation: Fixture)
(Begin operation: 3mm001)
(Path: 3mm001)
(3mm001)
(Begin toolchange)
( M6 T2 )
M3 S10000
(Finish operation: 3mm001)
(Begin operation: Profile)
(Path: Profile)
(Profile)
(Compensated Tool Path. Diameter: 3.0)
G0 Z5.000
G0 X6.045 Y6.045
G0 Z3.000
G1 X6.045 Y6.045 Z-3.000 F240.000
G2 X1.484 Y-8.419 Z-3.000 I-6.045 J-6.045 K0.000 F240.000
G2 X-1.484 Y8.419 Z-3.000 I-1.484 J8.419 K0.000 F240.000
G2 X6.045 Y6.045 Z-3.000 I1.484 J-8.419 K0.000 F240.000
G1 X6.045 Y6.045 Z-6.000 F240.000
G2 X1.484 Y-8.419 Z-6.000 I-6.045 J-6.045 K0.000 F240.000
G2 X-1.484 Y8.419 Z-6.000 I-1.484 J8.419 K0.000 F240.000
G2 X6.045 Y6.045 Z-6.000 I1.484 J-8.419 K0.000 F240.000
G1 X6.045 Y6.045 Z-9.000 F240.000
G2 X1.484 Y-8.419 Z-9.000 I-6.045 J-6.045 K0.000 F240.000
G2 X-1.484 Y8.419 Z-9.000 I-1.484 J8.419 K0.000 F240.000
G2 X6.045 Y6.045 Z-9.000 I1.484 J-8.419 K0.000 F240.000
G1 X6.045 Y6.045 Z-12.000 F240.000
G2 X1.484 Y-8.419 Z-12.000 I-6.045 J-6.045 K0.000 F240.000
G2 X-1.484 Y8.419 Z-12.000 I-1.484 J8.419 K0.000 F240.000
G2 X6.045 Y6.045 Z-12.000 I1.484 J-8.419 K0.000 F240.000
G1 X6.045 Y6.045 Z-15.000 F240.000
G2 X1.484 Y-8.419 Z-15.000 I-6.045 J-6.045 K0.000 F240.000
G2 X-1.484 Y8.419 Z-15.000 I-1.484 J8.419 K0.000 F240.000
G2 X6.045 Y6.045 Z-15.000 I1.484 J-8.419 K0.000 F240.000
G1 X6.045 Y6.045 Z-18.000 F240.000
G2 X1.484 Y-8.419 Z-18.000 I-6.045 J-6.045 K0.000 F240.000
G2 X-1.484 Y8.419 Z-18.000 I-1.484 J8.419 K0.000 F240.000
G2 X6.045 Y6.045 Z-18.000 I1.484 J-8.419 K0.000 F240.000
G1 X6.045 Y6.045 Z-21.000 F240.000
G2 X1.484 Y-8.419 Z-21.000 I-6.045 J-6.045 K0.000 F240.000
G2 X-1.484 Y8.419 Z-21.000 I-1.484 J8.419 K0.000 F240.000
G2 X6.045 Y6.045 Z-21.000 I1.484 J-8.419 K0.000 F240.000
G0 Z5.000
G0 Z5.000
(Finish operation: Profile)
(Begin operation: Profile001)
(Path: Profile001)
(Profile001)
(Compensated Tool Path. Diameter: 3.0)
G0 Z5.000
G0 X11.313 Y11.313
G0 Z3.000
G1 X11.313 Y11.313 Z-3.000 F240.000
G2 X1.777 Y-15.900 Z-3.000 I-11.313 J-11.313 K0.000 F240.000
G2 X-1.777 Y15.900 Z-3.000 I-1.777 J15.900 K0.000 F240.000
G2 X11.313 Y11.313 Z-3.000 I1.777 J-15.900 K0.000 F240.000
G1 X11.313 Y11.313 Z-6.000 F240.000
G2 X1.777 Y-15.900 Z-6.000 I-11.313 J-11.313 K0.000 F240.000
G2 X-1.777 Y15.900 Z-6.000 I-1.777 J15.900 K0.000 F240.000
G2 X11.313 Y11.313 Z-6.000 I1.777 J-15.900 K0.000 F240.000
G1 X11.313 Y11.313 Z-9.000 F240.000
G2 X1.777 Y-15.900 Z-9.000 I-11.313 J-11.313 K0.000 F240.000
G2 X-1.777 Y15.900 Z-9.000 I-1.777 J15.900 K0.000 F240.000
G2 X11.313 Y11.313 Z-9.000 I1.777 J-15.900 K0.000 F240.000
G1 X11.313 Y11.313 Z-12.000 F240.000
G2 X1.777 Y-15.900 Z-12.000 I-11.313 J-11.313 K0.000 F240.000
G2 X-1.777 Y15.900 Z-12.000 I-1.777 J15.900 K0.000 F240.000
G2 X11.313 Y11.313 Z-12.000 I1.777 J-15.900 K0.000 F240.000
G1 X11.313 Y11.313 Z-15.000 F240.000
G2 X1.777 Y-15.900 Z-15.000 I-11.313 J-11.313 K0.000 F240.000
G2 X-1.777 Y15.900 Z-15.000 I-1.777 J15.900 K0.000 F240.000
G2 X11.313 Y11.313 Z-15.000 I1.777 J-15.900 K0.000 F240.000
G1 X11.313 Y11.313 Z-18.000 F240.000
G2 X1.777 Y-15.900 Z-18.000 I-11.313 J-11.313 K0.000 F240.000
G2 X-1.777 Y15.900 Z-18.000 I-1.777 J15.900 K0.000 F240.000
G2 X11.313 Y11.313 Z-18.000 I1.777 J-15.900 K0.000 F240.000
G1 X11.313 Y11.313 Z-21.000 F240.000
G2 X1.777 Y-15.900 Z-21.000 I-11.313 J-11.313 K0.000 F240.000
G2 X-1.777 Y15.900 Z-21.000 I-1.777 J15.900 K0.000 F240.000
G2 X11.313 Y11.313 Z-21.000 I1.777 J-15.900 K0.000 F240.000
G0 Z5.000
G0 Z5.000
(Finish operation: Profile001)
(Begin postamble)
M5
G17 G90
M2
