(Exported by FreeCAD)
(Post Processor: script_module)
(Output Time:2026-01-02 15:50:23.282616)
(Begin preamble)
G17 G90
G21
(Begin operation: Fixture)
(Path: Fixture)
G54
(Finish operation: Fixture)
(Begin operation: 3mm_Endmill001)
(Path: 3mm_Endmill001)
(3mm_Endmill001)
(Begin toolchange)
( M6 T2 )
M3 S15000
(Finish operation: 3mm_Endmill001)
(Begin operation: Profile)
(Path: Profile)
(Profile)
(Compensated Tool Path. Diameter: 3.0)
G0 Z5.000
G0 X0.000 Y0.000
G0 X0.977 Y-6.930
G0 X0.977 Y-6.930 Z3.000
G1 X0.977 Y-6.930 Z-2.000 F480.000
G2 X-6.930 Y-0.977 Z-2.000 I-0.977 J6.930 K0.000 F480.000
G2 X-0.977 Y6.930 Z-2.000 I6.930 J0.977 K0.000 F480.000
G2 X6.930 Y0.977 Z-2.000 I0.977 J-6.930 K0.000 F480.000
G2 X0.977 Y-6.930 Z-2.000 I-6.930 J-0.977 K0.000 F480.000
G1 X0.977 Y-6.930 Z-4.000 F480.000
G2 X-6.930 Y-0.977 Z-4.000 I-0.977 J6.930 K0.000 F480.000
G2 X-0.977 Y6.930 Z-4.000 I6.930 J0.977 K0.000 F480.000
G2 X6.930 Y0.977 Z-4.000 I0.977 J-6.930 K0.000 F480.000
G2 X0.977 Y-6.930 Z-4.000 I-6.930 J-0.977 K0.000 F480.000
G1 X0.977 Y-6.930 Z-6.000 F480.000
G2 X-6.930 Y-0.977 Z-6.000 I-0.977 J6.930 K0.000 F480.000
G2 X-0.977 Y6.930 Z-6.000 I6.930 J0.977 K0.000 F480.000
G2 X6.930 Y0.977 Z-6.000 I0.977 J-6.930 K0.000 F480.000
G2 X0.977 Y-6.930 Z-6.000 I-6.930 J-0.977 K0.000 F480.000
G1 X0.977 Y-6.930 Z-8.000 F480.000
G2 X-6.930 Y-0.977 Z-8.000 I-0.977 J6.930 K0.000 F480.000
G2 X-0.977 Y6.930 Z-8.000 I6.930 J0.977 K0.000 F480.000
G2 X6.930 Y0.977 Z-8.000 I0.977 J-6.930 K0.000 F480.000
G2 X0.977 Y-6.930 Z-8.000 I-6.930 J-0.977 K0.000 F480.000
G0 Z5.000
G0 Z5.000
(Finish operation: Profile)
(Begin operation: Profile001)
(Path: Profile001)
(Profile001)
(Compensated Tool Path. Diameter: 3.0)
G0 Z5.000
G0 X0.000 Y0.000
G0 X-10.620 Y7.922
G0 X-10.620 Y7.922 Z3.000
G1 X-10.620 Y7.922 Z-2.000 F480.000
G2 X-1.657 Y13.145 Z-2.000 I10.620 J-7.922 K0.000 F480.000
G2 X13.147 Y1.643 Z-2.000 I1.657 J-13.145 K0.000 F480.000
G2 X1.629 Y-13.148 Z-2.000 I-13.147 J-1.643 K0.000 F480.000
G2 X-10.620 Y7.922 Z-2.000 I-1.629 J13.148 K0.000 F480.000
G1 X-10.620 Y7.922 Z-4.000 F480.000
G2 X-1.657 Y13.145 Z-4.000 I10.620 J-7.922 K0.000 F480.000
G2 X13.147 Y1.643 Z-4.000 I1.657 J-13.145 K0.000 F480.000
G2 X1.629 Y-13.148 Z-4.000 I-13.147 J-1.643 K0.000 F480.000
G2 X-10.620 Y7.922 Z-4.000 I-1.629 J13.148 K0.000 F480.000
G1 X-10.620 Y7.922 Z-6.000 F480.000
G2 X-1.657 Y13.145 Z-6.000 I10.620 J-7.922 K0.000 F480.000
G2 X13.147 Y1.643 Z-6.000 I1.657 J-13.145 K0.000 F480.000
G2 X1.629 Y-13.148 Z-6.000 I-13.147 J-1.643 K0.000 F480.000
G2 X-10.620 Y7.922 Z-6.000 I-1.629 J13.148 K0.000 F480.000
G1 X-10.620 Y7.922 Z-8.000 F480.000
G2 X-1.657 Y13.145 Z-8.000 I10.620 J-7.922 K0.000 F480.000
G2 X13.147 Y1.643 Z-8.000 I1.657 J-13.145 K0.000 F480.000
G2 X1.629 Y-13.148 Z-8.000 I-13.147 J-1.643 K0.000 F480.000
G2 X-10.620 Y7.922 Z-8.000 I-1.629 J13.148 K0.000 F480.000
G0 Z5.000
G0 Z5.000
(Finish operation: Profile001)
(Begin postamble)
M5
G17 G90
M2
