(Exported by FreeCAD)
(Post Processor: script_module)
(Output Time:2025-12-19 15:36:17.604248)
(Begin preamble)
G17 G90
G21
(Begin operation: Fixture)
(Path: Fixture)
G54
(Finish operation: Fixture)
(Begin operation: 3mm_Endmill001)
(Path: 3mm_Endmill001)
(3mm_Endmill001)
(Begin toolchange)
( M6 T2 )
M3 S10000
(Finish operation: 3mm_Endmill001)
(Begin operation: Profile)
(Path: Profile)
(Profile)
(Compensated Tool Path. Diameter: 3.0)
G0 Z5.000
G0 X0.000 Y0.000
G0 X6.743 Y0.865
G0 X6.743 Y0.865 Z3.000
G1 X6.743 Y0.865 Z-2.000 F480.000
G2 X1.326 Y-6.668 Z-2.000 I-6.743 J-0.865 K0.000 F480.000
G2 X-1.326 Y6.668 Z-2.000 I-1.326 J6.668 K0.000 F480.000
G2 X6.743 Y0.865 Z-2.000 I1.326 J-6.668 K0.000 F480.000
G1 X6.743 Y0.865 Z-4.000 F480.000
G2 X1.326 Y-6.668 Z-4.000 I-6.743 J-0.865 K0.000 F480.000
G2 X-1.326 Y6.668 Z-4.000 I-1.326 J6.668 K0.000 F480.000
G2 X6.743 Y0.865 Z-4.000 I1.326 J-6.668 K0.000 F480.000
G1 X6.743 Y0.865 Z-6.000 F480.000
G2 X1.326 Y-6.668 Z-6.000 I-6.743 J-0.865 K0.000 F480.000
G2 X-1.326 Y6.668 Z-6.000 I-1.326 J6.668 K0.000 F480.000
G2 X6.743 Y0.865 Z-6.000 I1.326 J-6.668 K0.000 F480.000
G1 X6.743 Y0.865 Z-8.000 F480.000
G2 X1.326 Y-6.668 Z-8.000 I-6.743 J-0.865 K0.000 F480.000
G2 X-1.326 Y6.668 Z-8.000 I-1.326 J6.668 K0.000 F480.000
G2 X6.743 Y0.865 Z-8.000 I1.326 J-6.668 K0.000 F480.000
G0 Z5.000
G0 Z5.000
(Finish operation: Profile)
(Begin operation: Profile001)
(Path: Profile001)
(Profile001)
(Compensated Tool Path. Diameter: 3.0)
G0 Z5.000
G0 X0.000 Y0.000
G0 X2.168 Y-12.614
G0 X2.168 Y-12.614 Z3.000
G1 X2.168 Y-12.614 Z-2.000 F480.000
G2 X-2.168 Y12.614 Z-2.000 I-2.168 J12.614 K0.000 F480.000
G2 X2.168 Y-12.614 Z-2.000 I2.168 J-12.614 K0.000 F480.000
G1 X2.168 Y-12.614 Z-4.000 F480.000
G2 X-2.168 Y12.614 Z-4.000 I-2.168 J12.614 K0.000 F480.000
G2 X2.168 Y-12.614 Z-4.000 I2.168 J-12.614 K0.000 F480.000
G1 X2.168 Y-12.614 Z-6.000 F480.000
G2 X-2.168 Y12.614 Z-6.000 I-2.168 J12.614 K0.000 F480.000
G2 X2.168 Y-12.614 Z-6.000 I2.168 J-12.614 K0.000 F480.000
G1 X2.168 Y-12.614 Z-8.000 F480.000
G2 X-2.168 Y12.614 Z-8.000 I-2.168 J12.614 K0.000 F480.000
G2 X2.168 Y-12.614 Z-8.000 I2.168 J-12.614 K0.000 F480.000
G0 Z5.000
G0 Z5.000
(Finish operation: Profile001)
(Begin postamble)
M5
G17 G90
M2
