(Exported by FreeCAD)
(Post Processor: script_module)
(Output Time:2026-01-02 15:46:31.394732)
(Begin preamble)
G17 G90
G21
(Begin operation: Fixture)
(Path: Fixture)
G54
(Finish operation: Fixture)
(Begin operation: 3mm_Endmill001)
(Path: 3mm_Endmill001)
(3mm_Endmill001)
(Begin toolchange)
( M6 T2 )
M3 S15000
(Finish operation: 3mm_Endmill001)
(Begin operation: Profile)
(Path: Profile)
(Profile)
(Compensated Tool Path. Diameter: 3.0)
G0 Z10.000
G0 X4.666 Y4.666
G0 Z8.000
G1 X4.666 Y4.666 Z3.000 F480.000
G2 X1.287 Y-6.471 Z3.000 I-4.666 J-4.666 K0.000 F480.000
G2 X-1.287 Y6.471 Z3.000 I-1.287 J6.471 K0.000 F480.000
G2 X4.666 Y4.666 Z3.000 I1.287 J-6.471 K0.000 F480.000
G1 X4.666 Y4.666 Z1.000 F480.000
G2 X1.287 Y-6.471 Z1.000 I-4.666 J-4.666 K0.000 F480.000
G2 X-1.287 Y6.471 Z1.000 I-1.287 J6.471 K0.000 F480.000
G2 X4.666 Y4.666 Z1.000 I1.287 J-6.471 K0.000 F480.000
G1 X4.666 Y4.666 Z0.000 F480.000
G2 X1.287 Y-6.471 Z0.000 I-4.666 J-4.666 K0.000 F480.000
G2 X-1.287 Y6.471 Z0.000 I-1.287 J6.471 K0.000 F480.000
G2 X4.666 Y4.666 Z0.000 I1.287 J-6.471 K0.000 F480.000
G0 Z10.000
G0 Z10.000
(Finish operation: Profile)
(Begin operation: Profile001)
(Path: Profile001)
(Profile001)
(Compensated Tool Path. Diameter: 3.0)
G0 Z10.000
G0 X0.000 Y0.000
G0 X2.160 Y-12.565
G0 X2.160 Y-12.565 Z8.000
G1 X2.160 Y-12.565 Z3.000 F480.000
G2 X-2.160 Y12.565 Z3.000 I-2.160 J12.565 K0.000 F480.000
G2 X2.160 Y-12.565 Z3.000 I2.160 J-12.565 K0.000 F480.000
G1 X2.160 Y-12.565 Z1.000 F480.000
G2 X-2.160 Y12.565 Z1.000 I-2.160 J12.565 K0.000 F480.000
G2 X2.160 Y-12.565 Z1.000 I2.160 J-12.565 K0.000 F480.000
G1 X2.160 Y-12.565 Z0.000 F480.000
G2 X-2.160 Y12.565 Z0.000 I-2.160 J12.565 K0.000 F480.000
G2 X2.160 Y-12.565 Z0.000 I2.160 J-12.565 K0.000 F480.000
G0 Z10.000
G0 Z10.000
(Finish operation: Profile001)
(Begin postamble)
M5
G17 G90
M2
