(Exported by FreeCAD)
(Post Processor: script_module)
(Output Time:2025-12-21 12:36:37.481311)
(Begin preamble)
G17 G90
G21
(Begin operation: Fixture)
(Path: Fixture)
G54
(Finish operation: Fixture)
(Begin operation: 3mm_Endmill001)
(Path: 3mm_Endmill001)
(3mm_Endmill001)
(Begin toolchange)
( M6 T2 )
M3 S10000
(Finish operation: 3mm_Endmill001)
(Begin operation: Profile)
(Path: Profile)
(Profile)
(Compensated Tool Path. Diameter: 3.0)
G0 Z5.000
G0 X4.949 Y4.949
G0 Z3.000
G1 X4.949 Y4.949 Z-1.500 F480.000
G2 X0.977 Y-6.930 Z-1.500 I-4.949 J-4.949 K0.000 F480.000
G2 X-6.930 Y-0.977 Z-1.500 I-0.977 J6.930 K0.000 F480.000
G2 X-0.977 Y6.930 Z-1.500 I6.930 J0.977 K0.000 F480.000
G2 X4.949 Y4.949 Z-1.500 I0.977 J-6.930 K0.000 F480.000
G1 X4.949 Y4.949 Z-3.000 F480.000
G2 X0.977 Y-6.930 Z-3.000 I-4.949 J-4.949 K0.000 F480.000
G2 X-6.930 Y-0.977 Z-3.000 I-0.977 J6.930 K0.000 F480.000
G2 X-0.977 Y6.930 Z-3.000 I6.930 J0.977 K0.000 F480.000
G2 X4.949 Y4.949 Z-3.000 I0.977 J-6.930 K0.000 F480.000
G1 X4.949 Y4.949 Z-4.500 F480.000
G2 X0.977 Y-6.930 Z-4.500 I-4.949 J-4.949 K0.000 F480.000
G2 X-6.930 Y-0.977 Z-4.500 I-0.977 J6.930 K0.000 F480.000
G2 X-0.977 Y6.930 Z-4.500 I6.930 J0.977 K0.000 F480.000
G2 X4.949 Y4.949 Z-4.500 I0.977 J-6.930 K0.000 F480.000
G0 Z5.000
G0 Z5.000
(Finish operation: Profile)
(Begin operation: Profile001)
(Path: Profile001)
(Profile001)
(Compensated Tool Path. Diameter: 3.0)
G0 Z5.000
G0 X9.192 Y9.192
G0 Z3.000
G1 X9.192 Y9.192 Z-1.500 F480.000
G2 X2.201 Y-12.811 Z-1.500 I-9.192 J-9.192 K0.000 F480.000
G2 X-2.201 Y12.811 Z-1.500 I-2.201 J12.811 K0.000 F480.000
G2 X9.192 Y9.192 Z-1.500 I2.201 J-12.811 K0.000 F480.000
G1 X9.192 Y9.192 Z-3.000 F480.000
G2 X2.201 Y-12.811 Z-3.000 I-9.192 J-9.192 K0.000 F480.000
G2 X-2.201 Y12.811 Z-3.000 I-2.201 J12.811 K0.000 F480.000
G2 X9.192 Y9.192 Z-3.000 I2.201 J-12.811 K0.000 F480.000
G1 X9.192 Y9.192 Z-4.500 F480.000
G2 X2.201 Y-12.811 Z-4.500 I-9.192 J-9.192 K0.000 F480.000
G2 X-2.201 Y12.811 Z-4.500 I-2.201 J12.811 K0.000 F480.000
G2 X9.192 Y9.192 Z-4.500 I2.201 J-12.811 K0.000 F480.000
G0 Z5.000
G0 Z5.000
(Finish operation: Profile001)
(Begin postamble)
M5
G17 G90
M2
