(Exported by FreeCAD)
(Post Processor: script_module)
(Output Time:2025-12-21 12:39:11.200365)
(Begin preamble)
G17 G90
G21
(Begin operation: Fixture)
(Path: Fixture)
G54
(Finish operation: Fixture)
(Begin operation: 3mm_Endmill001)
(Path: 3mm_Endmill001)
(3mm_Endmill001)
(Begin toolchange)
( M6 T2 )
M3 S10000
(Finish operation: 3mm_Endmill001)
(Begin operation: Profile)
(Path: Profile)
(Profile)
(Compensated Tool Path. Diameter: 3.0)
G0 Z5.000
G0 X6.999 Y6.999
G0 Z3.000
G1 X6.999 Y6.999 Z-1.500 F480.000
G2 X1.629 Y-9.764 Z-1.500 I-6.999 J-6.999 K0.000 F480.000
G2 X-9.764 Y-1.629 Z-1.500 I-1.629 J9.764 K0.000 F480.000
G2 X-1.629 Y9.764 Z-1.500 I9.764 J1.629 K0.000 F480.000
G2 X6.999 Y6.999 Z-1.500 I1.629 J-9.764 K0.000 F480.000
G1 X6.999 Y6.999 Z-3.000 F480.000
G2 X1.629 Y-9.764 Z-3.000 I-6.999 J-6.999 K0.000 F480.000
G2 X-9.764 Y-1.629 Z-3.000 I-1.629 J9.764 K0.000 F480.000
G2 X-1.629 Y9.764 Z-3.000 I9.764 J1.629 K0.000 F480.000
G2 X6.999 Y6.999 Z-3.000 I1.629 J-9.764 K0.000 F480.000
G1 X6.999 Y6.999 Z-4.500 F480.000
G2 X1.629 Y-9.764 Z-4.500 I-6.999 J-6.999 K0.000 F480.000
G2 X-9.764 Y-1.629 Z-4.500 I-1.629 J9.764 K0.000 F480.000
G2 X-1.629 Y9.764 Z-4.500 I9.764 J1.629 K0.000 F480.000
G2 X6.999 Y6.999 Z-4.500 I1.629 J-9.764 K0.000 F480.000
G0 Z5.000
G0 Z5.000
(Finish operation: Profile)
(Begin operation: Profile001)
(Path: Profile001)
(Profile001)
(Compensated Tool Path. Diameter: 3.0)
G0 Z5.000
G0 X11.242 Y11.242
G0 Z3.000
G1 X11.242 Y11.242 Z-1.500 F480.000
G2 X1.766 Y-15.801 Z-1.500 I-11.242 J-11.242 K0.000 F480.000
G2 X-1.766 Y15.801 Z-1.500 I-1.766 J15.801 K0.000 F480.000
G2 X11.242 Y11.242 Z-1.500 I1.766 J-15.801 K0.000 F480.000
G1 X11.242 Y11.242 Z-3.000 F480.000
G2 X1.766 Y-15.801 Z-3.000 I-11.242 J-11.242 K0.000 F480.000
G2 X-1.766 Y15.801 Z-3.000 I-1.766 J15.801 K0.000 F480.000
G2 X11.242 Y11.242 Z-3.000 I1.766 J-15.801 K0.000 F480.000
G1 X11.242 Y11.242 Z-4.500 F480.000
G2 X1.766 Y-15.801 Z-4.500 I-11.242 J-11.242 K0.000 F480.000
G2 X-1.766 Y15.801 Z-4.500 I-1.766 J15.801 K0.000 F480.000
G2 X11.242 Y11.242 Z-4.500 I1.766 J-15.801 K0.000 F480.000
G0 Z5.000
G0 Z5.000
(Finish operation: Profile001)
(Begin postamble)
M5
G17 G90
M2
