(Exported by FreeCAD)
(Post Processor: script_module)
(Output Time:2025-12-27 15:10:55.665617)
(begin preamble)
%
G17 G21 G40 G49 G80 G90
M08
G21
(begin operation: Fixture)
(machine: not set, mm/min)
G54
(finish operation: Fixture)
(begin operation: 3mm_Endmill001)
(machine: not set, mm/min)
(3mm_Endmill001)
M05
M09M6 T2
M3 S10000
(finish operation: 3mm_Endmill001)
(begin operation: Profile)
(machine: not set, mm/min)
(Profile)
(Compensated Tool Path. Diameter: 3.0)
G0 Z5.000
G0 X0.000 Y0.000
G0 X1.545 Y-8.763
G0 X1.545 Y-8.763 Z3.000
G1 X1.545 Y-8.763 Z-2.000 F480.000
G2 X-8.763 Y-1.545 Z-2.000 I-1.545 J8.763 F480.000
G2 X-1.545 Y8.763 Z-2.000 I8.763 J1.545 F480.000
G2 X1.545 Y-8.763 Z-2.000 I1.545 J-8.763 F480.000
G1 X1.545 Y-8.763 Z-4.000 F480.000
G2 X-8.763 Y-1.545 Z-4.000 I-1.545 J8.763 F480.000
G2 X-1.545 Y8.763 Z-4.000 I8.763 J1.545 F480.000
G2 X1.545 Y-8.763 Z-4.000 I1.545 J-8.763 F480.000
G1 X1.545 Y-8.763 Z-6.000 F480.000
G2 X-8.763 Y-1.545 Z-6.000 I-1.545 J8.763 F480.000
G2 X-1.545 Y8.763 Z-6.000 I8.763 J1.545 F480.000
G2 X1.545 Y-8.763 Z-6.000 I1.545 J-8.763 F480.000
G1 X1.545 Y-8.763 Z-7.000 F480.000
G2 X-8.763 Y-1.545 Z-7.000 I-1.545 J8.763 F480.000
G2 X-1.545 Y8.763 Z-7.000 I8.763 J1.545 F480.000
G2 X1.545 Y-8.763 Z-7.000 I1.545 J-8.763 F480.000
G0 Z5.000
G0 Z5.000
(finish operation: Profile)
(begin operation: Profile001)
(machine: not set, mm/min)
(Profile001)
(Compensated Tool Path. Diameter: 3.0)
G0 Z5.000
G0 X0.000 Y0.000
G0 X1.749 Y-14.897
G0 X1.749 Y-14.897 Z3.000
G1 X1.749 Y-14.897 Z-2.000 F480.000
G2 X-1.749 Y14.897 Z-2.000 I-1.749 J14.897 F480.000
G2 X14.897 Y1.749 Z-2.000 I1.749 J-14.897 F480.000
G2 X1.749 Y-14.897 Z-2.000 I-14.897 J-1.749 F480.000
G1 X1.749 Y-14.897 Z-4.000 F480.000
G2 X-1.749 Y14.897 Z-4.000 I-1.749 J14.897 F480.000
G2 X14.897 Y1.749 Z-4.000 I1.749 J-14.897 F480.000
G2 X1.749 Y-14.897 Z-4.000 I-14.897 J-1.749 F480.000
G1 X1.749 Y-14.897 Z-6.000 F480.000
G2 X-1.749 Y14.897 Z-6.000 I-1.749 J14.897 F480.000
G2 X14.897 Y1.749 Z-6.000 I1.749 J-14.897 F480.000
G2 X1.749 Y-14.897 Z-6.000 I-14.897 J-1.749 F480.000
G1 X1.749 Y-14.897 Z-7.000 F480.000
G2 X-1.749 Y14.897 Z-7.000 I-1.749 J14.897 F480.000
G2 X14.897 Y1.749 Z-7.000 I1.749 J-14.897 F480.000
G2 X1.749 Y-14.897 Z-7.000 I-14.897 J-1.749 F480.000
G0 Z5.000
G0 Z5.000
(finish operation: Profile001)
(begin postamble)
M05 M09
G17 G90 G80 G40
M30
