(Exported by FreeCAD)
(Post Processor: script_module)
(Output Time:2025-02-27 17:43:13.710694)
(Begin preamble)
G17 G90
G21
(Begin operation: Fixture)
(Path: Fixture)
G54
(Finish operation: Fixture)
(Begin operation: 2_22_mm_Endmill002)
(Path: 2_22_mm_Endmill002)
(2_22_mm_Endmill002)
(Begin toolchange)
( M6 T2 )
M3 S15000
(Finish operation: 2_22_mm_Endmill002)
(Begin operation: MillFace)
(Path: MillFace)
(MillFace)
G0 Z23.000
G0 X15.100 Y-15.099
G0 Z21.000
G1 X15.100 Y-15.099 Z16.000 F600.000
G1 X15.100 Y-13.684 Z16.000 F300.000
G1 X13.686 Y-15.099 Z16.000 F300.000
G1 X12.272 Y-15.099 Z16.000 F300.000
G1 X15.100 Y-12.270 Z16.000 F300.000
G1 X15.100 Y-10.856 Z16.000 F300.000
G1 X10.857 Y-15.099 Z16.000 F300.000
G1 X9.443 Y-15.099 Z16.000 F300.000
G1 X15.100 Y-9.442 Z16.000 F300.000
G1 X15.100 Y-8.027 Z16.000 F300.000
G1 X8.029 Y-15.099 Z16.000 F300.000
G1 X6.615 Y-15.099 Z16.000 F300.000
G1 X15.100 Y-6.613 Z16.000 F300.000
G1 X15.100 Y-5.199 Z16.000 F300.000
G1 X5.201 Y-15.099 Z16.000 F300.000
G1 X3.786 Y-15.099 Z16.000 F300.000
G1 X15.100 Y-3.785 Z16.000 F300.000
G1 X15.100 Y-2.371 Z16.000 F300.000
G1 X2.372 Y-15.099 Z16.000 F300.000
G1 X0.958 Y-15.099 Z16.000 F300.000
G1 X15.100 Y-0.956 Z16.000 F300.000
G1 X15.100 Y0.458 Z16.000 F300.000
G1 X-0.456 Y-15.099 Z16.000 F300.000
G1 X-1.871 Y-15.099 Z16.000 F300.000
G1 X15.100 Y1.872 Z16.000 F300.000
G1 X15.100 Y3.286 Z16.000 F300.000
G1 X-3.285 Y-15.099 Z16.000 F300.000
G1 X-4.699 Y-15.099 Z16.000 F300.000
G1 X15.100 Y4.700 Z16.000 F300.000
G1 X15.100 Y6.115 Z16.000 F300.000
G1 X-6.113 Y-15.099 Z16.000 F300.000
G1 X-7.527 Y-15.099 Z16.000 F300.000
G1 X15.100 Y7.529 Z16.000 F300.000
G1 X15.100 Y8.943 Z16.000 F300.000
G1 X-8.942 Y-15.099 Z16.000 F300.000
G1 X-10.356 Y-15.099 Z16.000 F300.000
G1 X15.100 Y10.357 Z16.000 F300.000
G1 X15.100 Y11.772 Z16.000 F300.000
G1 X-11.770 Y-15.099 Z16.000 F300.000
G1 X-13.184 Y-15.099 Z16.000 F300.000
G1 X15.100 Y13.186 Z16.000 F300.000
G1 X15.100 Y14.600 Z16.000 F300.000
G1 X-14.598 Y-15.099 Z16.000 F300.000
G1 X-15.094 Y-15.099 Z16.000 F300.000
G1 X-15.094 Y-14.180 Z16.000 F300.000
G1 X14.184 Y15.099 Z16.000 F300.000
G1 X12.770 Y15.099 Z16.000 F300.000
G1 X-15.094 Y-12.766 Z16.000 F300.000
G1 X-15.094 Y-11.352 Z16.000 F300.000
G1 X11.356 Y15.099 Z16.000 F300.000
G1 X9.942 Y15.099 Z16.000 F300.000
G1 X-15.094 Y-9.937 Z16.000 F300.000
G1 X-15.094 Y-8.523 Z16.000 F300.000
G1 X8.528 Y15.099 Z16.000 F300.000
G1 X7.113 Y15.099 Z16.000 F300.000
G1 X-15.094 Y-7.109 Z16.000 F300.000
G1 X-15.094 Y-5.695 Z16.000 F300.000
G1 X5.699 Y15.099 Z16.000 F300.000
G1 X4.285 Y15.099 Z16.000 F300.000
G1 X-15.094 Y-4.281 Z16.000 F300.000
G1 X-15.094 Y-2.866 Z16.000 F300.000
G1 X2.871 Y15.099 Z16.000 F300.000
G1 X1.456 Y15.099 Z16.000 F300.000
G1 X-15.094 Y-1.452 Z16.000 F300.000
G1 X-15.094 Y-0.038 Z16.000 F300.000
G1 X0.042 Y15.099 Z16.000 F300.000
G1 X-1.372 Y15.099 Z16.000 F300.000
G1 X-15.094 Y1.376 Z16.000 F300.000
G1 X-15.094 Y2.791 Z16.000 F300.000
G1 X-2.786 Y15.099 Z16.000 F300.000
G1 X-4.200 Y15.099 Z16.000 F300.000
G1 X-15.094 Y4.205 Z16.000 F300.000
G1 X-15.094 Y5.619 Z16.000 F300.000
G1 X-5.615 Y15.099 Z16.000 F300.000
G1 X-7.029 Y15.099 Z16.000 F300.000
G1 X-15.094 Y7.033 Z16.000 F300.000
G1 X-15.094 Y8.447 Z16.000 F300.000
G1 X-8.443 Y15.099 Z16.000 F300.000
G1 X-9.857 Y15.099 Z16.000 F300.000
G1 X-15.094 Y9.862 Z16.000 F300.000
G1 X-15.094 Y11.276 Z16.000 F300.000
G1 X-11.271 Y15.099 Z16.000 F300.000
G1 X-12.686 Y15.099 Z16.000 F300.000
G1 X-15.094 Y12.690 Z16.000 F300.000
G1 X-15.094 Y14.104 Z16.000 F300.000
G1 X-14.100 Y15.099 Z16.000 F300.000
G1 X-15.094 Y15.099 Z16.000 F300.000
G1 X-15.094 Y-15.099 Z16.000 F300.000
G1 X15.100 Y-15.099 Z16.000 F300.000
G1 X15.100 Y15.099 Z16.000 F300.000
G1 X-15.094 Y15.099 Z16.000 F300.000
G1 X-15.094 Y14.104 Z16.000 F300.000
G1 X-15.094 Y14.104 Z14.000 F600.000
G1 X-15.094 Y15.099 Z14.000 F300.000
G1 X15.100 Y15.099 Z14.000 F300.000
G1 X15.100 Y-15.099 Z14.000 F300.000
G1 X-15.094 Y-15.099 Z14.000 F300.000
G1 X-15.094 Y15.099 Z14.000 F300.000
G1 X-14.100 Y15.099 Z14.000 F300.000
G1 X-15.094 Y14.104 Z14.000 F300.000
G1 X-15.094 Y12.690 Z14.000 F300.000
G1 X-12.686 Y15.099 Z14.000 F300.000
G1 X-11.271 Y15.099 Z14.000 F300.000
G1 X-15.094 Y11.276 Z14.000 F300.000
G1 X-15.094 Y9.862 Z14.000 F300.000
G1 X-9.857 Y15.099 Z14.000 F300.000
G1 X-8.443 Y15.099 Z14.000 F300.000
G1 X-15.094 Y8.447 Z14.000 F300.000
G1 X-15.094 Y7.033 Z14.000 F300.000
G1 X-7.029 Y15.099 Z14.000 F300.000
G1 X-5.615 Y15.099 Z14.000 F300.000
G1 X-15.094 Y5.619 Z14.000 F300.000
G1 X-15.094 Y4.205 Z14.000 F300.000
G1 X-4.200 Y15.099 Z14.000 F300.000
G1 X-2.786 Y15.099 Z14.000 F300.000
G1 X-15.094 Y2.791 Z14.000 F300.000
G1 X-15.094 Y1.376 Z14.000 F300.000
G1 X-1.372 Y15.099 Z14.000 F300.000
G1 X0.042 Y15.099 Z14.000 F300.000
G1 X-15.094 Y-0.038 Z14.000 F300.000
G1 X-15.094 Y-1.452 Z14.000 F300.000
G1 X1.456 Y15.099 Z14.000 F300.000
G1 X2.871 Y15.099 Z14.000 F300.000
G1 X-15.094 Y-2.866 Z14.000 F300.000
G1 X-15.094 Y-4.281 Z14.000 F300.000
G1 X4.285 Y15.099 Z14.000 F300.000
G1 X5.699 Y15.099 Z14.000 F300.000
G1 X-15.094 Y-5.695 Z14.000 F300.000
G1 X-15.094 Y-7.109 Z14.000 F300.000
G1 X7.113 Y15.099 Z14.000 F300.000
G1 X8.528 Y15.099 Z14.000 F300.000
G1 X-15.094 Y-8.523 Z14.000 F300.000
G1 X-15.094 Y-9.937 Z14.000 F300.000
G1 X9.942 Y15.099 Z14.000 F300.000
G1 X11.356 Y15.099 Z14.000 F300.000
G1 X-15.094 Y-11.352 Z14.000 F300.000
G1 X-15.094 Y-12.766 Z14.000 F300.000
G1 X12.770 Y15.099 Z14.000 F300.000
G1 X14.184 Y15.099 Z14.000 F300.000
G1 X-15.094 Y-14.180 Z14.000 F300.000
G1 X-15.094 Y-15.099 Z14.000 F300.000
G1 X-14.598 Y-15.099 Z14.000 F300.000
G1 X15.100 Y14.600 Z14.000 F300.000
G1 X15.100 Y13.186 Z14.000 F300.000
G1 X-13.184 Y-15.099 Z14.000 F300.000
G1 X-11.770 Y-15.099 Z14.000 F300.000
G1 X15.100 Y11.772 Z14.000 F300.000
G1 X15.100 Y10.357 Z14.000 F300.000
G1 X-10.356 Y-15.099 Z14.000 F300.000
G1 X-8.942 Y-15.099 Z14.000 F300.000
G1 X15.100 Y8.943 Z14.000 F300.000
G1 X15.100 Y7.529 Z14.000 F300.000
G1 X-7.527 Y-15.099 Z14.000 F300.000
G1 X-6.113 Y-15.099 Z14.000 F300.000
G1 X15.100 Y6.115 Z14.000 F300.000
G1 X15.100 Y4.700 Z14.000 F300.000
G1 X-4.699 Y-15.099 Z14.000 F300.000
G1 X-3.285 Y-15.099 Z14.000 F300.000
G1 X15.100 Y3.286 Z14.000 F300.000
G1 X15.100 Y1.872 Z14.000 F300.000
G1 X-1.871 Y-15.099 Z14.000 F300.000
G1 X-0.456 Y-15.099 Z14.000 F300.000
G1 X15.100 Y0.458 Z14.000 F300.000
G1 X15.100 Y-0.956 Z14.000 F300.000
G1 X0.958 Y-15.099 Z14.000 F300.000
G1 X2.372 Y-15.099 Z14.000 F300.000
G1 X15.100 Y-2.371 Z14.000 F300.000
G1 X15.100 Y-3.785 Z14.000 F300.000
G1 X3.786 Y-15.099 Z14.000 F300.000
G1 X5.201 Y-15.099 Z14.000 F300.000
G1 X15.100 Y-5.199 Z14.000 F300.000
G1 X15.100 Y-6.613 Z14.000 F300.000
G1 X6.615 Y-15.099 Z14.000 F300.000
G1 X8.029 Y-15.099 Z14.000 F300.000
G1 X15.100 Y-8.027 Z14.000 F300.000
G1 X15.100 Y-9.442 Z14.000 F300.000
G1 X9.443 Y-15.099 Z14.000 F300.000
G1 X10.857 Y-15.099 Z14.000 F300.000
G1 X15.100 Y-10.856 Z14.000 F300.000
G1 X15.100 Y-12.270 Z14.000 F300.000
G1 X12.272 Y-15.099 Z14.000 F300.000
G1 X13.686 Y-15.099 Z14.000 F300.000
G1 X15.100 Y-13.684 Z14.000 F300.000
G1 X15.100 Y-15.099 Z14.000 F300.000
G1 X15.100 Y-15.099 Z12.000 F600.000
G1 X15.100 Y-13.684 Z12.000 F300.000
G1 X13.686 Y-15.099 Z12.000 F300.000
G1 X12.272 Y-15.099 Z12.000 F300.000
G1 X15.100 Y-12.270 Z12.000 F300.000
G1 X15.100 Y-10.856 Z12.000 F300.000
G1 X10.857 Y-15.099 Z12.000 F300.000
G1 X9.443 Y-15.099 Z12.000 F300.000
G1 X15.100 Y-9.442 Z12.000 F300.000
G1 X15.100 Y-8.027 Z12.000 F300.000
G1 X8.029 Y-15.099 Z12.000 F300.000
G1 X6.615 Y-15.099 Z12.000 F300.000
G1 X15.100 Y-6.613 Z12.000 F300.000
G1 X15.100 Y-5.199 Z12.000 F300.000
G1 X5.201 Y-15.099 Z12.000 F300.000
G1 X3.786 Y-15.099 Z12.000 F300.000
G1 X15.100 Y-3.785 Z12.000 F300.000
G1 X15.100 Y-2.371 Z12.000 F300.000
G1 X2.372 Y-15.099 Z12.000 F300.000
G1 X0.958 Y-15.099 Z12.000 F300.000
G1 X15.100 Y-0.956 Z12.000 F300.000
G1 X15.100 Y0.458 Z12.000 F300.000
G1 X-0.456 Y-15.099 Z12.000 F300.000
G1 X-1.871 Y-15.099 Z12.000 F300.000
G1 X15.100 Y1.872 Z12.000 F300.000
G1 X15.100 Y3.286 Z12.000 F300.000
G1 X-3.285 Y-15.099 Z12.000 F300.000
G1 X-4.699 Y-15.099 Z12.000 F300.000
G1 X15.100 Y4.700 Z12.000 F300.000
G1 X15.100 Y6.115 Z12.000 F300.000
G1 X-6.113 Y-15.099 Z12.000 F300.000
G1 X-7.527 Y-15.099 Z12.000 F300.000
G1 X15.100 Y7.529 Z12.000 F300.000
G1 X15.100 Y8.943 Z12.000 F300.000
G1 X-8.942 Y-15.099 Z12.000 F300.000
G1 X-10.356 Y-15.099 Z12.000 F300.000
G1 X15.100 Y10.357 Z12.000 F300.000
G1 X15.100 Y11.772 Z12.000 F300.000
G1 X-11.770 Y-15.099 Z12.000 F300.000
G1 X-13.184 Y-15.099 Z12.000 F300.000
G1 X15.100 Y13.186 Z12.000 F300.000
G1 X15.100 Y14.600 Z12.000 F300.000
G1 X-14.598 Y-15.099 Z12.000 F300.000
G1 X-15.094 Y-15.099 Z12.000 F300.000
G1 X-15.094 Y-14.180 Z12.000 F300.000
G1 X14.184 Y15.099 Z12.000 F300.000
G1 X12.770 Y15.099 Z12.000 F300.000
G1 X-15.094 Y-12.766 Z12.000 F300.000
G1 X-15.094 Y-11.352 Z12.000 F300.000
G1 X11.356 Y15.099 Z12.000 F300.000
G1 X9.942 Y15.099 Z12.000 F300.000
G1 X-15.094 Y-9.937 Z12.000 F300.000
G1 X-15.094 Y-8.523 Z12.000 F300.000
G1 X8.528 Y15.099 Z12.000 F300.000
G1 X7.113 Y15.099 Z12.000 F300.000
G1 X-15.094 Y-7.109 Z12.000 F300.000
G1 X-15.094 Y-5.695 Z12.000 F300.000
G1 X5.699 Y15.099 Z12.000 F300.000
G1 X4.285 Y15.099 Z12.000 F300.000
G1 X-15.094 Y-4.281 Z12.000 F300.000
G1 X-15.094 Y-2.866 Z12.000 F300.000
G1 X2.871 Y15.099 Z12.000 F300.000
G1 X1.456 Y15.099 Z12.000 F300.000
G1 X-15.094 Y-1.452 Z12.000 F300.000
G1 X-15.094 Y-0.038 Z12.000 F300.000
G1 X0.042 Y15.099 Z12.000 F300.000
G1 X-1.372 Y15.099 Z12.000 F300.000
G1 X-15.094 Y1.376 Z12.000 F300.000
G1 X-15.094 Y2.791 Z12.000 F300.000
G1 X-2.786 Y15.099 Z12.000 F300.000
G1 X-4.200 Y15.099 Z12.000 F300.000
G1 X-15.094 Y4.205 Z12.000 F300.000
G1 X-15.094 Y5.619 Z12.000 F300.000
G1 X-5.615 Y15.099 Z12.000 F300.000
G1 X-7.029 Y15.099 Z12.000 F300.000
G1 X-15.094 Y7.033 Z12.000 F300.000
G1 X-15.094 Y8.447 Z12.000 F300.000
G1 X-8.443 Y15.099 Z12.000 F300.000
G1 X-9.857 Y15.099 Z12.000 F300.000
G1 X-15.094 Y9.862 Z12.000 F300.000
G1 X-15.094 Y11.276 Z12.000 F300.000
G1 X-11.271 Y15.099 Z12.000 F300.000
G1 X-12.686 Y15.099 Z12.000 F300.000
G1 X-15.094 Y12.690 Z12.000 F300.000
G1 X-15.094 Y14.104 Z12.000 F300.000
G1 X-14.100 Y15.099 Z12.000 F300.000
G1 X-15.094 Y15.099 Z12.000 F300.000
G1 X-15.094 Y-15.099 Z12.000 F300.000
G1 X15.100 Y-15.099 Z12.000 F300.000
G1 X15.100 Y15.099 Z12.000 F300.000
G1 X-15.094 Y15.099 Z12.000 F300.000
G1 X-15.094 Y14.104 Z12.000 F300.000
G0 Z23.000
G0 Z23.000
(Finish operation: MillFace)
(Begin operation: Pocket_Shape)
(Path: Pocket_Shape)
(Pocket_Shape)
G0 Z23.000
G0 X3.038 Y3.038
G0 Z21.000
G1 X3.038 Y3.038 Z10.000 F600.000
G2 X0.010 Y-4.296 Z10.000 I-3.038 J-3.038 K0.000 F300.000
G2 X-0.010 Y4.296 Z10.000 I-0.010 J4.296 K0.000 F300.000
G2 X3.038 Y3.038 Z10.000 I0.010 J-4.296 K0.000 F300.000
G0 Z23.000
G0 X4.157 Y-1.083 Z23.000
G0 X4.157 Y-1.083 Z21.000
G1 X4.157 Y-1.083 Z10.000 F600.000
G2 X1.083 Y-4.157 Z10.000 I-4.156 J1.082 K0.000 F300.000
G1 X4.157 Y-1.083 Z10.000 F300.000
G3 X3.993 Y1.581 Z10.000 I-4.140 J1.083 K0.000 F300.000
G1 X-1.581 Y-3.993 Z10.000 F300.000
G2 X-3.239 Y-2.822 Z10.000 I1.560 J3.966 K0.000 F300.000
G1 X2.821 Y3.238 Z10.000 F300.000
G3 X0.944 Y4.189 Z10.000 I-2.805 J-3.207 K0.000 F300.000
G1 X-4.190 Y-0.944 Z10.000 F300.000
G2 X-2.967 Y3.107 Z10.000 I4.185 J0.947 K0.000 F300.000
G1 X-2.967 Y3.107 Z8.000 F600.000
G3 X-4.190 Y-0.944 Z8.000 I2.962 J-3.104 K0.000 F300.000
G1 X0.944 Y4.189 Z8.000 F300.000
G2 X2.821 Y3.238 Z8.000 I-0.927 J-4.159 K0.000 F300.000
G1 X-3.239 Y-2.822 Z8.000 F300.000
G3 X-1.581 Y-3.993 Z8.000 I3.218 J2.795 K0.000 F300.000
G1 X3.993 Y1.581 Z8.000 F300.000
G2 X4.157 Y-1.083 Z8.000 I-3.976 J-1.582 K0.000 F300.000
G1 X1.083 Y-4.157 Z8.000 F300.000
G3 X4.157 Y-1.083 Z8.000 I-1.082 J4.156 K0.000 F300.000
G0 Z23.000
G0 X4.157 Y-1.083 Z23.000
G0 X4.157 Y-1.083 Z21.000
G1 X4.157 Y-1.083 Z8.000 F600.000
G2 X0.010 Y-4.296 Z8.000 I-4.157 J1.083 K0.000 F300.000
G2 X-0.010 Y4.296 Z8.000 I-0.010 J4.296 K0.000 F300.000
G2 X4.157 Y-1.083 Z8.000 I0.010 J-4.296 K0.000 F300.000
G1 X4.157 Y-1.083 Z6.000 F600.000
G2 X0.010 Y-4.296 Z6.000 I-4.157 J1.083 K0.000 F300.000
G2 X-0.010 Y4.296 Z6.000 I-0.010 J4.296 K0.000 F300.000
G2 X4.157 Y-1.083 Z6.000 I0.010 J-4.296 K0.000 F300.000
G0 Z23.000
G0 X4.157 Y-1.083 Z23.000
G0 X4.157 Y-1.083 Z21.000
G1 X4.157 Y-1.083 Z6.000 F600.000
G2 X1.083 Y-4.157 Z6.000 I-4.156 J1.082 K0.000 F300.000
G1 X4.157 Y-1.083 Z6.000 F300.000
G3 X3.993 Y1.581 Z6.000 I-4.140 J1.083 K0.000 F300.000
G1 X-1.581 Y-3.993 Z6.000 F300.000
G2 X-3.239 Y-2.822 Z6.000 I1.560 J3.966 K0.000 F300.000
G1 X2.821 Y3.238 Z6.000 F300.000
G3 X0.944 Y4.189 Z6.000 I-2.805 J-3.207 K0.000 F300.000
G1 X-4.190 Y-0.944 Z6.000 F300.000
G2 X-2.967 Y3.107 Z6.000 I4.185 J0.947 K0.000 F300.000
G1 X-2.967 Y3.107 Z4.000 F600.000
G3 X-4.190 Y-0.944 Z4.000 I2.962 J-3.104 K0.000 F300.000
G1 X0.944 Y4.189 Z4.000 F300.000
G2 X2.821 Y3.238 Z4.000 I-0.927 J-4.159 K0.000 F300.000
G1 X-3.239 Y-2.822 Z4.000 F300.000
G3 X-1.581 Y-3.993 Z4.000 I3.218 J2.795 K0.000 F300.000
G1 X3.993 Y1.581 Z4.000 F300.000
G2 X4.157 Y-1.083 Z4.000 I-3.976 J-1.582 K0.000 F300.000
G1 X1.083 Y-4.157 Z4.000 F300.000
G3 X4.157 Y-1.083 Z4.000 I-1.082 J4.156 K0.000 F300.000
G0 Z23.000
G0 X4.157 Y-1.083 Z23.000
G0 X4.157 Y-1.083 Z21.000
G1 X4.157 Y-1.083 Z4.000 F600.000
G2 X0.010 Y-4.296 Z4.000 I-4.157 J1.083 K0.000 F300.000
G2 X-0.010 Y4.296 Z4.000 I-0.010 J4.296 K0.000 F300.000
G2 X4.157 Y-1.083 Z4.000 I0.010 J-4.296 K0.000 F300.000
G1 X4.157 Y-1.083 Z2.000 F600.000
G2 X0.010 Y-4.296 Z2.000 I-4.157 J1.083 K0.000 F300.000
G2 X-0.010 Y4.296 Z2.000 I-0.010 J4.296 K0.000 F300.000
G2 X4.157 Y-1.083 Z2.000 I0.010 J-4.296 K0.000 F300.000
G0 Z23.000
G0 X4.157 Y-1.083 Z23.000
G0 X4.157 Y-1.083 Z21.000
G1 X4.157 Y-1.083 Z2.000 F600.000
G2 X1.083 Y-4.157 Z2.000 I-4.156 J1.082 K0.000 F300.000
G1 X4.157 Y-1.083 Z2.000 F300.000
G3 X3.993 Y1.581 Z2.000 I-4.140 J1.083 K0.000 F300.000
G1 X-1.581 Y-3.993 Z2.000 F300.000
G2 X-3.239 Y-2.822 Z2.000 I1.560 J3.966 K0.000 F300.000
G1 X2.821 Y3.238 Z2.000 F300.000
G3 X0.944 Y4.189 Z2.000 I-2.805 J-3.207 K0.000 F300.000
G1 X-4.190 Y-0.944 Z2.000 F300.000
G2 X-2.967 Y3.107 Z2.000 I4.185 J0.947 K0.000 F300.000
G1 X-2.967 Y3.107 Z0.000 F600.000
G3 X-4.190 Y-0.944 Z0.000 I2.962 J-3.104 K0.000 F300.000
G1 X0.944 Y4.189 Z0.000 F300.000
G2 X2.821 Y3.238 Z0.000 I-0.927 J-4.159 K0.000 F300.000
G1 X-3.239 Y-2.822 Z0.000 F300.000
G3 X-1.581 Y-3.993 Z0.000 I3.218 J2.795 K0.000 F300.000
G1 X3.993 Y1.581 Z0.000 F300.000
G2 X4.157 Y-1.083 Z0.000 I-3.976 J-1.582 K0.000 F300.000
G1 X1.083 Y-4.157 Z0.000 F300.000
G3 X4.157 Y-1.083 Z0.000 I-1.082 J4.156 K0.000 F300.000
G0 Z23.000
G0 X4.157 Y-1.083 Z23.000
G0 X4.157 Y-1.083 Z21.000
G1 X4.157 Y-1.083 Z0.000 F600.000
G2 X0.010 Y-4.296 Z0.000 I-4.157 J1.083 K0.000 F300.000
G2 X-0.010 Y4.296 Z0.000 I-0.010 J4.296 K0.000 F300.000
G2 X4.157 Y-1.083 Z0.000 I0.010 J-4.296 K0.000 F300.000
G0 Z23.000
G0 Z23.000
G0 X4.157 Y-1.083
G0 X0.431 Y6.609
G0 X0.431 Y6.609 Z21.000
G1 X0.431 Y6.609 Z10.000 F600.000
G2 X-0.728 Y8.170 Z10.000 I-0.431 J0.891 K0.000 F300.000
G2 X0.728 Y6.830 Z10.000 I0.728 J-0.670 K0.000 F300.000
G2 X-0.670 Y6.772 Z10.000 I-0.728 J0.670 K0.000 F300.000
G2 X-0.728 Y8.170 Z10.000 I0.670 J0.728 K0.000 F300.000
G2 X0.728 Y6.830 Z10.000 I0.728 J-0.670 K0.000 F300.000
G2 X0.431 Y6.609 Z10.000 I-0.728 J0.670 K0.000 F300.000
G1 X0.431 Y6.609 Z8.000 F600.000
G2 X-0.728 Y8.170 Z8.000 I-0.431 J0.891 K0.000 F300.000
G2 X0.728 Y6.830 Z8.000 I0.728 J-0.670 K0.000 F300.000
G2 X-0.670 Y6.772 Z8.000 I-0.728 J0.670 K0.000 F300.000
G2 X-0.728 Y8.170 Z8.000 I0.670 J0.728 K0.000 F300.000
G2 X0.728 Y6.830 Z8.000 I0.728 J-0.670 K0.000 F300.000
G2 X0.431 Y6.609 Z8.000 I-0.728 J0.670 K0.000 F300.000
G1 X0.431 Y6.609 Z6.000 F600.000
G2 X-0.728 Y8.170 Z6.000 I-0.431 J0.891 K0.000 F300.000
G2 X0.728 Y6.830 Z6.000 I0.728 J-0.670 K0.000 F300.000
G2 X-0.670 Y6.772 Z6.000 I-0.728 J0.670 K0.000 F300.000
G2 X-0.728 Y8.170 Z6.000 I0.670 J0.728 K0.000 F300.000
G2 X0.728 Y6.830 Z6.000 I0.728 J-0.670 K0.000 F300.000
G2 X0.431 Y6.609 Z6.000 I-0.728 J0.670 K0.000 F300.000
G1 X0.431 Y6.609 Z4.000 F600.000
G2 X-0.728 Y8.170 Z4.000 I-0.431 J0.891 K0.000 F300.000
G2 X0.728 Y6.830 Z4.000 I0.728 J-0.670 K0.000 F300.000
G2 X-0.670 Y6.772 Z4.000 I-0.728 J0.670 K0.000 F300.000
G2 X-0.728 Y8.170 Z4.000 I0.670 J0.728 K0.000 F300.000
G2 X0.728 Y6.830 Z4.000 I0.728 J-0.670 K0.000 F300.000
G2 X0.431 Y6.609 Z4.000 I-0.728 J0.670 K0.000 F300.000
G1 X0.431 Y6.609 Z2.000 F600.000
G2 X-0.728 Y8.170 Z2.000 I-0.431 J0.891 K0.000 F300.000
G2 X0.728 Y6.830 Z2.000 I0.728 J-0.670 K0.000 F300.000
G2 X-0.670 Y6.772 Z2.000 I-0.728 J0.670 K0.000 F300.000
G2 X-0.728 Y8.170 Z2.000 I0.670 J0.728 K0.000 F300.000
G2 X0.728 Y6.830 Z2.000 I0.728 J-0.670 K0.000 F300.000
G2 X0.431 Y6.609 Z2.000 I-0.728 J0.670 K0.000 F300.000
G1 X0.431 Y6.609 Z0.000 F600.000
G2 X-0.728 Y8.170 Z0.000 I-0.431 J0.891 K0.000 F300.000
G2 X0.728 Y6.830 Z0.000 I0.728 J-0.670 K0.000 F300.000
G2 X-0.670 Y6.772 Z0.000 I-0.728 J0.670 K0.000 F300.000
G2 X-0.728 Y8.170 Z0.000 I0.670 J0.728 K0.000 F300.000
G2 X0.728 Y6.830 Z0.000 I0.728 J-0.670 K0.000 F300.000
G2 X0.431 Y6.609 Z0.000 I-0.728 J0.670 K0.000 F300.000
G0 Z23.000
G0 Z23.000
(Finish operation: Pocket_Shape)
(Begin operation: MillFace001)
(Path: MillFace001)
(MillFace001)
G0 Z23.000
G0 X48.100 Y-14.107
G0 Z21.000
G1 X48.100 Y-14.107 Z16.000 F600.000
G1 X48.100 Y-15.070 Z16.000 F300.000
G1 X48.099 Y-15.097 Z16.000 F300.000
G1 X48.072 Y-15.099 Z16.000 F300.000
G1 X17.934 Y-15.099 Z16.000 F300.000
G1 X17.907 Y-15.097 Z16.000 F300.000
G1 X17.906 Y-15.070 Z16.000 F300.000
G1 X17.906 Y15.070 Z16.000 F300.000
G1 X17.907 Y15.097 Z16.000 F300.000
G1 X17.934 Y15.098 Z16.000 F300.000
G1 X48.072 Y15.098 Z16.000 F300.000
G1 X48.099 Y15.097 Z16.000 F300.000
G1 X48.100 Y15.070 Z16.000 F300.000
G1 X48.100 Y-15.070 Z16.000 F300.000
G1 X48.099 Y-15.097 Z16.000 F300.000
G1 X48.072 Y-15.098 Z16.000 F300.000
G1 X47.109 Y-15.098 Z16.000 F300.000
G1 X48.100 Y-14.107 Z16.000 F300.000
G1 X48.100 Y-12.693 Z16.000 F300.000
G1 X45.695 Y-15.098 Z16.000 F300.000
G1 X44.280 Y-15.098 Z16.000 F300.000
G1 X48.100 Y-11.279 Z16.000 F300.000
G1 X48.100 Y-9.865 Z16.000 F300.000
G1 X42.866 Y-15.098 Z16.000 F300.000
G1 X41.452 Y-15.098 Z16.000 F300.000
G1 X48.100 Y-8.450 Z16.000 F300.000
G1 X48.100 Y-7.036 Z16.000 F300.000
G1 X40.038 Y-15.098 Z16.000 F300.000
G1 X38.623 Y-15.098 Z16.000 F300.000
G1 X48.100 Y-5.622 Z16.000 F300.000
G1 X48.100 Y-4.208 Z16.000 F300.000
G1 X37.209 Y-15.098 Z16.000 F300.000
G1 X35.795 Y-15.098 Z16.000 F300.000
G1 X48.100 Y-2.794 Z16.000 F300.000
G1 X48.100 Y-1.379 Z16.000 F300.000
G1 X34.381 Y-15.098 Z16.000 F300.000
G1 X32.967 Y-15.098 Z16.000 F300.000
G1 X48.100 Y0.035 Z16.000 F300.000
G1 X48.100 Y1.449 Z16.000 F300.000
G1 X31.552 Y-15.098 Z16.000 F300.000
G1 X30.138 Y-15.098 Z16.000 F300.000
G1 X48.100 Y2.863 Z16.000 F300.000
G1 X48.100 Y4.278 Z16.000 F300.000
G1 X28.724 Y-15.098 Z16.000 F300.000
G1 X27.310 Y-15.098 Z16.000 F300.000
G1 X48.100 Y5.692 Z16.000 F300.000
G1 X48.100 Y7.106 Z16.000 F300.000
G1 X25.896 Y-15.098 Z16.000 F300.000
G1 X24.481 Y-15.098 Z16.000 F300.000
G1 X48.100 Y8.520 Z16.000 F300.000
G1 X48.100 Y9.934 Z16.000 F300.000
G1 X23.067 Y-15.098 Z16.000 F300.000
G1 X21.653 Y-15.098 Z16.000 F300.000
G1 X48.100 Y11.349 Z16.000 F300.000
G1 X48.100 Y12.763 Z16.000 F300.000
G1 X20.239 Y-15.098 Z16.000 F300.000
G1 X18.824 Y-15.098 Z16.000 F300.000
G1 X48.100 Y14.177 Z16.000 F300.000
G1 X48.100 Y15.070 Z16.000 F300.000
G1 X48.099 Y15.097 Z16.000 F300.000
G1 X48.072 Y15.098 Z16.000 F300.000
G1 X47.607 Y15.098 Z16.000 F300.000
G1 X17.906 Y-14.603 Z16.000 F300.000
G1 X17.906 Y-13.189 Z16.000 F300.000
G1 X46.193 Y15.098 Z16.000 F300.000
G1 X44.779 Y15.098 Z16.000 F300.000
G1 X17.906 Y-11.775 Z16.000 F300.000
G1 X17.906 Y-10.360 Z16.000 F300.000
G1 X43.365 Y15.098 Z16.000 F300.000
G1 X41.950 Y15.098 Z16.000 F300.000
G1 X17.906 Y-8.946 Z16.000 F300.000
G1 X17.906 Y-7.532 Z16.000 F300.000
G1 X40.536 Y15.098 Z16.000 F300.000
G1 X39.122 Y15.098 Z16.000 F300.000
G1 X17.906 Y-6.118 Z16.000 F300.000
G1 X17.906 Y-4.703 Z16.000 F300.000
G1 X37.708 Y15.098 Z16.000 F300.000
G1 X36.294 Y15.098 Z16.000 F300.000
G1 X17.906 Y-3.289 Z16.000 F300.000
G1 X17.906 Y-1.875 Z16.000 F300.000
G1 X34.879 Y15.098 Z16.000 F300.000
G1 X33.465 Y15.098 Z16.000 F300.000
G1 X17.906 Y-0.461 Z16.000 F300.000
G1 X17.906 Y0.953 Z16.000 F300.000
G1 X32.051 Y15.098 Z16.000 F300.000
G1 X30.637 Y15.098 Z16.000 F300.000
G1 X17.906 Y2.368 Z16.000 F300.000
G1 X17.906 Y3.782 Z16.000 F300.000
G1 X29.222 Y15.098 Z16.000 F300.000
G1 X27.808 Y15.098 Z16.000 F300.000
G1 X17.906 Y5.196 Z16.000 F300.000
G1 X17.906 Y6.610 Z16.000 F300.000
G1 X26.394 Y15.098 Z16.000 F300.000
G1 X24.980 Y15.098 Z16.000 F300.000
G1 X17.906 Y8.024 Z16.000 F300.000
G1 X17.906 Y9.439 Z16.000 F300.000
G1 X23.566 Y15.098 Z16.000 F300.000
G1 X22.151 Y15.098 Z16.000 F300.000
G1 X17.906 Y10.853 Z16.000 F300.000
G1 X17.906 Y12.267 Z16.000 F300.000
G1 X20.737 Y15.098 Z16.000 F300.000
G1 X19.323 Y15.098 Z16.000 F300.000
G1 X17.906 Y13.681 Z16.000 F300.000
G1 X17.906 Y15.070 Z16.000 F300.000
G1 X17.907 Y15.097 Z16.000 F300.000
G1 X17.907 Y15.097 Z14.000 F600.000
G1 X17.906 Y15.070 Z14.000 F300.000
G1 X17.906 Y13.681 Z14.000 F300.000
G1 X19.323 Y15.098 Z14.000 F300.000
G1 X20.737 Y15.098 Z14.000 F300.000
G1 X17.906 Y12.267 Z14.000 F300.000
G1 X17.906 Y10.853 Z14.000 F300.000
G1 X22.151 Y15.098 Z14.000 F300.000
G1 X23.566 Y15.098 Z14.000 F300.000
G1 X17.906 Y9.439 Z14.000 F300.000
G1 X17.906 Y8.024 Z14.000 F300.000
G1 X24.980 Y15.098 Z14.000 F300.000
G1 X26.394 Y15.098 Z14.000 F300.000
G1 X17.906 Y6.610 Z14.000 F300.000
G1 X17.906 Y5.196 Z14.000 F300.000
G1 X27.808 Y15.098 Z14.000 F300.000
G1 X29.222 Y15.098 Z14.000 F300.000
G1 X17.906 Y3.782 Z14.000 F300.000
G1 X17.906 Y2.368 Z14.000 F300.000
G1 X30.637 Y15.098 Z14.000 F300.000
G1 X32.051 Y15.098 Z14.000 F300.000
G1 X17.906 Y0.953 Z14.000 F300.000
G1 X17.906 Y-0.461 Z14.000 F300.000
G1 X33.465 Y15.098 Z14.000 F300.000
G1 X34.879 Y15.098 Z14.000 F300.000
G1 X17.906 Y-1.875 Z14.000 F300.000
G1 X17.906 Y-3.289 Z14.000 F300.000
G1 X36.294 Y15.098 Z14.000 F300.000
G1 X37.708 Y15.098 Z14.000 F300.000
G1 X17.906 Y-4.703 Z14.000 F300.000
G1 X17.906 Y-6.118 Z14.000 F300.000
G1 X39.122 Y15.098 Z14.000 F300.000
G1 X40.536 Y15.098 Z14.000 F300.000
G1 X17.906 Y-7.532 Z14.000 F300.000
G1 X17.906 Y-8.946 Z14.000 F300.000
G1 X41.950 Y15.098 Z14.000 F300.000
G1 X43.365 Y15.098 Z14.000 F300.000
G1 X17.906 Y-10.360 Z14.000 F300.000
G1 X17.906 Y-11.775 Z14.000 F300.000
G1 X44.779 Y15.098 Z14.000 F300.000
G1 X46.193 Y15.098 Z14.000 F300.000
G1 X17.906 Y-13.189 Z14.000 F300.000
G1 X17.906 Y-14.603 Z14.000 F300.000
G1 X47.607 Y15.098 Z14.000 F300.000
G1 X48.072 Y15.098 Z14.000 F300.000
G1 X48.099 Y15.097 Z14.000 F300.000
G1 X48.100 Y15.070 Z14.000 F300.000
G1 X48.100 Y14.177 Z14.000 F300.000
G1 X18.824 Y-15.098 Z14.000 F300.000
G1 X20.239 Y-15.098 Z14.000 F300.000
G1 X48.100 Y12.763 Z14.000 F300.000
G1 X48.100 Y11.349 Z14.000 F300.000
G1 X21.653 Y-15.098 Z14.000 F300.000
G1 X23.067 Y-15.098 Z14.000 F300.000
G1 X48.100 Y9.934 Z14.000 F300.000
G1 X48.100 Y8.520 Z14.000 F300.000
G1 X24.481 Y-15.098 Z14.000 F300.000
G1 X25.896 Y-15.098 Z14.000 F300.000
G1 X48.100 Y7.106 Z14.000 F300.000
G1 X48.100 Y5.692 Z14.000 F300.000
G1 X27.310 Y-15.098 Z14.000 F300.000
G1 X28.724 Y-15.098 Z14.000 F300.000
G1 X48.100 Y4.278 Z14.000 F300.000
G1 X48.100 Y2.863 Z14.000 F300.000
G1 X30.138 Y-15.098 Z14.000 F300.000
G1 X31.552 Y-15.098 Z14.000 F300.000
G1 X48.100 Y1.449 Z14.000 F300.000
G1 X48.100 Y0.035 Z14.000 F300.000
G1 X32.967 Y-15.098 Z14.000 F300.000
G1 X34.381 Y-15.098 Z14.000 F300.000
G1 X48.100 Y-1.379 Z14.000 F300.000
G1 X48.100 Y-2.794 Z14.000 F300.000
G1 X35.795 Y-15.098 Z14.000 F300.000
G1 X37.209 Y-15.098 Z14.000 F300.000
G1 X48.100 Y-4.208 Z14.000 F300.000
G1 X48.100 Y-5.622 Z14.000 F300.000
G1 X38.623 Y-15.098 Z14.000 F300.000
G1 X40.038 Y-15.098 Z14.000 F300.000
G1 X48.100 Y-7.036 Z14.000 F300.000
G1 X48.100 Y-8.450 Z14.000 F300.000
G1 X41.452 Y-15.098 Z14.000 F300.000
G1 X42.866 Y-15.098 Z14.000 F300.000
G1 X48.100 Y-9.865 Z14.000 F300.000
G1 X48.100 Y-11.279 Z14.000 F300.000
G1 X44.280 Y-15.098 Z14.000 F300.000
G1 X45.695 Y-15.098 Z14.000 F300.000
G1 X48.100 Y-12.693 Z14.000 F300.000
G1 X48.100 Y-14.107 Z14.000 F300.000
G1 X47.109 Y-15.098 Z14.000 F300.000
G1 X48.072 Y-15.098 Z14.000 F300.000
G1 X48.099 Y-15.097 Z14.000 F300.000
G1 X48.100 Y-15.070 Z14.000 F300.000
G1 X48.100 Y15.070 Z14.000 F300.000
G1 X48.099 Y15.097 Z14.000 F300.000
G1 X48.072 Y15.098 Z14.000 F300.000
G1 X17.934 Y15.098 Z14.000 F300.000
G1 X17.907 Y15.097 Z14.000 F300.000
G1 X17.906 Y15.070 Z14.000 F300.000
G1 X17.906 Y-15.070 Z14.000 F300.000
G1 X17.907 Y-15.097 Z14.000 F300.000
G1 X17.934 Y-15.099 Z14.000 F300.000
G1 X48.072 Y-15.099 Z14.000 F300.000
G1 X48.099 Y-15.097 Z14.000 F300.000
G1 X48.100 Y-15.070 Z14.000 F300.000
G1 X48.100 Y-14.107 Z14.000 F300.000
G1 X48.100 Y-14.107 Z12.000 F600.000
G1 X48.100 Y-15.070 Z12.000 F300.000
G1 X48.099 Y-15.097 Z12.000 F300.000
G1 X48.072 Y-15.099 Z12.000 F300.000
G1 X17.934 Y-15.099 Z12.000 F300.000
G1 X17.907 Y-15.097 Z12.000 F300.000
G1 X17.906 Y-15.070 Z12.000 F300.000
G1 X17.906 Y15.070 Z12.000 F300.000
G1 X17.907 Y15.097 Z12.000 F300.000
G1 X17.934 Y15.098 Z12.000 F300.000
G1 X48.072 Y15.098 Z12.000 F300.000
G1 X48.099 Y15.097 Z12.000 F300.000
G1 X48.100 Y15.070 Z12.000 F300.000
G1 X48.100 Y-15.070 Z12.000 F300.000
G1 X48.099 Y-15.097 Z12.000 F300.000
G1 X48.072 Y-15.098 Z12.000 F300.000
G1 X47.109 Y-15.098 Z12.000 F300.000
G1 X48.100 Y-14.107 Z12.000 F300.000
G1 X48.100 Y-12.693 Z12.000 F300.000
G1 X45.695 Y-15.098 Z12.000 F300.000
G1 X44.280 Y-15.098 Z12.000 F300.000
G1 X48.100 Y-11.279 Z12.000 F300.000
G1 X48.100 Y-9.865 Z12.000 F300.000
G1 X42.866 Y-15.098 Z12.000 F300.000
G1 X41.452 Y-15.098 Z12.000 F300.000
G1 X48.100 Y-8.450 Z12.000 F300.000
G1 X48.100 Y-7.036 Z12.000 F300.000
G1 X40.038 Y-15.098 Z12.000 F300.000
G1 X38.623 Y-15.098 Z12.000 F300.000
G1 X48.100 Y-5.622 Z12.000 F300.000
G1 X48.100 Y-4.208 Z12.000 F300.000
G1 X37.209 Y-15.098 Z12.000 F300.000
G1 X35.795 Y-15.098 Z12.000 F300.000
G1 X48.100 Y-2.794 Z12.000 F300.000
G1 X48.100 Y-1.379 Z12.000 F300.000
G1 X34.381 Y-15.098 Z12.000 F300.000
G1 X32.967 Y-15.098 Z12.000 F300.000
G1 X48.100 Y0.035 Z12.000 F300.000
G1 X48.100 Y1.449 Z12.000 F300.000
G1 X31.552 Y-15.098 Z12.000 F300.000
G1 X30.138 Y-15.098 Z12.000 F300.000
G1 X48.100 Y2.863 Z12.000 F300.000
G1 X48.100 Y4.278 Z12.000 F300.000
G1 X28.724 Y-15.098 Z12.000 F300.000
G1 X27.310 Y-15.098 Z12.000 F300.000
G1 X48.100 Y5.692 Z12.000 F300.000
G1 X48.100 Y7.106 Z12.000 F300.000
G1 X25.896 Y-15.098 Z12.000 F300.000
G1 X24.481 Y-15.098 Z12.000 F300.000
G1 X48.100 Y8.520 Z12.000 F300.000
G1 X48.100 Y9.934 Z12.000 F300.000
G1 X23.067 Y-15.098 Z12.000 F300.000
G1 X21.653 Y-15.098 Z12.000 F300.000
G1 X48.100 Y11.349 Z12.000 F300.000
G1 X48.100 Y12.763 Z12.000 F300.000
G1 X20.239 Y-15.098 Z12.000 F300.000
G1 X18.824 Y-15.098 Z12.000 F300.000
G1 X48.100 Y14.177 Z12.000 F300.000
G1 X48.100 Y15.070 Z12.000 F300.000
G1 X48.099 Y15.097 Z12.000 F300.000
G1 X48.072 Y15.098 Z12.000 F300.000
G1 X47.607 Y15.098 Z12.000 F300.000
G1 X17.906 Y-14.603 Z12.000 F300.000
G1 X17.906 Y-13.189 Z12.000 F300.000
G1 X46.193 Y15.098 Z12.000 F300.000
G1 X44.779 Y15.098 Z12.000 F300.000
G1 X17.906 Y-11.775 Z12.000 F300.000
G1 X17.906 Y-10.360 Z12.000 F300.000
G1 X43.365 Y15.098 Z12.000 F300.000
G1 X41.950 Y15.098 Z12.000 F300.000
G1 X17.906 Y-8.946 Z12.000 F300.000
G1 X17.906 Y-7.532 Z12.000 F300.000
G1 X40.536 Y15.098 Z12.000 F300.000
G1 X39.122 Y15.098 Z12.000 F300.000
G1 X17.906 Y-6.118 Z12.000 F300.000
G1 X17.906 Y-4.703 Z12.000 F300.000
G1 X37.708 Y15.098 Z12.000 F300.000
G1 X36.294 Y15.098 Z12.000 F300.000
G1 X17.906 Y-3.289 Z12.000 F300.000
G1 X17.906 Y-1.875 Z12.000 F300.000
G1 X34.879 Y15.098 Z12.000 F300.000
G1 X33.465 Y15.098 Z12.000 F300.000
G1 X17.906 Y-0.461 Z12.000 F300.000
G1 X17.906 Y0.953 Z12.000 F300.000
G1 X32.051 Y15.098 Z12.000 F300.000
G1 X30.637 Y15.098 Z12.000 F300.000
G1 X17.906 Y2.368 Z12.000 F300.000
G1 X17.906 Y3.782 Z12.000 F300.000
G1 X29.222 Y15.098 Z12.000 F300.000
G1 X27.808 Y15.098 Z12.000 F300.000
G1 X17.906 Y5.196 Z12.000 F300.000
G1 X17.906 Y6.610 Z12.000 F300.000
G1 X26.394 Y15.098 Z12.000 F300.000
G1 X24.980 Y15.098 Z12.000 F300.000
G1 X17.906 Y8.024 Z12.000 F300.000
G1 X17.906 Y9.439 Z12.000 F300.000
G1 X23.566 Y15.098 Z12.000 F300.000
G1 X22.151 Y15.098 Z12.000 F300.000
G1 X17.906 Y10.853 Z12.000 F300.000
G1 X17.906 Y12.267 Z12.000 F300.000
G1 X20.737 Y15.098 Z12.000 F300.000
G1 X19.323 Y15.098 Z12.000 F300.000
G1 X17.906 Y13.681 Z12.000 F300.000
G1 X17.906 Y15.070 Z12.000 F300.000
G1 X17.907 Y15.097 Z12.000 F300.000
G0 Z23.000
G0 Z23.000
(Finish operation: MillFace001)
(Begin operation: Pocket_Shape001)
(Path: Pocket_Shape001)
(Pocket_Shape001)
G0 Z23.000
G0 X33.700 Y8.200
G0 Z21.000
G1 X33.700 Y8.200 Z10.000 F600.000
G2 X33.728 Y6.830 Z10.000 I-0.700 J-0.700 K0.000 F300.000
G2 X32.330 Y6.772 Z10.000 I-0.728 J0.670 K0.000 F300.000
G2 X32.272 Y8.170 Z10.000 I0.670 J0.728 K0.000 F300.000
G2 X33.728 Y6.830 Z10.000 I0.728 J-0.670 K0.000 F300.000
G2 X32.330 Y6.772 Z10.000 I-0.728 J0.670 K0.000 F300.000
G2 X32.272 Y8.170 Z10.000 I0.670 J0.728 K0.000 F300.000
G2 X33.700 Y8.200 Z10.000 I0.728 J-0.670 K0.000 F300.000
G1 X33.700 Y8.200 Z8.000 F600.000
G2 X33.728 Y6.830 Z8.000 I-0.700 J-0.700 K0.000 F300.000
G2 X32.330 Y6.772 Z8.000 I-0.728 J0.670 K0.000 F300.000
G2 X32.272 Y8.170 Z8.000 I0.670 J0.728 K0.000 F300.000
G2 X33.728 Y6.830 Z8.000 I0.728 J-0.670 K0.000 F300.000
G2 X32.330 Y6.772 Z8.000 I-0.728 J0.670 K0.000 F300.000
G2 X32.272 Y8.170 Z8.000 I0.670 J0.728 K0.000 F300.000
G2 X33.700 Y8.200 Z8.000 I0.728 J-0.670 K0.000 F300.000
G1 X33.700 Y8.200 Z6.000 F600.000
G2 X33.728 Y6.830 Z6.000 I-0.700 J-0.700 K0.000 F300.000
G2 X32.330 Y6.772 Z6.000 I-0.728 J0.670 K0.000 F300.000
G2 X32.272 Y8.170 Z6.000 I0.670 J0.728 K0.000 F300.000
G2 X33.728 Y6.830 Z6.000 I0.728 J-0.670 K0.000 F300.000
G2 X32.330 Y6.772 Z6.000 I-0.728 J0.670 K0.000 F300.000
G2 X32.272 Y8.170 Z6.000 I0.670 J0.728 K0.000 F300.000
G2 X33.700 Y8.200 Z6.000 I0.728 J-0.670 K0.000 F300.000
G1 X33.700 Y8.200 Z4.000 F600.000
G2 X33.728 Y6.830 Z4.000 I-0.700 J-0.700 K0.000 F300.000
G2 X32.330 Y6.772 Z4.000 I-0.728 J0.670 K0.000 F300.000
G2 X32.272 Y8.170 Z4.000 I0.670 J0.728 K0.000 F300.000
G2 X33.728 Y6.830 Z4.000 I0.728 J-0.670 K0.000 F300.000
G2 X32.330 Y6.772 Z4.000 I-0.728 J0.670 K0.000 F300.000
G2 X32.272 Y8.170 Z4.000 I0.670 J0.728 K0.000 F300.000
G2 X33.700 Y8.200 Z4.000 I0.728 J-0.670 K0.000 F300.000
G1 X33.700 Y8.200 Z2.000 F600.000
G2 X33.728 Y6.830 Z2.000 I-0.700 J-0.700 K0.000 F300.000
G2 X32.330 Y6.772 Z2.000 I-0.728 J0.670 K0.000 F300.000
G2 X32.272 Y8.170 Z2.000 I0.670 J0.728 K0.000 F300.000
G2 X33.728 Y6.830 Z2.000 I0.728 J-0.670 K0.000 F300.000
G2 X32.330 Y6.772 Z2.000 I-0.728 J0.670 K0.000 F300.000
G2 X32.272 Y8.170 Z2.000 I0.670 J0.728 K0.000 F300.000
G2 X33.700 Y8.200 Z2.000 I0.728 J-0.670 K0.000 F300.000
G1 X33.700 Y8.200 Z0.000 F600.000
G2 X33.728 Y6.830 Z0.000 I-0.700 J-0.700 K0.000 F300.000
G2 X32.330 Y6.772 Z0.000 I-0.728 J0.670 K0.000 F300.000
G2 X32.272 Y8.170 Z0.000 I0.670 J0.728 K0.000 F300.000
G2 X33.728 Y6.830 Z0.000 I0.728 J-0.670 K0.000 F300.000
G2 X32.330 Y6.772 Z0.000 I-0.728 J0.670 K0.000 F300.000
G2 X32.272 Y8.170 Z0.000 I0.670 J0.728 K0.000 F300.000
G2 X33.700 Y8.200 Z0.000 I0.728 J-0.670 K0.000 F300.000
G0 Z23.000
G0 Z23.000
G0 X33.700 Y8.200
G0 X33.365 Y4.280
G0 X33.365 Y4.280 Z21.000
G1 X33.365 Y4.280 Z10.000 F600.000
G2 X33.010 Y-4.296 Z10.000 I-0.365 J-4.280 K0.000 F300.000
G2 X32.990 Y4.296 Z10.000 I-0.010 J4.296 K0.000 F300.000
G2 X33.365 Y4.280 Z10.000 I0.010 J-4.296 K0.000 F300.000
G0 Z23.000
G0 X30.033 Y3.107 Z23.000
G0 X30.033 Y3.107 Z21.000
G1 X30.033 Y3.107 Z10.000 F600.000
G3 X28.810 Y-0.944 Z10.000 I2.962 J-3.104 K0.000 F300.000
G1 X33.944 Y4.189 Z10.000 F300.000
G2 X35.821 Y3.238 Z10.000 I-0.927 J-4.159 K0.000 F300.000
G1 X29.761 Y-2.822 Z10.000 F300.000
G3 X31.419 Y-3.993 Z10.000 I3.218 J2.795 K0.000 F300.000
G1 X36.993 Y1.581 Z10.000 F300.000
G2 X37.157 Y-1.083 Z10.000 I-3.976 J-1.582 K0.000 F300.000
G1 X34.083 Y-4.157 Z10.000 F300.000
G3 X37.157 Y-1.083 Z10.000 I-1.082 J4.156 K0.000 F300.000
G1 X37.157 Y-1.083 Z8.000 F600.000
G2 X34.083 Y-4.157 Z8.000 I-4.156 J1.082 K0.000 F300.000
G1 X37.157 Y-1.083 Z8.000 F300.000
G3 X36.993 Y1.581 Z8.000 I-4.140 J1.083 K0.000 F300.000
G1 X31.419 Y-3.993 Z8.000 F300.000
G2 X29.761 Y-2.822 Z8.000 I1.560 J3.966 K0.000 F300.000
G1 X35.821 Y3.238 Z8.000 F300.000
G3 X33.944 Y4.189 Z8.000 I-2.805 J-3.207 K0.000 F300.000
G1 X28.810 Y-0.944 Z8.000 F300.000
G2 X30.033 Y3.107 Z8.000 I4.185 J0.947 K0.000 F300.000
G0 Z23.000
G0 Z23.000
G0 Z21.000
G1 X30.033 Y3.107 Z8.000 F600.000
G2 X32.990 Y4.296 Z8.000 I2.967 J-3.107 K0.000 F300.000
G2 X37.296 Y0.010 Z8.000 I0.010 J-4.296 K0.000 F300.000
G2 X33.010 Y-4.296 Z8.000 I-4.296 J-0.010 K0.000 F300.000
G2 X30.033 Y3.107 Z8.000 I-0.010 J4.296 K0.000 F300.000
G1 X30.033 Y3.107 Z6.000 F600.000
G2 X32.990 Y4.296 Z6.000 I2.967 J-3.107 K0.000 F300.000
G2 X37.296 Y0.010 Z6.000 I0.010 J-4.296 K0.000 F300.000
G2 X33.010 Y-4.296 Z6.000 I-4.296 J-0.010 K0.000 F300.000
G2 X30.033 Y3.107 Z6.000 I-0.010 J4.296 K0.000 F300.000
G0 Z23.000
G0 Z23.000
G0 Z21.000
G1 X30.033 Y3.107 Z6.000 F600.000
G3 X28.810 Y-0.944 Z6.000 I2.962 J-3.104 K0.000 F300.000
G1 X33.944 Y4.189 Z6.000 F300.000
G2 X35.821 Y3.238 Z6.000 I-0.927 J-4.159 K0.000 F300.000
G1 X29.761 Y-2.822 Z6.000 F300.000
G3 X31.419 Y-3.993 Z6.000 I3.218 J2.795 K0.000 F300.000
G1 X36.993 Y1.581 Z6.000 F300.000
G2 X37.157 Y-1.083 Z6.000 I-3.976 J-1.582 K0.000 F300.000
G1 X34.083 Y-4.157 Z6.000 F300.000
G3 X37.157 Y-1.083 Z6.000 I-1.082 J4.156 K0.000 F300.000
G1 X37.157 Y-1.083 Z4.000 F600.000
G2 X34.083 Y-4.157 Z4.000 I-4.156 J1.082 K0.000 F300.000
G1 X37.157 Y-1.083 Z4.000 F300.000
G3 X36.993 Y1.581 Z4.000 I-4.140 J1.083 K0.000 F300.000
G1 X31.419 Y-3.993 Z4.000 F300.000
G2 X29.761 Y-2.822 Z4.000 I1.560 J3.966 K0.000 F300.000
G1 X35.821 Y3.238 Z4.000 F300.000
G3 X33.944 Y4.189 Z4.000 I-2.805 J-3.207 K0.000 F300.000
G1 X28.810 Y-0.944 Z4.000 F300.000
G2 X30.033 Y3.107 Z4.000 I4.185 J0.947 K0.000 F300.000
G0 Z23.000
G0 Z23.000
G0 Z21.000
G1 X30.033 Y3.107 Z4.000 F600.000
G2 X32.990 Y4.296 Z4.000 I2.967 J-3.107 K0.000 F300.000
G2 X37.296 Y0.010 Z4.000 I0.010 J-4.296 K0.000 F300.000
G2 X33.010 Y-4.296 Z4.000 I-4.296 J-0.010 K0.000 F300.000
G2 X30.033 Y3.107 Z4.000 I-0.010 J4.296 K0.000 F300.000
G1 X30.033 Y3.107 Z2.000 F600.000
G2 X32.990 Y4.296 Z2.000 I2.967 J-3.107 K0.000 F300.000
G2 X37.296 Y0.010 Z2.000 I0.010 J-4.296 K0.000 F300.000
G2 X33.010 Y-4.296 Z2.000 I-4.296 J-0.010 K0.000 F300.000
G2 X30.033 Y3.107 Z2.000 I-0.010 J4.296 K0.000 F300.000
G0 Z23.000
G0 Z23.000
G0 Z21.000
G1 X30.033 Y3.107 Z2.000 F600.000
G3 X28.810 Y-0.944 Z2.000 I2.962 J-3.104 K0.000 F300.000
G1 X33.944 Y4.189 Z2.000 F300.000
G2 X35.821 Y3.238 Z2.000 I-0.927 J-4.159 K0.000 F300.000
G1 X29.761 Y-2.822 Z2.000 F300.000
G3 X31.419 Y-3.993 Z2.000 I3.218 J2.795 K0.000 F300.000
G1 X36.993 Y1.581 Z2.000 F300.000
G2 X37.157 Y-1.083 Z2.000 I-3.976 J-1.582 K0.000 F300.000
G1 X34.083 Y-4.157 Z2.000 F300.000
G3 X37.157 Y-1.083 Z2.000 I-1.082 J4.156 K0.000 F300.000
G1 X37.157 Y-1.083 Z0.000 F600.000
G2 X34.083 Y-4.157 Z0.000 I-4.156 J1.082 K0.000 F300.000
G1 X37.157 Y-1.083 Z0.000 F300.000
G3 X36.993 Y1.581 Z0.000 I-4.140 J1.083 K0.000 F300.000
G1 X31.419 Y-3.993 Z0.000 F300.000
G2 X29.761 Y-2.822 Z0.000 I1.560 J3.966 K0.000 F300.000
G1 X35.821 Y3.238 Z0.000 F300.000
G3 X33.944 Y4.189 Z0.000 I-2.805 J-3.207 K0.000 F300.000
G1 X28.810 Y-0.944 Z0.000 F300.000
G2 X30.033 Y3.107 Z0.000 I4.185 J0.947 K0.000 F300.000
G0 Z23.000
G0 Z23.000
G0 Z21.000
G1 X30.033 Y3.107 Z0.000 F600.000
G2 X32.990 Y4.296 Z0.000 I2.967 J-3.107 K0.000 F300.000
G2 X37.296 Y0.010 Z0.000 I0.010 J-4.296 K0.000 F300.000
G2 X33.010 Y-4.296 Z0.000 I-4.296 J-0.010 K0.000 F300.000
G2 X30.033 Y3.107 Z0.000 I-0.010 J4.296 K0.000 F300.000
G0 Z23.000
G0 Z23.000
(Finish operation: Pocket_Shape001)
(Begin operation: MillFace002)
(Path: MillFace002)
(MillFace002)
G0 Z23.000
G0 X81.100 Y-14.107
G0 Z21.000
G1 X81.100 Y-14.107 Z16.000 F600.000
G1 X81.100 Y-15.070 Z16.000 F300.000
G1 X81.099 Y-15.097 Z16.000 F300.000
G1 X81.072 Y-15.099 Z16.000 F300.000
G1 X50.934 Y-15.099 Z16.000 F300.000
G1 X50.907 Y-15.097 Z16.000 F300.000
G1 X50.906 Y-15.070 Z16.000 F300.000
G1 X50.906 Y15.070 Z16.000 F300.000
G1 X50.907 Y15.097 Z16.000 F300.000
G1 X50.934 Y15.098 Z16.000 F300.000
G1 X81.072 Y15.098 Z16.000 F300.000
G1 X81.099 Y15.097 Z16.000 F300.000
G1 X81.100 Y15.070 Z16.000 F300.000
G1 X81.100 Y-15.070 Z16.000 F300.000
G1 X81.099 Y-15.097 Z16.000 F300.000
G1 X81.072 Y-15.098 Z16.000 F300.000
G1 X80.109 Y-15.098 Z16.000 F300.000
G1 X81.100 Y-14.107 Z16.000 F300.000
G1 X81.100 Y-12.693 Z16.000 F300.000
G1 X78.695 Y-15.098 Z16.000 F300.000
G1 X77.280 Y-15.098 Z16.000 F300.000
G1 X81.100 Y-11.279 Z16.000 F300.000
G1 X81.100 Y-9.865 Z16.000 F300.000
G1 X75.866 Y-15.098 Z16.000 F300.000
G1 X74.452 Y-15.098 Z16.000 F300.000
G1 X81.100 Y-8.450 Z16.000 F300.000
G1 X81.100 Y-7.036 Z16.000 F300.000
G1 X73.038 Y-15.098 Z16.000 F300.000
G1 X71.623 Y-15.098 Z16.000 F300.000
G1 X81.100 Y-5.622 Z16.000 F300.000
G1 X81.100 Y-4.208 Z16.000 F300.000
G1 X70.209 Y-15.098 Z16.000 F300.000
G1 X68.795 Y-15.098 Z16.000 F300.000
G1 X81.100 Y-2.794 Z16.000 F300.000
G1 X81.100 Y-1.379 Z16.000 F300.000
G1 X67.381 Y-15.098 Z16.000 F300.000
G1 X65.967 Y-15.098 Z16.000 F300.000
G1 X81.100 Y0.035 Z16.000 F300.000
G1 X81.100 Y1.449 Z16.000 F300.000
G1 X64.552 Y-15.098 Z16.000 F300.000
G1 X63.138 Y-15.098 Z16.000 F300.000
G1 X81.100 Y2.863 Z16.000 F300.000
G1 X81.100 Y4.278 Z16.000 F300.000
G1 X61.724 Y-15.098 Z16.000 F300.000
G1 X60.310 Y-15.098 Z16.000 F300.000
G1 X81.100 Y5.692 Z16.000 F300.000
G1 X81.100 Y7.106 Z16.000 F300.000
G1 X58.896 Y-15.098 Z16.000 F300.000
G1 X57.481 Y-15.098 Z16.000 F300.000
G1 X81.100 Y8.520 Z16.000 F300.000
G1 X81.100 Y9.934 Z16.000 F300.000
G1 X56.067 Y-15.098 Z16.000 F300.000
G1 X54.653 Y-15.098 Z16.000 F300.000
G1 X81.100 Y11.349 Z16.000 F300.000
G1 X81.100 Y12.763 Z16.000 F300.000
G1 X53.239 Y-15.098 Z16.000 F300.000
G1 X51.824 Y-15.098 Z16.000 F300.000
G1 X81.100 Y14.177 Z16.000 F300.000
G1 X81.100 Y15.070 Z16.000 F300.000
G1 X81.099 Y15.097 Z16.000 F300.000
G1 X81.072 Y15.098 Z16.000 F300.000
G1 X80.607 Y15.098 Z16.000 F300.000
G1 X50.906 Y-14.603 Z16.000 F300.000
G1 X50.906 Y-13.189 Z16.000 F300.000
G1 X79.193 Y15.098 Z16.000 F300.000
G1 X77.779 Y15.098 Z16.000 F300.000
G1 X50.906 Y-11.775 Z16.000 F300.000
G1 X50.906 Y-10.360 Z16.000 F300.000
G1 X76.365 Y15.098 Z16.000 F300.000
G1 X74.950 Y15.098 Z16.000 F300.000
G1 X50.906 Y-8.946 Z16.000 F300.000
G1 X50.906 Y-7.532 Z16.000 F300.000
G1 X73.536 Y15.098 Z16.000 F300.000
G1 X72.122 Y15.098 Z16.000 F300.000
G1 X50.906 Y-6.118 Z16.000 F300.000
G1 X50.906 Y-4.703 Z16.000 F300.000
G1 X70.708 Y15.098 Z16.000 F300.000
G1 X69.294 Y15.098 Z16.000 F300.000
G1 X50.906 Y-3.289 Z16.000 F300.000
G1 X50.906 Y-1.875 Z16.000 F300.000
G1 X67.879 Y15.098 Z16.000 F300.000
G1 X66.465 Y15.098 Z16.000 F300.000
G1 X50.906 Y-0.461 Z16.000 F300.000
G1 X50.906 Y0.953 Z16.000 F300.000
G1 X65.051 Y15.098 Z16.000 F300.000
G1 X63.637 Y15.098 Z16.000 F300.000
G1 X50.906 Y2.368 Z16.000 F300.000
G1 X50.906 Y3.782 Z16.000 F300.000
G1 X62.222 Y15.098 Z16.000 F300.000
G1 X60.808 Y15.098 Z16.000 F300.000
G1 X50.906 Y5.196 Z16.000 F300.000
G1 X50.906 Y6.610 Z16.000 F300.000
G1 X59.394 Y15.098 Z16.000 F300.000
G1 X57.980 Y15.098 Z16.000 F300.000
G1 X50.906 Y8.024 Z16.000 F300.000
G1 X50.906 Y9.439 Z16.000 F300.000
G1 X56.566 Y15.098 Z16.000 F300.000
G1 X55.151 Y15.098 Z16.000 F300.000
G1 X50.906 Y10.853 Z16.000 F300.000
G1 X50.906 Y12.267 Z16.000 F300.000
G1 X53.737 Y15.098 Z16.000 F300.000
G1 X52.323 Y15.098 Z16.000 F300.000
G1 X50.906 Y13.681 Z16.000 F300.000
G1 X50.906 Y15.070 Z16.000 F300.000
G1 X50.907 Y15.097 Z16.000 F300.000
G1 X50.907 Y15.097 Z14.000 F600.000
G1 X50.906 Y15.070 Z14.000 F300.000
G1 X50.906 Y13.681 Z14.000 F300.000
G1 X52.323 Y15.098 Z14.000 F300.000
G1 X53.737 Y15.098 Z14.000 F300.000
G1 X50.906 Y12.267 Z14.000 F300.000
G1 X50.906 Y10.853 Z14.000 F300.000
G1 X55.151 Y15.098 Z14.000 F300.000
G1 X56.566 Y15.098 Z14.000 F300.000
G1 X50.906 Y9.439 Z14.000 F300.000
G1 X50.906 Y8.024 Z14.000 F300.000
G1 X57.980 Y15.098 Z14.000 F300.000
G1 X59.394 Y15.098 Z14.000 F300.000
G1 X50.906 Y6.610 Z14.000 F300.000
G1 X50.906 Y5.196 Z14.000 F300.000
G1 X60.808 Y15.098 Z14.000 F300.000
G1 X62.222 Y15.098 Z14.000 F300.000
G1 X50.906 Y3.782 Z14.000 F300.000
G1 X50.906 Y2.368 Z14.000 F300.000
G1 X63.637 Y15.098 Z14.000 F300.000
G1 X65.051 Y15.098 Z14.000 F300.000
G1 X50.906 Y0.953 Z14.000 F300.000
G1 X50.906 Y-0.461 Z14.000 F300.000
G1 X66.465 Y15.098 Z14.000 F300.000
G1 X67.879 Y15.098 Z14.000 F300.000
G1 X50.906 Y-1.875 Z14.000 F300.000
G1 X50.906 Y-3.289 Z14.000 F300.000
G1 X69.294 Y15.098 Z14.000 F300.000
G1 X70.708 Y15.098 Z14.000 F300.000
G1 X50.906 Y-4.703 Z14.000 F300.000
G1 X50.906 Y-6.118 Z14.000 F300.000
G1 X72.122 Y15.098 Z14.000 F300.000
G1 X73.536 Y15.098 Z14.000 F300.000
G1 X50.906 Y-7.532 Z14.000 F300.000
G1 X50.906 Y-8.946 Z14.000 F300.000
G1 X74.950 Y15.098 Z14.000 F300.000
G1 X76.365 Y15.098 Z14.000 F300.000
G1 X50.906 Y-10.360 Z14.000 F300.000
G1 X50.906 Y-11.775 Z14.000 F300.000
G1 X77.779 Y15.098 Z14.000 F300.000
G1 X79.193 Y15.098 Z14.000 F300.000
G1 X50.906 Y-13.189 Z14.000 F300.000
G1 X50.906 Y-14.603 Z14.000 F300.000
G1 X80.607 Y15.098 Z14.000 F300.000
G1 X81.072 Y15.098 Z14.000 F300.000
G1 X81.099 Y15.097 Z14.000 F300.000
G1 X81.100 Y15.070 Z14.000 F300.000
G1 X81.100 Y14.177 Z14.000 F300.000
G1 X51.824 Y-15.098 Z14.000 F300.000
G1 X53.239 Y-15.098 Z14.000 F300.000
G1 X81.100 Y12.763 Z14.000 F300.000
G1 X81.100 Y11.349 Z14.000 F300.000
G1 X54.653 Y-15.098 Z14.000 F300.000
G1 X56.067 Y-15.098 Z14.000 F300.000
G1 X81.100 Y9.934 Z14.000 F300.000
G1 X81.100 Y8.520 Z14.000 F300.000
G1 X57.481 Y-15.098 Z14.000 F300.000
G1 X58.896 Y-15.098 Z14.000 F300.000
G1 X81.100 Y7.106 Z14.000 F300.000
G1 X81.100 Y5.692 Z14.000 F300.000
G1 X60.310 Y-15.098 Z14.000 F300.000
G1 X61.724 Y-15.098 Z14.000 F300.000
G1 X81.100 Y4.278 Z14.000 F300.000
G1 X81.100 Y2.863 Z14.000 F300.000
G1 X63.138 Y-15.098 Z14.000 F300.000
G1 X64.552 Y-15.098 Z14.000 F300.000
G1 X81.100 Y1.449 Z14.000 F300.000
G1 X81.100 Y0.035 Z14.000 F300.000
G1 X65.967 Y-15.098 Z14.000 F300.000
G1 X67.381 Y-15.098 Z14.000 F300.000
G1 X81.100 Y-1.379 Z14.000 F300.000
G1 X81.100 Y-2.794 Z14.000 F300.000
G1 X68.795 Y-15.098 Z14.000 F300.000
G1 X70.209 Y-15.098 Z14.000 F300.000
G1 X81.100 Y-4.208 Z14.000 F300.000
G1 X81.100 Y-5.622 Z14.000 F300.000
G1 X71.623 Y-15.098 Z14.000 F300.000
G1 X73.038 Y-15.098 Z14.000 F300.000
G1 X81.100 Y-7.036 Z14.000 F300.000
G1 X81.100 Y-8.450 Z14.000 F300.000
G1 X74.452 Y-15.098 Z14.000 F300.000
G1 X75.866 Y-15.098 Z14.000 F300.000
G1 X81.100 Y-9.865 Z14.000 F300.000
G1 X81.100 Y-11.279 Z14.000 F300.000
G1 X77.280 Y-15.098 Z14.000 F300.000
G1 X78.695 Y-15.098 Z14.000 F300.000
G1 X81.100 Y-12.693 Z14.000 F300.000
G1 X81.100 Y-14.107 Z14.000 F300.000
G1 X80.109 Y-15.098 Z14.000 F300.000
G1 X81.072 Y-15.098 Z14.000 F300.000
G1 X81.099 Y-15.097 Z14.000 F300.000
G1 X81.100 Y-15.070 Z14.000 F300.000
G1 X81.100 Y15.070 Z14.000 F300.000
G1 X81.099 Y15.097 Z14.000 F300.000
G1 X81.072 Y15.098 Z14.000 F300.000
G1 X50.934 Y15.098 Z14.000 F300.000
G1 X50.907 Y15.097 Z14.000 F300.000
G1 X50.906 Y15.070 Z14.000 F300.000
G1 X50.906 Y-15.070 Z14.000 F300.000
G1 X50.907 Y-15.097 Z14.000 F300.000
G1 X50.934 Y-15.099 Z14.000 F300.000
G1 X81.072 Y-15.099 Z14.000 F300.000
G1 X81.099 Y-15.097 Z14.000 F300.000
G1 X81.100 Y-15.070 Z14.000 F300.000
G1 X81.100 Y-14.107 Z14.000 F300.000
G1 X81.100 Y-14.107 Z12.000 F600.000
G1 X81.100 Y-15.070 Z12.000 F300.000
G1 X81.099 Y-15.097 Z12.000 F300.000
G1 X81.072 Y-15.099 Z12.000 F300.000
G1 X50.934 Y-15.099 Z12.000 F300.000
G1 X50.907 Y-15.097 Z12.000 F300.000
G1 X50.906 Y-15.070 Z12.000 F300.000
G1 X50.906 Y15.070 Z12.000 F300.000
G1 X50.907 Y15.097 Z12.000 F300.000
G1 X50.934 Y15.098 Z12.000 F300.000
G1 X81.072 Y15.098 Z12.000 F300.000
G1 X81.099 Y15.097 Z12.000 F300.000
G1 X81.100 Y15.070 Z12.000 F300.000
G1 X81.100 Y-15.070 Z12.000 F300.000
G1 X81.099 Y-15.097 Z12.000 F300.000
G1 X81.072 Y-15.098 Z12.000 F300.000
G1 X80.109 Y-15.098 Z12.000 F300.000
G1 X81.100 Y-14.107 Z12.000 F300.000
G1 X81.100 Y-12.693 Z12.000 F300.000
G1 X78.695 Y-15.098 Z12.000 F300.000
G1 X77.280 Y-15.098 Z12.000 F300.000
G1 X81.100 Y-11.279 Z12.000 F300.000
G1 X81.100 Y-9.865 Z12.000 F300.000
G1 X75.866 Y-15.098 Z12.000 F300.000
G1 X74.452 Y-15.098 Z12.000 F300.000
G1 X81.100 Y-8.450 Z12.000 F300.000
G1 X81.100 Y-7.036 Z12.000 F300.000
G1 X73.038 Y-15.098 Z12.000 F300.000
G1 X71.623 Y-15.098 Z12.000 F300.000
G1 X81.100 Y-5.622 Z12.000 F300.000
G1 X81.100 Y-4.208 Z12.000 F300.000
G1 X70.209 Y-15.098 Z12.000 F300.000
G1 X68.795 Y-15.098 Z12.000 F300.000
G1 X81.100 Y-2.794 Z12.000 F300.000
G1 X81.100 Y-1.379 Z12.000 F300.000
G1 X67.381 Y-15.098 Z12.000 F300.000
G1 X65.967 Y-15.098 Z12.000 F300.000
G1 X81.100 Y0.035 Z12.000 F300.000
G1 X81.100 Y1.449 Z12.000 F300.000
G1 X64.552 Y-15.098 Z12.000 F300.000
G1 X63.138 Y-15.098 Z12.000 F300.000
G1 X81.100 Y2.863 Z12.000 F300.000
G1 X81.100 Y4.278 Z12.000 F300.000
G1 X61.724 Y-15.098 Z12.000 F300.000
G1 X60.310 Y-15.098 Z12.000 F300.000
G1 X81.100 Y5.692 Z12.000 F300.000
G1 X81.100 Y7.106 Z12.000 F300.000
G1 X58.896 Y-15.098 Z12.000 F300.000
G1 X57.481 Y-15.098 Z12.000 F300.000
G1 X81.100 Y8.520 Z12.000 F300.000
G1 X81.100 Y9.934 Z12.000 F300.000
G1 X56.067 Y-15.098 Z12.000 F300.000
G1 X54.653 Y-15.098 Z12.000 F300.000
G1 X81.100 Y11.349 Z12.000 F300.000
G1 X81.100 Y12.763 Z12.000 F300.000
G1 X53.239 Y-15.098 Z12.000 F300.000
G1 X51.824 Y-15.098 Z12.000 F300.000
G1 X81.100 Y14.177 Z12.000 F300.000
G1 X81.100 Y15.070 Z12.000 F300.000
G1 X81.099 Y15.097 Z12.000 F300.000
G1 X81.072 Y15.098 Z12.000 F300.000
G1 X80.607 Y15.098 Z12.000 F300.000
G1 X50.906 Y-14.603 Z12.000 F300.000
G1 X50.906 Y-13.189 Z12.000 F300.000
G1 X79.193 Y15.098 Z12.000 F300.000
G1 X77.779 Y15.098 Z12.000 F300.000
G1 X50.906 Y-11.775 Z12.000 F300.000
G1 X50.906 Y-10.360 Z12.000 F300.000
G1 X76.365 Y15.098 Z12.000 F300.000
G1 X74.950 Y15.098 Z12.000 F300.000
G1 X50.906 Y-8.946 Z12.000 F300.000
G1 X50.906 Y-7.532 Z12.000 F300.000
G1 X73.536 Y15.098 Z12.000 F300.000
G1 X72.122 Y15.098 Z12.000 F300.000
G1 X50.906 Y-6.118 Z12.000 F300.000
G1 X50.906 Y-4.703 Z12.000 F300.000
G1 X70.708 Y15.098 Z12.000 F300.000
G1 X69.294 Y15.098 Z12.000 F300.000
G1 X50.906 Y-3.289 Z12.000 F300.000
G1 X50.906 Y-1.875 Z12.000 F300.000
G1 X67.879 Y15.098 Z12.000 F300.000
G1 X66.465 Y15.098 Z12.000 F300.000
G1 X50.906 Y-0.461 Z12.000 F300.000
G1 X50.906 Y0.953 Z12.000 F300.000
G1 X65.051 Y15.098 Z12.000 F300.000
G1 X63.637 Y15.098 Z12.000 F300.000
G1 X50.906 Y2.368 Z12.000 F300.000
G1 X50.906 Y3.782 Z12.000 F300.000
G1 X62.222 Y15.098 Z12.000 F300.000
G1 X60.808 Y15.098 Z12.000 F300.000
G1 X50.906 Y5.196 Z12.000 F300.000
G1 X50.906 Y6.610 Z12.000 F300.000
G1 X59.394 Y15.098 Z12.000 F300.000
G1 X57.980 Y15.098 Z12.000 F300.000
G1 X50.906 Y8.024 Z12.000 F300.000
G1 X50.906 Y9.439 Z12.000 F300.000
G1 X56.566 Y15.098 Z12.000 F300.000
G1 X55.151 Y15.098 Z12.000 F300.000
G1 X50.906 Y10.853 Z12.000 F300.000
G1 X50.906 Y12.267 Z12.000 F300.000
G1 X53.737 Y15.098 Z12.000 F300.000
G1 X52.323 Y15.098 Z12.000 F300.000
G1 X50.906 Y13.681 Z12.000 F300.000
G1 X50.906 Y15.070 Z12.000 F300.000
G1 X50.907 Y15.097 Z12.000 F300.000
G0 Z23.000
G0 Z23.000
(Finish operation: MillFace002)
(Begin operation: Pocket_Shape002)
(Path: Pocket_Shape002)
(Pocket_Shape002)
G0 Z23.000
G0 X66.700 Y8.200
G0 Z21.000
G1 X66.700 Y8.200 Z10.000 F600.000
G2 X66.728 Y6.830 Z10.000 I-0.700 J-0.700 K0.000 F300.000
G2 X65.330 Y6.772 Z10.000 I-0.728 J0.670 K0.000 F300.000
G2 X65.272 Y8.170 Z10.000 I0.670 J0.728 K0.000 F300.000
G2 X66.728 Y6.830 Z10.000 I0.728 J-0.670 K0.000 F300.000
G2 X65.330 Y6.772 Z10.000 I-0.728 J0.670 K0.000 F300.000
G2 X65.272 Y8.170 Z10.000 I0.670 J0.728 K0.000 F300.000
G2 X66.700 Y8.200 Z10.000 I0.728 J-0.670 K0.000 F300.000
G1 X66.700 Y8.200 Z8.000 F600.000
G2 X66.728 Y6.830 Z8.000 I-0.700 J-0.700 K0.000 F300.000
G2 X65.330 Y6.772 Z8.000 I-0.728 J0.670 K0.000 F300.000
G2 X65.272 Y8.170 Z8.000 I0.670 J0.728 K0.000 F300.000
G2 X66.728 Y6.830 Z8.000 I0.728 J-0.670 K0.000 F300.000
G2 X65.330 Y6.772 Z8.000 I-0.728 J0.670 K0.000 F300.000
G2 X65.272 Y8.170 Z8.000 I0.670 J0.728 K0.000 F300.000
G2 X66.700 Y8.200 Z8.000 I0.728 J-0.670 K0.000 F300.000
G1 X66.700 Y8.200 Z6.000 F600.000
G2 X66.728 Y6.830 Z6.000 I-0.700 J-0.700 K0.000 F300.000
G2 X65.330 Y6.772 Z6.000 I-0.728 J0.670 K0.000 F300.000
G2 X65.272 Y8.170 Z6.000 I0.670 J0.728 K0.000 F300.000
G2 X66.728 Y6.830 Z6.000 I0.728 J-0.670 K0.000 F300.000
G2 X65.330 Y6.772 Z6.000 I-0.728 J0.670 K0.000 F300.000
G2 X65.272 Y8.170 Z6.000 I0.670 J0.728 K0.000 F300.000
G2 X66.700 Y8.200 Z6.000 I0.728 J-0.670 K0.000 F300.000
G1 X66.700 Y8.200 Z4.000 F600.000
G2 X66.728 Y6.830 Z4.000 I-0.700 J-0.700 K0.000 F300.000
G2 X65.330 Y6.772 Z4.000 I-0.728 J0.670 K0.000 F300.000
G2 X65.272 Y8.170 Z4.000 I0.670 J0.728 K0.000 F300.000
G2 X66.728 Y6.830 Z4.000 I0.728 J-0.670 K0.000 F300.000
G2 X65.330 Y6.772 Z4.000 I-0.728 J0.670 K0.000 F300.000
G2 X65.272 Y8.170 Z4.000 I0.670 J0.728 K0.000 F300.000
G2 X66.700 Y8.200 Z4.000 I0.728 J-0.670 K0.000 F300.000
G1 X66.700 Y8.200 Z2.000 F600.000
G2 X66.728 Y6.830 Z2.000 I-0.700 J-0.700 K0.000 F300.000
G2 X65.330 Y6.772 Z2.000 I-0.728 J0.670 K0.000 F300.000
G2 X65.272 Y8.170 Z2.000 I0.670 J0.728 K0.000 F300.000
G2 X66.728 Y6.830 Z2.000 I0.728 J-0.670 K0.000 F300.000
G2 X65.330 Y6.772 Z2.000 I-0.728 J0.670 K0.000 F300.000
G2 X65.272 Y8.170 Z2.000 I0.670 J0.728 K0.000 F300.000
G2 X66.700 Y8.200 Z2.000 I0.728 J-0.670 K0.000 F300.000
G1 X66.700 Y8.200 Z0.000 F600.000
G2 X66.728 Y6.830 Z0.000 I-0.700 J-0.700 K0.000 F300.000
G2 X65.330 Y6.772 Z0.000 I-0.728 J0.670 K0.000 F300.000
G2 X65.272 Y8.170 Z0.000 I0.670 J0.728 K0.000 F300.000
G2 X66.728 Y6.830 Z0.000 I0.728 J-0.670 K0.000 F300.000
G2 X65.330 Y6.772 Z0.000 I-0.728 J0.670 K0.000 F300.000
G2 X65.272 Y8.170 Z0.000 I0.670 J0.728 K0.000 F300.000
G2 X66.700 Y8.200 Z0.000 I0.728 J-0.670 K0.000 F300.000
G0 Z23.000
G0 Z23.000
G0 X66.700 Y8.200
G0 X66.365 Y4.280
G0 X66.365 Y4.280 Z21.000
G1 X66.365 Y4.280 Z10.000 F600.000
G2 X66.010 Y-4.296 Z10.000 I-0.365 J-4.280 K0.000 F300.000
G2 X65.990 Y4.296 Z10.000 I-0.010 J4.296 K0.000 F300.000
G2 X66.365 Y4.280 Z10.000 I0.010 J-4.296 K0.000 F300.000
G0 Z23.000
G0 X63.033 Y3.107 Z23.000
G0 X63.033 Y3.107 Z21.000
G1 X63.033 Y3.107 Z10.000 F600.000
G3 X61.810 Y-0.944 Z10.000 I2.962 J-3.104 K0.000 F300.000
G1 X66.944 Y4.189 Z10.000 F300.000
G2 X68.821 Y3.238 Z10.000 I-0.927 J-4.159 K0.000 F300.000
G1 X62.761 Y-2.822 Z10.000 F300.000
G3 X64.419 Y-3.993 Z10.000 I3.218 J2.795 K0.000 F300.000
G1 X69.993 Y1.581 Z10.000 F300.000
G2 X70.157 Y-1.083 Z10.000 I-3.976 J-1.582 K0.000 F300.000
G1 X67.083 Y-4.157 Z10.000 F300.000
G3 X70.157 Y-1.083 Z10.000 I-1.082 J4.156 K0.000 F300.000
G1 X70.157 Y-1.083 Z8.000 F600.000
G2 X67.083 Y-4.157 Z8.000 I-4.156 J1.082 K0.000 F300.000
G1 X70.157 Y-1.083 Z8.000 F300.000
G3 X69.993 Y1.581 Z8.000 I-4.140 J1.083 K0.000 F300.000
G1 X64.419 Y-3.993 Z8.000 F300.000
G2 X62.761 Y-2.822 Z8.000 I1.560 J3.966 K0.000 F300.000
G1 X68.821 Y3.238 Z8.000 F300.000
G3 X66.944 Y4.189 Z8.000 I-2.805 J-3.207 K0.000 F300.000
G1 X61.810 Y-0.944 Z8.000 F300.000
G2 X63.033 Y3.107 Z8.000 I4.185 J0.947 K0.000 F300.000
G0 Z23.000
G0 Z23.000
G0 Z21.000
G1 X63.033 Y3.107 Z8.000 F600.000
G2 X65.990 Y4.296 Z8.000 I2.967 J-3.107 K0.000 F300.000
G2 X70.296 Y0.010 Z8.000 I0.010 J-4.296 K0.000 F300.000
G2 X66.010 Y-4.296 Z8.000 I-4.296 J-0.010 K0.000 F300.000
G2 X63.033 Y3.107 Z8.000 I-0.010 J4.296 K0.000 F300.000
G1 X63.033 Y3.107 Z6.000 F600.000
G2 X65.990 Y4.296 Z6.000 I2.967 J-3.107 K0.000 F300.000
G2 X70.296 Y0.010 Z6.000 I0.010 J-4.296 K0.000 F300.000
G2 X66.010 Y-4.296 Z6.000 I-4.296 J-0.010 K0.000 F300.000
G2 X63.033 Y3.107 Z6.000 I-0.010 J4.296 K0.000 F300.000
G0 Z23.000
G0 Z23.000
G0 Z21.000
G1 X63.033 Y3.107 Z6.000 F600.000
G3 X61.810 Y-0.944 Z6.000 I2.962 J-3.104 K0.000 F300.000
G1 X66.944 Y4.189 Z6.000 F300.000
G2 X68.821 Y3.238 Z6.000 I-0.927 J-4.159 K0.000 F300.000
G1 X62.761 Y-2.822 Z6.000 F300.000
G3 X64.419 Y-3.993 Z6.000 I3.218 J2.795 K0.000 F300.000
G1 X69.993 Y1.581 Z6.000 F300.000
G2 X70.157 Y-1.083 Z6.000 I-3.976 J-1.582 K0.000 F300.000
G1 X67.083 Y-4.157 Z6.000 F300.000
G3 X70.157 Y-1.083 Z6.000 I-1.082 J4.156 K0.000 F300.000
G1 X70.157 Y-1.083 Z4.000 F600.000
G2 X67.083 Y-4.157 Z4.000 I-4.156 J1.082 K0.000 F300.000
G1 X70.157 Y-1.083 Z4.000 F300.000
G3 X69.993 Y1.581 Z4.000 I-4.140 J1.083 K0.000 F300.000
G1 X64.419 Y-3.993 Z4.000 F300.000
G2 X62.761 Y-2.822 Z4.000 I1.560 J3.966 K0.000 F300.000
G1 X68.821 Y3.238 Z4.000 F300.000
G3 X66.944 Y4.189 Z4.000 I-2.805 J-3.207 K0.000 F300.000
G1 X61.810 Y-0.944 Z4.000 F300.000
G2 X63.033 Y3.107 Z4.000 I4.185 J0.947 K0.000 F300.000
G0 Z23.000
G0 Z23.000
G0 Z21.000
G1 X63.033 Y3.107 Z4.000 F600.000
G2 X65.990 Y4.296 Z4.000 I2.967 J-3.107 K0.000 F300.000
G2 X70.296 Y0.010 Z4.000 I0.010 J-4.296 K0.000 F300.000
G2 X66.010 Y-4.296 Z4.000 I-4.296 J-0.010 K0.000 F300.000
G2 X63.033 Y3.107 Z4.000 I-0.010 J4.296 K0.000 F300.000
G1 X63.033 Y3.107 Z2.000 F600.000
G2 X65.990 Y4.296 Z2.000 I2.967 J-3.107 K0.000 F300.000
G2 X70.296 Y0.010 Z2.000 I0.010 J-4.296 K0.000 F300.000
G2 X66.010 Y-4.296 Z2.000 I-4.296 J-0.010 K0.000 F300.000
G2 X63.033 Y3.107 Z2.000 I-0.010 J4.296 K0.000 F300.000
G0 Z23.000
G0 Z23.000
G0 Z21.000
G1 X63.033 Y3.107 Z2.000 F600.000
G3 X61.810 Y-0.944 Z2.000 I2.962 J-3.104 K0.000 F300.000
G1 X66.944 Y4.189 Z2.000 F300.000
G2 X68.821 Y3.238 Z2.000 I-0.927 J-4.159 K0.000 F300.000
G1 X62.761 Y-2.822 Z2.000 F300.000
G3 X64.419 Y-3.993 Z2.000 I3.218 J2.795 K0.000 F300.000
G1 X69.993 Y1.581 Z2.000 F300.000
G2 X70.157 Y-1.083 Z2.000 I-3.976 J-1.582 K0.000 F300.000
G1 X67.083 Y-4.157 Z2.000 F300.000
G3 X70.157 Y-1.083 Z2.000 I-1.082 J4.156 K0.000 F300.000
G1 X70.157 Y-1.083 Z0.000 F600.000
G2 X67.083 Y-4.157 Z0.000 I-4.156 J1.082 K0.000 F300.000
G1 X70.157 Y-1.083 Z0.000 F300.000
G3 X69.993 Y1.581 Z0.000 I-4.140 J1.083 K0.000 F300.000
G1 X64.419 Y-3.993 Z0.000 F300.000
G2 X62.761 Y-2.822 Z0.000 I1.560 J3.966 K0.000 F300.000
G1 X68.821 Y3.238 Z0.000 F300.000
G3 X66.944 Y4.189 Z0.000 I-2.805 J-3.207 K0.000 F300.000
G1 X61.810 Y-0.944 Z0.000 F300.000
G2 X63.033 Y3.107 Z0.000 I4.185 J0.947 K0.000 F300.000
G0 Z23.000
G0 Z23.000
G0 Z21.000
G1 X63.033 Y3.107 Z0.000 F600.000
G2 X65.990 Y4.296 Z0.000 I2.967 J-3.107 K0.000 F300.000
G2 X70.296 Y0.010 Z0.000 I0.010 J-4.296 K0.000 F300.000
G2 X66.010 Y-4.296 Z0.000 I-4.296 J-0.010 K0.000 F300.000
G2 X63.033 Y3.107 Z0.000 I-0.010 J4.296 K0.000 F300.000
G0 Z23.000
G0 Z23.000
(Finish operation: Pocket_Shape002)
(Begin operation: MillFace003)
(Path: MillFace003)
(MillFace003)
G0 Z23.000
G0 X96.100 Y-47.107
G0 Z21.000
G1 X96.100 Y-47.107 Z16.000 F600.000
G1 X96.100 Y-48.070 Z16.000 F300.000
G1 X96.099 Y-48.097 Z16.000 F300.000
G1 X96.072 Y-48.098 Z16.000 F300.000
G1 X65.934 Y-48.098 Z16.000 F300.000
G1 X65.907 Y-48.097 Z16.000 F300.000
G1 X65.906 Y-48.070 Z16.000 F300.000
G1 X65.906 Y-17.930 Z16.000 F300.000
G1 X65.907 Y-17.903 Z16.000 F300.000
G1 X65.934 Y-17.902 Z16.000 F300.000
G1 X96.072 Y-17.901 Z16.000 F300.000
G1 X96.099 Y-17.903 Z16.000 F300.000
G1 X96.100 Y-17.930 Z16.000 F300.000
G1 X96.100 Y-48.070 Z16.000 F300.000
G1 X96.099 Y-48.097 Z16.000 F300.000
G1 X96.072 Y-48.098 Z16.000 F300.000
G1 X95.109 Y-48.098 Z16.000 F300.000
G1 X96.100 Y-47.107 Z16.000 F300.000
G1 X96.100 Y-45.693 Z16.000 F300.000
G1 X93.695 Y-48.098 Z16.000 F300.000
G1 X92.280 Y-48.098 Z16.000 F300.000
G1 X96.100 Y-44.279 Z16.000 F300.000
G1 X96.100 Y-42.865 Z16.000 F300.000
G1 X90.866 Y-48.098 Z16.000 F300.000
G1 X89.452 Y-48.098 Z16.000 F300.000
G1 X96.100 Y-41.450 Z16.000 F300.000
G1 X96.100 Y-40.036 Z16.000 F300.000
G1 X88.038 Y-48.098 Z16.000 F300.000
G1 X86.623 Y-48.098 Z16.000 F300.000
G1 X96.100 Y-38.622 Z16.000 F300.000
G1 X96.100 Y-37.208 Z16.000 F300.000
G1 X85.209 Y-48.098 Z16.000 F300.000
G1 X83.795 Y-48.098 Z16.000 F300.000
G1 X96.100 Y-35.794 Z16.000 F300.000
G1 X96.100 Y-34.379 Z16.000 F300.000
G1 X82.381 Y-48.098 Z16.000 F300.000
G1 X80.967 Y-48.098 Z16.000 F300.000
G1 X96.100 Y-32.965 Z16.000 F300.000
G1 X96.100 Y-31.551 Z16.000 F300.000
G1 X79.552 Y-48.098 Z16.000 F300.000
G1 X78.138 Y-48.098 Z16.000 F300.000
G1 X96.100 Y-30.137 Z16.000 F300.000
G1 X96.100 Y-28.722 Z16.000 F300.000
G1 X76.724 Y-48.098 Z16.000 F300.000
G1 X75.310 Y-48.098 Z16.000 F300.000
G1 X96.100 Y-27.308 Z16.000 F300.000
G1 X96.100 Y-25.894 Z16.000 F300.000
G1 X73.896 Y-48.098 Z16.000 F300.000
G1 X72.481 Y-48.098 Z16.000 F300.000
G1 X96.100 Y-24.480 Z16.000 F300.000
G1 X96.100 Y-23.066 Z16.000 F300.000
G1 X71.067 Y-48.098 Z16.000 F300.000
G1 X69.653 Y-48.098 Z16.000 F300.000
G1 X96.100 Y-21.651 Z16.000 F300.000
G1 X96.100 Y-20.237 Z16.000 F300.000
G1 X68.239 Y-48.098 Z16.000 F300.000
G1 X66.824 Y-48.098 Z16.000 F300.000
G1 X96.100 Y-18.823 Z16.000 F300.000
G1 X96.100 Y-17.930 Z16.000 F300.000
G1 X96.099 Y-17.903 Z16.000 F300.000
G1 X96.072 Y-17.902 Z16.000 F300.000
G1 X95.607 Y-17.902 Z16.000 F300.000
G1 X65.906 Y-47.603 Z16.000 F300.000
G1 X65.906 Y-46.189 Z16.000 F300.000
G1 X94.193 Y-17.902 Z16.000 F300.000
G1 X92.779 Y-17.902 Z16.000 F300.000
G1 X65.906 Y-44.775 Z16.000 F300.000
G1 X65.906 Y-43.360 Z16.000 F300.000
G1 X91.365 Y-17.902 Z16.000 F300.000
G1 X89.950 Y-17.902 Z16.000 F300.000
G1 X65.906 Y-41.946 Z16.000 F300.000
G1 X65.906 Y-40.532 Z16.000 F300.000
G1 X88.536 Y-17.902 Z16.000 F300.000
G1 X87.122 Y-17.902 Z16.000 F300.000
G1 X65.906 Y-39.118 Z16.000 F300.000
G1 X65.906 Y-37.703 Z16.000 F300.000
G1 X85.708 Y-17.902 Z16.000 F300.000
G1 X84.294 Y-17.902 Z16.000 F300.000
G1 X65.906 Y-36.289 Z16.000 F300.000
G1 X65.906 Y-34.875 Z16.000 F300.000
G1 X82.879 Y-17.902 Z16.000 F300.000
G1 X81.465 Y-17.902 Z16.000 F300.000
G1 X65.906 Y-33.461 Z16.000 F300.000
G1 X65.906 Y-32.047 Z16.000 F300.000
G1 X80.051 Y-17.902 Z16.000 F300.000
G1 X78.637 Y-17.902 Z16.000 F300.000
G1 X65.906 Y-30.632 Z16.000 F300.000
G1 X65.906 Y-29.218 Z16.000 F300.000
G1 X77.222 Y-17.902 Z16.000 F300.000
G1 X75.808 Y-17.902 Z16.000 F300.000
G1 X65.906 Y-27.804 Z16.000 F300.000
G1 X65.906 Y-26.390 Z16.000 F300.000
G1 X74.394 Y-17.902 Z16.000 F300.000
G1 X72.980 Y-17.902 Z16.000 F300.000
G1 X65.906 Y-24.976 Z16.000 F300.000
G1 X65.906 Y-23.561 Z16.000 F300.000
G1 X71.566 Y-17.902 Z16.000 F300.000
G1 X70.151 Y-17.902 Z16.000 F300.000
G1 X65.906 Y-22.147 Z16.000 F300.000
G1 X65.906 Y-20.733 Z16.000 F300.000
G1 X68.737 Y-17.902 Z16.000 F300.000
G1 X67.323 Y-17.902 Z16.000 F300.000
G1 X65.906 Y-19.319 Z16.000 F300.000
G1 X65.906 Y-17.930 Z16.000 F300.000
G1 X65.907 Y-17.903 Z16.000 F300.000
G1 X65.907 Y-17.903 Z14.000 F600.000
G1 X65.906 Y-17.930 Z14.000 F300.000
G1 X65.906 Y-19.319 Z14.000 F300.000
G1 X67.323 Y-17.902 Z14.000 F300.000
G1 X68.737 Y-17.902 Z14.000 F300.000
G1 X65.906 Y-20.733 Z14.000 F300.000
G1 X65.906 Y-22.147 Z14.000 F300.000
G1 X70.151 Y-17.902 Z14.000 F300.000
G1 X71.566 Y-17.902 Z14.000 F300.000
G1 X65.906 Y-23.561 Z14.000 F300.000
G1 X65.906 Y-24.976 Z14.000 F300.000
G1 X72.980 Y-17.902 Z14.000 F300.000
G1 X74.394 Y-17.902 Z14.000 F300.000
G1 X65.906 Y-26.390 Z14.000 F300.000
G1 X65.906 Y-27.804 Z14.000 F300.000
G1 X75.808 Y-17.902 Z14.000 F300.000
G1 X77.222 Y-17.902 Z14.000 F300.000
G1 X65.906 Y-29.218 Z14.000 F300.000
G1 X65.906 Y-30.632 Z14.000 F300.000
G1 X78.637 Y-17.902 Z14.000 F300.000
G1 X80.051 Y-17.902 Z14.000 F300.000
G1 X65.906 Y-32.047 Z14.000 F300.000
G1 X65.906 Y-33.461 Z14.000 F300.000
G1 X81.465 Y-17.902 Z14.000 F300.000
G1 X82.879 Y-17.902 Z14.000 F300.000
G1 X65.906 Y-34.875 Z14.000 F300.000
G1 X65.906 Y-36.289 Z14.000 F300.000
G1 X84.294 Y-17.902 Z14.000 F300.000
G1 X85.708 Y-17.902 Z14.000 F300.000
G1 X65.906 Y-37.703 Z14.000 F300.000
G1 X65.906 Y-39.118 Z14.000 F300.000
G1 X87.122 Y-17.902 Z14.000 F300.000
G1 X88.536 Y-17.902 Z14.000 F300.000
G1 X65.906 Y-40.532 Z14.000 F300.000
G1 X65.906 Y-41.946 Z14.000 F300.000
G1 X89.950 Y-17.902 Z14.000 F300.000
G1 X91.365 Y-17.902 Z14.000 F300.000
G1 X65.906 Y-43.360 Z14.000 F300.000
G1 X65.906 Y-44.775 Z14.000 F300.000
G1 X92.779 Y-17.902 Z14.000 F300.000
G1 X94.193 Y-17.902 Z14.000 F300.000
G1 X65.906 Y-46.189 Z14.000 F300.000
G1 X65.906 Y-47.603 Z14.000 F300.000
G1 X95.607 Y-17.902 Z14.000 F300.000
G1 X96.072 Y-17.902 Z14.000 F300.000
G1 X96.099 Y-17.903 Z14.000 F300.000
G1 X96.100 Y-17.930 Z14.000 F300.000
G1 X96.100 Y-18.823 Z14.000 F300.000
G1 X66.824 Y-48.098 Z14.000 F300.000
G1 X68.239 Y-48.098 Z14.000 F300.000
G1 X96.100 Y-20.237 Z14.000 F300.000
G1 X96.100 Y-21.651 Z14.000 F300.000
G1 X69.653 Y-48.098 Z14.000 F300.000
G1 X71.067 Y-48.098 Z14.000 F300.000
G1 X96.100 Y-23.066 Z14.000 F300.000
G1 X96.100 Y-24.480 Z14.000 F300.000
G1 X72.481 Y-48.098 Z14.000 F300.000
G1 X73.896 Y-48.098 Z14.000 F300.000
G1 X96.100 Y-25.894 Z14.000 F300.000
G1 X96.100 Y-27.308 Z14.000 F300.000
G1 X75.310 Y-48.098 Z14.000 F300.000
G1 X76.724 Y-48.098 Z14.000 F300.000
G1 X96.100 Y-28.722 Z14.000 F300.000
G1 X96.100 Y-30.137 Z14.000 F300.000
G1 X78.138 Y-48.098 Z14.000 F300.000
G1 X79.552 Y-48.098 Z14.000 F300.000
G1 X96.100 Y-31.551 Z14.000 F300.000
G1 X96.100 Y-32.965 Z14.000 F300.000
G1 X80.967 Y-48.098 Z14.000 F300.000
G1 X82.381 Y-48.098 Z14.000 F300.000
G1 X96.100 Y-34.379 Z14.000 F300.000
G1 X96.100 Y-35.794 Z14.000 F300.000
G1 X83.795 Y-48.098 Z14.000 F300.000
G1 X85.209 Y-48.098 Z14.000 F300.000
G1 X96.100 Y-37.208 Z14.000 F300.000
G1 X96.100 Y-38.622 Z14.000 F300.000
G1 X86.623 Y-48.098 Z14.000 F300.000
G1 X88.038 Y-48.098 Z14.000 F300.000
G1 X96.100 Y-40.036 Z14.000 F300.000
G1 X96.100 Y-41.450 Z14.000 F300.000
G1 X89.452 Y-48.098 Z14.000 F300.000
G1 X90.866 Y-48.098 Z14.000 F300.000
G1 X96.100 Y-42.865 Z14.000 F300.000
G1 X96.100 Y-44.279 Z14.000 F300.000
G1 X92.280 Y-48.098 Z14.000 F300.000
G1 X93.695 Y-48.098 Z14.000 F300.000
G1 X96.100 Y-45.693 Z14.000 F300.000
G1 X96.100 Y-47.107 Z14.000 F300.000
G1 X95.109 Y-48.098 Z14.000 F300.000
G1 X96.072 Y-48.098 Z14.000 F300.000
G1 X96.099 Y-48.097 Z14.000 F300.000
G1 X96.100 Y-48.070 Z14.000 F300.000
G1 X96.100 Y-17.930 Z14.000 F300.000
G1 X96.099 Y-17.903 Z14.000 F300.000
G1 X96.072 Y-17.901 Z14.000 F300.000
G1 X65.934 Y-17.902 Z14.000 F300.000
G1 X65.907 Y-17.903 Z14.000 F300.000
G1 X65.906 Y-17.930 Z14.000 F300.000
G1 X65.906 Y-48.070 Z14.000 F300.000
G1 X65.907 Y-48.097 Z14.000 F300.000
G1 X65.934 Y-48.098 Z14.000 F300.000
G1 X96.072 Y-48.098 Z14.000 F300.000
G1 X96.099 Y-48.097 Z14.000 F300.000
G1 X96.100 Y-48.070 Z14.000 F300.000
G1 X96.100 Y-47.107 Z14.000 F300.000
G1 X96.100 Y-47.107 Z12.000 F600.000
G1 X96.100 Y-48.070 Z12.000 F300.000
G1 X96.099 Y-48.097 Z12.000 F300.000
G1 X96.072 Y-48.098 Z12.000 F300.000
G1 X65.934 Y-48.098 Z12.000 F300.000
G1 X65.907 Y-48.097 Z12.000 F300.000
G1 X65.906 Y-48.070 Z12.000 F300.000
G1 X65.906 Y-17.930 Z12.000 F300.000
G1 X65.907 Y-17.903 Z12.000 F300.000
G1 X65.934 Y-17.902 Z12.000 F300.000
G1 X96.072 Y-17.901 Z12.000 F300.000
G1 X96.099 Y-17.903 Z12.000 F300.000
G1 X96.100 Y-17.930 Z12.000 F300.000
G1 X96.100 Y-48.070 Z12.000 F300.000
G1 X96.099 Y-48.097 Z12.000 F300.000
G1 X96.072 Y-48.098 Z12.000 F300.000
G1 X95.109 Y-48.098 Z12.000 F300.000
G1 X96.100 Y-47.107 Z12.000 F300.000
G1 X96.100 Y-45.693 Z12.000 F300.000
G1 X93.695 Y-48.098 Z12.000 F300.000
G1 X92.280 Y-48.098 Z12.000 F300.000
G1 X96.100 Y-44.279 Z12.000 F300.000
G1 X96.100 Y-42.865 Z12.000 F300.000
G1 X90.866 Y-48.098 Z12.000 F300.000
G1 X89.452 Y-48.098 Z12.000 F300.000
G1 X96.100 Y-41.450 Z12.000 F300.000
G1 X96.100 Y-40.036 Z12.000 F300.000
G1 X88.038 Y-48.098 Z12.000 F300.000
G1 X86.623 Y-48.098 Z12.000 F300.000
G1 X96.100 Y-38.622 Z12.000 F300.000
G1 X96.100 Y-37.208 Z12.000 F300.000
G1 X85.209 Y-48.098 Z12.000 F300.000
G1 X83.795 Y-48.098 Z12.000 F300.000
G1 X96.100 Y-35.794 Z12.000 F300.000
G1 X96.100 Y-34.379 Z12.000 F300.000
G1 X82.381 Y-48.098 Z12.000 F300.000
G1 X80.967 Y-48.098 Z12.000 F300.000
G1 X96.100 Y-32.965 Z12.000 F300.000
G1 X96.100 Y-31.551 Z12.000 F300.000
G1 X79.552 Y-48.098 Z12.000 F300.000
G1 X78.138 Y-48.098 Z12.000 F300.000
G1 X96.100 Y-30.137 Z12.000 F300.000
G1 X96.100 Y-28.722 Z12.000 F300.000
G1 X76.724 Y-48.098 Z12.000 F300.000
G1 X75.310 Y-48.098 Z12.000 F300.000
G1 X96.100 Y-27.308 Z12.000 F300.000
G1 X96.100 Y-25.894 Z12.000 F300.000
G1 X73.896 Y-48.098 Z12.000 F300.000
G1 X72.481 Y-48.098 Z12.000 F300.000
G1 X96.100 Y-24.480 Z12.000 F300.000
G1 X96.100 Y-23.066 Z12.000 F300.000
G1 X71.067 Y-48.098 Z12.000 F300.000
G1 X69.653 Y-48.098 Z12.000 F300.000
G1 X96.100 Y-21.651 Z12.000 F300.000
G1 X96.100 Y-20.237 Z12.000 F300.000
G1 X68.239 Y-48.098 Z12.000 F300.000
G1 X66.824 Y-48.098 Z12.000 F300.000
G1 X96.100 Y-18.823 Z12.000 F300.000
G1 X96.100 Y-17.930 Z12.000 F300.000
G1 X96.099 Y-17.903 Z12.000 F300.000
G1 X96.072 Y-17.902 Z12.000 F300.000
G1 X95.607 Y-17.902 Z12.000 F300.000
G1 X65.906 Y-47.603 Z12.000 F300.000
G1 X65.906 Y-46.189 Z12.000 F300.000
G1 X94.193 Y-17.902 Z12.000 F300.000
G1 X92.779 Y-17.902 Z12.000 F300.000
G1 X65.906 Y-44.775 Z12.000 F300.000
G1 X65.906 Y-43.360 Z12.000 F300.000
G1 X91.365 Y-17.902 Z12.000 F300.000
G1 X89.950 Y-17.902 Z12.000 F300.000
G1 X65.906 Y-41.946 Z12.000 F300.000
G1 X65.906 Y-40.532 Z12.000 F300.000
G1 X88.536 Y-17.902 Z12.000 F300.000
G1 X87.122 Y-17.902 Z12.000 F300.000
G1 X65.906 Y-39.118 Z12.000 F300.000
G1 X65.906 Y-37.703 Z12.000 F300.000
G1 X85.708 Y-17.902 Z12.000 F300.000
G1 X84.294 Y-17.902 Z12.000 F300.000
G1 X65.906 Y-36.289 Z12.000 F300.000
G1 X65.906 Y-34.875 Z12.000 F300.000
G1 X82.879 Y-17.902 Z12.000 F300.000
G1 X81.465 Y-17.902 Z12.000 F300.000
G1 X65.906 Y-33.461 Z12.000 F300.000
G1 X65.906 Y-32.047 Z12.000 F300.000
G1 X80.051 Y-17.902 Z12.000 F300.000
G1 X78.637 Y-17.902 Z12.000 F300.000
G1 X65.906 Y-30.632 Z12.000 F300.000
G1 X65.906 Y-29.218 Z12.000 F300.000
G1 X77.222 Y-17.902 Z12.000 F300.000
G1 X75.808 Y-17.902 Z12.000 F300.000
G1 X65.906 Y-27.804 Z12.000 F300.000
G1 X65.906 Y-26.390 Z12.000 F300.000
G1 X74.394 Y-17.902 Z12.000 F300.000
G1 X72.980 Y-17.902 Z12.000 F300.000
G1 X65.906 Y-24.976 Z12.000 F300.000
G1 X65.906 Y-23.561 Z12.000 F300.000
G1 X71.566 Y-17.902 Z12.000 F300.000
G1 X70.151 Y-17.902 Z12.000 F300.000
G1 X65.906 Y-22.147 Z12.000 F300.000
G1 X65.906 Y-20.733 Z12.000 F300.000
G1 X68.737 Y-17.902 Z12.000 F300.000
G1 X67.323 Y-17.902 Z12.000 F300.000
G1 X65.906 Y-19.319 Z12.000 F300.000
G1 X65.906 Y-17.930 Z12.000 F300.000
G1 X65.907 Y-17.903 Z12.000 F300.000
G0 Z23.000
G0 Z23.000
(Finish operation: MillFace003)
(Begin operation: Pocket_Shape003)
(Path: Pocket_Shape003)
(Pocket_Shape003)
G0 Z23.000
G0 X81.700 Y-24.800
G0 Z21.000
G1 X81.700 Y-24.800 Z10.000 F600.000
G2 X81.728 Y-26.170 Z10.000 I-0.700 J-0.700 K0.000 F300.000
G2 X80.330 Y-26.228 Z10.000 I-0.728 J0.670 K0.000 F300.000
G2 X80.272 Y-24.830 Z10.000 I0.670 J0.728 K0.000 F300.000
G2 X81.728 Y-26.170 Z10.000 I0.728 J-0.670 K0.000 F300.000
G2 X80.330 Y-26.228 Z10.000 I-0.728 J0.670 K0.000 F300.000
G2 X80.272 Y-24.830 Z10.000 I0.670 J0.728 K0.000 F300.000
G2 X81.700 Y-24.800 Z10.000 I0.728 J-0.670 K0.000 F300.000
G1 X81.700 Y-24.800 Z8.000 F600.000
G2 X81.728 Y-26.170 Z8.000 I-0.700 J-0.700 K0.000 F300.000
G2 X80.330 Y-26.228 Z8.000 I-0.728 J0.670 K0.000 F300.000
G2 X80.272 Y-24.830 Z8.000 I0.670 J0.728 K0.000 F300.000
G2 X81.728 Y-26.170 Z8.000 I0.728 J-0.670 K0.000 F300.000
G2 X80.330 Y-26.228 Z8.000 I-0.728 J0.670 K0.000 F300.000
G2 X80.272 Y-24.830 Z8.000 I0.670 J0.728 K0.000 F300.000
G2 X81.700 Y-24.800 Z8.000 I0.728 J-0.670 K0.000 F300.000
G1 X81.700 Y-24.800 Z6.000 F600.000
G2 X81.728 Y-26.170 Z6.000 I-0.700 J-0.700 K0.000 F300.000
G2 X80.330 Y-26.228 Z6.000 I-0.728 J0.670 K0.000 F300.000
G2 X80.272 Y-24.830 Z6.000 I0.670 J0.728 K0.000 F300.000
G2 X81.728 Y-26.170 Z6.000 I0.728 J-0.670 K0.000 F300.000
G2 X80.330 Y-26.228 Z6.000 I-0.728 J0.670 K0.000 F300.000
G2 X80.272 Y-24.830 Z6.000 I0.670 J0.728 K0.000 F300.000
G2 X81.700 Y-24.800 Z6.000 I0.728 J-0.670 K0.000 F300.000
G1 X81.700 Y-24.800 Z4.000 F600.000
G2 X81.728 Y-26.170 Z4.000 I-0.700 J-0.700 K0.000 F300.000
G2 X80.330 Y-26.228 Z4.000 I-0.728 J0.670 K0.000 F300.000
G2 X80.272 Y-24.830 Z4.000 I0.670 J0.728 K0.000 F300.000
G2 X81.728 Y-26.170 Z4.000 I0.728 J-0.670 K0.000 F300.000
G2 X80.330 Y-26.228 Z4.000 I-0.728 J0.670 K0.000 F300.000
G2 X80.272 Y-24.830 Z4.000 I0.670 J0.728 K0.000 F300.000
G2 X81.700 Y-24.800 Z4.000 I0.728 J-0.670 K0.000 F300.000
G1 X81.700 Y-24.800 Z2.000 F600.000
G2 X81.728 Y-26.170 Z2.000 I-0.700 J-0.700 K0.000 F300.000
G2 X80.330 Y-26.228 Z2.000 I-0.728 J0.670 K0.000 F300.000
G2 X80.272 Y-24.830 Z2.000 I0.670 J0.728 K0.000 F300.000
G2 X81.728 Y-26.170 Z2.000 I0.728 J-0.670 K0.000 F300.000
G2 X80.330 Y-26.228 Z2.000 I-0.728 J0.670 K0.000 F300.000
G2 X80.272 Y-24.830 Z2.000 I0.670 J0.728 K0.000 F300.000
G2 X81.700 Y-24.800 Z2.000 I0.728 J-0.670 K0.000 F300.000
G1 X81.700 Y-24.800 Z0.000 F600.000
G2 X81.728 Y-26.170 Z0.000 I-0.700 J-0.700 K0.000 F300.000
G2 X80.330 Y-26.228 Z0.000 I-0.728 J0.670 K0.000 F300.000
G2 X80.272 Y-24.830 Z0.000 I0.670 J0.728 K0.000 F300.000
G2 X81.728 Y-26.170 Z0.000 I0.728 J-0.670 K0.000 F300.000
G2 X80.330 Y-26.228 Z0.000 I-0.728 J0.670 K0.000 F300.000
G2 X80.272 Y-24.830 Z0.000 I0.670 J0.728 K0.000 F300.000
G2 X81.700 Y-24.800 Z0.000 I0.728 J-0.670 K0.000 F300.000
G0 Z23.000
G0 Z23.000
G0 X81.700 Y-24.800
G0 X81.365 Y-28.720
G0 X81.365 Y-28.720 Z21.000
G1 X81.365 Y-28.720 Z10.000 F600.000
G2 X81.010 Y-37.296 Z10.000 I-0.365 J-4.280 K0.000 F300.000
G2 X80.990 Y-28.704 Z10.000 I-0.010 J4.296 K0.000 F300.000
G2 X81.365 Y-28.720 Z10.000 I0.010 J-4.296 K0.000 F300.000
G0 Z23.000
G0 X78.033 Y-29.893 Z23.000
G0 X78.033 Y-29.893 Z21.000
G1 X78.033 Y-29.893 Z10.000 F600.000
G3 X76.810 Y-33.944 Z10.000 I2.962 J-3.104 K0.000 F300.000
G1 X81.944 Y-28.811 Z10.000 F300.000
G2 X83.821 Y-29.762 Z10.000 I-0.927 J-4.159 K0.000 F300.000
G1 X77.761 Y-35.822 Z10.000 F300.000
G3 X79.419 Y-36.993 Z10.000 I3.218 J2.795 K0.000 F300.000
G1 X84.993 Y-31.419 Z10.000 F300.000
G2 X85.157 Y-34.083 Z10.000 I-3.976 J-1.582 K0.000 F300.000
G1 X82.083 Y-37.157 Z10.000 F300.000
G3 X85.157 Y-34.083 Z10.000 I-1.082 J4.156 K0.000 F300.000
G1 X85.157 Y-34.083 Z8.000 F600.000
G2 X82.083 Y-37.157 Z8.000 I-4.156 J1.082 K0.000 F300.000
G1 X85.157 Y-34.083 Z8.000 F300.000
G3 X84.993 Y-31.419 Z8.000 I-4.140 J1.083 K0.000 F300.000
G1 X79.419 Y-36.993 Z8.000 F300.000
G2 X77.761 Y-35.822 Z8.000 I1.560 J3.966 K0.000 F300.000
G1 X83.821 Y-29.762 Z8.000 F300.000
G3 X81.944 Y-28.811 Z8.000 I-2.805 J-3.207 K0.000 F300.000
G1 X76.810 Y-33.944 Z8.000 F300.000
G2 X78.033 Y-29.893 Z8.000 I4.185 J0.947 K0.000 F300.000
G0 Z23.000
G0 Z23.000
G0 Z21.000
G1 X78.033 Y-29.893 Z8.000 F600.000
G2 X80.990 Y-28.704 Z8.000 I2.967 J-3.107 K0.000 F300.000
G2 X85.296 Y-32.990 Z8.000 I0.010 J-4.296 K0.000 F300.000
G2 X81.010 Y-37.296 Z8.000 I-4.296 J-0.010 K0.000 F300.000
G2 X78.033 Y-29.893 Z8.000 I-0.010 J4.296 K0.000 F300.000
G1 X78.033 Y-29.893 Z6.000 F600.000
G2 X80.990 Y-28.704 Z6.000 I2.967 J-3.107 K0.000 F300.000
G2 X85.296 Y-32.990 Z6.000 I0.010 J-4.296 K0.000 F300.000
G2 X81.010 Y-37.296 Z6.000 I-4.296 J-0.010 K0.000 F300.000
G2 X78.033 Y-29.893 Z6.000 I-0.010 J4.296 K0.000 F300.000
G0 Z23.000
G0 Z23.000
G0 Z21.000
G1 X78.033 Y-29.893 Z6.000 F600.000
G3 X76.810 Y-33.944 Z6.000 I2.962 J-3.104 K0.000 F300.000
G1 X81.944 Y-28.811 Z6.000 F300.000
G2 X83.821 Y-29.762 Z6.000 I-0.927 J-4.159 K0.000 F300.000
G1 X77.761 Y-35.822 Z6.000 F300.000
G3 X79.419 Y-36.993 Z6.000 I3.218 J2.795 K0.000 F300.000
G1 X84.993 Y-31.419 Z6.000 F300.000
G2 X85.157 Y-34.083 Z6.000 I-3.976 J-1.582 K0.000 F300.000
G1 X82.083 Y-37.157 Z6.000 F300.000
G3 X85.157 Y-34.083 Z6.000 I-1.082 J4.156 K0.000 F300.000
G1 X85.157 Y-34.083 Z4.000 F600.000
G2 X82.083 Y-37.157 Z4.000 I-4.156 J1.082 K0.000 F300.000
G1 X85.157 Y-34.083 Z4.000 F300.000
G3 X84.993 Y-31.419 Z4.000 I-4.140 J1.083 K0.000 F300.000
G1 X79.419 Y-36.993 Z4.000 F300.000
G2 X77.761 Y-35.822 Z4.000 I1.560 J3.966 K0.000 F300.000
G1 X83.821 Y-29.762 Z4.000 F300.000
G3 X81.944 Y-28.811 Z4.000 I-2.805 J-3.207 K0.000 F300.000
G1 X76.810 Y-33.944 Z4.000 F300.000
G2 X78.033 Y-29.893 Z4.000 I4.185 J0.947 K0.000 F300.000
G0 Z23.000
G0 Z23.000
G0 Z21.000
G1 X78.033 Y-29.893 Z4.000 F600.000
G2 X80.990 Y-28.704 Z4.000 I2.967 J-3.107 K0.000 F300.000
G2 X85.296 Y-32.990 Z4.000 I0.010 J-4.296 K0.000 F300.000
G2 X81.010 Y-37.296 Z4.000 I-4.296 J-0.010 K0.000 F300.000
G2 X78.033 Y-29.893 Z4.000 I-0.010 J4.296 K0.000 F300.000
G1 X78.033 Y-29.893 Z2.000 F600.000
G2 X80.990 Y-28.704 Z2.000 I2.967 J-3.107 K0.000 F300.000
G2 X85.296 Y-32.990 Z2.000 I0.010 J-4.296 K0.000 F300.000
G2 X81.010 Y-37.296 Z2.000 I-4.296 J-0.010 K0.000 F300.000
G2 X78.033 Y-29.893 Z2.000 I-0.010 J4.296 K0.000 F300.000
G0 Z23.000
G0 Z23.000
G0 Z21.000
G1 X78.033 Y-29.893 Z2.000 F600.000
G3 X76.810 Y-33.944 Z2.000 I2.962 J-3.104 K0.000 F300.000
G1 X81.944 Y-28.811 Z2.000 F300.000
G2 X83.821 Y-29.762 Z2.000 I-0.927 J-4.159 K0.000 F300.000
G1 X77.761 Y-35.822 Z2.000 F300.000
G3 X79.419 Y-36.993 Z2.000 I3.218 J2.795 K0.000 F300.000
G1 X84.993 Y-31.419 Z2.000 F300.000
G2 X85.157 Y-34.083 Z2.000 I-3.976 J-1.582 K0.000 F300.000
G1 X82.083 Y-37.157 Z2.000 F300.000
G3 X85.157 Y-34.083 Z2.000 I-1.082 J4.156 K0.000 F300.000
G1 X85.157 Y-34.083 Z0.000 F600.000
G2 X82.083 Y-37.157 Z0.000 I-4.156 J1.082 K0.000 F300.000
G1 X85.157 Y-34.083 Z0.000 F300.000
G3 X84.993 Y-31.419 Z0.000 I-4.140 J1.083 K0.000 F300.000
G1 X79.419 Y-36.993 Z0.000 F300.000
G2 X77.761 Y-35.822 Z0.000 I1.560 J3.966 K0.000 F300.000
G1 X83.821 Y-29.762 Z0.000 F300.000
G3 X81.944 Y-28.811 Z0.000 I-2.805 J-3.207 K0.000 F300.000
G1 X76.810 Y-33.944 Z0.000 F300.000
G2 X78.033 Y-29.893 Z0.000 I4.185 J0.947 K0.000 F300.000
G0 Z23.000
G0 Z23.000
G0 Z21.000
G1 X78.033 Y-29.893 Z0.000 F600.000
G2 X80.990 Y-28.704 Z0.000 I2.967 J-3.107 K0.000 F300.000
G2 X85.296 Y-32.990 Z0.000 I0.010 J-4.296 K0.000 F300.000
G2 X81.010 Y-37.296 Z0.000 I-4.296 J-0.010 K0.000 F300.000
G2 X78.033 Y-29.893 Z0.000 I-0.010 J4.296 K0.000 F300.000
G0 Z23.000
G0 Z23.000
(Finish operation: Pocket_Shape003)
(Begin operation: MillFace004)
(Path: MillFace004)
(MillFace004)
G0 Z23.000
G0 X63.100 Y-47.107
G0 Z21.000
G1 X63.100 Y-47.107 Z16.000 F600.000
G1 X63.100 Y-48.070 Z16.000 F300.000
G1 X63.099 Y-48.097 Z16.000 F300.000
G1 X63.072 Y-48.098 Z16.000 F300.000
G1 X32.934 Y-48.098 Z16.000 F300.000
G1 X32.907 Y-48.097 Z16.000 F300.000
G1 X32.906 Y-48.070 Z16.000 F300.000
G1 X32.906 Y-17.930 Z16.000 F300.000
G1 X32.907 Y-17.903 Z16.000 F300.000
G1 X32.934 Y-17.902 Z16.000 F300.000
G1 X63.072 Y-17.901 Z16.000 F300.000
G1 X63.099 Y-17.903 Z16.000 F300.000
G1 X63.100 Y-17.930 Z16.000 F300.000
G1 X63.100 Y-48.070 Z16.000 F300.000
G1 X63.099 Y-48.097 Z16.000 F300.000
G1 X63.072 Y-48.098 Z16.000 F300.000
G1 X62.109 Y-48.098 Z16.000 F300.000
G1 X63.100 Y-47.107 Z16.000 F300.000
G1 X63.100 Y-45.693 Z16.000 F300.000
G1 X60.695 Y-48.098 Z16.000 F300.000
G1 X59.280 Y-48.098 Z16.000 F300.000
G1 X63.100 Y-44.279 Z16.000 F300.000
G1 X63.100 Y-42.865 Z16.000 F300.000
G1 X57.866 Y-48.098 Z16.000 F300.000
G1 X56.452 Y-48.098 Z16.000 F300.000
G1 X63.100 Y-41.450 Z16.000 F300.000
G1 X63.100 Y-40.036 Z16.000 F300.000
G1 X55.038 Y-48.098 Z16.000 F300.000
G1 X53.623 Y-48.098 Z16.000 F300.000
G1 X63.100 Y-38.622 Z16.000 F300.000
G1 X63.100 Y-37.208 Z16.000 F300.000
G1 X52.209 Y-48.098 Z16.000 F300.000
G1 X50.795 Y-48.098 Z16.000 F300.000
G1 X63.100 Y-35.794 Z16.000 F300.000
G1 X63.100 Y-34.379 Z16.000 F300.000
G1 X49.381 Y-48.098 Z16.000 F300.000
G1 X47.967 Y-48.098 Z16.000 F300.000
G1 X63.100 Y-32.965 Z16.000 F300.000
G1 X63.100 Y-31.551 Z16.000 F300.000
G1 X46.552 Y-48.098 Z16.000 F300.000
G1 X45.138 Y-48.098 Z16.000 F300.000
G1 X63.100 Y-30.137 Z16.000 F300.000
G1 X63.100 Y-28.722 Z16.000 F300.000
G1 X43.724 Y-48.098 Z16.000 F300.000
G1 X42.310 Y-48.098 Z16.000 F300.000
G1 X63.100 Y-27.308 Z16.000 F300.000
G1 X63.100 Y-25.894 Z16.000 F300.000
G1 X40.896 Y-48.098 Z16.000 F300.000
G1 X39.481 Y-48.098 Z16.000 F300.000
G1 X63.100 Y-24.480 Z16.000 F300.000
G1 X63.100 Y-23.066 Z16.000 F300.000
G1 X38.067 Y-48.098 Z16.000 F300.000
G1 X36.653 Y-48.098 Z16.000 F300.000
G1 X63.100 Y-21.651 Z16.000 F300.000
G1 X63.100 Y-20.237 Z16.000 F300.000
G1 X35.239 Y-48.098 Z16.000 F300.000
G1 X33.824 Y-48.098 Z16.000 F300.000
G1 X63.100 Y-18.823 Z16.000 F300.000
G1 X63.100 Y-17.930 Z16.000 F300.000
G1 X63.099 Y-17.903 Z16.000 F300.000
G1 X63.072 Y-17.902 Z16.000 F300.000
G1 X62.607 Y-17.902 Z16.000 F300.000
G1 X32.906 Y-47.603 Z16.000 F300.000
G1 X32.906 Y-46.189 Z16.000 F300.000
G1 X61.193 Y-17.902 Z16.000 F300.000
G1 X59.779 Y-17.902 Z16.000 F300.000
G1 X32.906 Y-44.775 Z16.000 F300.000
G1 X32.906 Y-43.360 Z16.000 F300.000
G1 X58.365 Y-17.902 Z16.000 F300.000
G1 X56.950 Y-17.902 Z16.000 F300.000
G1 X32.906 Y-41.946 Z16.000 F300.000
G1 X32.906 Y-40.532 Z16.000 F300.000
G1 X55.536 Y-17.902 Z16.000 F300.000
G1 X54.122 Y-17.902 Z16.000 F300.000
G1 X32.906 Y-39.118 Z16.000 F300.000
G1 X32.906 Y-37.703 Z16.000 F300.000
G1 X52.708 Y-17.902 Z16.000 F300.000
G1 X51.294 Y-17.902 Z16.000 F300.000
G1 X32.906 Y-36.289 Z16.000 F300.000
G1 X32.906 Y-34.875 Z16.000 F300.000
G1 X49.879 Y-17.902 Z16.000 F300.000
G1 X48.465 Y-17.902 Z16.000 F300.000
G1 X32.906 Y-33.461 Z16.000 F300.000
G1 X32.906 Y-32.047 Z16.000 F300.000
G1 X47.051 Y-17.902 Z16.000 F300.000
G1 X45.637 Y-17.902 Z16.000 F300.000
G1 X32.906 Y-30.632 Z16.000 F300.000
G1 X32.906 Y-29.218 Z16.000 F300.000
G1 X44.222 Y-17.902 Z16.000 F300.000
G1 X42.808 Y-17.902 Z16.000 F300.000
G1 X32.906 Y-27.804 Z16.000 F300.000
G1 X32.906 Y-26.390 Z16.000 F300.000
G1 X41.394 Y-17.902 Z16.000 F300.000
G1 X39.980 Y-17.902 Z16.000 F300.000
G1 X32.906 Y-24.976 Z16.000 F300.000
G1 X32.906 Y-23.561 Z16.000 F300.000
G1 X38.566 Y-17.902 Z16.000 F300.000
G1 X37.151 Y-17.902 Z16.000 F300.000
G1 X32.906 Y-22.147 Z16.000 F300.000
G1 X32.906 Y-20.733 Z16.000 F300.000
G1 X35.737 Y-17.902 Z16.000 F300.000
G1 X34.323 Y-17.902 Z16.000 F300.000
G1 X32.906 Y-19.319 Z16.000 F300.000
G1 X32.906 Y-17.930 Z16.000 F300.000
G1 X32.907 Y-17.903 Z16.000 F300.000
G1 X32.907 Y-17.903 Z14.000 F600.000
G1 X32.906 Y-17.930 Z14.000 F300.000
G1 X32.906 Y-19.319 Z14.000 F300.000
G1 X34.323 Y-17.902 Z14.000 F300.000
G1 X35.737 Y-17.902 Z14.000 F300.000
G1 X32.906 Y-20.733 Z14.000 F300.000
G1 X32.906 Y-22.147 Z14.000 F300.000
G1 X37.151 Y-17.902 Z14.000 F300.000
G1 X38.566 Y-17.902 Z14.000 F300.000
G1 X32.906 Y-23.561 Z14.000 F300.000
G1 X32.906 Y-24.976 Z14.000 F300.000
G1 X39.980 Y-17.902 Z14.000 F300.000
G1 X41.394 Y-17.902 Z14.000 F300.000
G1 X32.906 Y-26.390 Z14.000 F300.000
G1 X32.906 Y-27.804 Z14.000 F300.000
G1 X42.808 Y-17.902 Z14.000 F300.000
G1 X44.222 Y-17.902 Z14.000 F300.000
G1 X32.906 Y-29.218 Z14.000 F300.000
G1 X32.906 Y-30.632 Z14.000 F300.000
G1 X45.637 Y-17.902 Z14.000 F300.000
G1 X47.051 Y-17.902 Z14.000 F300.000
G1 X32.906 Y-32.047 Z14.000 F300.000
G1 X32.906 Y-33.461 Z14.000 F300.000
G1 X48.465 Y-17.902 Z14.000 F300.000
G1 X49.879 Y-17.902 Z14.000 F300.000
G1 X32.906 Y-34.875 Z14.000 F300.000
G1 X32.906 Y-36.289 Z14.000 F300.000
G1 X51.294 Y-17.902 Z14.000 F300.000
G1 X52.708 Y-17.902 Z14.000 F300.000
G1 X32.906 Y-37.703 Z14.000 F300.000
G1 X32.906 Y-39.118 Z14.000 F300.000
G1 X54.122 Y-17.902 Z14.000 F300.000
G1 X55.536 Y-17.902 Z14.000 F300.000
G1 X32.906 Y-40.532 Z14.000 F300.000
G1 X32.906 Y-41.946 Z14.000 F300.000
G1 X56.950 Y-17.902 Z14.000 F300.000
G1 X58.365 Y-17.902 Z14.000 F300.000
G1 X32.906 Y-43.360 Z14.000 F300.000
G1 X32.906 Y-44.775 Z14.000 F300.000
G1 X59.779 Y-17.902 Z14.000 F300.000
G1 X61.193 Y-17.902 Z14.000 F300.000
G1 X32.906 Y-46.189 Z14.000 F300.000
G1 X32.906 Y-47.603 Z14.000 F300.000
G1 X62.607 Y-17.902 Z14.000 F300.000
G1 X63.072 Y-17.902 Z14.000 F300.000
G1 X63.099 Y-17.903 Z14.000 F300.000
G1 X63.100 Y-17.930 Z14.000 F300.000
G1 X63.100 Y-18.823 Z14.000 F300.000
G1 X33.824 Y-48.098 Z14.000 F300.000
G1 X35.239 Y-48.098 Z14.000 F300.000
G1 X63.100 Y-20.237 Z14.000 F300.000
G1 X63.100 Y-21.651 Z14.000 F300.000
G1 X36.653 Y-48.098 Z14.000 F300.000
G1 X38.067 Y-48.098 Z14.000 F300.000
G1 X63.100 Y-23.066 Z14.000 F300.000
G1 X63.100 Y-24.480 Z14.000 F300.000
G1 X39.481 Y-48.098 Z14.000 F300.000
G1 X40.896 Y-48.098 Z14.000 F300.000
G1 X63.100 Y-25.894 Z14.000 F300.000
G1 X63.100 Y-27.308 Z14.000 F300.000
G1 X42.310 Y-48.098 Z14.000 F300.000
G1 X43.724 Y-48.098 Z14.000 F300.000
G1 X63.100 Y-28.722 Z14.000 F300.000
G1 X63.100 Y-30.137 Z14.000 F300.000
G1 X45.138 Y-48.098 Z14.000 F300.000
G1 X46.552 Y-48.098 Z14.000 F300.000
G1 X63.100 Y-31.551 Z14.000 F300.000
G1 X63.100 Y-32.965 Z14.000 F300.000
G1 X47.967 Y-48.098 Z14.000 F300.000
G1 X49.381 Y-48.098 Z14.000 F300.000
G1 X63.100 Y-34.379 Z14.000 F300.000
G1 X63.100 Y-35.794 Z14.000 F300.000
G1 X50.795 Y-48.098 Z14.000 F300.000
G1 X52.209 Y-48.098 Z14.000 F300.000
G1 X63.100 Y-37.208 Z14.000 F300.000
G1 X63.100 Y-38.622 Z14.000 F300.000
G1 X53.623 Y-48.098 Z14.000 F300.000
G1 X55.038 Y-48.098 Z14.000 F300.000
G1 X63.100 Y-40.036 Z14.000 F300.000
G1 X63.100 Y-41.450 Z14.000 F300.000
G1 X56.452 Y-48.098 Z14.000 F300.000
G1 X57.866 Y-48.098 Z14.000 F300.000
G1 X63.100 Y-42.865 Z14.000 F300.000
G1 X63.100 Y-44.279 Z14.000 F300.000
G1 X59.280 Y-48.098 Z14.000 F300.000
G1 X60.695 Y-48.098 Z14.000 F300.000
G1 X63.100 Y-45.693 Z14.000 F300.000
G1 X63.100 Y-47.107 Z14.000 F300.000
G1 X62.109 Y-48.098 Z14.000 F300.000
G1 X63.072 Y-48.098 Z14.000 F300.000
G1 X63.099 Y-48.097 Z14.000 F300.000
G1 X63.100 Y-48.070 Z14.000 F300.000
G1 X63.100 Y-17.930 Z14.000 F300.000
G1 X63.099 Y-17.903 Z14.000 F300.000
G1 X63.072 Y-17.901 Z14.000 F300.000
G1 X32.934 Y-17.902 Z14.000 F300.000
G1 X32.907 Y-17.903 Z14.000 F300.000
G1 X32.906 Y-17.930 Z14.000 F300.000
G1 X32.906 Y-48.070 Z14.000 F300.000
G1 X32.907 Y-48.097 Z14.000 F300.000
G1 X32.934 Y-48.098 Z14.000 F300.000
G1 X63.072 Y-48.098 Z14.000 F300.000
G1 X63.099 Y-48.097 Z14.000 F300.000
G1 X63.100 Y-48.070 Z14.000 F300.000
G1 X63.100 Y-47.107 Z14.000 F300.000
G1 X63.100 Y-47.107 Z12.000 F600.000
G1 X63.100 Y-48.070 Z12.000 F300.000
G1 X63.099 Y-48.097 Z12.000 F300.000
G1 X63.072 Y-48.098 Z12.000 F300.000
G1 X32.934 Y-48.098 Z12.000 F300.000
G1 X32.907 Y-48.097 Z12.000 F300.000
G1 X32.906 Y-48.070 Z12.000 F300.000
G1 X32.906 Y-17.930 Z12.000 F300.000
G1 X32.907 Y-17.903 Z12.000 F300.000
G1 X32.934 Y-17.902 Z12.000 F300.000
G1 X63.072 Y-17.901 Z12.000 F300.000
G1 X63.099 Y-17.903 Z12.000 F300.000
G1 X63.100 Y-17.930 Z12.000 F300.000
G1 X63.100 Y-48.070 Z12.000 F300.000
G1 X63.099 Y-48.097 Z12.000 F300.000
G1 X63.072 Y-48.098 Z12.000 F300.000
G1 X62.109 Y-48.098 Z12.000 F300.000
G1 X63.100 Y-47.107 Z12.000 F300.000
G1 X63.100 Y-45.693 Z12.000 F300.000
G1 X60.695 Y-48.098 Z12.000 F300.000
G1 X59.280 Y-48.098 Z12.000 F300.000
G1 X63.100 Y-44.279 Z12.000 F300.000
G1 X63.100 Y-42.865 Z12.000 F300.000
G1 X57.866 Y-48.098 Z12.000 F300.000
G1 X56.452 Y-48.098 Z12.000 F300.000
G1 X63.100 Y-41.450 Z12.000 F300.000
G1 X63.100 Y-40.036 Z12.000 F300.000
G1 X55.038 Y-48.098 Z12.000 F300.000
G1 X53.623 Y-48.098 Z12.000 F300.000
G1 X63.100 Y-38.622 Z12.000 F300.000
G1 X63.100 Y-37.208 Z12.000 F300.000
G1 X52.209 Y-48.098 Z12.000 F300.000
G1 X50.795 Y-48.098 Z12.000 F300.000
G1 X63.100 Y-35.794 Z12.000 F300.000
G1 X63.100 Y-34.379 Z12.000 F300.000
G1 X49.381 Y-48.098 Z12.000 F300.000
G1 X47.967 Y-48.098 Z12.000 F300.000
G1 X63.100 Y-32.965 Z12.000 F300.000
G1 X63.100 Y-31.551 Z12.000 F300.000
G1 X46.552 Y-48.098 Z12.000 F300.000
G1 X45.138 Y-48.098 Z12.000 F300.000
G1 X63.100 Y-30.137 Z12.000 F300.000
G1 X63.100 Y-28.722 Z12.000 F300.000
G1 X43.724 Y-48.098 Z12.000 F300.000
G1 X42.310 Y-48.098 Z12.000 F300.000
G1 X63.100 Y-27.308 Z12.000 F300.000
G1 X63.100 Y-25.894 Z12.000 F300.000
G1 X40.896 Y-48.098 Z12.000 F300.000
G1 X39.481 Y-48.098 Z12.000 F300.000
G1 X63.100 Y-24.480 Z12.000 F300.000
G1 X63.100 Y-23.066 Z12.000 F300.000
G1 X38.067 Y-48.098 Z12.000 F300.000
G1 X36.653 Y-48.098 Z12.000 F300.000
G1 X63.100 Y-21.651 Z12.000 F300.000
G1 X63.100 Y-20.237 Z12.000 F300.000
G1 X35.239 Y-48.098 Z12.000 F300.000
G1 X33.824 Y-48.098 Z12.000 F300.000
G1 X63.100 Y-18.823 Z12.000 F300.000
G1 X63.100 Y-17.930 Z12.000 F300.000
G1 X63.099 Y-17.903 Z12.000 F300.000
G1 X63.072 Y-17.902 Z12.000 F300.000
G1 X62.607 Y-17.902 Z12.000 F300.000
G1 X32.906 Y-47.603 Z12.000 F300.000
G1 X32.906 Y-46.189 Z12.000 F300.000
G1 X61.193 Y-17.902 Z12.000 F300.000
G1 X59.779 Y-17.902 Z12.000 F300.000
G1 X32.906 Y-44.775 Z12.000 F300.000
G1 X32.906 Y-43.360 Z12.000 F300.000
G1 X58.365 Y-17.902 Z12.000 F300.000
G1 X56.950 Y-17.902 Z12.000 F300.000
G1 X32.906 Y-41.946 Z12.000 F300.000
G1 X32.906 Y-40.532 Z12.000 F300.000
G1 X55.536 Y-17.902 Z12.000 F300.000
G1 X54.122 Y-17.902 Z12.000 F300.000
G1 X32.906 Y-39.118 Z12.000 F300.000
G1 X32.906 Y-37.703 Z12.000 F300.000
G1 X52.708 Y-17.902 Z12.000 F300.000
G1 X51.294 Y-17.902 Z12.000 F300.000
G1 X32.906 Y-36.289 Z12.000 F300.000
G1 X32.906 Y-34.875 Z12.000 F300.000
G1 X49.879 Y-17.902 Z12.000 F300.000
G1 X48.465 Y-17.902 Z12.000 F300.000
G1 X32.906 Y-33.461 Z12.000 F300.000
G1 X32.906 Y-32.047 Z12.000 F300.000
G1 X47.051 Y-17.902 Z12.000 F300.000
G1 X45.637 Y-17.902 Z12.000 F300.000
G1 X32.906 Y-30.632 Z12.000 F300.000
G1 X32.906 Y-29.218 Z12.000 F300.000
G1 X44.222 Y-17.902 Z12.000 F300.000
G1 X42.808 Y-17.902 Z12.000 F300.000
G1 X32.906 Y-27.804 Z12.000 F300.000
G1 X32.906 Y-26.390 Z12.000 F300.000
G1 X41.394 Y-17.902 Z12.000 F300.000
G1 X39.980 Y-17.902 Z12.000 F300.000
G1 X32.906 Y-24.976 Z12.000 F300.000
G1 X32.906 Y-23.561 Z12.000 F300.000
G1 X38.566 Y-17.902 Z12.000 F300.000
G1 X37.151 Y-17.902 Z12.000 F300.000
G1 X32.906 Y-22.147 Z12.000 F300.000
G1 X32.906 Y-20.733 Z12.000 F300.000
G1 X35.737 Y-17.902 Z12.000 F300.000
G1 X34.323 Y-17.902 Z12.000 F300.000
G1 X32.906 Y-19.319 Z12.000 F300.000
G1 X32.906 Y-17.930 Z12.000 F300.000
G1 X32.907 Y-17.903 Z12.000 F300.000
G0 Z23.000
G0 Z23.000
(Finish operation: MillFace004)
(Begin operation: Pocket_Shape004)
(Path: Pocket_Shape004)
(Pocket_Shape004)
G0 Z23.000
G0 X48.700 Y-24.800
G0 Z21.000
G1 X48.700 Y-24.800 Z10.000 F600.000
G2 X48.728 Y-26.170 Z10.000 I-0.700 J-0.700 K0.000 F300.000
G2 X47.330 Y-26.228 Z10.000 I-0.728 J0.670 K0.000 F300.000
G2 X47.272 Y-24.830 Z10.000 I0.670 J0.728 K0.000 F300.000
G2 X48.728 Y-26.170 Z10.000 I0.728 J-0.670 K0.000 F300.000
G2 X47.330 Y-26.228 Z10.000 I-0.728 J0.670 K0.000 F300.000
G2 X47.272 Y-24.830 Z10.000 I0.670 J0.728 K0.000 F300.000
G2 X48.700 Y-24.800 Z10.000 I0.728 J-0.670 K0.000 F300.000
G1 X48.700 Y-24.800 Z8.000 F600.000
G2 X48.728 Y-26.170 Z8.000 I-0.700 J-0.700 K0.000 F300.000
G2 X47.330 Y-26.228 Z8.000 I-0.728 J0.670 K0.000 F300.000
G2 X47.272 Y-24.830 Z8.000 I0.670 J0.728 K0.000 F300.000
G2 X48.728 Y-26.170 Z8.000 I0.728 J-0.670 K0.000 F300.000
G2 X47.330 Y-26.228 Z8.000 I-0.728 J0.670 K0.000 F300.000
G2 X47.272 Y-24.830 Z8.000 I0.670 J0.728 K0.000 F300.000
G2 X48.700 Y-24.800 Z8.000 I0.728 J-0.670 K0.000 F300.000
G1 X48.700 Y-24.800 Z6.000 F600.000
G2 X48.728 Y-26.170 Z6.000 I-0.700 J-0.700 K0.000 F300.000
G2 X47.330 Y-26.228 Z6.000 I-0.728 J0.670 K0.000 F300.000
G2 X47.272 Y-24.830 Z6.000 I0.670 J0.728 K0.000 F300.000
G2 X48.728 Y-26.170 Z6.000 I0.728 J-0.670 K0.000 F300.000
G2 X47.330 Y-26.228 Z6.000 I-0.728 J0.670 K0.000 F300.000
G2 X47.272 Y-24.830 Z6.000 I0.670 J0.728 K0.000 F300.000
G2 X48.700 Y-24.800 Z6.000 I0.728 J-0.670 K0.000 F300.000
G1 X48.700 Y-24.800 Z4.000 F600.000
G2 X48.728 Y-26.170 Z4.000 I-0.700 J-0.700 K0.000 F300.000
G2 X47.330 Y-26.228 Z4.000 I-0.728 J0.670 K0.000 F300.000
G2 X47.272 Y-24.830 Z4.000 I0.670 J0.728 K0.000 F300.000
G2 X48.728 Y-26.170 Z4.000 I0.728 J-0.670 K0.000 F300.000
G2 X47.330 Y-26.228 Z4.000 I-0.728 J0.670 K0.000 F300.000
G2 X47.272 Y-24.830 Z4.000 I0.670 J0.728 K0.000 F300.000
G2 X48.700 Y-24.800 Z4.000 I0.728 J-0.670 K0.000 F300.000
G1 X48.700 Y-24.800 Z2.000 F600.000
G2 X48.728 Y-26.170 Z2.000 I-0.700 J-0.700 K0.000 F300.000
G2 X47.330 Y-26.228 Z2.000 I-0.728 J0.670 K0.000 F300.000
G2 X47.272 Y-24.830 Z2.000 I0.670 J0.728 K0.000 F300.000
G2 X48.728 Y-26.170 Z2.000 I0.728 J-0.670 K0.000 F300.000
G2 X47.330 Y-26.228 Z2.000 I-0.728 J0.670 K0.000 F300.000
G2 X47.272 Y-24.830 Z2.000 I0.670 J0.728 K0.000 F300.000
G2 X48.700 Y-24.800 Z2.000 I0.728 J-0.670 K0.000 F300.000
G1 X48.700 Y-24.800 Z0.000 F600.000
G2 X48.728 Y-26.170 Z0.000 I-0.700 J-0.700 K0.000 F300.000
G2 X47.330 Y-26.228 Z0.000 I-0.728 J0.670 K0.000 F300.000
G2 X47.272 Y-24.830 Z0.000 I0.670 J0.728 K0.000 F300.000
G2 X48.728 Y-26.170 Z0.000 I0.728 J-0.670 K0.000 F300.000
G2 X47.330 Y-26.228 Z0.000 I-0.728 J0.670 K0.000 F300.000
G2 X47.272 Y-24.830 Z0.000 I0.670 J0.728 K0.000 F300.000
G2 X48.700 Y-24.800 Z0.000 I0.728 J-0.670 K0.000 F300.000
G0 Z23.000
G0 Z23.000
G0 X48.700 Y-24.800
G0 X48.365 Y-28.720
G0 X48.365 Y-28.720 Z21.000
G1 X48.365 Y-28.720 Z10.000 F600.000
G2 X48.010 Y-37.296 Z10.000 I-0.365 J-4.280 K0.000 F300.000
G2 X47.990 Y-28.704 Z10.000 I-0.010 J4.296 K0.000 F300.000
G2 X48.365 Y-28.720 Z10.000 I0.010 J-4.296 K0.000 F300.000
G0 Z23.000
G0 X45.033 Y-29.893 Z23.000
G0 X45.033 Y-29.893 Z21.000
G1 X45.033 Y-29.893 Z10.000 F600.000
G3 X43.810 Y-33.944 Z10.000 I2.962 J-3.104 K0.000 F300.000
G1 X48.944 Y-28.811 Z10.000 F300.000
G2 X50.821 Y-29.762 Z10.000 I-0.927 J-4.159 K0.000 F300.000
G1 X44.761 Y-35.822 Z10.000 F300.000
G3 X46.419 Y-36.993 Z10.000 I3.218 J2.795 K0.000 F300.000
G1 X51.993 Y-31.419 Z10.000 F300.000
G2 X52.157 Y-34.083 Z10.000 I-3.976 J-1.582 K0.000 F300.000
G1 X49.083 Y-37.157 Z10.000 F300.000
G3 X52.157 Y-34.083 Z10.000 I-1.082 J4.156 K0.000 F300.000
G1 X52.157 Y-34.083 Z8.000 F600.000
G2 X49.083 Y-37.157 Z8.000 I-4.156 J1.082 K0.000 F300.000
G1 X52.157 Y-34.083 Z8.000 F300.000
G3 X51.993 Y-31.419 Z8.000 I-4.140 J1.083 K0.000 F300.000
G1 X46.419 Y-36.993 Z8.000 F300.000
G2 X44.761 Y-35.822 Z8.000 I1.560 J3.966 K0.000 F300.000
G1 X50.821 Y-29.762 Z8.000 F300.000
G3 X48.944 Y-28.811 Z8.000 I-2.805 J-3.207 K0.000 F300.000
G1 X43.810 Y-33.944 Z8.000 F300.000
G2 X45.033 Y-29.893 Z8.000 I4.185 J0.947 K0.000 F300.000
G0 Z23.000
G0 Z23.000
G0 Z21.000
G1 X45.033 Y-29.893 Z8.000 F600.000
G2 X47.990 Y-28.704 Z8.000 I2.967 J-3.107 K0.000 F300.000
G2 X52.296 Y-32.990 Z8.000 I0.010 J-4.296 K0.000 F300.000
G2 X48.010 Y-37.296 Z8.000 I-4.296 J-0.010 K0.000 F300.000
G2 X45.033 Y-29.893 Z8.000 I-0.010 J4.296 K0.000 F300.000
G1 X45.033 Y-29.893 Z6.000 F600.000
G2 X47.990 Y-28.704 Z6.000 I2.967 J-3.107 K0.000 F300.000
G2 X52.296 Y-32.990 Z6.000 I0.010 J-4.296 K0.000 F300.000
G2 X48.010 Y-37.296 Z6.000 I-4.296 J-0.010 K0.000 F300.000
G2 X45.033 Y-29.893 Z6.000 I-0.010 J4.296 K0.000 F300.000
G0 Z23.000
G0 Z23.000
G0 Z21.000
G1 X45.033 Y-29.893 Z6.000 F600.000
G3 X43.810 Y-33.944 Z6.000 I2.962 J-3.104 K0.000 F300.000
G1 X48.944 Y-28.811 Z6.000 F300.000
G2 X50.821 Y-29.762 Z6.000 I-0.927 J-4.159 K0.000 F300.000
G1 X44.761 Y-35.822 Z6.000 F300.000
G3 X46.419 Y-36.993 Z6.000 I3.218 J2.795 K0.000 F300.000
G1 X51.993 Y-31.419 Z6.000 F300.000
G2 X52.157 Y-34.083 Z6.000 I-3.976 J-1.582 K0.000 F300.000
G1 X49.083 Y-37.157 Z6.000 F300.000
G3 X52.157 Y-34.083 Z6.000 I-1.082 J4.156 K0.000 F300.000
G1 X52.157 Y-34.083 Z4.000 F600.000
G2 X49.083 Y-37.157 Z4.000 I-4.156 J1.082 K0.000 F300.000
G1 X52.157 Y-34.083 Z4.000 F300.000
G3 X51.993 Y-31.419 Z4.000 I-4.140 J1.083 K0.000 F300.000
G1 X46.419 Y-36.993 Z4.000 F300.000
G2 X44.761 Y-35.822 Z4.000 I1.560 J3.966 K0.000 F300.000
G1 X50.821 Y-29.762 Z4.000 F300.000
G3 X48.944 Y-28.811 Z4.000 I-2.805 J-3.207 K0.000 F300.000
G1 X43.810 Y-33.944 Z4.000 F300.000
G2 X45.033 Y-29.893 Z4.000 I4.185 J0.947 K0.000 F300.000
G0 Z23.000
G0 Z23.000
G0 Z21.000
G1 X45.033 Y-29.893 Z4.000 F600.000
G2 X47.990 Y-28.704 Z4.000 I2.967 J-3.107 K0.000 F300.000
G2 X52.296 Y-32.990 Z4.000 I0.010 J-4.296 K0.000 F300.000
G2 X48.010 Y-37.296 Z4.000 I-4.296 J-0.010 K0.000 F300.000
G2 X45.033 Y-29.893 Z4.000 I-0.010 J4.296 K0.000 F300.000
G1 X45.033 Y-29.893 Z2.000 F600.000
G2 X47.990 Y-28.704 Z2.000 I2.967 J-3.107 K0.000 F300.000
G2 X52.296 Y-32.990 Z2.000 I0.010 J-4.296 K0.000 F300.000
G2 X48.010 Y-37.296 Z2.000 I-4.296 J-0.010 K0.000 F300.000
G2 X45.033 Y-29.893 Z2.000 I-0.010 J4.296 K0.000 F300.000
G0 Z23.000
G0 Z23.000
G0 Z21.000
G1 X45.033 Y-29.893 Z2.000 F600.000
G3 X43.810 Y-33.944 Z2.000 I2.962 J-3.104 K0.000 F300.000
G1 X48.944 Y-28.811 Z2.000 F300.000
G2 X50.821 Y-29.762 Z2.000 I-0.927 J-4.159 K0.000 F300.000
G1 X44.761 Y-35.822 Z2.000 F300.000
G3 X46.419 Y-36.993 Z2.000 I3.218 J2.795 K0.000 F300.000
G1 X51.993 Y-31.419 Z2.000 F300.000
G2 X52.157 Y-34.083 Z2.000 I-3.976 J-1.582 K0.000 F300.000
G1 X49.083 Y-37.157 Z2.000 F300.000
G3 X52.157 Y-34.083 Z2.000 I-1.082 J4.156 K0.000 F300.000
G1 X52.157 Y-34.083 Z0.000 F600.000
G2 X49.083 Y-37.157 Z0.000 I-4.156 J1.082 K0.000 F300.000
G1 X52.157 Y-34.083 Z0.000 F300.000
G3 X51.993 Y-31.419 Z0.000 I-4.140 J1.083 K0.000 F300.000
G1 X46.419 Y-36.993 Z0.000 F300.000
G2 X44.761 Y-35.822 Z0.000 I1.560 J3.966 K0.000 F300.000
G1 X50.821 Y-29.762 Z0.000 F300.000
G3 X48.944 Y-28.811 Z0.000 I-2.805 J-3.207 K0.000 F300.000
G1 X43.810 Y-33.944 Z0.000 F300.000
G2 X45.033 Y-29.893 Z0.000 I4.185 J0.947 K0.000 F300.000
G0 Z23.000
G0 Z23.000
G0 Z21.000
G1 X45.033 Y-29.893 Z0.000 F600.000
G2 X47.990 Y-28.704 Z0.000 I2.967 J-3.107 K0.000 F300.000
G2 X52.296 Y-32.990 Z0.000 I0.010 J-4.296 K0.000 F300.000
G2 X48.010 Y-37.296 Z0.000 I-4.296 J-0.010 K0.000 F300.000
G2 X45.033 Y-29.893 Z0.000 I-0.010 J4.296 K0.000 F300.000
G0 Z23.000
G0 Z23.000
(Finish operation: Pocket_Shape004)
(Begin operation: MillFace005)
(Path: MillFace005)
(MillFace005)
G0 Z23.000
G0 X30.100 Y-47.107
G0 Z21.000
G1 X30.100 Y-47.107 Z16.000 F600.000
G1 X30.100 Y-48.070 Z16.000 F300.000
G1 X30.099 Y-48.097 Z16.000 F300.000
G1 X30.072 Y-48.098 Z16.000 F300.000
G1 X-0.066 Y-48.098 Z16.000 F300.000
G1 X-0.093 Y-48.097 Z16.000 F300.000
G1 X-0.094 Y-48.070 Z16.000 F300.000
G1 X-0.094 Y-17.930 Z16.000 F300.000
G1 X-0.093 Y-17.903 Z16.000 F300.000
G1 X-0.066 Y-17.902 Z16.000 F300.000
G1 X30.072 Y-17.901 Z16.000 F300.000
G1 X30.099 Y-17.903 Z16.000 F300.000
G1 X30.100 Y-17.930 Z16.000 F300.000
G1 X30.100 Y-48.070 Z16.000 F300.000
G1 X30.099 Y-48.097 Z16.000 F300.000
G1 X30.072 Y-48.098 Z16.000 F300.000
G1 X29.109 Y-48.098 Z16.000 F300.000
G1 X30.100 Y-47.107 Z16.000 F300.000
G1 X30.100 Y-45.693 Z16.000 F300.000
G1 X27.695 Y-48.098 Z16.000 F300.000
G1 X26.280 Y-48.098 Z16.000 F300.000
G1 X30.100 Y-44.279 Z16.000 F300.000
G1 X30.100 Y-42.865 Z16.000 F300.000
G1 X24.866 Y-48.098 Z16.000 F300.000
G1 X23.452 Y-48.098 Z16.000 F300.000
G1 X30.100 Y-41.450 Z16.000 F300.000
G1 X30.100 Y-40.036 Z16.000 F300.000
G1 X22.038 Y-48.098 Z16.000 F300.000
G1 X20.623 Y-48.098 Z16.000 F300.000
G1 X30.100 Y-38.622 Z16.000 F300.000
G1 X30.100 Y-37.208 Z16.000 F300.000
G1 X19.209 Y-48.098 Z16.000 F300.000
G1 X17.795 Y-48.098 Z16.000 F300.000
G1 X30.100 Y-35.794 Z16.000 F300.000
G1 X30.100 Y-34.379 Z16.000 F300.000
G1 X16.381 Y-48.098 Z16.000 F300.000
G1 X14.967 Y-48.098 Z16.000 F300.000
G1 X30.100 Y-32.965 Z16.000 F300.000
G1 X30.100 Y-31.551 Z16.000 F300.000
G1 X13.552 Y-48.098 Z16.000 F300.000
G1 X12.138 Y-48.098 Z16.000 F300.000
G1 X30.100 Y-30.137 Z16.000 F300.000
G1 X30.100 Y-28.722 Z16.000 F300.000
G1 X10.724 Y-48.098 Z16.000 F300.000
G1 X9.310 Y-48.098 Z16.000 F300.000
G1 X30.100 Y-27.308 Z16.000 F300.000
G1 X30.100 Y-25.894 Z16.000 F300.000
G1 X7.896 Y-48.098 Z16.000 F300.000
G1 X6.481 Y-48.098 Z16.000 F300.000
G1 X30.100 Y-24.480 Z16.000 F300.000
G1 X30.100 Y-23.066 Z16.000 F300.000
G1 X5.067 Y-48.098 Z16.000 F300.000
G1 X3.653 Y-48.098 Z16.000 F300.000
G1 X30.100 Y-21.651 Z16.000 F300.000
G1 X30.100 Y-20.237 Z16.000 F300.000
G1 X2.239 Y-48.098 Z16.000 F300.000
G1 X0.824 Y-48.098 Z16.000 F300.000
G1 X30.100 Y-18.823 Z16.000 F300.000
G1 X30.100 Y-17.930 Z16.000 F300.000
G1 X30.099 Y-17.903 Z16.000 F300.000
G1 X30.072 Y-17.902 Z16.000 F300.000
G1 X29.607 Y-17.902 Z16.000 F300.000
G1 X-0.094 Y-47.603 Z16.000 F300.000
G1 X-0.094 Y-46.189 Z16.000 F300.000
G1 X28.193 Y-17.902 Z16.000 F300.000
G1 X26.779 Y-17.902 Z16.000 F300.000
G1 X-0.094 Y-44.775 Z16.000 F300.000
G1 X-0.094 Y-43.360 Z16.000 F300.000
G1 X25.365 Y-17.902 Z16.000 F300.000
G1 X23.950 Y-17.902 Z16.000 F300.000
G1 X-0.094 Y-41.946 Z16.000 F300.000
G1 X-0.094 Y-40.532 Z16.000 F300.000
G1 X22.536 Y-17.902 Z16.000 F300.000
G1 X21.122 Y-17.902 Z16.000 F300.000
G1 X-0.094 Y-39.118 Z16.000 F300.000
G1 X-0.094 Y-37.703 Z16.000 F300.000
G1 X19.708 Y-17.902 Z16.000 F300.000
G1 X18.294 Y-17.902 Z16.000 F300.000
G1 X-0.094 Y-36.289 Z16.000 F300.000
G1 X-0.094 Y-34.875 Z16.000 F300.000
G1 X16.879 Y-17.902 Z16.000 F300.000
G1 X15.465 Y-17.902 Z16.000 F300.000
G1 X-0.094 Y-33.461 Z16.000 F300.000
G1 X-0.094 Y-32.047 Z16.000 F300.000
G1 X14.051 Y-17.902 Z16.000 F300.000
G1 X12.637 Y-17.902 Z16.000 F300.000
G1 X-0.094 Y-30.632 Z16.000 F300.000
G1 X-0.094 Y-29.218 Z16.000 F300.000
G1 X11.222 Y-17.902 Z16.000 F300.000
G1 X9.808 Y-17.902 Z16.000 F300.000
G1 X-0.094 Y-27.804 Z16.000 F300.000
G1 X-0.094 Y-26.390 Z16.000 F300.000
G1 X8.394 Y-17.902 Z16.000 F300.000
G1 X6.980 Y-17.902 Z16.000 F300.000
G1 X-0.094 Y-24.976 Z16.000 F300.000
G1 X-0.094 Y-23.561 Z16.000 F300.000
G1 X5.566 Y-17.902 Z16.000 F300.000
G1 X4.151 Y-17.902 Z16.000 F300.000
G1 X-0.094 Y-22.147 Z16.000 F300.000
G1 X-0.094 Y-20.733 Z16.000 F300.000
G1 X2.737 Y-17.902 Z16.000 F300.000
G1 X1.323 Y-17.902 Z16.000 F300.000
G1 X-0.094 Y-19.319 Z16.000 F300.000
G1 X-0.094 Y-17.930 Z16.000 F300.000
G1 X-0.093 Y-17.903 Z16.000 F300.000
G1 X-0.093 Y-17.903 Z14.000 F600.000
G1 X-0.094 Y-17.930 Z14.000 F300.000
G1 X-0.094 Y-19.319 Z14.000 F300.000
G1 X1.323 Y-17.902 Z14.000 F300.000
G1 X2.737 Y-17.902 Z14.000 F300.000
G1 X-0.094 Y-20.733 Z14.000 F300.000
G1 X-0.094 Y-22.147 Z14.000 F300.000
G1 X4.151 Y-17.902 Z14.000 F300.000
G1 X5.566 Y-17.902 Z14.000 F300.000
G1 X-0.094 Y-23.561 Z14.000 F300.000
G1 X-0.094 Y-24.976 Z14.000 F300.000
G1 X6.980 Y-17.902 Z14.000 F300.000
G1 X8.394 Y-17.902 Z14.000 F300.000
G1 X-0.094 Y-26.390 Z14.000 F300.000
G1 X-0.094 Y-27.804 Z14.000 F300.000
G1 X9.808 Y-17.902 Z14.000 F300.000
G1 X11.222 Y-17.902 Z14.000 F300.000
G1 X-0.094 Y-29.218 Z14.000 F300.000
G1 X-0.094 Y-30.632 Z14.000 F300.000
G1 X12.637 Y-17.902 Z14.000 F300.000
G1 X14.051 Y-17.902 Z14.000 F300.000
G1 X-0.094 Y-32.047 Z14.000 F300.000
G1 X-0.094 Y-33.461 Z14.000 F300.000
G1 X15.465 Y-17.902 Z14.000 F300.000
G1 X16.879 Y-17.902 Z14.000 F300.000
G1 X-0.094 Y-34.875 Z14.000 F300.000
G1 X-0.094 Y-36.289 Z14.000 F300.000
G1 X18.294 Y-17.902 Z14.000 F300.000
G1 X19.708 Y-17.902 Z14.000 F300.000
G1 X-0.094 Y-37.703 Z14.000 F300.000
G1 X-0.094 Y-39.118 Z14.000 F300.000
G1 X21.122 Y-17.902 Z14.000 F300.000
G1 X22.536 Y-17.902 Z14.000 F300.000
G1 X-0.094 Y-40.532 Z14.000 F300.000
G1 X-0.094 Y-41.946 Z14.000 F300.000
G1 X23.950 Y-17.902 Z14.000 F300.000
G1 X25.365 Y-17.902 Z14.000 F300.000
G1 X-0.094 Y-43.360 Z14.000 F300.000
G1 X-0.094 Y-44.775 Z14.000 F300.000
G1 X26.779 Y-17.902 Z14.000 F300.000
G1 X28.193 Y-17.902 Z14.000 F300.000
G1 X-0.094 Y-46.189 Z14.000 F300.000
G1 X-0.094 Y-47.603 Z14.000 F300.000
G1 X29.607 Y-17.902 Z14.000 F300.000
G1 X30.072 Y-17.902 Z14.000 F300.000
G1 X30.099 Y-17.903 Z14.000 F300.000
G1 X30.100 Y-17.930 Z14.000 F300.000
G1 X30.100 Y-18.823 Z14.000 F300.000
G1 X0.824 Y-48.098 Z14.000 F300.000
G1 X2.239 Y-48.098 Z14.000 F300.000
G1 X30.100 Y-20.237 Z14.000 F300.000
G1 X30.100 Y-21.651 Z14.000 F300.000
G1 X3.653 Y-48.098 Z14.000 F300.000
G1 X5.067 Y-48.098 Z14.000 F300.000
G1 X30.100 Y-23.066 Z14.000 F300.000
G1 X30.100 Y-24.480 Z14.000 F300.000
G1 X6.481 Y-48.098 Z14.000 F300.000
G1 X7.896 Y-48.098 Z14.000 F300.000
G1 X30.100 Y-25.894 Z14.000 F300.000
G1 X30.100 Y-27.308 Z14.000 F300.000
G1 X9.310 Y-48.098 Z14.000 F300.000
