(Exported by FreeCAD)
(Post Processor: script_module)
(Output Time:2025-02-24 15:00:26.928925)
(Begin preamble)
G17 G90
G21
(Begin operation: Fixture)
(Path: Fixture)
G54
(Finish operation: Fixture)
(Begin operation: 2mm_Endmill001)
(Path: 2mm_Endmill001)
(2mm_Endmill001)
(Begin toolchange)
( M6 T2 )
M3 S12000
(Finish operation: 2mm_Endmill001)
(Begin operation: Profile)
(Path: Profile)
(Profile)
(Uncompensated Tool Path)
G0 Z15.000
G0 X0.000 Y0.000
G0 X0.000 Y0.000
G0 X0.000 Y0.000 Z13.000
G1 X0.000 Y0.000 Z8.000 F300.000
G1 X0.000 Y30.000 Z8.000 F300.000
G1 X3.000 Y30.000 Z8.000 F300.000
G1 X3.000 Y20.000 Z8.000 F300.000
G1 X7.000 Y20.000 Z8.000 F300.000
G1 X7.000 Y30.000 Z8.000 F300.000
G1 X10.000 Y30.000 Z8.000 F300.000
G1 X10.000 Y0.000 Z8.000 F300.000
G1 X0.000 Y0.000 Z8.000 F300.000
G1 X0.000 Y0.000 Z6.000 F300.000
G1 X0.000 Y30.000 Z6.000 F300.000
G1 X3.000 Y30.000 Z6.000 F300.000
G1 X3.000 Y20.000 Z6.000 F300.000
G1 X7.000 Y20.000 Z6.000 F300.000
G1 X7.000 Y30.000 Z6.000 F300.000
G1 X10.000 Y30.000 Z6.000 F300.000
G1 X10.000 Y0.000 Z6.000 F300.000
G1 X0.000 Y0.000 Z6.000 F300.000
G1 X0.000 Y0.000 Z4.000 F300.000
G1 X0.000 Y30.000 Z4.000 F300.000
G1 X3.000 Y30.000 Z4.000 F300.000
G1 X3.000 Y20.000 Z4.000 F300.000
G1 X7.000 Y20.000 Z4.000 F300.000
G1 X7.000 Y30.000 Z4.000 F300.000
G1 X10.000 Y30.000 Z4.000 F300.000
G1 X10.000 Y0.000 Z4.000 F300.000
G1 X0.000 Y0.000 Z4.000 F300.000
G1 X0.000 Y0.000 Z2.000 F300.000
G1 X0.000 Y30.000 Z2.000 F300.000
G1 X3.000 Y30.000 Z2.000 F300.000
G1 X3.000 Y20.000 Z2.000 F300.000
G1 X7.000 Y20.000 Z2.000 F300.000
G1 X7.000 Y30.000 Z2.000 F300.000
G1 X10.000 Y30.000 Z2.000 F300.000
G1 X10.000 Y0.000 Z2.000 F300.000
G1 X0.000 Y0.000 Z2.000 F300.000
G1 X0.000 Y0.000 Z0.000 F300.000
G1 X0.000 Y30.000 Z0.000 F300.000
G1 X3.000 Y30.000 Z0.000 F300.000
G1 X3.000 Y20.000 Z0.000 F300.000
G1 X7.000 Y20.000 Z0.000 F300.000
G1 X7.000 Y30.000 Z0.000 F300.000
G1 X10.000 Y30.000 Z0.000 F300.000
G1 X10.000 Y0.000 Z0.000 F300.000
G1 X0.000 Y0.000 Z0.000 F300.000
G0 Z15.000
G0 Z15.000
(Finish operation: Profile)
(Begin postamble)
M5
G17 G90
M2
