(Exported by FreeCAD)
(Post Processor: script_module)
(Output Time:2025-02-24 14:25:57.773498)
(Begin preamble)
G17 G90
G21
(Begin operation: Fixture)
(Path: Fixture)
G54
(Finish operation: Fixture)
(Begin operation: 2mm_Endmill001)
(Path: 2mm_Endmill001)
(2mm_Endmill001)
(Begin toolchange)
( M6 T2 )
M3 S12000
(Finish operation: 2mm_Endmill001)
(Begin operation: Pocket_Shape)
(Path: Pocket_Shape)
(Pocket_Shape)
G0 Z15.000
G0 X0.000 Y0.000
G0 X-1.025 Y-3.861
G0 X-1.025 Y-3.861 Z13.000
G1 X-1.025 Y-3.861 Z8.000 F300.000
G3 X3.861 Y1.026 Z8.000 I1.027 J3.859 K0.000 F1020.000
G1 X-1.025 Y-3.861 Z8.000 F1020.000
G1 X-1.088 Y-3.845 Z8.000 F1020.000
G2 X-3.845 Y1.088 Z8.000 I1.088 J3.845 K0.000 F1020.000
G2 X1.088 Y3.845 Z8.000 I3.845 J-1.088 K0.000 F1020.000
G2 X-1.025 Y-3.861 Z8.000 I-1.088 J-3.844 K0.000 F1020.000
G2 X-2.821 Y-2.828 Z8.000 I1.008 J3.831 K0.000 F1020.000
G1 X2.828 Y2.821 Z8.000 F1020.000
G3 X1.036 Y3.858 Z8.000 I-2.813 J-2.795 K0.000 F1020.000
G1 X-3.858 Y-1.036 Z8.000 F1020.000
G2 X-2.785 Y2.865 Z8.000 I3.854 J1.038 K0.000 F1020.000
G1 X-2.785 Y2.865 Z6.000 F300.000
G3 X-3.858 Y-1.036 Z6.000 I2.781 J-2.863 K0.000 F1020.000
G1 X1.036 Y3.858 Z6.000 F1020.000
G2 X2.828 Y2.821 Z6.000 I-1.021 J-3.832 K0.000 F1020.000
G1 X-2.821 Y-2.828 Z6.000 F1020.000
G3 X-1.025 Y-3.861 Z6.000 I2.804 J2.798 K0.000 F1020.000
G3 X1.088 Y3.845 Z6.000 I1.026 J3.861 K0.000 F1020.000
G3 X-3.845 Y1.088 Z6.000 I-1.089 J-3.845 K0.000 F1020.000
G3 X-1.088 Y-3.845 Z6.000 I3.845 J-1.088 K0.000 F1020.000
G1 X-1.025 Y-3.861 Z6.000 F1020.000
G1 X3.861 Y1.026 Z6.000 F1020.000
G2 X-1.025 Y-3.861 Z6.000 I-3.859 J-1.027 K0.000 F1020.000
G1 X-1.025 Y-3.861 Z4.000 F300.000
G3 X3.861 Y1.026 Z4.000 I1.027 J3.859 K0.000 F1020.000
G1 X-1.025 Y-3.861 Z4.000 F1020.000
G1 X-1.088 Y-3.845 Z4.000 F1020.000
G2 X-3.845 Y1.088 Z4.000 I1.088 J3.845 K0.000 F1020.000
G2 X1.088 Y3.845 Z4.000 I3.845 J-1.088 K0.000 F1020.000
G2 X-1.025 Y-3.861 Z4.000 I-1.088 J-3.844 K0.000 F1020.000
G2 X-2.821 Y-2.828 Z4.000 I1.008 J3.831 K0.000 F1020.000
G1 X2.828 Y2.821 Z4.000 F1020.000
G3 X1.036 Y3.858 Z4.000 I-2.813 J-2.795 K0.000 F1020.000
G1 X-3.858 Y-1.036 Z4.000 F1020.000
G2 X-2.785 Y2.865 Z4.000 I3.854 J1.038 K0.000 F1020.000
G1 X-2.785 Y2.865 Z2.000 F300.000
G3 X-3.858 Y-1.036 Z2.000 I2.781 J-2.863 K0.000 F1020.000
G1 X1.036 Y3.858 Z2.000 F1020.000
G2 X2.828 Y2.821 Z2.000 I-1.021 J-3.832 K0.000 F1020.000
G1 X-2.821 Y-2.828 Z2.000 F1020.000
G3 X-1.025 Y-3.861 Z2.000 I2.804 J2.798 K0.000 F1020.000
G3 X1.088 Y3.845 Z2.000 I1.026 J3.861 K0.000 F1020.000
G3 X-3.845 Y1.088 Z2.000 I-1.089 J-3.845 K0.000 F1020.000
G3 X-1.088 Y-3.845 Z2.000 I3.845 J-1.088 K0.000 F1020.000
G1 X-1.025 Y-3.861 Z2.000 F1020.000
G1 X3.861 Y1.026 Z2.000 F1020.000
G2 X-1.025 Y-3.861 Z2.000 I-3.859 J-1.027 K0.000 F1020.000
G1 X-1.025 Y-3.861 Z0.000 F300.000
G3 X3.861 Y1.026 Z0.000 I1.027 J3.859 K0.000 F1020.000
G1 X-1.025 Y-3.861 Z0.000 F1020.000
G1 X-1.088 Y-3.845 Z0.000 F1020.000
G2 X-3.845 Y1.088 Z0.000 I1.088 J3.845 K0.000 F1020.000
G2 X1.088 Y3.845 Z0.000 I3.845 J-1.088 K0.000 F1020.000
G2 X-1.025 Y-3.861 Z0.000 I-1.088 J-3.844 K0.000 F1020.000
G2 X-2.821 Y-2.828 Z0.000 I1.008 J3.831 K0.000 F1020.000
G1 X2.828 Y2.821 Z0.000 F1020.000
G3 X1.036 Y3.858 Z0.000 I-2.813 J-2.795 K0.000 F1020.000
G1 X-3.858 Y-1.036 Z0.000 F1020.000
G2 X-2.785 Y2.865 Z0.000 I3.854 J1.038 K0.000 F1020.000
G0 Z15.000
G0 Z15.000
G0 X-2.785 Y2.865
G0 X9.344 Y16.579
G0 X9.344 Y16.579 Z13.000
G1 X9.344 Y16.579 Z8.000 F300.000
G2 X9.272 Y17.991 Z8.000 I0.656 J0.741 K0.000 F1020.000
G2 X10.728 Y16.650 Z8.000 I0.728 J-0.670 K0.000 F1020.000
G2 X9.330 Y16.592 Z8.000 I-0.728 J0.670 K0.000 F1020.000
G2 X9.272 Y17.991 Z8.000 I0.670 J0.728 K0.000 F1020.000
G2 X10.728 Y16.650 Z8.000 I0.728 J-0.670 K0.000 F1020.000
G2 X9.344 Y16.579 Z8.000 I-0.728 J0.670 K0.000 F1020.000
G1 X9.344 Y16.579 Z6.000 F300.000
G2 X9.272 Y17.991 Z6.000 I0.656 J0.741 K0.000 F1020.000
G2 X10.728 Y16.650 Z6.000 I0.728 J-0.670 K0.000 F1020.000
G2 X9.330 Y16.592 Z6.000 I-0.728 J0.670 K0.000 F1020.000
G2 X9.272 Y17.991 Z6.000 I0.670 J0.728 K0.000 F1020.000
G2 X10.728 Y16.650 Z6.000 I0.728 J-0.670 K0.000 F1020.000
G2 X9.344 Y16.579 Z6.000 I-0.728 J0.670 K0.000 F1020.000
G1 X9.344 Y16.579 Z4.000 F300.000
G2 X9.272 Y17.991 Z4.000 I0.656 J0.741 K0.000 F1020.000
G2 X10.728 Y16.650 Z4.000 I0.728 J-0.670 K0.000 F1020.000
G2 X9.330 Y16.592 Z4.000 I-0.728 J0.670 K0.000 F1020.000
G2 X9.272 Y17.991 Z4.000 I0.670 J0.728 K0.000 F1020.000
G2 X10.728 Y16.650 Z4.000 I0.728 J-0.670 K0.000 F1020.000
G2 X9.344 Y16.579 Z4.000 I-0.728 J0.670 K0.000 F1020.000
G1 X9.344 Y16.579 Z2.000 F300.000
G2 X9.272 Y17.991 Z2.000 I0.656 J0.741 K0.000 F1020.000
G2 X10.728 Y16.650 Z2.000 I0.728 J-0.670 K0.000 F1020.000
G2 X9.330 Y16.592 Z2.000 I-0.728 J0.670 K0.000 F1020.000
G2 X9.272 Y17.991 Z2.000 I0.670 J0.728 K0.000 F1020.000
G2 X10.728 Y16.650 Z2.000 I0.728 J-0.670 K0.000 F1020.000
G2 X9.344 Y16.579 Z2.000 I-0.728 J0.670 K0.000 F1020.000
G1 X9.344 Y16.579 Z0.000 F300.000
G2 X9.272 Y17.991 Z0.000 I0.656 J0.741 K0.000 F1020.000
G2 X10.728 Y16.650 Z0.000 I0.728 J-0.670 K0.000 F1020.000
G2 X9.330 Y16.592 Z0.000 I-0.728 J0.670 K0.000 F1020.000
G2 X9.272 Y17.991 Z0.000 I0.670 J0.728 K0.000 F1020.000
G2 X10.728 Y16.650 Z0.000 I0.728 J-0.670 K0.000 F1020.000
G2 X9.344 Y16.579 Z0.000 I-0.728 J0.670 K0.000 F1020.000
G0 Z15.000
G0 Z15.000
G0 X9.344 Y16.579
G0 X-9.011 Y17.283
G0 X-9.011 Y17.283 Z13.000
G1 X-9.011 Y17.283 Z8.000 F300.000
G2 X-9.272 Y16.650 Z8.000 I-0.989 J0.038 K0.000 F1020.000
G2 X-10.670 Y16.592 Z8.000 I-0.728 J0.670 K0.000 F1020.000
G2 X-10.728 Y17.991 Z8.000 I0.670 J0.728 K0.000 F1020.000
G2 X-9.272 Y16.650 Z8.000 I0.728 J-0.670 K0.000 F1020.000
G2 X-10.670 Y16.592 Z8.000 I-0.728 J0.670 K0.000 F1020.000
G2 X-10.728 Y17.991 Z8.000 I0.670 J0.728 K0.000 F1020.000
G2 X-9.011 Y17.283 Z8.000 I0.728 J-0.670 K0.000 F1020.000
G1 X-9.011 Y17.283 Z6.000 F300.000
G2 X-9.272 Y16.650 Z6.000 I-0.989 J0.038 K0.000 F1020.000
G2 X-10.670 Y16.592 Z6.000 I-0.728 J0.670 K0.000 F1020.000
G2 X-10.728 Y17.991 Z6.000 I0.670 J0.728 K0.000 F1020.000
G2 X-9.272 Y16.650 Z6.000 I0.728 J-0.670 K0.000 F1020.000
G2 X-10.670 Y16.592 Z6.000 I-0.728 J0.670 K0.000 F1020.000
G2 X-10.728 Y17.991 Z6.000 I0.670 J0.728 K0.000 F1020.000
G2 X-9.011 Y17.283 Z6.000 I0.728 J-0.670 K0.000 F1020.000
G1 X-9.011 Y17.283 Z4.000 F300.000
G2 X-9.272 Y16.650 Z4.000 I-0.989 J0.038 K0.000 F1020.000
G2 X-10.670 Y16.592 Z4.000 I-0.728 J0.670 K0.000 F1020.000
G2 X-10.728 Y17.991 Z4.000 I0.670 J0.728 K0.000 F1020.000
G2 X-9.272 Y16.650 Z4.000 I0.728 J-0.670 K0.000 F1020.000
G2 X-10.670 Y16.592 Z4.000 I-0.728 J0.670 K0.000 F1020.000
G2 X-10.728 Y17.991 Z4.000 I0.670 J0.728 K0.000 F1020.000
G2 X-9.011 Y17.283 Z4.000 I0.728 J-0.670 K0.000 F1020.000
G1 X-9.011 Y17.283 Z2.000 F300.000
G2 X-9.272 Y16.650 Z2.000 I-0.989 J0.038 K0.000 F1020.000
G2 X-10.670 Y16.592 Z2.000 I-0.728 J0.670 K0.000 F1020.000
G2 X-10.728 Y17.991 Z2.000 I0.670 J0.728 K0.000 F1020.000
G2 X-9.272 Y16.650 Z2.000 I0.728 J-0.670 K0.000 F1020.000
G2 X-10.670 Y16.592 Z2.000 I-0.728 J0.670 K0.000 F1020.000
G2 X-10.728 Y17.991 Z2.000 I0.670 J0.728 K0.000 F1020.000
G2 X-9.011 Y17.283 Z2.000 I0.728 J-0.670 K0.000 F1020.000
G1 X-9.011 Y17.283 Z0.000 F300.000
G2 X-9.272 Y16.650 Z0.000 I-0.989 J0.038 K0.000 F1020.000
G2 X-10.670 Y16.592 Z0.000 I-0.728 J0.670 K0.000 F1020.000
G2 X-10.728 Y17.991 Z0.000 I0.670 J0.728 K0.000 F1020.000
G2 X-9.272 Y16.650 Z0.000 I0.728 J-0.670 K0.000 F1020.000
G2 X-10.670 Y16.592 Z0.000 I-0.728 J0.670 K0.000 F1020.000
G2 X-10.728 Y17.991 Z0.000 I0.670 J0.728 K0.000 F1020.000
G2 X-9.011 Y17.283 Z0.000 I0.728 J-0.670 K0.000 F1020.000
G0 Z15.000
G0 Z15.000
G0 X-9.011 Y17.283
G0 X-19.469 Y0.835
G0 X-19.469 Y0.835 Z13.000
G1 X-19.469 Y0.835 Z8.000 F300.000
G2 X-19.272 Y-0.670 Z8.000 I-0.531 J-0.835 K0.000 F1020.000
G2 X-20.670 Y-0.728 Z8.000 I-0.728 J0.670 K0.000 F1020.000
G2 X-20.728 Y0.670 Z8.000 I0.670 J0.728 K0.000 F1020.000
G2 X-19.272 Y-0.670 Z8.000 I0.728 J-0.670 K0.000 F1020.000
G2 X-20.670 Y-0.728 Z8.000 I-0.728 J0.670 K0.000 F1020.000
G2 X-20.728 Y0.670 Z8.000 I0.670 J0.728 K0.000 F1020.000
G2 X-19.469 Y0.835 Z8.000 I0.728 J-0.670 K0.000 F1020.000
G1 X-19.469 Y0.835 Z6.000 F300.000
G2 X-19.272 Y-0.670 Z6.000 I-0.531 J-0.835 K0.000 F1020.000
G2 X-20.670 Y-0.728 Z6.000 I-0.728 J0.670 K0.000 F1020.000
G2 X-20.728 Y0.670 Z6.000 I0.670 J0.728 K0.000 F1020.000
G2 X-19.272 Y-0.670 Z6.000 I0.728 J-0.670 K0.000 F1020.000
G2 X-20.670 Y-0.728 Z6.000 I-0.728 J0.670 K0.000 F1020.000
G2 X-20.728 Y0.670 Z6.000 I0.670 J0.728 K0.000 F1020.000
G2 X-19.469 Y0.835 Z6.000 I0.728 J-0.670 K0.000 F1020.000
G1 X-19.469 Y0.835 Z4.000 F300.000
G2 X-19.272 Y-0.670 Z4.000 I-0.531 J-0.835 K0.000 F1020.000
G2 X-20.670 Y-0.728 Z4.000 I-0.728 J0.670 K0.000 F1020.000
G2 X-20.728 Y0.670 Z4.000 I0.670 J0.728 K0.000 F1020.000
G2 X-19.272 Y-0.670 Z4.000 I0.728 J-0.670 K0.000 F1020.000
G2 X-20.670 Y-0.728 Z4.000 I-0.728 J0.670 K0.000 F1020.000
G2 X-20.728 Y0.670 Z4.000 I0.670 J0.728 K0.000 F1020.000
G2 X-19.469 Y0.835 Z4.000 I0.728 J-0.670 K0.000 F1020.000
G1 X-19.469 Y0.835 Z2.000 F300.000
G2 X-19.272 Y-0.670 Z2.000 I-0.531 J-0.835 K0.000 F1020.000
G2 X-20.670 Y-0.728 Z2.000 I-0.728 J0.670 K0.000 F1020.000
G2 X-20.728 Y0.670 Z2.000 I0.670 J0.728 K0.000 F1020.000
G2 X-19.272 Y-0.670 Z2.000 I0.728 J-0.670 K0.000 F1020.000
G2 X-20.670 Y-0.728 Z2.000 I-0.728 J0.670 K0.000 F1020.000
G2 X-20.728 Y0.670 Z2.000 I0.670 J0.728 K0.000 F1020.000
G2 X-19.469 Y0.835 Z2.000 I0.728 J-0.670 K0.000 F1020.000
G1 X-19.469 Y0.835 Z0.000 F300.000
G2 X-19.272 Y-0.670 Z0.000 I-0.531 J-0.835 K0.000 F1020.000
G2 X-20.670 Y-0.728 Z0.000 I-0.728 J0.670 K0.000 F1020.000
G2 X-20.728 Y0.670 Z0.000 I0.670 J0.728 K0.000 F1020.000
G2 X-19.272 Y-0.670 Z0.000 I0.728 J-0.670 K0.000 F1020.000
G2 X-20.670 Y-0.728 Z0.000 I-0.728 J0.670 K0.000 F1020.000
G2 X-20.728 Y0.670 Z0.000 I0.670 J0.728 K0.000 F1020.000
G2 X-19.469 Y0.835 Z0.000 I0.728 J-0.670 K0.000 F1020.000
G0 Z15.000
G0 Z15.000
G0 X-19.469 Y0.835
G0 X-10.458 Y-16.443
G0 X-10.458 Y-16.443 Z13.000
G1 X-10.458 Y-16.443 Z8.000 F300.000
G2 X-9.272 Y-17.991 Z8.000 I0.458 J-0.878 K0.000 F1020.000
G2 X-10.670 Y-18.049 Z8.000 I-0.728 J0.670 K0.000 F1020.000
G2 X-10.728 Y-16.650 Z8.000 I0.670 J0.728 K0.000 F1020.000
G2 X-9.272 Y-17.991 Z8.000 I0.728 J-0.670 K0.000 F1020.000
G2 X-10.670 Y-18.049 Z8.000 I-0.728 J0.670 K0.000 F1020.000
G2 X-10.728 Y-16.650 Z8.000 I0.670 J0.728 K0.000 F1020.000
G2 X-10.458 Y-16.443 Z8.000 I0.728 J-0.670 K0.000 F1020.000
G1 X-10.458 Y-16.443 Z6.000 F300.000
G2 X-9.272 Y-17.991 Z6.000 I0.458 J-0.878 K0.000 F1020.000
G2 X-10.670 Y-18.049 Z6.000 I-0.728 J0.670 K0.000 F1020.000
G2 X-10.728 Y-16.650 Z6.000 I0.670 J0.728 K0.000 F1020.000
G2 X-9.272 Y-17.991 Z6.000 I0.728 J-0.670 K0.000 F1020.000
G2 X-10.670 Y-18.049 Z6.000 I-0.728 J0.670 K0.000 F1020.000
G2 X-10.728 Y-16.650 Z6.000 I0.670 J0.728 K0.000 F1020.000
G2 X-10.458 Y-16.443 Z6.000 I0.728 J-0.670 K0.000 F1020.000
G1 X-10.458 Y-16.443 Z4.000 F300.000
G2 X-9.272 Y-17.991 Z4.000 I0.458 J-0.878 K0.000 F1020.000
G2 X-10.670 Y-18.049 Z4.000 I-0.728 J0.670 K0.000 F1020.000
G2 X-10.728 Y-16.650 Z4.000 I0.670 J0.728 K0.000 F1020.000
G2 X-9.272 Y-17.991 Z4.000 I0.728 J-0.670 K0.000 F1020.000
G2 X-10.670 Y-18.049 Z4.000 I-0.728 J0.670 K0.000 F1020.000
G2 X-10.728 Y-16.650 Z4.000 I0.670 J0.728 K0.000 F1020.000
G2 X-10.458 Y-16.443 Z4.000 I0.728 J-0.670 K0.000 F1020.000
G1 X-10.458 Y-16.443 Z2.000 F300.000
G2 X-9.272 Y-17.991 Z2.000 I0.458 J-0.878 K0.000 F1020.000
G2 X-10.670 Y-18.049 Z2.000 I-0.728 J0.670 K0.000 F1020.000
G2 X-10.728 Y-16.650 Z2.000 I0.670 J0.728 K0.000 F1020.000
G2 X-9.272 Y-17.991 Z2.000 I0.728 J-0.670 K0.000 F1020.000
G2 X-10.670 Y-18.049 Z2.000 I-0.728 J0.670 K0.000 F1020.000
G2 X-10.728 Y-16.650 Z2.000 I0.670 J0.728 K0.000 F1020.000
G2 X-10.458 Y-16.443 Z2.000 I0.728 J-0.670 K0.000 F1020.000
G1 X-10.458 Y-16.443 Z0.000 F300.000
G2 X-9.272 Y-17.991 Z0.000 I0.458 J-0.878 K0.000 F1020.000
G2 X-10.670 Y-18.049 Z0.000 I-0.728 J0.670 K0.000 F1020.000
G2 X-10.728 Y-16.650 Z0.000 I0.670 J0.728 K0.000 F1020.000
G2 X-9.272 Y-17.991 Z0.000 I0.728 J-0.670 K0.000 F1020.000
G2 X-10.670 Y-18.049 Z0.000 I-0.728 J0.670 K0.000 F1020.000
G2 X-10.728 Y-16.650 Z0.000 I0.670 J0.728 K0.000 F1020.000
G2 X-10.458 Y-16.443 Z0.000 I0.728 J-0.670 K0.000 F1020.000
G0 Z15.000
G0 Z15.000
G0 X-10.458 Y-16.443
G0 X9.011 Y-17.278
G0 X9.011 Y-17.278 Z13.000
G1 X9.011 Y-17.278 Z8.000 F300.000
G2 X9.272 Y-16.650 Z8.000 I0.989 J-0.042 K0.000 F1020.000
G2 X10.728 Y-17.991 Z8.000 I0.728 J-0.670 K0.000 F1020.000
G2 X9.330 Y-18.049 Z8.000 I-0.728 J0.670 K0.000 F1020.000
G2 X9.272 Y-16.650 Z8.000 I0.670 J0.728 K0.000 F1020.000
G2 X10.728 Y-17.991 Z8.000 I0.728 J-0.670 K0.000 F1020.000
G2 X9.011 Y-17.278 Z8.000 I-0.728 J0.670 K0.000 F1020.000
G1 X9.011 Y-17.278 Z6.000 F300.000
G2 X9.272 Y-16.650 Z6.000 I0.989 J-0.042 K0.000 F1020.000
G2 X10.728 Y-17.991 Z6.000 I0.728 J-0.670 K0.000 F1020.000
G2 X9.330 Y-18.049 Z6.000 I-0.728 J0.670 K0.000 F1020.000
G2 X9.272 Y-16.650 Z6.000 I0.670 J0.728 K0.000 F1020.000
G2 X10.728 Y-17.991 Z6.000 I0.728 J-0.670 K0.000 F1020.000
G2 X9.011 Y-17.278 Z6.000 I-0.728 J0.670 K0.000 F1020.000
G1 X9.011 Y-17.278 Z4.000 F300.000
G2 X9.272 Y-16.650 Z4.000 I0.989 J-0.042 K0.000 F1020.000
G2 X10.728 Y-17.991 Z4.000 I0.728 J-0.670 K0.000 F1020.000
G2 X9.330 Y-18.049 Z4.000 I-0.728 J0.670 K0.000 F1020.000
G2 X9.272 Y-16.650 Z4.000 I0.670 J0.728 K0.000 F1020.000
G2 X10.728 Y-17.991 Z4.000 I0.728 J-0.670 K0.000 F1020.000
G2 X9.011 Y-17.278 Z4.000 I-0.728 J0.670 K0.000 F1020.000
G1 X9.011 Y-17.278 Z2.000 F300.000
G2 X9.272 Y-16.650 Z2.000 I0.989 J-0.042 K0.000 F1020.000
G2 X10.728 Y-17.991 Z2.000 I0.728 J-0.670 K0.000 F1020.000
G2 X9.330 Y-18.049 Z2.000 I-0.728 J0.670 K0.000 F1020.000
G2 X9.272 Y-16.650 Z2.000 I0.670 J0.728 K0.000 F1020.000
G2 X10.728 Y-17.991 Z2.000 I0.728 J-0.670 K0.000 F1020.000
G2 X9.011 Y-17.278 Z2.000 I-0.728 J0.670 K0.000 F1020.000
G1 X9.011 Y-17.278 Z0.000 F300.000
G2 X9.272 Y-16.650 Z0.000 I0.989 J-0.042 K0.000 F1020.000
G2 X10.728 Y-17.991 Z0.000 I0.728 J-0.670 K0.000 F1020.000
G2 X9.330 Y-18.049 Z0.000 I-0.728 J0.670 K0.000 F1020.000
G2 X9.272 Y-16.650 Z0.000 I0.670 J0.728 K0.000 F1020.000
G2 X10.728 Y-17.991 Z0.000 I0.728 J-0.670 K0.000 F1020.000
G2 X9.011 Y-17.278 Z0.000 I-0.728 J0.670 K0.000 F1020.000
G0 Z15.000
G0 Z15.000
G0 X9.011 Y-17.278
G0 X19.469 Y-0.835
G0 X19.469 Y-0.835 Z13.000
G1 X19.469 Y-0.835 Z8.000 F300.000
G2 X19.272 Y0.670 Z8.000 I0.531 J0.835 K0.000 F1020.000
G2 X20.728 Y-0.670 Z8.000 I0.728 J-0.670 K0.000 F1020.000
G2 X19.330 Y-0.728 Z8.000 I-0.728 J0.670 K0.000 F1020.000
G2 X19.272 Y0.670 Z8.000 I0.670 J0.728 K0.000 F1020.000
G2 X20.728 Y-0.670 Z8.000 I0.728 J-0.670 K0.000 F1020.000
G2 X19.469 Y-0.835 Z8.000 I-0.728 J0.670 K0.000 F1020.000
G1 X19.469 Y-0.835 Z6.000 F300.000
G2 X19.272 Y0.670 Z6.000 I0.531 J0.835 K0.000 F1020.000
G2 X20.728 Y-0.670 Z6.000 I0.728 J-0.670 K0.000 F1020.000
G2 X19.330 Y-0.728 Z6.000 I-0.728 J0.670 K0.000 F1020.000
G2 X19.272 Y0.670 Z6.000 I0.670 J0.728 K0.000 F1020.000
G2 X20.728 Y-0.670 Z6.000 I0.728 J-0.670 K0.000 F1020.000
G2 X19.469 Y-0.835 Z6.000 I-0.728 J0.670 K0.000 F1020.000
G1 X19.469 Y-0.835 Z4.000 F300.000
G2 X19.272 Y0.670 Z4.000 I0.531 J0.835 K0.000 F1020.000
G2 X20.728 Y-0.670 Z4.000 I0.728 J-0.670 K0.000 F1020.000
G2 X19.330 Y-0.728 Z4.000 I-0.728 J0.670 K0.000 F1020.000
G2 X19.272 Y0.670 Z4.000 I0.670 J0.728 K0.000 F1020.000
G2 X20.728 Y-0.670 Z4.000 I0.728 J-0.670 K0.000 F1020.000
G2 X19.469 Y-0.835 Z4.000 I-0.728 J0.670 K0.000 F1020.000
G1 X19.469 Y-0.835 Z2.000 F300.000
G2 X19.272 Y0.670 Z2.000 I0.531 J0.835 K0.000 F1020.000
G2 X20.728 Y-0.670 Z2.000 I0.728 J-0.670 K0.000 F1020.000
G2 X19.330 Y-0.728 Z2.000 I-0.728 J0.670 K0.000 F1020.000
G2 X19.272 Y0.670 Z2.000 I0.670 J0.728 K0.000 F1020.000
G2 X20.728 Y-0.670 Z2.000 I0.728 J-0.670 K0.000 F1020.000
G2 X19.469 Y-0.835 Z2.000 I-0.728 J0.670 K0.000 F1020.000
G1 X19.469 Y-0.835 Z0.000 F300.000
G2 X19.272 Y0.670 Z0.000 I0.531 J0.835 K0.000 F1020.000
G2 X20.728 Y-0.670 Z0.000 I0.728 J-0.670 K0.000 F1020.000
G2 X19.330 Y-0.728 Z0.000 I-0.728 J0.670 K0.000 F1020.000
G2 X19.272 Y0.670 Z0.000 I0.670 J0.728 K0.000 F1020.000
G2 X20.728 Y-0.670 Z0.000 I0.728 J-0.670 K0.000 F1020.000
G2 X19.469 Y-0.835 Z0.000 I-0.728 J0.670 K0.000 F1020.000
G0 Z15.000
G0 Z15.000
(Finish operation: Pocket_Shape)
(Begin operation: Profile)
(Path: Profile)
(Profile)
(Compensated Tool Path. Diameter: 2.0)
G0 Z15.000
G0 X0.000 Y0.000
G0 X25.298 Y5.999
G0 X25.298 Y5.999 Z13.000
G1 X25.298 Y5.999 Z8.000 F300.000
G2 X2.939 Y-25.833 Z8.000 I-25.298 J-5.999 K0.000 F1020.000
G2 X-25.833 Y-2.939 Z8.000 I-2.939 J25.833 K0.000 F1020.000
G2 X-2.939 Y25.833 Z8.000 I25.833 J2.939 K0.000 F1020.000
G2 X25.298 Y5.999 Z8.000 I2.939 J-25.833 K0.000 F1020.000
G1 X25.298 Y5.999 Z6.000 F300.000
G2 X2.939 Y-25.833 Z6.000 I-25.298 J-5.999 K0.000 F1020.000
G2 X-25.833 Y-2.939 Z6.000 I-2.939 J25.833 K0.000 F1020.000
G2 X-2.939 Y25.833 Z6.000 I25.833 J2.939 K0.000 F1020.000
G2 X25.298 Y5.999 Z6.000 I2.939 J-25.833 K0.000 F1020.000
G1 X25.298 Y5.999 Z4.000 F300.000
G2 X2.939 Y-25.833 Z4.000 I-25.298 J-5.999 K0.000 F1020.000
G2 X-25.833 Y-2.939 Z4.000 I-2.939 J25.833 K0.000 F1020.000
G2 X-2.939 Y25.833 Z4.000 I25.833 J2.939 K0.000 F1020.000
G2 X25.298 Y5.999 Z4.000 I2.939 J-25.833 K0.000 F1020.000
G1 X25.298 Y5.999 Z2.000 F300.000
G2 X2.939 Y-25.833 Z2.000 I-25.298 J-5.999 K0.000 F1020.000
G2 X-25.833 Y-2.939 Z2.000 I-2.939 J25.833 K0.000 F1020.000
G2 X-2.939 Y25.833 Z2.000 I25.833 J2.939 K0.000 F1020.000
G2 X25.298 Y5.999 Z2.000 I2.939 J-25.833 K0.000 F1020.000
G1 X25.298 Y5.999 Z0.000 F300.000
G2 X2.939 Y-25.833 Z0.000 I-25.298 J-5.999 K0.000 F1020.000
G2 X-25.833 Y-2.939 Z0.000 I-2.939 J25.833 K0.000 F1020.000
G2 X-2.939 Y25.833 Z0.000 I25.833 J2.939 K0.000 F1020.000
G2 X25.298 Y5.999 Z0.000 I2.939 J-25.833 K0.000 F1020.000
G0 Z15.000
G0 Z15.000
(Finish operation: Profile)
(Begin postamble)
M5
G17 G90
M2
