(Exported by FreeCAD)
(Post Processor: script_module)
(Output Time:2025-03-20 11:46:52.036616)
(Begin preamble)
G17 G90
G21
(Begin operation: Fixture)
(Path: Fixture)
G54
(Finish operation: Fixture)
(Begin operation: 2mm_Endmill001)
(Path: 2mm_Endmill001)
(2mm_Endmill001)
(Begin toolchange)
( M6 T2 )
M3 S13000
(Finish operation: 2mm_Endmill001)
(Begin operation: Pocket_Shape)
(Path: Pocket_Shape)
(Pocket_Shape)
G0 Z5.000
G0 X36.329 Y-3.579
G0 Z3.000
G1 X36.329 Y-3.579 Z-2.000 F600.000
G2 X30.738 Y-17.076 Z-2.000 I-5.591 J-5.591 K0.000 F600.000
G2 X30.738 Y-1.263 Z-2.000 I0.000 J7.907 K0.000 F600.000
G2 X36.329 Y-3.579 Z-2.000 I0.000 J-7.907 K0.000 F600.000
G0 Z5.000
G0 X29.977 Y-1.301 Z5.000
G0 X29.977 Y-1.301 Z3.000
G1 X29.977 Y-1.301 Z-2.000 F600.000
G3 X22.869 Y-8.409 Z-2.000 I0.756 J-7.864 K0.000 F600.000
G1 X29.977 Y-1.301 Z-2.000 F600.000
G2 X32.611 Y-1.496 Z-2.000 I0.761 J-7.589 K0.000 F600.000
G1 X23.065 Y-11.042 Z-2.000 F600.000
G3 X23.868 Y-13.067 Z-2.000 I6.953 J1.587 K0.000 F600.000
G1 X34.636 Y-2.300 Z-2.000 F600.000
G2 X36.251 Y-3.513 Z-2.000 I-3.376 J-6.178 K0.000 F600.000
G1 X25.081 Y-14.683 Z-2.000 F600.000
G3 X26.656 Y-15.937 Z-2.000 I5.278 J5.012 K0.000 F600.000
G1 X37.505 Y-5.087 Z-2.000 F600.000
G2 X38.357 Y-7.064 Z-2.000 I-6.464 J-3.956 K0.000 F600.000
G1 X28.632 Y-16.788 Z-2.000 F600.000
G3 X31.194 Y-17.055 Z-2.000 I2.049 J7.232 K0.000 F600.000
G1 X38.624 Y-9.626 Z-2.000 F600.000
G2 X36.065 Y-15.013 Z-2.000 I-7.830 J0.418 K0.000 F600.000
G1 X36.065 Y-15.013 Z-4.000 F600.000
G3 X38.624 Y-9.626 Z-4.000 I-5.271 J5.805 K0.000 F600.000
G1 X31.194 Y-17.055 Z-4.000 F600.000
G2 X28.632 Y-16.788 Z-4.000 I-0.513 J7.499 K0.000 F600.000
G1 X38.357 Y-7.064 Z-4.000 F600.000
G3 X37.505 Y-5.087 Z-4.000 I-7.315 J-1.980 K0.000 F600.000
G1 X26.656 Y-15.937 Z-4.000 F600.000
G2 X25.081 Y-14.683 Z-4.000 I3.704 J6.266 K0.000 F600.000
G1 X36.251 Y-3.513 Z-4.000 F600.000
G3 X34.636 Y-2.300 Z-4.000 I-4.991 J-4.965 K0.000 F600.000
G1 X23.868 Y-13.067 Z-4.000 F600.000
G2 X23.065 Y-11.042 Z-4.000 I6.150 J3.612 K0.000 F600.000
G1 X32.611 Y-1.496 Z-4.000 F600.000
G3 X29.977 Y-1.301 Z-4.000 I-1.872 J-7.394 K0.000 F600.000
G1 X22.869 Y-8.409 Z-4.000 F600.000
G2 X29.977 Y-1.301 Z-4.000 I7.864 J-0.756 K0.000 F600.000
G0 Z5.000
G0 X29.977 Y-1.300 Z5.000
G0 X29.977 Y-1.300 Z3.000
G1 X29.977 Y-1.300 Z-4.000 F600.000
G2 X30.738 Y-1.263 Z-4.000 I0.761 J-7.870 K0.000 F600.000
G2 X30.738 Y-17.076 Z-4.000 I0.000 J-7.907 K0.000 F600.000
G2 X29.977 Y-1.300 Z-4.000 I0.000 J7.907 K0.000 F600.000
G1 X29.977 Y-1.300 Z-6.000 F600.000
G2 X30.738 Y-1.263 Z-6.000 I0.761 J-7.870 K0.000 F600.000
G2 X30.738 Y-17.076 Z-6.000 I0.000 J-7.907 K0.000 F600.000
G2 X29.977 Y-1.300 Z-6.000 I0.000 J7.907 K0.000 F600.000
G0 Z5.000
G0 X29.977 Y-1.301 Z5.000
G0 X29.977 Y-1.301 Z3.000
G1 X29.977 Y-1.301 Z-6.000 F600.000
G3 X22.869 Y-8.409 Z-6.000 I0.756 J-7.864 K0.000 F600.000
G1 X29.977 Y-1.301 Z-6.000 F600.000
G2 X32.611 Y-1.496 Z-6.000 I0.761 J-7.589 K0.000 F600.000
G1 X23.065 Y-11.042 Z-6.000 F600.000
G3 X23.868 Y-13.067 Z-6.000 I6.953 J1.587 K0.000 F600.000
G1 X34.636 Y-2.300 Z-6.000 F600.000
G2 X36.251 Y-3.513 Z-6.000 I-3.376 J-6.178 K0.000 F600.000
G1 X25.081 Y-14.683 Z-6.000 F600.000
G3 X26.656 Y-15.937 Z-6.000 I5.278 J5.012 K0.000 F600.000
G1 X37.505 Y-5.087 Z-6.000 F600.000
G2 X38.357 Y-7.064 Z-6.000 I-6.464 J-3.956 K0.000 F600.000
G1 X28.632 Y-16.788 Z-6.000 F600.000
G3 X31.194 Y-17.055 Z-6.000 I2.049 J7.232 K0.000 F600.000
G1 X38.624 Y-9.626 Z-6.000 F600.000
G2 X36.065 Y-15.013 Z-6.000 I-7.830 J0.418 K0.000 F600.000
G0 Z5.000
G0 Z5.000
G0 X36.065 Y-15.013
G0 X23.169 Y-25.565
G0 X23.169 Y-25.565 Z3.000
G1 X23.169 Y-25.565 Z-2.000 F600.000
G1 X22.946 Y-23.531 Z-2.000 F600.000
G1 X39.403 Y-23.531 Z-2.000 F600.000
G1 X32.528 Y-78.432 Z-2.000 F600.000
G1 X28.962 Y-78.432 Z-2.000 F600.000
G1 X22.946 Y-23.531 Z-2.000 F600.000
G1 X25.203 Y-23.531 Z-2.000 F600.000
G1 X23.169 Y-25.565 Z-2.000 F600.000
G1 X23.448 Y-28.114 Z-2.000 F600.000
G1 X28.031 Y-23.531 Z-2.000 F600.000
G1 X30.860 Y-23.531 Z-2.000 F600.000
G1 X23.727 Y-30.664 Z-2.000 F600.000
G1 X24.007 Y-33.213 Z-2.000 F600.000
G1 X33.688 Y-23.531 Z-2.000 F600.000
G1 X36.516 Y-23.531 Z-2.000 F600.000
G1 X24.286 Y-35.762 Z-2.000 F600.000
G1 X24.565 Y-38.311 Z-2.000 F600.000
G1 X39.345 Y-23.531 Z-2.000 F600.000
G1 X39.403 Y-23.531 Z-2.000 F600.000
G1 X39.007 Y-26.698 Z-2.000 F600.000
G1 X24.845 Y-40.860 Z-2.000 F600.000
G1 X25.124 Y-43.409 Z-2.000 F600.000
G1 X38.602 Y-29.931 Z-2.000 F600.000
G1 X38.197 Y-33.165 Z-2.000 F600.000
G1 X25.403 Y-45.958 Z-2.000 F600.000
G1 X25.683 Y-48.507 Z-2.000 F600.000
G1 X37.792 Y-36.398 Z-2.000 F600.000
G1 X37.387 Y-39.631 Z-2.000 F600.000
G1 X25.962 Y-51.056 Z-2.000 F600.000
G1 X26.241 Y-53.605 Z-2.000 F600.000
G1 X36.982 Y-42.865 Z-2.000 F600.000
G1 X36.577 Y-46.098 Z-2.000 F600.000
G1 X26.521 Y-56.154 Z-2.000 F600.000
G1 X26.800 Y-58.704 Z-2.000 F600.000
G1 X36.172 Y-49.331 Z-2.000 F600.000
G1 X35.767 Y-52.565 Z-2.000 F600.000
G1 X27.079 Y-61.253 Z-2.000 F600.000
G1 X27.359 Y-63.802 Z-2.000 F600.000
G1 X35.362 Y-55.798 Z-2.000 F600.000
G1 X34.957 Y-59.032 Z-2.000 F600.000
G1 X27.638 Y-66.351 Z-2.000 F600.000
G1 X27.918 Y-68.900 Z-2.000 F600.000
G1 X34.552 Y-62.265 Z-2.000 F600.000
G1 X34.148 Y-65.498 Z-2.000 F600.000
G1 X28.197 Y-71.449 Z-2.000 F600.000
G1 X28.476 Y-73.998 Z-2.000 F600.000
G1 X33.743 Y-68.732 Z-2.000 F600.000
G1 X33.338 Y-71.965 Z-2.000 F600.000
G1 X28.756 Y-76.547 Z-2.000 F600.000
G1 X28.962 Y-78.432 Z-2.000 F600.000
G1 X29.699 Y-78.432 Z-2.000 F600.000
G1 X32.933 Y-75.198 Z-2.000 F600.000
G1 X32.528 Y-78.432 Z-2.000 F600.000
G1 X32.528 Y-78.432 Z-4.000 F600.000
G1 X32.933 Y-75.198 Z-4.000 F600.000
G1 X29.699 Y-78.432 Z-4.000 F600.000
G1 X28.962 Y-78.432 Z-4.000 F600.000
G1 X28.756 Y-76.547 Z-4.000 F600.000
G1 X33.338 Y-71.965 Z-4.000 F600.000
G1 X33.743 Y-68.732 Z-4.000 F600.000
G1 X28.476 Y-73.998 Z-4.000 F600.000
G1 X28.197 Y-71.449 Z-4.000 F600.000
G1 X34.148 Y-65.498 Z-4.000 F600.000
G1 X34.552 Y-62.265 Z-4.000 F600.000
G1 X27.918 Y-68.900 Z-4.000 F600.000
G1 X27.638 Y-66.351 Z-4.000 F600.000
G1 X34.957 Y-59.032 Z-4.000 F600.000
G1 X35.362 Y-55.798 Z-4.000 F600.000
G1 X27.359 Y-63.802 Z-4.000 F600.000
G1 X27.079 Y-61.253 Z-4.000 F600.000
G1 X35.767 Y-52.565 Z-4.000 F600.000
G1 X36.172 Y-49.331 Z-4.000 F600.000
G1 X26.800 Y-58.704 Z-4.000 F600.000
G1 X26.521 Y-56.154 Z-4.000 F600.000
G1 X36.577 Y-46.098 Z-4.000 F600.000
G1 X36.982 Y-42.865 Z-4.000 F600.000
G1 X26.241 Y-53.605 Z-4.000 F600.000
G1 X25.962 Y-51.056 Z-4.000 F600.000
G1 X37.387 Y-39.631 Z-4.000 F600.000
G1 X37.792 Y-36.398 Z-4.000 F600.000
G1 X25.683 Y-48.507 Z-4.000 F600.000
G1 X25.403 Y-45.958 Z-4.000 F600.000
G1 X38.197 Y-33.165 Z-4.000 F600.000
G1 X38.602 Y-29.931 Z-4.000 F600.000
G1 X25.124 Y-43.409 Z-4.000 F600.000
G1 X24.845 Y-40.860 Z-4.000 F600.000
G1 X39.007 Y-26.698 Z-4.000 F600.000
G1 X39.403 Y-23.531 Z-4.000 F600.000
G1 X39.345 Y-23.531 Z-4.000 F600.000
G1 X24.565 Y-38.311 Z-4.000 F600.000
G1 X24.286 Y-35.762 Z-4.000 F600.000
G1 X36.516 Y-23.531 Z-4.000 F600.000
G1 X33.688 Y-23.531 Z-4.000 F600.000
G1 X24.007 Y-33.213 Z-4.000 F600.000
G1 X23.727 Y-30.664 Z-4.000 F600.000
G1 X30.860 Y-23.531 Z-4.000 F600.000
G1 X28.031 Y-23.531 Z-4.000 F600.000
G1 X23.448 Y-28.114 Z-4.000 F600.000
G1 X23.169 Y-25.565 Z-4.000 F600.000
G1 X25.203 Y-23.531 Z-4.000 F600.000
G1 X22.946 Y-23.531 Z-4.000 F600.000
G1 X28.962 Y-78.432 Z-4.000 F600.000
G1 X32.528 Y-78.432 Z-4.000 F600.000
G1 X39.403 Y-23.531 Z-4.000 F600.000
G1 X22.946 Y-23.531 Z-4.000 F600.000
G1 X23.169 Y-25.565 Z-4.000 F600.000
G1 X23.169 Y-25.565 Z-6.000 F600.000
G1 X22.946 Y-23.531 Z-6.000 F600.000
G1 X39.403 Y-23.531 Z-6.000 F600.000
G1 X32.528 Y-78.432 Z-6.000 F600.000
G1 X28.962 Y-78.432 Z-6.000 F600.000
G1 X22.946 Y-23.531 Z-6.000 F600.000
G1 X25.203 Y-23.531 Z-6.000 F600.000
G1 X23.169 Y-25.565 Z-6.000 F600.000
G1 X23.448 Y-28.114 Z-6.000 F600.000
G1 X28.031 Y-23.531 Z-6.000 F600.000
G1 X30.860 Y-23.531 Z-6.000 F600.000
G1 X23.727 Y-30.664 Z-6.000 F600.000
G1 X24.007 Y-33.213 Z-6.000 F600.000
G1 X33.688 Y-23.531 Z-6.000 F600.000
G1 X36.516 Y-23.531 Z-6.000 F600.000
G1 X24.286 Y-35.762 Z-6.000 F600.000
G1 X24.565 Y-38.311 Z-6.000 F600.000
G1 X39.345 Y-23.531 Z-6.000 F600.000
G1 X39.403 Y-23.531 Z-6.000 F600.000
G1 X39.007 Y-26.698 Z-6.000 F600.000
G1 X24.845 Y-40.860 Z-6.000 F600.000
G1 X25.124 Y-43.409 Z-6.000 F600.000
G1 X38.602 Y-29.931 Z-6.000 F600.000
G1 X38.197 Y-33.165 Z-6.000 F600.000
G1 X25.403 Y-45.958 Z-6.000 F600.000
G1 X25.683 Y-48.507 Z-6.000 F600.000
G1 X37.792 Y-36.398 Z-6.000 F600.000
G1 X37.387 Y-39.631 Z-6.000 F600.000
G1 X25.962 Y-51.056 Z-6.000 F600.000
G1 X26.241 Y-53.605 Z-6.000 F600.000
G1 X36.982 Y-42.865 Z-6.000 F600.000
G1 X36.577 Y-46.098 Z-6.000 F600.000
G1 X26.521 Y-56.154 Z-6.000 F600.000
G1 X26.800 Y-58.704 Z-6.000 F600.000
G1 X36.172 Y-49.331 Z-6.000 F600.000
G1 X35.767 Y-52.565 Z-6.000 F600.000
G1 X27.079 Y-61.253 Z-6.000 F600.000
G1 X27.359 Y-63.802 Z-6.000 F600.000
G1 X35.362 Y-55.798 Z-6.000 F600.000
G1 X34.957 Y-59.032 Z-6.000 F600.000
G1 X27.638 Y-66.351 Z-6.000 F600.000
G1 X27.918 Y-68.900 Z-6.000 F600.000
G1 X34.552 Y-62.265 Z-6.000 F600.000
G1 X34.148 Y-65.498 Z-6.000 F600.000
G1 X28.197 Y-71.449 Z-6.000 F600.000
G1 X28.476 Y-73.998 Z-6.000 F600.000
G1 X33.743 Y-68.732 Z-6.000 F600.000
G1 X33.338 Y-71.965 Z-6.000 F600.000
G1 X28.756 Y-76.547 Z-6.000 F600.000
G1 X28.962 Y-78.432 Z-6.000 F600.000
G1 X29.699 Y-78.432 Z-6.000 F600.000
G1 X32.933 Y-75.198 Z-6.000 F600.000
G1 X32.528 Y-78.432 Z-6.000 F600.000
G0 Z5.000
G0 Z5.000
G0 X32.528 Y-78.432
G0 X49.511 Y-66.746
G0 X49.511 Y-66.746 Z3.000
G1 X49.511 Y-66.746 Z-2.000 F600.000
G3 X50.335 Y-67.179 Z-2.000 I0.824 J0.567 K0.000 F600.000
G1 X66.369 Y-67.179 Z-2.000 F600.000
G3 X67.369 Y-66.179 Z-2.000 I-0.000 J1.000 K0.000 F600.000
G1 X67.369 Y-59.053 Z-2.000 F600.000
G3 X66.369 Y-58.053 Z-2.000 I-1.000 J-0.000 K0.000 F600.000
G1 X57.703 Y-58.053 Z-2.000 F600.000
G1 X58.344 Y-52.927 Z-2.000 F600.000
G1 X66.369 Y-52.927 Z-2.000 F600.000
G3 X67.369 Y-51.927 Z-2.000 I-0.000 J1.000 K0.000 F600.000
G1 X67.369 Y-45.692 Z-2.000 F600.000
G3 X66.369 Y-44.692 Z-2.000 I-1.000 J-0.000 K0.000 F600.000
G1 X54.789 Y-44.692 Z-2.000 F600.000
G3 X53.812 Y-45.479 Z-2.000 I0.000 J-1.000 K0.000 F600.000
G1 X49.358 Y-65.967 Z-2.000 F600.000
G3 X49.511 Y-66.746 Z-2.000 I0.977 J-0.212 K0.000 F600.000
G0 Z5.000
G0 X60.449 Y-52.927 Z5.000
G0 X60.449 Y-52.927 Z3.000
G1 X60.449 Y-52.927 Z-2.000 F600.000
G1 X58.043 Y-55.333 Z-2.000 F600.000
G1 X58.344 Y-52.927 Z-2.000 F600.000
G1 X60.449 Y-52.927 Z-2.000 F600.000
G1 X63.277 Y-52.927 Z-2.000 F600.000
G1 X58.151 Y-58.053 Z-2.000 F600.000
G1 X60.980 Y-58.053 Z-2.000 F600.000
G1 X66.106 Y-52.927 Z-2.000 F600.000
G0 Z5.000
G0 X66.373 Y-41.346 Z5.000
G0 X66.373 Y-41.346 Z3.000
G1 X66.373 Y-41.346 Z-2.000 F600.000
G1 X63.027 Y-44.692 Z-2.000 F600.000
G1 X60.199 Y-44.692 Z-2.000 F600.000
G1 X63.544 Y-41.347 Z-2.000 F600.000
G1 X60.715 Y-41.347 Z-2.000 F600.000
G1 X57.371 Y-44.692 Z-2.000 F600.000
G1 X54.789 Y-44.692 Z-2.000 F600.000
G3 X54.494 Y-44.740 Z-2.000 I-0.061 J-0.554 K0.000 F600.000
G1 X57.887 Y-41.347 Z-2.000 F600.000
G1 X51.155 Y-41.347 Z-2.000 F600.000
G1 X45.319 Y-70.524 Z-2.000 F600.000
G1 X66.369 Y-70.524 Z-2.000 F600.000
G2 X67.369 Y-71.524 Z-2.000 I-0.000 J-1.000 K0.000 F600.000
G1 X67.369 Y-75.869 Z-2.000 F600.000
G1 X67.369 Y-75.869 Z-2.000 F600.000
G1 X74.277 Y-75.869 Z-2.000 F600.000
G1 X74.277 Y-30.524 Z-2.000 F600.000
G2 X75.073 Y-29.549 Z-2.000 I0.990 J0.004 K0.000 F600.000
G1 X74.381 Y-21.937 Z-2.000 F600.000
G1 X43.988 Y-27.687 Z-2.000 F600.000
G1 X44.645 Y-28.672 Z-2.000 F600.000
G1 X66.397 Y-29.277 Z-2.000 F600.000
G2 X67.369 Y-30.276 Z-2.000 I-0.028 J-1.000 K0.000 F600.000
G1 X67.369 Y-40.347 Z-2.000 F600.000
G2 X66.369 Y-41.347 Z-2.000 I-1.000 J0.000 K0.000 F600.000
G1 X57.887 Y-41.347 Z-2.000 F600.000
G0 Z5.000
G0 X50.886 Y-42.691 Z5.000
G0 X50.886 Y-42.691 Z3.000
G1 X50.886 Y-42.691 Z-2.000 F600.000
G1 X52.230 Y-41.347 Z-2.000 F600.000
G1 X51.155 Y-41.347 Z-2.000 F600.000
G1 X50.886 Y-42.691 Z-2.000 F600.000
G1 X50.179 Y-46.226 Z-2.000 F600.000
G1 X55.058 Y-41.347 Z-2.000 F600.000
G1 X57.887 Y-41.347 Z-2.000 F600.000
G1 X54.494 Y-44.740 Z-2.000 F600.000
G3 X53.845 Y-45.389 Z-2.000 I0.262 J-0.911 K0.000 F600.000
G1 X49.472 Y-49.762 Z-2.000 F600.000
G1 X48.765 Y-53.297 Z-2.000 F600.000
G1 X53.042 Y-49.020 Z-2.000 F600.000
G1 X52.256 Y-52.634 Z-2.000 F600.000
G1 X48.058 Y-56.833 Z-2.000 F600.000
G1 X47.351 Y-60.368 Z-2.000 F600.000
G1 X51.471 Y-56.248 Z-2.000 F600.000
G1 X50.685 Y-59.862 Z-2.000 F600.000
G1 X46.643 Y-63.904 Z-2.000 F600.000
G1 X45.936 Y-67.440 Z-2.000 F600.000
G1 X49.899 Y-63.477 Z-2.000 F600.000
G1 X49.358 Y-65.967 Z-2.000 F600.000
G3 X49.491 Y-66.713 Z-2.000 I0.962 J-0.213 K0.000 F600.000
G1 X45.680 Y-70.524 Z-2.000 F600.000
G1 X48.509 Y-70.524 Z-2.000 F600.000
G1 X51.853 Y-67.179 Z-2.000 F600.000
G1 X54.682 Y-67.179 Z-2.000 F600.000
G1 X51.337 Y-70.524 Z-2.000 F600.000
G1 X54.166 Y-70.524 Z-2.000 F600.000
G1 X57.510 Y-67.179 Z-2.000 F600.000
G1 X60.339 Y-67.179 Z-2.000 F600.000
G1 X56.994 Y-70.524 Z-2.000 F600.000
G1 X59.822 Y-70.524 Z-2.000 F600.000
G1 X63.167 Y-67.179 Z-2.000 F600.000
G1 X65.995 Y-67.179 Z-2.000 F600.000
G1 X62.651 Y-70.524 Z-2.000 F600.000
G1 X65.479 Y-70.524 Z-2.000 F600.000
G1 X74.277 Y-61.727 Z-2.000 F600.000
G1 X74.277 Y-64.555 Z-2.000 F600.000
G1 X67.362 Y-71.470 Z-2.000 F600.000
G1 X67.369 Y-71.524 Z-2.000 F600.000
G1 X67.369 Y-74.291 Z-2.000 F600.000
G1 X74.277 Y-67.383 Z-2.000 F600.000
G1 X74.277 Y-70.212 Z-2.000 F600.000
G1 X68.620 Y-75.869 Z-2.000 F600.000
G1 X71.448 Y-75.869 Z-2.000 F600.000
G1 X74.277 Y-73.040 Z-2.000 F600.000
G1 X74.277 Y-75.869 Z-2.000 F600.000
G0 Z5.000
G0 X67.369 Y-65.806 Z5.000
G0 X67.369 Y-65.806 Z3.000
G1 X67.369 Y-65.806 Z-2.000 F600.000
G1 X74.277 Y-58.898 Z-2.000 F600.000
G1 X74.277 Y-56.070 Z-2.000 F600.000
G1 X67.369 Y-62.977 Z-2.000 F600.000
G1 X67.369 Y-60.149 Z-2.000 F600.000
G1 X74.277 Y-53.241 Z-2.000 F600.000
G1 X74.277 Y-50.413 Z-2.000 F600.000
G1 X66.605 Y-58.084 Z-2.000 F600.000
G1 X66.369 Y-58.053 Z-2.000 F600.000
G1 X63.808 Y-58.053 Z-2.000 F600.000
G1 X74.277 Y-47.584 Z-2.000 F600.000
G1 X74.277 Y-44.756 Z-2.000 F600.000
G1 X67.369 Y-51.664 Z-2.000 F600.000
G1 X67.369 Y-48.835 Z-2.000 F600.000
G1 X74.277 Y-41.928 Z-2.000 F600.000
G1 X74.277 Y-39.099 Z-2.000 F600.000
G1 X67.369 Y-46.007 Z-2.000 F600.000
G3 X67.076 Y-44.984 Z-2.000 I-1.167 J0.219 K0.000 F600.000
G3 X66.369 Y-44.692 Z-2.000 I-0.707 J-0.707 K0.000 F600.000
G1 X65.856 Y-44.692 Z-2.000 F600.000
G1 X74.277 Y-36.271 Z-2.000 F600.000
G1 X74.277 Y-33.442 Z-2.000 F600.000
G1 X67.369 Y-40.350 Z-2.000 F600.000
G1 X67.369 Y-40.347 Z-2.000 F600.000
G1 X67.369 Y-37.522 Z-2.000 F600.000
G1 X74.277 Y-30.614 Z-2.000 F600.000
G2 X75.073 Y-29.549 Z-2.000 I0.994 J0.088 K0.000 F600.000
G1 X74.859 Y-27.203 Z-2.000 F600.000
G1 X67.369 Y-34.693 Z-2.000 F600.000
G1 X67.369 Y-31.865 Z-2.000 F600.000
G1 X74.624 Y-24.610 Z-2.000 F600.000
G1 X74.388 Y-22.017 Z-2.000 F600.000
G1 X66.941 Y-29.464 Z-2.000 F600.000
G3 X66.397 Y-29.277 Z-2.000 I-0.562 J-0.747 K0.000 F600.000
G1 X64.357 Y-29.220 Z-2.000 F600.000
G1 X71.000 Y-22.577 Z-2.000 F600.000
G1 X67.512 Y-23.237 Z-2.000 F600.000
G1 X61.605 Y-29.143 Z-2.000 F600.000
G1 X58.853 Y-29.067 Z-2.000 F600.000
G1 X64.023 Y-23.897 Z-2.000 F600.000
G1 X60.535 Y-24.557 Z-2.000 F600.000
G1 X56.101 Y-28.991 Z-2.000 F600.000
G1 X53.349 Y-28.914 Z-2.000 F600.000
G1 X57.047 Y-25.217 Z-2.000 F600.000
G1 X53.558 Y-25.876 Z-2.000 F600.000
G1 X50.597 Y-28.838 Z-2.000 F600.000
G1 X47.845 Y-28.761 Z-2.000 F600.000
G1 X50.070 Y-26.536 Z-2.000 F600.000
G1 X46.581 Y-27.196 Z-2.000 F600.000
G1 X45.093 Y-28.685 Z-2.000 F600.000
G1 X44.645 Y-28.672 Z-2.000 F600.000
G1 X43.988 Y-27.687 Z-2.000 F600.000
G1 X46.581 Y-27.196 Z-2.000 F600.000
G1 X46.581 Y-27.196 Z-4.000 F600.000
G1 X43.988 Y-27.687 Z-4.000 F600.000
G1 X44.645 Y-28.672 Z-4.000 F600.000
G1 X45.093 Y-28.685 Z-4.000 F600.000
G1 X46.581 Y-27.196 Z-4.000 F600.000
G1 X50.070 Y-26.536 Z-4.000 F600.000
G1 X47.845 Y-28.761 Z-4.000 F600.000
G1 X50.597 Y-28.838 Z-4.000 F600.000
G1 X53.558 Y-25.876 Z-4.000 F600.000
G1 X57.047 Y-25.217 Z-4.000 F600.000
G1 X53.349 Y-28.914 Z-4.000 F600.000
G1 X56.101 Y-28.991 Z-4.000 F600.000
G1 X60.535 Y-24.557 Z-4.000 F600.000
G1 X64.023 Y-23.897 Z-4.000 F600.000
G1 X58.853 Y-29.067 Z-4.000 F600.000
G1 X61.605 Y-29.143 Z-4.000 F600.000
G1 X67.512 Y-23.237 Z-4.000 F600.000
G1 X71.000 Y-22.577 Z-4.000 F600.000
G1 X64.357 Y-29.220 Z-4.000 F600.000
G1 X66.397 Y-29.277 Z-4.000 F600.000
G2 X66.941 Y-29.464 Z-4.000 I-0.018 J-0.935 K0.000 F600.000
G1 X74.388 Y-22.017 Z-4.000 F600.000
G1 X74.624 Y-24.610 Z-4.000 F600.000
G1 X67.369 Y-31.865 Z-4.000 F600.000
G1 X67.369 Y-34.693 Z-4.000 F600.000
G1 X74.859 Y-27.203 Z-4.000 F600.000
G1 X75.073 Y-29.549 Z-4.000 F600.000
G3 X74.277 Y-30.614 Z-4.000 I0.198 J-0.978 K0.000 F600.000
G1 X67.369 Y-37.522 Z-4.000 F600.000
G1 X67.369 Y-40.347 Z-4.000 F600.000
G1 X67.369 Y-40.350 Z-4.000 F600.000
G1 X74.277 Y-33.442 Z-4.000 F600.000
G1 X74.277 Y-36.271 Z-4.000 F600.000
G1 X65.856 Y-44.692 Z-4.000 F600.000
G1 X66.369 Y-44.692 Z-4.000 F600.000
G2 X67.076 Y-44.984 Z-4.000 I0.000 J-1.000 K0.000 F600.000
G2 X67.369 Y-46.007 Z-4.000 I-0.874 J-0.804 K0.000 F600.000
G1 X74.277 Y-39.099 Z-4.000 F600.000
G1 X74.277 Y-41.928 Z-4.000 F600.000
G1 X67.369 Y-48.835 Z-4.000 F600.000
G1 X67.369 Y-51.664 Z-4.000 F600.000
G1 X74.277 Y-44.756 Z-4.000 F600.000
G1 X74.277 Y-47.584 Z-4.000 F600.000
G1 X63.808 Y-58.053 Z-4.000 F600.000
G1 X66.369 Y-58.053 Z-4.000 F600.000
G1 X66.605 Y-58.084 Z-4.000 F600.000
G1 X74.277 Y-50.413 Z-4.000 F600.000
G1 X74.277 Y-53.241 Z-4.000 F600.000
G1 X67.369 Y-60.149 Z-4.000 F600.000
G1 X67.369 Y-62.977 Z-4.000 F600.000
G1 X74.277 Y-56.070 Z-4.000 F600.000
G1 X74.277 Y-58.898 Z-4.000 F600.000
G1 X67.369 Y-65.806 Z-4.000 F600.000
G1 X67.369 Y-65.806 Z-4.000 F600.000
G1 X67.369 Y-59.053 Z-4.000 F600.000
G3 X66.369 Y-58.053 Z-4.000 I-1.000 J-0.000 K0.000 F600.000
G1 X57.703 Y-58.053 Z-4.000 F600.000
G1 X58.344 Y-52.927 Z-4.000 F600.000
G1 X66.369 Y-52.927 Z-4.000 F600.000
G3 X67.369 Y-51.927 Z-4.000 I-0.000 J1.000 K0.000 F600.000
G1 X67.369 Y-45.692 Z-4.000 F600.000
G3 X66.369 Y-44.692 Z-4.000 I-1.000 J-0.000 K0.000 F600.000
G1 X54.789 Y-44.692 Z-4.000 F600.000
G3 X53.812 Y-45.479 Z-4.000 I0.000 J-1.000 K0.000 F600.000
G1 X49.358 Y-65.967 Z-4.000 F600.000
G3 X50.335 Y-67.179 Z-4.000 I0.977 J-0.212 K0.000 F600.000
G1 X66.369 Y-67.179 Z-4.000 F600.000
G3 X67.369 Y-66.179 Z-4.000 I-0.000 J1.000 K0.000 F600.000
G1 X67.369 Y-65.806 Z-4.000 F600.000
G0 Z5.000
G0 Y-75.869 Z5.000
G0 Y-75.869 Z3.000
G1 X67.369 Y-75.869 Z-4.000 F600.000
G1 X67.369 Y-71.524 Z-4.000 F600.000
G3 X66.369 Y-70.524 Z-4.000 I-1.000 J-0.000 K0.000 F600.000
G1 X45.319 Y-70.524 Z-4.000 F600.000
G1 X51.155 Y-41.347 Z-4.000 F600.000
G1 X57.887 Y-41.347 Z-4.000 F600.000
G1 X54.494 Y-44.740 Z-4.000 F600.000
G2 X54.789 Y-44.692 Z-4.000 I0.234 J-0.506 K0.000 F600.000
G1 X57.371 Y-44.692 Z-4.000 F600.000
G1 X60.715 Y-41.347 Z-4.000 F600.000
G1 X63.544 Y-41.347 Z-4.000 F600.000
G1 X60.199 Y-44.692 Z-4.000 F600.000
G1 X63.027 Y-44.692 Z-4.000 F600.000
G1 X66.373 Y-41.346 Z-4.000 F600.000
G0 Z5.000
G0 X57.887 Y-41.347 Z5.000
G0 X57.887 Y-41.347 Z3.000
G1 X57.887 Y-41.347 Z-4.000 F600.000
G1 X66.369 Y-41.347 Z-4.000 F600.000
G3 X67.369 Y-40.347 Z-4.000 I-0.000 J1.000 K0.000 F600.000
G1 X67.369 Y-30.276 Z-4.000 F600.000
G3 X66.397 Y-29.277 Z-4.000 I-1.000 J-0.000 K0.000 F600.000
G1 X44.645 Y-28.672 Z-4.000 F600.000
G1 X43.988 Y-27.687 Z-4.000 F600.000
G1 X74.381 Y-21.937 Z-4.000 F600.000
G1 X75.073 Y-29.549 Z-4.000 F600.000
G3 X74.277 Y-30.524 Z-4.000 I0.194 J-0.971 K0.000 F600.000
G1 X74.277 Y-75.869 Z-4.000 F600.000
G1 X67.369 Y-75.869 Z-4.000 F600.000
G0 Z5.000
G0 X74.277 Z5.000
G0 X74.277 Z3.000
G1 X74.277 Y-75.869 Z-4.000 F600.000
G1 X74.277 Y-73.040 Z-4.000 F600.000
G1 X71.448 Y-75.869 Z-4.000 F600.000
G1 X68.620 Y-75.869 Z-4.000 F600.000
G1 X74.277 Y-70.212 Z-4.000 F600.000
G1 X74.277 Y-67.383 Z-4.000 F600.000
G1 X67.369 Y-74.291 Z-4.000 F600.000
G1 X67.369 Y-71.524 Z-4.000 F600.000
G1 X67.362 Y-71.470 Z-4.000 F600.000
G1 X74.277 Y-64.555 Z-4.000 F600.000
G1 X74.277 Y-61.727 Z-4.000 F600.000
G1 X65.479 Y-70.524 Z-4.000 F600.000
G1 X62.651 Y-70.524 Z-4.000 F600.000
G1 X65.995 Y-67.179 Z-4.000 F600.000
G1 X63.167 Y-67.179 Z-4.000 F600.000
G1 X59.822 Y-70.524 Z-4.000 F600.000
G1 X56.994 Y-70.524 Z-4.000 F600.000
G1 X60.339 Y-67.179 Z-4.000 F600.000
G1 X57.510 Y-67.179 Z-4.000 F600.000
G1 X54.166 Y-70.524 Z-4.000 F600.000
G1 X51.337 Y-70.524 Z-4.000 F600.000
G1 X54.682 Y-67.179 Z-4.000 F600.000
G1 X51.853 Y-67.179 Z-4.000 F600.000
G1 X48.509 Y-70.524 Z-4.000 F600.000
G1 X45.680 Y-70.524 Z-4.000 F600.000
G1 X49.491 Y-66.713 Z-4.000 F600.000
G2 X49.358 Y-65.967 Z-4.000 I0.828 J0.533 K0.000 F600.000
G1 X49.899 Y-63.477 Z-4.000 F600.000
G1 X45.936 Y-67.440 Z-4.000 F600.000
G1 X46.643 Y-63.904 Z-4.000 F600.000
G1 X50.685 Y-59.862 Z-4.000 F600.000
G1 X51.471 Y-56.248 Z-4.000 F600.000
G1 X47.351 Y-60.368 Z-4.000 F600.000
G1 X48.058 Y-56.833 Z-4.000 F600.000
G1 X52.256 Y-52.634 Z-4.000 F600.000
G1 X53.042 Y-49.020 Z-4.000 F600.000
G1 X48.765 Y-53.297 Z-4.000 F600.000
G1 X49.472 Y-49.762 Z-4.000 F600.000
G1 X53.845 Y-45.389 Z-4.000 F600.000
G2 X54.494 Y-44.740 Z-4.000 I0.911 J-0.262 K0.000 F600.000
G1 X57.887 Y-41.347 Z-4.000 F600.000
G1 X55.058 Y-41.347 Z-4.000 F600.000
G1 X50.179 Y-46.226 Z-4.000 F600.000
G1 X50.886 Y-42.691 Z-4.000 F600.000
G1 X51.155 Y-41.347 Z-4.000 F600.000
G1 X52.230 Y-41.347 Z-4.000 F600.000
G1 X50.886 Y-42.691 Z-4.000 F600.000
G0 Z5.000
G0 X60.449 Y-52.927 Z5.000
G0 X60.449 Y-52.927 Z3.000
G1 X60.449 Y-52.927 Z-4.000 F600.000
G1 X58.043 Y-55.333 Z-4.000 F600.000
G1 X58.344 Y-52.927 Z-4.000 F600.000
G1 X60.449 Y-52.927 Z-4.000 F600.000
G1 X63.277 Y-52.927 Z-4.000 F600.000
G1 X58.151 Y-58.053 Z-4.000 F600.000
G1 X60.980 Y-58.053 Z-4.000 F600.000
G1 X66.106 Y-52.927 Z-4.000 F600.000
G1 X66.106 Y-52.927 Z-6.000 F600.000
G1 X60.980 Y-58.053 Z-6.000 F600.000
G1 X58.151 Y-58.053 Z-6.000 F600.000
G1 X63.277 Y-52.927 Z-6.000 F600.000
G1 X60.449 Y-52.927 Z-6.000 F600.000
G1 X58.344 Y-52.927 Z-6.000 F600.000
G1 X58.043 Y-55.333 Z-6.000 F600.000
G1 X60.449 Y-52.927 Z-6.000 F600.000
G1 X60.449 Y-52.927 Z-6.000 F600.000
G1 X66.369 Y-52.927 Z-6.000 F600.000
G3 X67.369 Y-51.927 Z-6.000 I-0.000 J1.000 K0.000 F600.000
G1 X67.369 Y-45.692 Z-6.000 F600.000
G3 X66.369 Y-44.692 Z-6.000 I-1.000 J-0.000 K0.000 F600.000
G1 X54.789 Y-44.692 Z-6.000 F600.000
G3 X53.812 Y-45.479 Z-6.000 I0.000 J-1.000 K0.000 F600.000
G1 X49.358 Y-65.967 Z-6.000 F600.000
G3 X50.335 Y-67.179 Z-6.000 I0.977 J-0.212 K0.000 F600.000
G1 X66.369 Y-67.179 Z-6.000 F600.000
G3 X67.369 Y-66.179 Z-6.000 I-0.000 J1.000 K0.000 F600.000
G1 X67.369 Y-59.053 Z-6.000 F600.000
G3 X66.369 Y-58.053 Z-6.000 I-1.000 J-0.000 K0.000 F600.000
G1 X57.703 Y-58.053 Z-6.000 F600.000
G1 X58.344 Y-52.927 Z-6.000 F600.000
G1 X60.449 Y-52.927 Z-6.000 F600.000
G0 Z5.000
G0 X57.887 Y-41.347 Z5.000
G0 X57.887 Y-41.347 Z3.000
G1 X57.887 Y-41.347 Z-6.000 F600.000
G1 X66.369 Y-41.347 Z-6.000 F600.000
G3 X67.369 Y-40.347 Z-6.000 I-0.000 J1.000 K0.000 F600.000
G1 X67.369 Y-30.276 Z-6.000 F600.000
G3 X66.397 Y-29.277 Z-6.000 I-1.000 J-0.000 K0.000 F600.000
G1 X44.645 Y-28.672 Z-6.000 F600.000
G1 X43.988 Y-27.687 Z-6.000 F600.000
G1 X74.381 Y-21.937 Z-6.000 F600.000
G1 X75.073 Y-29.549 Z-6.000 F600.000
G3 X74.277 Y-30.524 Z-6.000 I0.194 J-0.971 K0.000 F600.000
G1 X74.277 Y-75.869 Z-6.000 F600.000
G1 X67.369 Y-75.869 Z-6.000 F600.000
G1 X67.369 Y-75.869 Z-6.000 F600.000
G1 X67.369 Y-71.524 Z-6.000 F600.000
G3 X66.369 Y-70.524 Z-6.000 I-1.000 J-0.000 K0.000 F600.000
G1 X45.319 Y-70.524 Z-6.000 F600.000
G1 X51.155 Y-41.347 Z-6.000 F600.000
G1 X57.887 Y-41.347 Z-6.000 F600.000
G1 X54.494 Y-44.740 Z-6.000 F600.000
G2 X54.789 Y-44.692 Z-6.000 I0.234 J-0.506 K0.000 F600.000
G1 X57.371 Y-44.692 Z-6.000 F600.000
G1 X60.715 Y-41.347 Z-6.000 F600.000
G1 X63.544 Y-41.347 Z-6.000 F600.000
G1 X60.199 Y-44.692 Z-6.000 F600.000
G1 X63.027 Y-44.692 Z-6.000 F600.000
G1 X66.373 Y-41.346 Z-6.000 F600.000
G0 Z5.000
G0 X50.886 Y-42.691 Z5.000
G0 X50.886 Y-42.691 Z3.000
G1 X50.886 Y-42.691 Z-6.000 F600.000
G1 X52.230 Y-41.347 Z-6.000 F600.000
G1 X51.155 Y-41.347 Z-6.000 F600.000
G1 X50.886 Y-42.691 Z-6.000 F600.000
G1 X50.179 Y-46.226 Z-6.000 F600.000
G1 X55.058 Y-41.347 Z-6.000 F600.000
G1 X57.887 Y-41.347 Z-6.000 F600.000
G1 X54.494 Y-44.740 Z-6.000 F600.000
G3 X53.845 Y-45.389 Z-6.000 I0.262 J-0.911 K0.000 F600.000
G1 X49.472 Y-49.762 Z-6.000 F600.000
G1 X48.765 Y-53.297 Z-6.000 F600.000
G1 X53.042 Y-49.020 Z-6.000 F600.000
G1 X52.256 Y-52.634 Z-6.000 F600.000
G1 X48.058 Y-56.833 Z-6.000 F600.000
G1 X47.351 Y-60.368 Z-6.000 F600.000
G1 X51.471 Y-56.248 Z-6.000 F600.000
G1 X50.685 Y-59.862 Z-6.000 F600.000
G1 X46.643 Y-63.904 Z-6.000 F600.000
G1 X45.936 Y-67.440 Z-6.000 F600.000
G1 X49.899 Y-63.477 Z-6.000 F600.000
G1 X49.358 Y-65.967 Z-6.000 F600.000
G3 X49.491 Y-66.713 Z-6.000 I0.962 J-0.213 K0.000 F600.000
G1 X45.680 Y-70.524 Z-6.000 F600.000
G1 X48.509 Y-70.524 Z-6.000 F600.000
G1 X51.853 Y-67.179 Z-6.000 F600.000
G1 X54.682 Y-67.179 Z-6.000 F600.000
G1 X51.337 Y-70.524 Z-6.000 F600.000
G1 X54.166 Y-70.524 Z-6.000 F600.000
G1 X57.510 Y-67.179 Z-6.000 F600.000
G1 X60.339 Y-67.179 Z-6.000 F600.000
G1 X56.994 Y-70.524 Z-6.000 F600.000
G1 X59.822 Y-70.524 Z-6.000 F600.000
G1 X63.167 Y-67.179 Z-6.000 F600.000
G1 X65.995 Y-67.179 Z-6.000 F600.000
G1 X62.651 Y-70.524 Z-6.000 F600.000
G1 X65.479 Y-70.524 Z-6.000 F600.000
G1 X74.277 Y-61.727 Z-6.000 F600.000
G1 X74.277 Y-64.555 Z-6.000 F600.000
G1 X67.362 Y-71.470 Z-6.000 F600.000
G1 X67.369 Y-71.524 Z-6.000 F600.000
G1 X67.369 Y-74.291 Z-6.000 F600.000
G1 X74.277 Y-67.383 Z-6.000 F600.000
G1 X74.277 Y-70.212 Z-6.000 F600.000
G1 X68.620 Y-75.869 Z-6.000 F600.000
G1 X71.448 Y-75.869 Z-6.000 F600.000
G1 X74.277 Y-73.040 Z-6.000 F600.000
G1 X74.277 Y-75.869 Z-6.000 F600.000
G0 Z5.000
G0 X67.369 Y-65.806 Z5.000
G0 X67.369 Y-65.806 Z3.000
G1 X67.369 Y-65.806 Z-6.000 F600.000
G1 X74.277 Y-58.898 Z-6.000 F600.000
G1 X74.277 Y-56.070 Z-6.000 F600.000
G1 X67.369 Y-62.977 Z-6.000 F600.000
G1 X67.369 Y-60.149 Z-6.000 F600.000
G1 X74.277 Y-53.241 Z-6.000 F600.000
G1 X74.277 Y-50.413 Z-6.000 F600.000
G1 X66.605 Y-58.084 Z-6.000 F600.000
G1 X66.369 Y-58.053 Z-6.000 F600.000
G1 X63.808 Y-58.053 Z-6.000 F600.000
G1 X74.277 Y-47.584 Z-6.000 F600.000
G1 X74.277 Y-44.756 Z-6.000 F600.000
G1 X67.369 Y-51.664 Z-6.000 F600.000
G1 X67.369 Y-48.835 Z-6.000 F600.000
G1 X74.277 Y-41.928 Z-6.000 F600.000
G1 X74.277 Y-39.099 Z-6.000 F600.000
G1 X67.369 Y-46.007 Z-6.000 F600.000
G3 X67.076 Y-44.984 Z-6.000 I-1.167 J0.219 K0.000 F600.000
G3 X66.369 Y-44.692 Z-6.000 I-0.707 J-0.707 K0.000 F600.000
G1 X65.856 Y-44.692 Z-6.000 F600.000
G1 X74.277 Y-36.271 Z-6.000 F600.000
G1 X74.277 Y-33.442 Z-6.000 F600.000
G1 X67.369 Y-40.350 Z-6.000 F600.000
G1 X67.369 Y-40.347 Z-6.000 F600.000
G1 X67.369 Y-37.522 Z-6.000 F600.000
G1 X74.277 Y-30.614 Z-6.000 F600.000
G2 X75.073 Y-29.549 Z-6.000 I0.994 J0.088 K0.000 F600.000
G1 X74.859 Y-27.203 Z-6.000 F600.000
G1 X67.369 Y-34.693 Z-6.000 F600.000
G1 X67.369 Y-31.865 Z-6.000 F600.000
G1 X74.624 Y-24.610 Z-6.000 F600.000
G1 X74.388 Y-22.017 Z-6.000 F600.000
G1 X66.941 Y-29.464 Z-6.000 F600.000
G3 X66.397 Y-29.277 Z-6.000 I-0.562 J-0.747 K0.000 F600.000
G1 X64.357 Y-29.220 Z-6.000 F600.000
G1 X71.000 Y-22.577 Z-6.000 F600.000
G1 X67.512 Y-23.237 Z-6.000 F600.000
G1 X61.605 Y-29.143 Z-6.000 F600.000
G1 X58.853 Y-29.067 Z-6.000 F600.000
G1 X64.023 Y-23.897 Z-6.000 F600.000
G1 X60.535 Y-24.557 Z-6.000 F600.000
G1 X56.101 Y-28.991 Z-6.000 F600.000
G1 X53.349 Y-28.914 Z-6.000 F600.000
G1 X57.047 Y-25.217 Z-6.000 F600.000
G1 X53.558 Y-25.876 Z-6.000 F600.000
G1 X50.597 Y-28.838 Z-6.000 F600.000
G1 X47.845 Y-28.761 Z-6.000 F600.000
G1 X50.070 Y-26.536 Z-6.000 F600.000
G1 X46.581 Y-27.196 Z-6.000 F600.000
G1 X45.093 Y-28.685 Z-6.000 F600.000
G1 X44.645 Y-28.672 Z-6.000 F600.000
G1 X43.988 Y-27.687 Z-6.000 F600.000
G1 X46.581 Y-27.196 Z-6.000 F600.000
G0 Z5.000
G0 Z5.000
G0 X46.581 Y-27.196
G0 X29.675 Y9.646
G0 X29.675 Y9.646 Z3.000
G1 X29.675 Y9.646 Z-2.000 F600.000
G1 X61.618 Y41.589 Z-2.000 F600.000
G1 X50.819 Y27.961 Z-2.000 F600.000
G1 X32.504 Y9.646 Z-2.000 F600.000
G1 X35.332 Y9.646 Z-2.000 F600.000
G1 X45.206 Y19.520 Z-2.000 F600.000
G3 X46.046 Y19.196 Z-2.000 I0.724 J0.628 K0.000 F600.000
G1 X47.916 Y19.401 Z-2.000 F600.000
G1 X41.111 Y12.596 Z-2.000 F600.000
G1 X43.735 Y12.391 Z-2.000 F600.000
G1 X51.091 Y19.748 Z-2.000 F600.000
G1 X54.267 Y20.095 Z-2.000 F600.000
G1 X46.358 Y12.186 Z-2.000 F600.000
G1 X48.982 Y11.981 Z-2.000 F600.000
G1 X57.443 Y20.443 Z-2.000 F600.000
G1 X60.619 Y20.790 Z-2.000 F600.000
G1 X51.605 Y11.777 Z-2.000 F600.000
G1 X54.229 Y11.572 Z-2.000 F600.000
G1 X63.794 Y21.137 Z-2.000 F600.000
G1 X66.970 Y21.485 Z-2.000 F600.000
G1 X56.852 Y11.367 Z-2.000 F600.000
G1 X59.476 Y11.162 Z-2.000 F600.000
G1 X70.146 Y21.832 Z-2.000 F600.000
G1 X73.322 Y22.179 Z-2.000 F600.000
G1 X62.099 Y10.957 Z-2.000 F600.000
G1 X64.723 Y10.752 Z-2.000 F600.000
G1 X76.498 Y22.527 Z-2.000 F600.000
G1 X77.840 Y22.674 Z-2.000 F600.000
G1 X77.840 Y21.041 Z-2.000 F600.000
G1 X67.346 Y10.547 Z-2.000 F600.000
G1 X69.969 Y10.342 Z-2.000 F600.000
G1 X77.840 Y18.212 Z-2.000 F600.000
G1 X77.840 Y15.384 Z-2.000 F600.000
G1 X72.593 Y10.137 Z-2.000 F600.000
G1 X75.216 Y9.932 Z-2.000 F600.000
G1 X77.840 Y12.555 Z-2.000 F600.000
G1 X77.840 Y9.727 Z-2.000 F600.000
G0 Z5.000
G0 X53.441 Y39.068 Z5.000
G0 X53.441 Y39.068 Z3.000
G1 X53.441 Y39.068 Z-2.000 F600.000
G1 X24.019 Y9.646 Z-2.000 F600.000
G1 X21.190 Y9.646 Z-2.000 F600.000
G1 X28.861 Y17.317 Z-2.000 F600.000
G1 X25.685 Y16.969 Z-2.000 F600.000
G1 X22.830 Y14.114 Z-2.000 F600.000
G1 X22.830 Y16.657 Z-2.000 F600.000
G1 X25.685 Y16.969 Z-2.000 F600.000
G1 X22.830 Y16.657 Z-2.000 F600.000
G1 X22.830 Y14.025 Z-2.000 F600.000
G2 X23.843 Y13.658 Z-2.000 I0.138 J-1.202 K0.000 F600.000
G2 X23.760 Y12.259 Z-2.000 I-0.754 J-0.657 K0.000 F600.000
G1 X20.866 Y9.646 Z-2.000 F600.000
G1 X36.305 Y9.646 Z-2.000 F600.000
G1 X38.456 Y12.361 Z-2.000 F600.000
G2 X39.318 Y12.736 Z-2.000 I0.784 J-0.621 K0.000 F600.000
G1 X77.840 Y9.727 Z-2.000 F600.000
G1 X77.840 Y22.674 Z-2.000 F600.000
G1 X46.046 Y19.196 Z-2.000 F600.000
G2 X45.153 Y20.811 Z-2.000 I-0.109 J0.994 K0.000 F600.000
G1 X65.357 Y46.306 Z-2.000 F600.000
G2 X65.824 Y46.634 Z-2.000 I0.784 J-0.621 K0.000 F600.000
G1 X74.277 Y49.451 Z-2.000 F600.000
G1 X74.277 Y52.184 Z-2.000 F600.000
G1 X72.083 Y52.184 Z-2.000 F600.000
G2 X71.427 Y53.966 Z-2.000 I0.014 J1.017 K0.000 F600.000
G1 X69.935 Y53.966 Z-2.000 F600.000
G1 X68.248 Y52.442 Z-2.000 F600.000
G2 X67.578 Y52.184 Z-2.000 I-0.670 J0.742 K0.000 F600.000
G1 X22.830 Y52.184 Z-2.000 F600.000
G1 X22.830 Y32.303 Z-2.000 F600.000
G1 X54.943 Y43.007 Z-2.000 F600.000
G2 X55.930 Y41.316 Z-2.000 I0.316 J-0.949 K0.000 F600.000
G1 X29.667 Y17.595 Z-2.000 F600.000
G2 X29.106 Y17.343 Z-2.000 I-0.670 J0.742 K0.000 F600.000
G1 X25.685 Y16.969 Z-2.000 F600.000
G0 Z5.000
G0 X22.830 Y50.884 Z5.000
G0 X22.830 Y50.884 Z3.000
G1 X22.830 Y50.884 Z-2.000 F600.000
G1 X24.131 Y52.184 Z-2.000 F600.000
G1 X22.830 Y52.184 Z-2.000 F600.000
G1 X22.830 Y50.884 Z-2.000 F600.000
G1 X22.830 Y48.055 Z-2.000 F600.000
G1 X26.959 Y52.184 Z-2.000 F600.000
G1 X29.788 Y52.184 Z-2.000 F600.000
G1 X22.830 Y45.227 Z-2.000 F600.000
G1 X22.830 Y42.399 Z-2.000 F600.000
G1 X32.616 Y52.184 Z-2.000 F600.000
G1 X35.445 Y52.184 Z-2.000 F600.000
G1 X22.830 Y39.570 Z-2.000 F600.000
G1 X22.830 Y36.742 Z-2.000 F600.000
G1 X38.273 Y52.184 Z-2.000 F600.000
G1 X41.101 Y52.184 Z-2.000 F600.000
G1 X22.830 Y33.913 Z-2.000 F600.000
G1 X22.830 Y32.303 Z-2.000 F600.000
G1 X24.657 Y32.911 Z-2.000 F600.000
G1 X43.930 Y52.184 Z-2.000 F600.000
G1 X46.758 Y52.184 Z-2.000 F600.000
G1 X28.899 Y34.326 Z-2.000 F600.000
G1 X33.142 Y35.740 Z-2.000 F600.000
G1 X49.587 Y52.184 Z-2.000 F600.000
G1 X52.415 Y52.184 Z-2.000 F600.000
G1 X37.385 Y37.154 Z-2.000 F600.000
G1 X41.627 Y38.568 Z-2.000 F600.000
G1 X55.244 Y52.184 Z-2.000 F600.000
G1 X58.072 Y52.184 Z-2.000 F600.000
G1 X45.870 Y39.982 Z-2.000 F600.000
G1 X50.113 Y41.397 Z-2.000 F600.000
G1 X60.900 Y52.184 Z-2.000 F600.000
G1 X63.729 Y52.184 Z-2.000 F600.000
G1 X54.355 Y42.811 Z-2.000 F600.000
G1 X54.943 Y43.007 Z-2.000 F600.000
G2 X56.231 Y41.858 Z-2.000 I0.318 J-0.939 K0.000 F600.000
G1 X66.557 Y52.184 Z-2.000 F600.000
G1 X67.578 Y52.184 Z-2.000 F600.000
G3 X68.248 Y52.442 Z-2.000 I0.000 J1.000 K0.000 F600.000
G1 X69.935 Y53.966 Z-2.000 F600.000
G1 X71.167 Y53.966 Z-2.000 F600.000
G1 X26.847 Y9.646 Z-2.000 F600.000
G1 X29.675 Y9.646 Z-2.000 F600.000
G1 X61.618 Y41.589 Z-2.000 F600.000
G1 X65.357 Y46.306 Z-2.000 F600.000
G2 X65.691 Y46.578 Z-2.000 I0.784 J-0.621 K0.000 F600.000
G2 X67.083 Y47.054 Z-2.000 I3.973 J-9.366 K0.000 F600.000
G1 X72.214 Y52.184 Z-2.000 F600.000
G1 X74.277 Y52.184 Z-2.000 F600.000
G1 X74.277 Y51.419 Z-2.000 F600.000
G1 X71.326 Y48.468 Z-2.000 F600.000
G1 X74.277 Y49.451 Z-2.000 F600.000
G1 X74.277 Y51.419 Z-2.000 F600.000
G1 X74.277 Y51.419 Z-4.000 F600.000
G1 X74.277 Y49.451 Z-4.000 F600.000
G1 X71.326 Y48.468 Z-4.000 F600.000
G1 X74.277 Y51.419 Z-4.000 F600.000
G1 X74.277 Y52.184 Z-4.000 F600.000
G1 X72.214 Y52.184 Z-4.000 F600.000
G1 X67.083 Y47.054 Z-4.000 F600.000
G3 X65.691 Y46.578 Z-4.000 I2.581 J-9.841 K0.000 F600.000
G3 X65.357 Y46.306 Z-4.000 I0.450 J-0.893 K0.000 F600.000
G1 X61.618 Y41.589 Z-4.000 F600.000
G1 X29.675 Y9.646 Z-4.000 F600.000
G1 X26.847 Y9.646 Z-4.000 F600.000
G1 X71.167 Y53.966 Z-4.000 F600.000
G1 X69.935 Y53.966 Z-4.000 F600.000
G1 X68.248 Y52.442 Z-4.000 F600.000
G2 X67.578 Y52.184 Z-4.000 I-0.670 J0.742 K0.000 F600.000
G1 X66.557 Y52.184 Z-4.000 F600.000
G1 X56.231 Y41.858 Z-4.000 F600.000
G3 X54.943 Y43.007 Z-4.000 I-0.969 J0.209 K0.000 F600.000
G1 X54.355 Y42.811 Z-4.000 F600.000
G1 X63.729 Y52.184 Z-4.000 F600.000
G1 X60.900 Y52.184 Z-4.000 F600.000
G1 X50.113 Y41.397 Z-4.000 F600.000
G1 X45.870 Y39.982 Z-4.000 F600.000
G1 X58.072 Y52.184 Z-4.000 F600.000
G1 X55.244 Y52.184 Z-4.000 F600.000
G1 X41.627 Y38.568 Z-4.000 F600.000
G1 X37.385 Y37.154 Z-4.000 F600.000
G1 X52.415 Y52.184 Z-4.000 F600.000
G1 X49.587 Y52.184 Z-4.000 F600.000
G1 X33.142 Y35.740 Z-4.000 F600.000
G1 X28.899 Y34.326 Z-4.000 F600.000
G1 X46.758 Y52.184 Z-4.000 F600.000
G1 X43.930 Y52.184 Z-4.000 F600.000
G1 X24.657 Y32.911 Z-4.000 F600.000
G1 X22.830 Y32.303 Z-4.000 F600.000
G1 X22.830 Y33.913 Z-4.000 F600.000
G1 X41.101 Y52.184 Z-4.000 F600.000
G1 X38.273 Y52.184 Z-4.000 F600.000
G1 X22.830 Y36.742 Z-4.000 F600.000
G1 X22.830 Y39.570 Z-4.000 F600.000
G1 X35.445 Y52.184 Z-4.000 F600.000
G1 X32.616 Y52.184 Z-4.000 F600.000
G1 X22.830 Y42.399 Z-4.000 F600.000
G1 X22.830 Y45.227 Z-4.000 F600.000
G1 X29.788 Y52.184 Z-4.000 F600.000
G1 X26.959 Y52.184 Z-4.000 F600.000
G1 X22.830 Y48.055 Z-4.000 F600.000
G1 X22.830 Y50.884 Z-4.000 F600.000
G1 X22.830 Y52.184 Z-4.000 F600.000
G1 X24.131 Y52.184 Z-4.000 F600.000
G1 X22.830 Y50.884 Z-4.000 F600.000
G0 Z5.000
G0 X53.441 Y39.068 Z5.000
G0 X53.441 Y39.068 Z3.000
G1 X53.441 Y39.068 Z-4.000 F600.000
G1 X24.019 Y9.646 Z-4.000 F600.000
G1 X21.190 Y9.646 Z-4.000 F600.000
G1 X28.861 Y17.317 Z-4.000 F600.000
G1 X25.685 Y16.969 Z-4.000 F600.000
G1 X22.830 Y14.114 Z-4.000 F600.000
G1 X22.830 Y16.657 Z-4.000 F600.000
G1 X25.685 Y16.969 Z-4.000 F600.000
G1 X22.830 Y16.657 Z-4.000 F600.000
G1 X22.830 Y14.025 Z-4.000 F600.000
G2 X23.843 Y13.658 Z-4.000 I0.138 J-1.202 K0.000 F600.000
G2 X23.760 Y12.259 Z-4.000 I-0.754 J-0.657 K0.000 F600.000
G1 X20.866 Y9.646 Z-4.000 F600.000
G1 X36.305 Y9.646 Z-4.000 F600.000
G1 X38.456 Y12.361 Z-4.000 F600.000
G2 X39.318 Y12.736 Z-4.000 I0.784 J-0.621 K0.000 F600.000
G1 X77.840 Y9.727 Z-4.000 F600.000
G1 X77.840 Y22.674 Z-4.000 F600.000
G1 X46.046 Y19.196 Z-4.000 F600.000
G2 X45.153 Y20.811 Z-4.000 I-0.109 J0.994 K0.000 F600.000
G1 X65.357 Y46.306 Z-4.000 F600.000
G2 X65.824 Y46.634 Z-4.000 I0.784 J-0.621 K0.000 F600.000
G1 X74.277 Y49.451 Z-4.000 F600.000
G1 X74.277 Y52.184 Z-4.000 F600.000
G1 X72.083 Y52.184 Z-4.000 F600.000
G2 X71.427 Y53.966 Z-4.000 I0.014 J1.017 K0.000 F600.000
G1 X69.935 Y53.966 Z-4.000 F600.000
G1 X68.248 Y52.442 Z-4.000 F600.000
G2 X67.578 Y52.184 Z-4.000 I-0.670 J0.742 K0.000 F600.000
G1 X22.830 Y52.184 Z-4.000 F600.000
G1 X22.830 Y32.303 Z-4.000 F600.000
G1 X54.943 Y43.007 Z-4.000 F600.000
G2 X55.930 Y41.316 Z-4.000 I0.316 J-0.949 K0.000 F600.000
G1 X29.667 Y17.595 Z-4.000 F600.000
G2 X29.106 Y17.343 Z-4.000 I-0.670 J0.742 K0.000 F600.000
G1 X25.685 Y16.969 Z-4.000 F600.000
G0 Z5.000
G0 X29.675 Y9.646 Z5.000
G0 X29.675 Y9.646 Z3.000
G1 X29.675 Y9.646 Z-4.000 F600.000
G1 X61.618 Y41.589 Z-4.000 F600.000
G1 X50.819 Y27.961 Z-4.000 F600.000
G1 X32.504 Y9.646 Z-4.000 F600.000
G1 X35.332 Y9.646 Z-4.000 F600.000
G1 X45.206 Y19.520 Z-4.000 F600.000
G3 X46.046 Y19.196 Z-4.000 I0.724 J0.628 K0.000 F600.000
G1 X47.916 Y19.401 Z-4.000 F600.000
G1 X41.111 Y12.596 Z-4.000 F600.000
G1 X43.735 Y12.391 Z-4.000 F600.000
G1 X51.091 Y19.748 Z-4.000 F600.000
G1 X54.267 Y20.095 Z-4.000 F600.000
G1 X46.358 Y12.186 Z-4.000 F600.000
G1 X48.982 Y11.981 Z-4.000 F600.000
G1 X57.443 Y20.443 Z-4.000 F600.000
G1 X60.619 Y20.790 Z-4.000 F600.000
G1 X51.605 Y11.777 Z-4.000 F600.000
G1 X54.229 Y11.572 Z-4.000 F600.000
G1 X63.794 Y21.137 Z-4.000 F600.000
G1 X66.970 Y21.485 Z-4.000 F600.000
G1 X56.852 Y11.367 Z-4.000 F600.000
G1 X59.476 Y11.162 Z-4.000 F600.000
G1 X70.146 Y21.832 Z-4.000 F600.000
G1 X73.322 Y22.179 Z-4.000 F600.000
G1 X62.099 Y10.957 Z-4.000 F600.000
G1 X64.723 Y10.752 Z-4.000 F600.000
G1 X76.498 Y22.527 Z-4.000 F600.000
G1 X77.840 Y22.674 Z-4.000 F600.000
G1 X77.840 Y21.041 Z-4.000 F600.000
G1 X67.346 Y10.547 Z-4.000 F600.000
G1 X69.969 Y10.342 Z-4.000 F600.000
G1 X77.840 Y18.212 Z-4.000 F600.000
G1 X77.840 Y15.384 Z-4.000 F600.000
G1 X72.593 Y10.137 Z-4.000 F600.000
G1 X75.216 Y9.932 Z-4.000 F600.000
G1 X77.840 Y12.555 Z-4.000 F600.000
G1 X77.840 Y9.727 Z-4.000 F600.000
G1 X77.840 Y9.727 Z-6.000 F600.000
G1 X77.840 Y12.555 Z-6.000 F600.000
G1 X75.216 Y9.932 Z-6.000 F600.000
G1 X72.593 Y10.137 Z-6.000 F600.000
G1 X77.840 Y15.384 Z-6.000 F600.000
G1 X77.840 Y18.212 Z-6.000 F600.000
G1 X69.969 Y10.342 Z-6.000 F600.000
G1 X67.346 Y10.547 Z-6.000 F600.000
G1 X77.840 Y21.041 Z-6.000 F600.000
G1 X77.840 Y22.674 Z-6.000 F600.000
G1 X76.498 Y22.527 Z-6.000 F600.000
G1 X64.723 Y10.752 Z-6.000 F600.000
G1 X62.099 Y10.957 Z-6.000 F600.000
G1 X73.322 Y22.179 Z-6.000 F600.000
G1 X70.146 Y21.832 Z-6.000 F600.000
G1 X59.476 Y11.162 Z-6.000 F600.000
G1 X56.852 Y11.367 Z-6.000 F600.000
G1 X66.970 Y21.485 Z-6.000 F600.000
G1 X63.794 Y21.137 Z-6.000 F600.000
G1 X54.229 Y11.572 Z-6.000 F600.000
G1 X51.605 Y11.777 Z-6.000 F600.000
G1 X60.619 Y20.790 Z-6.000 F600.000
G1 X57.443 Y20.443 Z-6.000 F600.000
G1 X48.982 Y11.981 Z-6.000 F600.000
G1 X46.358 Y12.186 Z-6.000 F600.000
G1 X54.267 Y20.095 Z-6.000 F600.000
G1 X51.091 Y19.748 Z-6.000 F600.000
G1 X43.735 Y12.391 Z-6.000 F600.000
G1 X41.111 Y12.596 Z-6.000 F600.000
G1 X47.916 Y19.401 Z-6.000 F600.000
G1 X46.046 Y19.196 Z-6.000 F600.000
G2 X45.206 Y19.520 Z-6.000 I-0.115 J0.952 K0.000 F600.000
G1 X35.332 Y9.646 Z-6.000 F600.000
G1 X32.504 Y9.646 Z-6.000 F600.000
G1 X50.819 Y27.961 Z-6.000 F600.000
G1 X61.618 Y41.589 Z-6.000 F600.000
G1 X29.675 Y9.646 Z-6.000 F600.000
G0 Z5.000
G0 X25.685 Y16.969 Z5.000
G0 X25.685 Y16.969 Z3.000
G1 X25.685 Y16.969 Z-6.000 F600.000
G1 X29.106 Y17.343 Z-6.000 F600.000
G3 X29.667 Y17.595 Z-6.000 I-0.109 J0.994 K0.000 F600.000
G1 X55.930 Y41.316 Z-6.000 F600.000
G3 X54.943 Y43.007 Z-6.000 I-0.670 J0.742 K0.000 F600.000
G1 X22.830 Y32.303 Z-6.000 F600.000
G1 X22.830 Y52.184 Z-6.000 F600.000
G1 X67.578 Y52.184 Z-6.000 F600.000
G3 X68.248 Y52.442 Z-6.000 I0.000 J1.000 K0.000 F600.000
G1 X69.935 Y53.966 Z-6.000 F600.000
G1 X71.427 Y53.966 Z-6.000 F600.000
G3 X72.083 Y52.184 Z-6.000 I0.671 J-0.764 K0.000 F600.000
G1 X74.277 Y52.184 Z-6.000 F600.000
G1 X74.277 Y49.451 Z-6.000 F600.000
G1 X65.824 Y46.634 Z-6.000 F600.000
G3 X65.357 Y46.306 Z-6.000 I0.316 J-0.949 K0.000 F600.000
G1 X45.153 Y20.811 Z-6.000 F600.000
G3 X46.046 Y19.196 Z-6.000 I0.784 J-0.621 K0.000 F600.000
G1 X77.840 Y22.674 Z-6.000 F600.000
G1 X77.840 Y9.727 Z-6.000 F600.000
G1 X39.318 Y12.736 Z-6.000 F600.000
G3 X38.456 Y12.361 Z-6.000 I-0.078 J-0.997 K0.000 F600.000
G1 X36.305 Y9.646 Z-6.000 F600.000
G1 X20.866 Y9.646 Z-6.000 F600.000
G1 X23.760 Y12.259 Z-6.000 F600.000
G3 X23.843 Y13.658 Z-6.000 I-0.670 J0.742 K0.000 F600.000
G3 X22.830 Y14.025 Z-6.000 I-0.875 J-0.835 K0.000 F600.000
G1 X22.830 Y16.657 Z-6.000 F600.000
G1 X25.685 Y16.969 Z-6.000 F600.000
G1 X22.830 Y16.657 Z-6.000 F600.000
G1 X22.830 Y14.114 Z-6.000 F600.000
G1 X25.685 Y16.969 Z-6.000 F600.000
G1 X28.861 Y17.317 Z-6.000 F600.000
G1 X21.190 Y9.646 Z-6.000 F600.000
G1 X24.019 Y9.646 Z-6.000 F600.000
G1 X53.441 Y39.068 Z-6.000 F600.000
G0 Z5.000
G0 X74.277 Y51.419 Z5.000
G0 X74.277 Y51.419 Z3.000
G1 X74.277 Y51.419 Z-6.000 F600.000
G1 X74.277 Y49.451 Z-6.000 F600.000
G1 X71.326 Y48.468 Z-6.000 F600.000
G1 X74.277 Y51.419 Z-6.000 F600.000
G1 X74.277 Y52.184 Z-6.000 F600.000
G1 X72.214 Y52.184 Z-6.000 F600.000
G1 X67.083 Y47.054 Z-6.000 F600.000
G3 X65.691 Y46.578 Z-6.000 I2.581 J-9.841 K0.000 F600.000
G3 X65.357 Y46.306 Z-6.000 I0.450 J-0.893 K0.000 F600.000
G1 X61.618 Y41.589 Z-6.000 F600.000
G1 X29.675 Y9.646 Z-6.000 F600.000
G1 X26.847 Y9.646 Z-6.000 F600.000
G1 X71.167 Y53.966 Z-6.000 F600.000
G1 X69.935 Y53.966 Z-6.000 F600.000
G1 X68.248 Y52.442 Z-6.000 F600.000
G2 X67.578 Y52.184 Z-6.000 I-0.670 J0.742 K0.000 F600.000
G1 X66.557 Y52.184 Z-6.000 F600.000
G1 X56.231 Y41.858 Z-6.000 F600.000
G3 X54.943 Y43.007 Z-6.000 I-0.969 J0.209 K0.000 F600.000
G1 X54.355 Y42.811 Z-6.000 F600.000
G1 X63.729 Y52.184 Z-6.000 F600.000
G1 X60.900 Y52.184 Z-6.000 F600.000
G1 X50.113 Y41.397 Z-6.000 F600.000
G1 X45.870 Y39.982 Z-6.000 F600.000
G1 X58.072 Y52.184 Z-6.000 F600.000
G1 X55.244 Y52.184 Z-6.000 F600.000
G1 X41.627 Y38.568 Z-6.000 F600.000
G1 X37.385 Y37.154 Z-6.000 F600.000
G1 X52.415 Y52.184 Z-6.000 F600.000
G1 X49.587 Y52.184 Z-6.000 F600.000
G1 X33.142 Y35.740 Z-6.000 F600.000
G1 X28.899 Y34.326 Z-6.000 F600.000
G1 X46.758 Y52.184 Z-6.000 F600.000
G1 X43.930 Y52.184 Z-6.000 F600.000
G1 X24.657 Y32.911 Z-6.000 F600.000
G1 X22.830 Y32.303 Z-6.000 F600.000
G1 X22.830 Y33.913 Z-6.000 F600.000
G1 X41.101 Y52.184 Z-6.000 F600.000
G1 X38.273 Y52.184 Z-6.000 F600.000
G1 X22.830 Y36.742 Z-6.000 F600.000
G1 X22.830 Y39.570 Z-6.000 F600.000
G1 X35.445 Y52.184 Z-6.000 F600.000
G1 X32.616 Y52.184 Z-6.000 F600.000
G1 X22.830 Y42.399 Z-6.000 F600.000
G1 X22.830 Y45.227 Z-6.000 F600.000
G1 X29.788 Y52.184 Z-6.000 F600.000
G1 X26.959 Y52.184 Z-6.000 F600.000
G1 X22.830 Y48.055 Z-6.000 F600.000
G1 X22.830 Y50.884 Z-6.000 F600.000
G1 X22.830 Y52.184 Z-6.000 F600.000
G1 X24.131 Y52.184 Z-6.000 F600.000
G1 X22.830 Y50.884 Z-6.000 F600.000
G0 Z5.000
G0 Z5.000
G0 X22.830 Y50.884
G0 X48.924 Y62.520
G0 X48.924 Y62.520 Z3.000
G1 X48.924 Y62.520 Z-2.000 F600.000
G3 X51.101 Y67.526 Z-2.000 I-38.857 J19.877 K0.000 F600.000
G1 X47.999 Y64.424 Z-2.000 F600.000
G3 X46.882 Y66.135 Z-2.000 I-9.849 J-5.210 K0.000 F600.000
G1 X52.316 Y71.570 Z-2.000 F600.000
G3 X52.776 Y74.858 Z-2.000 I-20.023 J4.475 K0.000 F600.000
G1 X45.482 Y67.563 Z-2.000 F600.000
G3 X43.863 Y68.773 Z-2.000 I-14.088 J-17.161 K0.000 F600.000
G1 X52.727 Y77.637 Z-2.000 F600.000
G3 X52.070 Y79.808 Z-2.000 I-6.901 J-0.904 K0.000 F600.000
G1 X42.187 Y69.925 Z-2.000 F600.000
G2 X40.607 Y71.174 Z-2.000 I7.001 J10.483 K0.000 F600.000
G1 X50.940 Y81.507 Z-2.000 F600.000
G1 X50.838 Y81.624 Z-2.000 F600.000
G3 X49.361 Y82.756 Z-2.000 I-3.944 J-3.620 K0.000 F600.000
G1 X39.308 Y72.703 Z-2.000 F600.000
G2 X38.407 Y74.631 Z-2.000 I6.211 J4.076 K0.000 F600.000
G1 X47.284 Y83.508 Z-2.000 F600.000
G3 X44.509 Y83.561 Z-2.000 I-1.535 J-7.723 K0.000 F600.000
G3 X43.410 Y83.334 Z-2.000 I0.735 J-6.345 K0.000 F600.000
G3 X38.143 Y77.195 Z-2.000 I1.868 J-6.931 K0.000 F600.000
G1 X44.509 Y83.561 Z-2.000 F600.000
G3 X38.353 Y78.350 Z-2.000 I0.836 J-7.229 K0.000 F600.000
G3 X39.289 Y72.730 Z-2.000 I6.660 J-1.779 K0.000 F600.000
G3 X41.054 Y70.778 Z-2.000 I6.971 J4.531 K0.000 F600.000
G3 X44.057 Y68.640 Z-2.000 I41.966 J55.781 K0.000 F600.000
G2 X46.507 Y66.586 Z-2.000 I-6.917 J-10.739 K0.000 F600.000
G2 X48.701 Y62.997 Z-2.000 I-11.040 J-9.210 K0.000 F600.000
G1 X48.924 Y62.520 Z-2.000 F600.000
G3 X51.770 Y69.415 Z-2.000 I-43.581 J22.025 K0.000 F600.000
G3 X52.827 Y76.678 Z-2.000 I-22.433 J6.971 K0.000 F600.000
G3 X50.838 Y81.624 Z-2.000 I-7.532 J-0.155 K0.000 F600.000
G3 X46.125 Y83.649 Z-2.000 I-4.878 J-4.858 K0.000 F600.000
G3 X44.509 Y83.561 Z-2.000 I-0.438 J-6.866 K0.000 F600.000
G1 X44.509 Y83.561 Z-4.000 F600.000
G2 X46.125 Y83.649 Z-4.000 I1.179 J-6.779 K0.000 F600.000
G2 X50.838 Y81.624 Z-4.000 I-0.165 J-6.883 K0.000 F600.000
G2 X52.827 Y76.678 Z-4.000 I-5.544 J-5.101 K0.000 F600.000
G2 X51.770 Y69.415 Z-4.000 I-23.490 J-0.292 K0.000 F600.000
G2 X48.924 Y62.520 Z-4.000 I-46.427 J15.130 K0.000 F600.000
G1 X48.701 Y62.997 Z-4.000 F600.000
G3 X46.507 Y66.586 Z-4.000 I-13.233 J-5.621 K0.000 F600.000
G3 X44.057 Y68.640 Z-4.000 I-9.367 J-8.684 K0.000 F600.000
G2 X41.054 Y70.778 Z-4.000 I38.963 J57.918 K0.000 F600.000
G2 X39.289 Y72.730 Z-4.000 I5.206 J6.483 K0.000 F600.000
G2 X38.353 Y78.350 Z-4.000 I5.724 J3.841 K0.000 F600.000
G2 X44.509 Y83.561 Z-4.000 I6.991 J-2.018 K0.000 F600.000
G1 X38.143 Y77.195 Z-4.000 F600.000
G2 X43.410 Y83.334 Z-4.000 I7.135 J-0.792 K0.000 F600.000
G2 X44.509 Y83.561 Z-4.000 I1.834 J-6.118 K0.000 F600.000
G2 X47.284 Y83.508 Z-4.000 I1.241 J-7.776 K0.000 F600.000
G1 X38.407 Y74.631 Z-4.000 F600.000
G3 X39.308 Y72.703 Z-4.000 I7.111 J2.148 K0.000 F600.000
G1 X49.361 Y82.756 Z-4.000 F600.000
G2 X50.838 Y81.624 Z-4.000 I-2.466 J-4.751 K0.000 F600.000
G1 X50.940 Y81.507 Z-4.000 F600.000
G1 X40.607 Y71.174 Z-4.000 F600.000
G3 X42.187 Y69.925 Z-4.000 I8.581 J9.234 K0.000 F600.000
G1 X52.070 Y79.808 Z-4.000 F600.000
G2 X52.727 Y77.637 Z-4.000 I-6.244 J-3.075 K0.000 F600.000
G1 X43.863 Y68.773 Z-4.000 F600.000
G2 X45.482 Y67.563 Z-4.000 I-12.469 J-18.371 K0.000 F600.000
G1 X52.776 Y74.858 Z-4.000 F600.000
G2 X52.316 Y71.570 Z-4.000 I-20.483 J1.187 K0.000 F600.000
G1 X46.882 Y66.135 Z-4.000 F600.000
G2 X47.999 Y64.424 Z-4.000 I-8.731 J-6.921 K0.000 F600.000
G1 X51.101 Y67.526 Z-4.000 F600.000
G2 X48.924 Y62.520 Z-4.000 I-41.034 J14.872 K0.000 F600.000
G1 X48.924 Y62.520 Z-6.000 F600.000
G3 X51.101 Y67.526 Z-6.000 I-38.857 J19.877 K0.000 F600.000
G1 X47.999 Y64.424 Z-6.000 F600.000
G3 X46.882 Y66.135 Z-6.000 I-9.849 J-5.210 K0.000 F600.000
G1 X52.316 Y71.570 Z-6.000 F600.000
G3 X52.776 Y74.858 Z-6.000 I-20.023 J4.475 K0.000 F600.000
G1 X45.482 Y67.563 Z-6.000 F600.000
G3 X43.863 Y68.773 Z-6.000 I-14.088 J-17.161 K0.000 F600.000
G1 X52.727 Y77.637 Z-6.000 F600.000
G3 X52.070 Y79.808 Z-6.000 I-6.901 J-0.904 K0.000 F600.000
G1 X42.187 Y69.925 Z-6.000 F600.000
G2 X40.607 Y71.174 Z-6.000 I7.001 J10.483 K0.000 F600.000
G1 X50.940 Y81.507 Z-6.000 F600.000
G1 X50.838 Y81.624 Z-6.000 F600.000
G3 X49.361 Y82.756 Z-6.000 I-3.944 J-3.620 K0.000 F600.000
G1 X39.308 Y72.703 Z-6.000 F600.000
G2 X38.407 Y74.631 Z-6.000 I6.211 J4.076 K0.000 F600.000
G1 X47.284 Y83.508 Z-6.000 F600.000
G3 X44.509 Y83.561 Z-6.000 I-1.535 J-7.723 K0.000 F600.000
G3 X43.410 Y83.334 Z-6.000 I0.735 J-6.345 K0.000 F600.000
G3 X38.143 Y77.195 Z-6.000 I1.868 J-6.931 K0.000 F600.000
G1 X44.509 Y83.561 Z-6.000 F600.000
G3 X38.353 Y78.350 Z-6.000 I0.836 J-7.229 K0.000 F600.000
G3 X39.289 Y72.730 Z-6.000 I6.660 J-1.779 K0.000 F600.000
G3 X41.054 Y70.778 Z-6.000 I6.971 J4.531 K0.000 F600.000
G3 X44.057 Y68.640 Z-6.000 I41.966 J55.781 K0.000 F600.000
G2 X46.507 Y66.586 Z-6.000 I-6.917 J-10.739 K0.000 F600.000
G2 X48.701 Y62.997 Z-6.000 I-11.040 J-9.210 K0.000 F600.000
G1 X48.924 Y62.520 Z-6.000 F600.000
G3 X51.770 Y69.415 Z-6.000 I-43.581 J22.025 K0.000 F600.000
G3 X52.827 Y76.678 Z-6.000 I-22.433 J6.971 K0.000 F600.000
G3 X50.838 Y81.624 Z-6.000 I-7.532 J-0.155 K0.000 F600.000
G3 X46.125 Y83.649 Z-6.000 I-4.878 J-4.858 K0.000 F600.000
G3 X44.509 Y83.561 Z-6.000 I-0.438 J-6.866 K0.000 F600.000
G0 Z5.000
G0 Z5.000
(Finish operation: Pocket_Shape)
(Begin postamble)
M5
G17 G90
M2
