(Exported by FreeCAD)
(Post Processor: script_module)
(Output Time:2025-03-26 15:34:36.409663)
(Begin preamble)
G17 G90
G21
(Begin operation: Fixture)
(Path: Fixture)
G54
(Finish operation: Fixture)
(Begin operation: 2mm_Endmill001)
(Path: 2mm_Endmill001)
(2mm_Endmill001)
(Begin toolchange)
( M6 T2 )
M3 S10000
(Finish operation: 2mm_Endmill001)
(Begin operation: Profile)
(Path: Profile)
(Profile)
(Compensated Tool Path. Diameter: 2.0)
G0 Z13.000
G0 X108.707 Y47.707
G0 Z11.000
G1 X108.707 Y47.707 Z6.000 F600.000
G3 X108.000 Y48.000 Z6.000 I-0.707 J-0.707 K0.000 F600.000
G1 X98.000 Y48.000 Z6.000 F600.000
G3 X97.000 Y47.000 Z6.000 I0.000 J-1.000 K0.000 F600.000
G1 X97.000 Y22.500 Z6.000 F600.000
G1 X77.000 Y22.500 Z6.000 F600.000
G1 X77.000 Y47.000 Z6.000 F600.000
G3 X76.000 Y48.000 Z6.000 I-1.000 J-0.000 K0.000 F600.000
G1 X38.000 Y48.000 Z6.000 F600.000
G3 X37.000 Y47.000 Z6.000 I0.000 J-1.000 K0.000 F600.000
G1 X37.000 Y18.000 Z6.000 F600.000
G1 X29.000 Y18.000 Z6.000 F600.000
G1 X29.000 Y47.000 Z6.000 F600.000
G3 X28.000 Y48.000 Z6.000 I-1.000 J-0.000 K0.000 F600.000
G1 X-22.000 Y48.000 Z6.000 F600.000
G3 X-23.000 Y47.000 Z6.000 I0.000 J-1.000 K0.000 F600.000
G1 X-23.000 Y7.000 Z6.000 F600.000
G3 X-22.000 Y6.000 Z6.000 I1.000 J0.000 K0.000 F600.000
G1 X108.000 Y6.000 Z6.000 F600.000
G3 X109.000 Y7.000 Z6.000 I-0.000 J1.000 K0.000 F600.000
G1 X109.000 Y47.000 Z6.000 F600.000
G3 X108.707 Y47.707 Z6.000 I-1.000 J-0.000 K0.000 F600.000
G1 X108.707 Y47.707 Z4.000 F600.000
G3 X108.000 Y48.000 Z4.000 I-0.707 J-0.707 K0.000 F600.000
G1 X98.000 Y48.000 Z4.000 F600.000
G3 X97.000 Y47.000 Z4.000 I0.000 J-1.000 K0.000 F600.000
G1 X97.000 Y22.500 Z4.000 F600.000
G1 X77.000 Y22.500 Z4.000 F600.000
G1 X77.000 Y47.000 Z4.000 F600.000
G3 X76.000 Y48.000 Z4.000 I-1.000 J-0.000 K0.000 F600.000
G1 X38.000 Y48.000 Z4.000 F600.000
G3 X37.000 Y47.000 Z4.000 I0.000 J-1.000 K0.000 F600.000
G1 X37.000 Y18.000 Z4.000 F600.000
G1 X29.000 Y18.000 Z4.000 F600.000
G1 X29.000 Y47.000 Z4.000 F600.000
G3 X28.000 Y48.000 Z4.000 I-1.000 J-0.000 K0.000 F600.000
G1 X-22.000 Y48.000 Z4.000 F600.000
G3 X-23.000 Y47.000 Z4.000 I0.000 J-1.000 K0.000 F600.000
G1 X-23.000 Y7.000 Z4.000 F600.000
G3 X-22.000 Y6.000 Z4.000 I1.000 J0.000 K0.000 F600.000
G1 X108.000 Y6.000 Z4.000 F600.000
G3 X109.000 Y7.000 Z4.000 I-0.000 J1.000 K0.000 F600.000
G1 X109.000 Y47.000 Z4.000 F600.000
G3 X108.707 Y47.707 Z4.000 I-1.000 J-0.000 K0.000 F600.000
G1 X108.707 Y47.707 Z2.000 F600.000
G3 X108.000 Y48.000 Z2.000 I-0.707 J-0.707 K0.000 F600.000
G1 X98.000 Y48.000 Z2.000 F600.000
G3 X97.000 Y47.000 Z2.000 I0.000 J-1.000 K0.000 F600.000
G1 X97.000 Y22.500 Z2.000 F600.000
G1 X77.000 Y22.500 Z2.000 F600.000
G1 X77.000 Y47.000 Z2.000 F600.000
G3 X76.000 Y48.000 Z2.000 I-1.000 J-0.000 K0.000 F600.000
G1 X38.000 Y48.000 Z2.000 F600.000
G3 X37.000 Y47.000 Z2.000 I0.000 J-1.000 K0.000 F600.000
G1 X37.000 Y18.000 Z2.000 F600.000
G1 X29.000 Y18.000 Z2.000 F600.000
G1 X29.000 Y47.000 Z2.000 F600.000
G3 X28.000 Y48.000 Z2.000 I-1.000 J-0.000 K0.000 F600.000
G1 X-22.000 Y48.000 Z2.000 F600.000
G3 X-23.000 Y47.000 Z2.000 I0.000 J-1.000 K0.000 F600.000
G1 X-23.000 Y7.000 Z2.000 F600.000
G3 X-22.000 Y6.000 Z2.000 I1.000 J0.000 K0.000 F600.000
G1 X108.000 Y6.000 Z2.000 F600.000
G3 X109.000 Y7.000 Z2.000 I-0.000 J1.000 K0.000 F600.000
G1 X109.000 Y47.000 Z2.000 F600.000
G3 X108.707 Y47.707 Z2.000 I-1.000 J-0.000 K0.000 F600.000
G1 X108.707 Y47.707 Z0.000 F600.000
G3 X108.000 Y48.000 Z0.000 I-0.707 J-0.707 K0.000 F600.000
G1 X98.000 Y48.000 Z0.000 F600.000
G3 X97.000 Y47.000 Z0.000 I0.000 J-1.000 K0.000 F600.000
G1 X97.000 Y22.500 Z0.000 F600.000
G1 X77.000 Y22.500 Z0.000 F600.000
G1 X77.000 Y47.000 Z0.000 F600.000
G3 X76.000 Y48.000 Z0.000 I-1.000 J-0.000 K0.000 F600.000
G1 X38.000 Y48.000 Z0.000 F600.000
G3 X37.000 Y47.000 Z0.000 I0.000 J-1.000 K0.000 F600.000
G1 X37.000 Y18.000 Z0.000 F600.000
G1 X29.000 Y18.000 Z0.000 F600.000
G1 X29.000 Y47.000 Z0.000 F600.000
G3 X28.000 Y48.000 Z0.000 I-1.000 J-0.000 K0.000 F600.000
G1 X-22.000 Y48.000 Z0.000 F600.000
G3 X-23.000 Y47.000 Z0.000 I0.000 J-1.000 K0.000 F600.000
G1 X-23.000 Y7.000 Z0.000 F600.000
G3 X-22.000 Y6.000 Z0.000 I1.000 J0.000 K0.000 F600.000
G1 X108.000 Y6.000 Z0.000 F600.000
G3 X109.000 Y7.000 Z0.000 I-0.000 J1.000 K0.000 F600.000
G1 X109.000 Y47.000 Z0.000 F600.000
G3 X108.707 Y47.707 Z0.000 I-1.000 J-0.000 K0.000 F600.000
G0 Z13.000
G0 Z13.000
G0 X108.707 Y47.707
G0 Y50.000
G0 Y50.000 Z11.000
G1 X108.707 Y50.000 Z6.000 F600.000
G1 X133.000 Y50.000 Z6.000 F600.000
G3 X134.000 Y51.000 Z6.000 I-0.000 J1.000 K0.000 F600.000
G1 X134.000 Y91.000 Z6.000 F600.000
G3 X133.000 Y92.000 Z6.000 I-1.000 J-0.000 K0.000 F600.000
G1 X113.600 Y92.000 Z6.000 F600.000
G3 X112.600 Y91.000 Z6.000 I0.000 J-1.000 K0.000 F600.000
G1 X112.600 Y71.500 Z6.000 F600.000
G1 X104.600 Y71.500 Z6.000 F600.000
G1 X104.600 Y91.000 Z6.000 F600.000
G3 X103.600 Y92.000 Z6.000 I-1.000 J-0.000 K0.000 F600.000
G1 X82.800 Y92.000 Z6.000 F600.000
G3 X81.800 Y91.000 Z6.000 I0.000 J-1.000 K0.000 F600.000
G1 X81.800 Y62.000 Z6.000 F600.000
G1 X76.000 Y62.000 Z6.000 F600.000
G1 X76.000 Y91.000 Z6.000 F600.000
G3 X75.000 Y92.000 Z6.000 I-1.000 J-0.000 K0.000 F600.000
G1 X54.200 Y92.000 Z6.000 F600.000
G3 X53.200 Y91.000 Z6.000 I0.000 J-1.000 K0.000 F600.000
G1 X53.200 Y67.500 Z6.000 F600.000
G1 X35.200 Y67.500 Z6.000 F600.000
G1 X35.200 Y91.000 Z6.000 F600.000
G3 X34.200 Y92.000 Z6.000 I-1.000 J-0.000 K0.000 F600.000
G1 X-12.000 Y92.000 Z6.000 F600.000
G3 X-13.000 Y91.000 Z6.000 I0.000 J-1.000 K0.000 F600.000
G1 X-13.000 Y51.000 Z6.000 F600.000
G3 X-12.000 Y50.000 Z6.000 I1.000 J0.000 K0.000 F600.000
G1 X108.707 Y50.000 Z6.000 F600.000
G1 X108.707 Y50.000 Z4.000 F600.000
G1 X133.000 Y50.000 Z4.000 F600.000
G3 X134.000 Y51.000 Z4.000 I-0.000 J1.000 K0.000 F600.000
G1 X134.000 Y91.000 Z4.000 F600.000
G3 X133.000 Y92.000 Z4.000 I-1.000 J-0.000 K0.000 F600.000
G1 X113.600 Y92.000 Z4.000 F600.000
G3 X112.600 Y91.000 Z4.000 I0.000 J-1.000 K0.000 F600.000
G1 X112.600 Y71.500 Z4.000 F600.000
G1 X104.600 Y71.500 Z4.000 F600.000
G1 X104.600 Y91.000 Z4.000 F600.000
G3 X103.600 Y92.000 Z4.000 I-1.000 J-0.000 K0.000 F600.000
G1 X82.800 Y92.000 Z4.000 F600.000
G3 X81.800 Y91.000 Z4.000 I0.000 J-1.000 K0.000 F600.000
G1 X81.800 Y62.000 Z4.000 F600.000
G1 X76.000 Y62.000 Z4.000 F600.000
G1 X76.000 Y91.000 Z4.000 F600.000
G3 X75.000 Y92.000 Z4.000 I-1.000 J-0.000 K0.000 F600.000
G1 X54.200 Y92.000 Z4.000 F600.000
G3 X53.200 Y91.000 Z4.000 I0.000 J-1.000 K0.000 F600.000
G1 X53.200 Y67.500 Z4.000 F600.000
G1 X35.200 Y67.500 Z4.000 F600.000
G1 X35.200 Y91.000 Z4.000 F600.000
G3 X34.200 Y92.000 Z4.000 I-1.000 J-0.000 K0.000 F600.000
G1 X-12.000 Y92.000 Z4.000 F600.000
G3 X-13.000 Y91.000 Z4.000 I0.000 J-1.000 K0.000 F600.000
G1 X-13.000 Y51.000 Z4.000 F600.000
G3 X-12.000 Y50.000 Z4.000 I1.000 J0.000 K0.000 F600.000
G1 X108.707 Y50.000 Z4.000 F600.000
G1 X108.707 Y50.000 Z2.000 F600.000
G1 X133.000 Y50.000 Z2.000 F600.000
G3 X134.000 Y51.000 Z2.000 I-0.000 J1.000 K0.000 F600.000
G1 X134.000 Y91.000 Z2.000 F600.000
G3 X133.000 Y92.000 Z2.000 I-1.000 J-0.000 K0.000 F600.000
G1 X113.600 Y92.000 Z2.000 F600.000
G3 X112.600 Y91.000 Z2.000 I0.000 J-1.000 K0.000 F600.000
G1 X112.600 Y71.500 Z2.000 F600.000
G1 X104.600 Y71.500 Z2.000 F600.000
G1 X104.600 Y91.000 Z2.000 F600.000
G3 X103.600 Y92.000 Z2.000 I-1.000 J-0.000 K0.000 F600.000
G1 X82.800 Y92.000 Z2.000 F600.000
G3 X81.800 Y91.000 Z2.000 I0.000 J-1.000 K0.000 F600.000
G1 X81.800 Y62.000 Z2.000 F600.000
G1 X76.000 Y62.000 Z2.000 F600.000
G1 X76.000 Y91.000 Z2.000 F600.000
G3 X75.000 Y92.000 Z2.000 I-1.000 J-0.000 K0.000 F600.000
G1 X54.200 Y92.000 Z2.000 F600.000
G3 X53.200 Y91.000 Z2.000 I0.000 J-1.000 K0.000 F600.000
G1 X53.200 Y67.500 Z2.000 F600.000
G1 X35.200 Y67.500 Z2.000 F600.000
G1 X35.200 Y91.000 Z2.000 F600.000
G3 X34.200 Y92.000 Z2.000 I-1.000 J-0.000 K0.000 F600.000
G1 X-12.000 Y92.000 Z2.000 F600.000
G3 X-13.000 Y91.000 Z2.000 I0.000 J-1.000 K0.000 F600.000
G1 X-13.000 Y51.000 Z2.000 F600.000
G3 X-12.000 Y50.000 Z2.000 I1.000 J0.000 K0.000 F600.000
G1 X108.707 Y50.000 Z2.000 F600.000
G1 X108.707 Y50.000 Z0.000 F600.000
G1 X133.000 Y50.000 Z0.000 F600.000
G3 X134.000 Y51.000 Z0.000 I-0.000 J1.000 K0.000 F600.000
G1 X134.000 Y91.000 Z0.000 F600.000
G3 X133.000 Y92.000 Z0.000 I-1.000 J-0.000 K0.000 F600.000
G1 X113.600 Y92.000 Z0.000 F600.000
G3 X112.600 Y91.000 Z0.000 I0.000 J-1.000 K0.000 F600.000
G1 X112.600 Y71.500 Z0.000 F600.000
G1 X104.600 Y71.500 Z0.000 F600.000
G1 X104.600 Y91.000 Z0.000 F600.000
G3 X103.600 Y92.000 Z0.000 I-1.000 J-0.000 K0.000 F600.000
G1 X82.800 Y92.000 Z0.000 F600.000
G3 X81.800 Y91.000 Z0.000 I0.000 J-1.000 K0.000 F600.000
G1 X81.800 Y62.000 Z0.000 F600.000
G1 X76.000 Y62.000 Z0.000 F600.000
G1 X76.000 Y91.000 Z0.000 F600.000
G3 X75.000 Y92.000 Z0.000 I-1.000 J-0.000 K0.000 F600.000
G1 X54.200 Y92.000 Z0.000 F600.000
G3 X53.200 Y91.000 Z0.000 I0.000 J-1.000 K0.000 F600.000
G1 X53.200 Y67.500 Z0.000 F600.000
G1 X35.200 Y67.500 Z0.000 F600.000
G1 X35.200 Y91.000 Z0.000 F600.000
G3 X34.200 Y92.000 Z0.000 I-1.000 J-0.000 K0.000 F600.000
G1 X-12.000 Y92.000 Z0.000 F600.000
G3 X-13.000 Y91.000 Z0.000 I0.000 J-1.000 K0.000 F600.000
G1 X-13.000 Y51.000 Z0.000 F600.000
G3 X-12.000 Y50.000 Z0.000 I1.000 J0.000 K0.000 F600.000
G1 X108.707 Y50.000 Z0.000 F600.000
G0 Z13.000
G0 Z13.000
G0 X108.707 Y50.000
G0 Y92.000
G0 Y92.000 Z11.000
G1 X108.707 Y92.000 Z6.000 F600.000
G1 X133.000 Y92.000 Z6.000 F600.000
G3 X134.000 Y93.000 Z6.000 I-0.000 J1.000 K0.000 F600.000
G1 X134.000 Y133.000 Z6.000 F600.000
G3 X133.000 Y134.000 Z6.000 I-1.000 J-0.000 K0.000 F600.000
G1 X113.600 Y134.000 Z6.000 F600.000
G3 X112.600 Y133.000 Z6.000 I0.000 J-1.000 K0.000 F600.000
G1 X112.600 Y113.500 Z6.000 F600.000
G1 X104.600 Y113.500 Z6.000 F600.000
G1 X104.600 Y133.000 Z6.000 F600.000
G3 X103.600 Y134.000 Z6.000 I-1.000 J-0.000 K0.000 F600.000
G1 X82.800 Y134.000 Z6.000 F600.000
G3 X81.800 Y133.000 Z6.000 I0.000 J-1.000 K0.000 F600.000
G1 X81.800 Y104.000 Z6.000 F600.000
G1 X76.000 Y104.000 Z6.000 F600.000
G1 X76.000 Y133.000 Z6.000 F600.000
G3 X75.000 Y134.000 Z6.000 I-1.000 J-0.000 K0.000 F600.000
G1 X54.200 Y134.000 Z6.000 F600.000
G3 X53.200 Y133.000 Z6.000 I0.000 J-1.000 K0.000 F600.000
G1 X53.200 Y109.500 Z6.000 F600.000
G1 X35.200 Y109.500 Z6.000 F600.000
G1 X35.200 Y133.000 Z6.000 F600.000
G3 X34.200 Y134.000 Z6.000 I-1.000 J-0.000 K0.000 F600.000
G1 X-12.000 Y134.000 Z6.000 F600.000
G3 X-13.000 Y133.000 Z6.000 I0.000 J-1.000 K0.000 F600.000
G1 X-13.000 Y93.000 Z6.000 F600.000
G3 X-12.000 Y92.000 Z6.000 I1.000 J0.000 K0.000 F600.000
G1 X108.707 Y92.000 Z6.000 F600.000
G1 X108.707 Y92.000 Z4.000 F600.000
G1 X133.000 Y92.000 Z4.000 F600.000
G3 X134.000 Y93.000 Z4.000 I-0.000 J1.000 K0.000 F600.000
G1 X134.000 Y133.000 Z4.000 F600.000
G3 X133.000 Y134.000 Z4.000 I-1.000 J-0.000 K0.000 F600.000
G1 X113.600 Y134.000 Z4.000 F600.000
G3 X112.600 Y133.000 Z4.000 I0.000 J-1.000 K0.000 F600.000
G1 X112.600 Y113.500 Z4.000 F600.000
G1 X104.600 Y113.500 Z4.000 F600.000
G1 X104.600 Y133.000 Z4.000 F600.000
G3 X103.600 Y134.000 Z4.000 I-1.000 J-0.000 K0.000 F600.000
G1 X82.800 Y134.000 Z4.000 F600.000
G3 X81.800 Y133.000 Z4.000 I0.000 J-1.000 K0.000 F600.000
G1 X81.800 Y104.000 Z4.000 F600.000
G1 X76.000 Y104.000 Z4.000 F600.000
G1 X76.000 Y133.000 Z4.000 F600.000
G3 X75.000 Y134.000 Z4.000 I-1.000 J-0.000 K0.000 F600.000
G1 X54.200 Y134.000 Z4.000 F600.000
G3 X53.200 Y133.000 Z4.000 I0.000 J-1.000 K0.000 F600.000
G1 X53.200 Y109.500 Z4.000 F600.000
G1 X35.200 Y109.500 Z4.000 F600.000
G1 X35.200 Y133.000 Z4.000 F600.000
G3 X34.200 Y134.000 Z4.000 I-1.000 J-0.000 K0.000 F600.000
G1 X-12.000 Y134.000 Z4.000 F600.000
G3 X-13.000 Y133.000 Z4.000 I0.000 J-1.000 K0.000 F600.000
G1 X-13.000 Y93.000 Z4.000 F600.000
G3 X-12.000 Y92.000 Z4.000 I1.000 J0.000 K0.000 F600.000
G1 X108.707 Y92.000 Z4.000 F600.000
G1 X108.707 Y92.000 Z2.000 F600.000
G1 X133.000 Y92.000 Z2.000 F600.000
G3 X134.000 Y93.000 Z2.000 I-0.000 J1.000 K0.000 F600.000
G1 X134.000 Y133.000 Z2.000 F600.000
G3 X133.000 Y134.000 Z2.000 I-1.000 J-0.000 K0.000 F600.000
G1 X113.600 Y134.000 Z2.000 F600.000
G3 X112.600 Y133.000 Z2.000 I0.000 J-1.000 K0.000 F600.000
G1 X112.600 Y113.500 Z2.000 F600.000
G1 X104.600 Y113.500 Z2.000 F600.000
G1 X104.600 Y133.000 Z2.000 F600.000
G3 X103.600 Y134.000 Z2.000 I-1.000 J-0.000 K0.000 F600.000
G1 X82.800 Y134.000 Z2.000 F600.000
G3 X81.800 Y133.000 Z2.000 I0.000 J-1.000 K0.000 F600.000
G1 X81.800 Y104.000 Z2.000 F600.000
G1 X76.000 Y104.000 Z2.000 F600.000
G1 X76.000 Y133.000 Z2.000 F600.000
G3 X75.000 Y134.000 Z2.000 I-1.000 J-0.000 K0.000 F600.000
G1 X54.200 Y134.000 Z2.000 F600.000
G3 X53.200 Y133.000 Z2.000 I0.000 J-1.000 K0.000 F600.000
G1 X53.200 Y109.500 Z2.000 F600.000
G1 X35.200 Y109.500 Z2.000 F600.000
G1 X35.200 Y133.000 Z2.000 F600.000
G3 X34.200 Y134.000 Z2.000 I-1.000 J-0.000 K0.000 F600.000
G1 X-12.000 Y134.000 Z2.000 F600.000
G3 X-13.000 Y133.000 Z2.000 I0.000 J-1.000 K0.000 F600.000
G1 X-13.000 Y93.000 Z2.000 F600.000
G3 X-12.000 Y92.000 Z2.000 I1.000 J0.000 K0.000 F600.000
G1 X108.707 Y92.000 Z2.000 F600.000
G1 X108.707 Y92.000 Z0.000 F600.000
G1 X133.000 Y92.000 Z0.000 F600.000
G3 X134.000 Y93.000 Z0.000 I-0.000 J1.000 K0.000 F600.000
G1 X134.000 Y133.000 Z0.000 F600.000
G3 X133.000 Y134.000 Z0.000 I-1.000 J-0.000 K0.000 F600.000
G1 X113.600 Y134.000 Z0.000 F600.000
G3 X112.600 Y133.000 Z0.000 I0.000 J-1.000 K0.000 F600.000
G1 X112.600 Y113.500 Z0.000 F600.000
G1 X104.600 Y113.500 Z0.000 F600.000
G1 X104.600 Y133.000 Z0.000 F600.000
G3 X103.600 Y134.000 Z0.000 I-1.000 J-0.000 K0.000 F600.000
G1 X82.800 Y134.000 Z0.000 F600.000
G3 X81.800 Y133.000 Z0.000 I0.000 J-1.000 K0.000 F600.000
G1 X81.800 Y104.000 Z0.000 F600.000
G1 X76.000 Y104.000 Z0.000 F600.000
G1 X76.000 Y133.000 Z0.000 F600.000
G3 X75.000 Y134.000 Z0.000 I-1.000 J-0.000 K0.000 F600.000
G1 X54.200 Y134.000 Z0.000 F600.000
G3 X53.200 Y133.000 Z0.000 I0.000 J-1.000 K0.000 F600.000
G1 X53.200 Y109.500 Z0.000 F600.000
G1 X35.200 Y109.500 Z0.000 F600.000
G1 X35.200 Y133.000 Z0.000 F600.000
G3 X34.200 Y134.000 Z0.000 I-1.000 J-0.000 K0.000 F600.000
G1 X-12.000 Y134.000 Z0.000 F600.000
G3 X-13.000 Y133.000 Z0.000 I0.000 J-1.000 K0.000 F600.000
G1 X-13.000 Y93.000 Z0.000 F600.000
G3 X-12.000 Y92.000 Z0.000 I1.000 J0.000 K0.000 F600.000
G1 X108.707 Y92.000 Z0.000 F600.000
G0 Z13.000
G0 Z13.000
G0 X108.707 Y92.000
G0 X134.001 Y92.962
G0 X134.001 Y92.962 Z11.000
G1 X134.001 Y92.962 Z6.000 F600.000
G3 X135.000 Y92.000 Z6.000 I0.999 J0.038 K0.000 F600.000
G1 X215.000 Y92.000 Z6.000 F600.000
G3 X216.000 Y93.000 Z6.000 I-0.000 J1.000 K0.000 F600.000
G1 X216.000 Y111.000 Z6.000 F600.000
G3 X215.000 Y112.000 Z6.000 I-1.000 J-0.000 K0.000 F600.000
G1 X188.900 Y112.000 Z6.000 F600.000
G3 X187.900 Y111.000 Z6.000 I0.000 J-1.000 K0.000 F600.000
G1 X187.900 Y102.000 Z6.000 F600.000
G1 X184.900 Y102.000 Z6.000 F600.000
G1 X184.900 Y133.000 Z6.000 F600.000
G3 X183.900 Y134.000 Z6.000 I-1.000 J-0.000 K0.000 F600.000
G1 X160.400 Y134.000 Z6.000 F600.000
G3 X159.400 Y133.000 Z6.000 I0.000 J-1.000 K0.000 F600.000
G1 X159.400 Y115.700 Z6.000 F600.000
G1 X159.300 Y115.700 Z6.000 F600.000
G1 X159.300 Y133.000 Z6.000 F600.000
G3 X158.300 Y134.000 Z6.000 I-1.000 J-0.000 K0.000 F600.000
G1 X135.000 Y134.000 Z6.000 F600.000
G3 X134.000 Y133.000 Z6.000 I0.000 J-1.000 K0.000 F600.000
G1 X134.000 Y93.000 Z6.000 F600.000
G3 X134.001 Y92.962 Z6.000 I1.000 J0.000 K0.000 F600.000
G1 X134.001 Y92.962 Z4.000 F600.000
G3 X135.000 Y92.000 Z4.000 I0.999 J0.038 K0.000 F600.000
G1 X215.000 Y92.000 Z4.000 F600.000
G3 X216.000 Y93.000 Z4.000 I-0.000 J1.000 K0.000 F600.000
G1 X216.000 Y111.000 Z4.000 F600.000
G3 X215.000 Y112.000 Z4.000 I-1.000 J-0.000 K0.000 F600.000
G1 X188.900 Y112.000 Z4.000 F600.000
G3 X187.900 Y111.000 Z4.000 I0.000 J-1.000 K0.000 F600.000
G1 X187.900 Y102.000 Z4.000 F600.000
G1 X184.900 Y102.000 Z4.000 F600.000
G1 X184.900 Y133.000 Z4.000 F600.000
G3 X183.900 Y134.000 Z4.000 I-1.000 J-0.000 K0.000 F600.000
G1 X160.400 Y134.000 Z4.000 F600.000
G3 X159.400 Y133.000 Z4.000 I0.000 J-1.000 K0.000 F600.000
G1 X159.400 Y115.700 Z4.000 F600.000
G1 X159.300 Y115.700 Z4.000 F600.000
G1 X159.300 Y133.000 Z4.000 F600.000
G3 X158.300 Y134.000 Z4.000 I-1.000 J-0.000 K0.000 F600.000
G1 X135.000 Y134.000 Z4.000 F600.000
G3 X134.000 Y133.000 Z4.000 I0.000 J-1.000 K0.000 F600.000
G1 X134.000 Y93.000 Z4.000 F600.000
G3 X134.001 Y92.962 Z4.000 I1.000 J0.000 K0.000 F600.000
G1 X134.001 Y92.962 Z2.000 F600.000
G3 X135.000 Y92.000 Z2.000 I0.999 J0.038 K0.000 F600.000
G1 X215.000 Y92.000 Z2.000 F600.000
G3 X216.000 Y93.000 Z2.000 I-0.000 J1.000 K0.000 F600.000
G1 X216.000 Y111.000 Z2.000 F600.000
G3 X215.000 Y112.000 Z2.000 I-1.000 J-0.000 K0.000 F600.000
G1 X188.900 Y112.000 Z2.000 F600.000
G3 X187.900 Y111.000 Z2.000 I0.000 J-1.000 K0.000 F600.000
G1 X187.900 Y102.000 Z2.000 F600.000
G1 X184.900 Y102.000 Z2.000 F600.000
G1 X184.900 Y133.000 Z2.000 F600.000
G3 X183.900 Y134.000 Z2.000 I-1.000 J-0.000 K0.000 F600.000
G1 X160.400 Y134.000 Z2.000 F600.000
G3 X159.400 Y133.000 Z2.000 I0.000 J-1.000 K0.000 F600.000
G1 X159.400 Y115.700 Z2.000 F600.000
G1 X159.300 Y115.700 Z2.000 F600.000
G1 X159.300 Y133.000 Z2.000 F600.000
G3 X158.300 Y134.000 Z2.000 I-1.000 J-0.000 K0.000 F600.000
G1 X135.000 Y134.000 Z2.000 F600.000
G3 X134.000 Y133.000 Z2.000 I0.000 J-1.000 K0.000 F600.000
G1 X134.000 Y93.000 Z2.000 F600.000
G3 X134.001 Y92.962 Z2.000 I1.000 J0.000 K0.000 F600.000
G1 X134.001 Y92.962 Z0.000 F600.000
G3 X135.000 Y92.000 Z0.000 I0.999 J0.038 K0.000 F600.000
G1 X215.000 Y92.000 Z0.000 F600.000
G3 X216.000 Y93.000 Z0.000 I-0.000 J1.000 K0.000 F600.000
G1 X216.000 Y111.000 Z0.000 F600.000
G3 X215.000 Y112.000 Z0.000 I-1.000 J-0.000 K0.000 F600.000
G1 X188.900 Y112.000 Z0.000 F600.000
G3 X187.900 Y111.000 Z0.000 I0.000 J-1.000 K0.000 F600.000
G1 X187.900 Y102.000 Z0.000 F600.000
G1 X184.900 Y102.000 Z0.000 F600.000
G1 X184.900 Y133.000 Z0.000 F600.000
G3 X183.900 Y134.000 Z0.000 I-1.000 J-0.000 K0.000 F600.000
G1 X160.400 Y134.000 Z0.000 F600.000
G3 X159.400 Y133.000 Z0.000 I0.000 J-1.000 K0.000 F600.000
G1 X159.400 Y115.700 Z0.000 F600.000
G1 X159.300 Y115.700 Z0.000 F600.000
G1 X159.300 Y133.000 Z0.000 F600.000
G3 X158.300 Y134.000 Z0.000 I-1.000 J-0.000 K0.000 F600.000
G1 X135.000 Y134.000 Z0.000 F600.000
G3 X134.000 Y133.000 Z0.000 I0.000 J-1.000 K0.000 F600.000
G1 X134.000 Y93.000 Z0.000 F600.000
G3 X134.001 Y92.962 Z0.000 I1.000 J0.000 K0.000 F600.000
G0 Z13.000
G0 Z13.000
G0 X134.001 Y92.962
G0 X134.546 Y91.891
G0 X134.546 Y91.891 Z11.000
G1 X134.546 Y91.891 Z6.000 F600.000
G3 X134.000 Y91.000 Z6.000 I0.454 J-0.891 K0.000 F600.000
G1 X134.000 Y51.000 Z6.000 F600.000
G3 X135.000 Y50.000 Z6.000 I1.000 J0.000 K0.000 F600.000
G1 X215.000 Y50.000 Z6.000 F600.000
G3 X216.000 Y51.000 Z6.000 I-0.000 J1.000 K0.000 F600.000
G1 X216.000 Y69.000 Z6.000 F600.000
G3 X215.000 Y70.000 Z6.000 I-1.000 J-0.000 K0.000 F600.000
G1 X188.900 Y70.000 Z6.000 F600.000
G3 X187.900 Y69.000 Z6.000 I0.000 J-1.000 K0.000 F600.000
G1 X187.900 Y60.000 Z6.000 F600.000
G1 X184.900 Y60.000 Z6.000 F600.000
G1 X184.900 Y91.000 Z6.000 F600.000
G3 X183.900 Y92.000 Z6.000 I-1.000 J-0.000 K0.000 F600.000
G1 X160.400 Y92.000 Z6.000 F600.000
G3 X159.400 Y91.000 Z6.000 I0.000 J-1.000 K0.000 F600.000
G1 X159.400 Y73.700 Z6.000 F600.000
G1 X159.300 Y73.700 Z6.000 F600.000
G1 X159.300 Y91.000 Z6.000 F600.000
G3 X158.300 Y92.000 Z6.000 I-1.000 J-0.000 K0.000 F600.000
G1 X135.000 Y92.000 Z6.000 F600.000
G3 X134.546 Y91.891 Z6.000 I0.000 J-1.000 K0.000 F600.000
G1 X134.546 Y91.891 Z4.000 F600.000
G3 X134.000 Y91.000 Z4.000 I0.454 J-0.891 K0.000 F600.000
G1 X134.000 Y51.000 Z4.000 F600.000
G3 X135.000 Y50.000 Z4.000 I1.000 J0.000 K0.000 F600.000
G1 X215.000 Y50.000 Z4.000 F600.000
G3 X216.000 Y51.000 Z4.000 I-0.000 J1.000 K0.000 F600.000
G1 X216.000 Y69.000 Z4.000 F600.000
G3 X215.000 Y70.000 Z4.000 I-1.000 J-0.000 K0.000 F600.000
G1 X188.900 Y70.000 Z4.000 F600.000
G3 X187.900 Y69.000 Z4.000 I0.000 J-1.000 K0.000 F600.000
G1 X187.900 Y60.000 Z4.000 F600.000
G1 X184.900 Y60.000 Z4.000 F600.000
G1 X184.900 Y91.000 Z4.000 F600.000
G3 X183.900 Y92.000 Z4.000 I-1.000 J-0.000 K0.000 F600.000
G1 X160.400 Y92.000 Z4.000 F600.000
G3 X159.400 Y91.000 Z4.000 I0.000 J-1.000 K0.000 F600.000
G1 X159.400 Y73.700 Z4.000 F600.000
G1 X159.300 Y73.700 Z4.000 F600.000
G1 X159.300 Y91.000 Z4.000 F600.000
G3 X158.300 Y92.000 Z4.000 I-1.000 J-0.000 K0.000 F600.000
G1 X135.000 Y92.000 Z4.000 F600.000
G3 X134.546 Y91.891 Z4.000 I0.000 J-1.000 K0.000 F600.000
G1 X134.546 Y91.891 Z2.000 F600.000
G3 X134.000 Y91.000 Z2.000 I0.454 J-0.891 K0.000 F600.000
G1 X134.000 Y51.000 Z2.000 F600.000
G3 X135.000 Y50.000 Z2.000 I1.000 J0.000 K0.000 F600.000
G1 X215.000 Y50.000 Z2.000 F600.000
G3 X216.000 Y51.000 Z2.000 I-0.000 J1.000 K0.000 F600.000
G1 X216.000 Y69.000 Z2.000 F600.000
G3 X215.000 Y70.000 Z2.000 I-1.000 J-0.000 K0.000 F600.000
G1 X188.900 Y70.000 Z2.000 F600.000
G3 X187.900 Y69.000 Z2.000 I0.000 J-1.000 K0.000 F600.000
G1 X187.900 Y60.000 Z2.000 F600.000
G1 X184.900 Y60.000 Z2.000 F600.000
G1 X184.900 Y91.000 Z2.000 F600.000
G3 X183.900 Y92.000 Z2.000 I-1.000 J-0.000 K0.000 F600.000
G1 X160.400 Y92.000 Z2.000 F600.000
G3 X159.400 Y91.000 Z2.000 I0.000 J-1.000 K0.000 F600.000
G1 X159.400 Y73.700 Z2.000 F600.000
G1 X159.300 Y73.700 Z2.000 F600.000
G1 X159.300 Y91.000 Z2.000 F600.000
G3 X158.300 Y92.000 Z2.000 I-1.000 J-0.000 K0.000 F600.000
G1 X135.000 Y92.000 Z2.000 F600.000
G3 X134.546 Y91.891 Z2.000 I0.000 J-1.000 K0.000 F600.000
G1 X134.546 Y91.891 Z0.000 F600.000
G3 X134.000 Y91.000 Z0.000 I0.454 J-0.891 K0.000 F600.000
G1 X134.000 Y51.000 Z0.000 F600.000
G3 X135.000 Y50.000 Z0.000 I1.000 J0.000 K0.000 F600.000
G1 X215.000 Y50.000 Z0.000 F600.000
G3 X216.000 Y51.000 Z0.000 I-0.000 J1.000 K0.000 F600.000
G1 X216.000 Y69.000 Z0.000 F600.000
G3 X215.000 Y70.000 Z0.000 I-1.000 J-0.000 K0.000 F600.000
G1 X188.900 Y70.000 Z0.000 F600.000
G3 X187.900 Y69.000 Z0.000 I0.000 J-1.000 K0.000 F600.000
G1 X187.900 Y60.000 Z0.000 F600.000
G1 X184.900 Y60.000 Z0.000 F600.000
G1 X184.900 Y91.000 Z0.000 F600.000
G3 X183.900 Y92.000 Z0.000 I-1.000 J-0.000 K0.000 F600.000
G1 X160.400 Y92.000 Z0.000 F600.000
G3 X159.400 Y91.000 Z0.000 I0.000 J-1.000 K0.000 F600.000
G1 X159.400 Y73.700 Z0.000 F600.000
G1 X159.300 Y73.700 Z0.000 F600.000
G1 X159.300 Y91.000 Z0.000 F600.000
G3 X158.300 Y92.000 Z0.000 I-1.000 J-0.000 K0.000 F600.000
G1 X135.000 Y92.000 Z0.000 F600.000
G3 X134.546 Y91.891 Z0.000 I0.000 J-1.000 K0.000 F600.000
G0 Z13.000
G0 Z13.000
G0 X134.546 Y91.891
G0 X134.546 Y48.000
G0 X134.546 Y48.000 Z11.000
G1 X134.546 Y48.000 Z6.000 F600.000
G1 X130.000 Y48.000 Z6.000 F600.000
G3 X129.000 Y47.000 Z6.000 I0.000 J-1.000 K0.000 F600.000
G1 X129.000 Y28.000 Z6.000 F600.000
G1 X119.300 Y28.000 Z6.000 F600.000
G1 X119.300 Y47.000 Z6.000 F600.000
G3 X118.300 Y48.000 Z6.000 I-1.000 J-0.000 K0.000 F600.000
G1 X110.000 Y48.000 Z6.000 F600.000
G3 X109.000 Y47.000 Z6.000 I0.000 J-1.000 K0.000 F600.000
G1 X109.000 Y7.000 Z6.000 F600.000
G3 X110.000 Y6.000 Z6.000 I1.000 J0.000 K0.000 F600.000
G1 X220.000 Y6.000 Z6.000 F600.000
G3 X221.000 Y7.000 Z6.000 I-0.000 J1.000 K0.000 F600.000
G1 X221.000 Y47.000 Z6.000 F600.000
G3 X220.000 Y48.000 Z6.000 I-1.000 J-0.000 K0.000 F600.000
G1 X178.800 Y48.000 Z6.000 F600.000
G3 X177.800 Y47.000 Z6.000 I0.000 J-1.000 K0.000 F600.000
G1 X177.800 Y27.500 Z6.000 F600.000
G1 X169.800 Y27.500 Z6.000 F600.000
G1 X169.800 Y47.000 Z6.000 F600.000
G3 X168.800 Y48.000 Z6.000 I-1.000 J-0.000 K0.000 F600.000
G1 X134.546 Y48.000 Z6.000 F600.000
G1 X134.546 Y48.000 Z4.000 F600.000
G1 X130.000 Y48.000 Z4.000 F600.000
G3 X129.000 Y47.000 Z4.000 I0.000 J-1.000 K0.000 F600.000
G1 X129.000 Y28.000 Z4.000 F600.000
G1 X119.300 Y28.000 Z4.000 F600.000
G1 X119.300 Y47.000 Z4.000 F600.000
G3 X118.300 Y48.000 Z4.000 I-1.000 J-0.000 K0.000 F600.000
G1 X110.000 Y48.000 Z4.000 F600.000
G3 X109.000 Y47.000 Z4.000 I0.000 J-1.000 K0.000 F600.000
G1 X109.000 Y7.000 Z4.000 F600.000
G3 X110.000 Y6.000 Z4.000 I1.000 J0.000 K0.000 F600.000
G1 X220.000 Y6.000 Z4.000 F600.000
G3 X221.000 Y7.000 Z4.000 I-0.000 J1.000 K0.000 F600.000
G1 X221.000 Y47.000 Z4.000 F600.000
G3 X220.000 Y48.000 Z4.000 I-1.000 J-0.000 K0.000 F600.000
G1 X178.800 Y48.000 Z4.000 F600.000
G3 X177.800 Y47.000 Z4.000 I0.000 J-1.000 K0.000 F600.000
G1 X177.800 Y27.500 Z4.000 F600.000
G1 X169.800 Y27.500 Z4.000 F600.000
G1 X169.800 Y47.000 Z4.000 F600.000
G3 X168.800 Y48.000 Z4.000 I-1.000 J-0.000 K0.000 F600.000
G1 X134.546 Y48.000 Z4.000 F600.000
G1 X134.546 Y48.000 Z2.000 F600.000
G1 X130.000 Y48.000 Z2.000 F600.000
G3 X129.000 Y47.000 Z2.000 I0.000 J-1.000 K0.000 F600.000
G1 X129.000 Y28.000 Z2.000 F600.000
G1 X119.300 Y28.000 Z2.000 F600.000
G1 X119.300 Y47.000 Z2.000 F600.000
G3 X118.300 Y48.000 Z2.000 I-1.000 J-0.000 K0.000 F600.000
G1 X110.000 Y48.000 Z2.000 F600.000
G3 X109.000 Y47.000 Z2.000 I0.000 J-1.000 K0.000 F600.000
G1 X109.000 Y7.000 Z2.000 F600.000
G3 X110.000 Y6.000 Z2.000 I1.000 J0.000 K0.000 F600.000
G1 X220.000 Y6.000 Z2.000 F600.000
G3 X221.000 Y7.000 Z2.000 I-0.000 J1.000 K0.000 F600.000
G1 X221.000 Y47.000 Z2.000 F600.000
G3 X220.000 Y48.000 Z2.000 I-1.000 J-0.000 K0.000 F600.000
G1 X178.800 Y48.000 Z2.000 F600.000
G3 X177.800 Y47.000 Z2.000 I0.000 J-1.000 K0.000 F600.000
G1 X177.800 Y27.500 Z2.000 F600.000
G1 X169.800 Y27.500 Z2.000 F600.000
G1 X169.800 Y47.000 Z2.000 F600.000
G3 X168.800 Y48.000 Z2.000 I-1.000 J-0.000 K0.000 F600.000
G1 X134.546 Y48.000 Z2.000 F600.000
G1 X134.546 Y48.000 Z0.000 F600.000
G1 X130.000 Y48.000 Z0.000 F600.000
G3 X129.000 Y47.000 Z0.000 I0.000 J-1.000 K0.000 F600.000
G1 X129.000 Y28.000 Z0.000 F600.000
G1 X119.300 Y28.000 Z0.000 F600.000
G1 X119.300 Y47.000 Z0.000 F600.000
G3 X118.300 Y48.000 Z0.000 I-1.000 J-0.000 K0.000 F600.000
G1 X110.000 Y48.000 Z0.000 F600.000
G3 X109.000 Y47.000 Z0.000 I0.000 J-1.000 K0.000 F600.000
G1 X109.000 Y7.000 Z0.000 F600.000
G3 X110.000 Y6.000 Z0.000 I1.000 J0.000 K0.000 F600.000
G1 X220.000 Y6.000 Z0.000 F600.000
G3 X221.000 Y7.000 Z0.000 I-0.000 J1.000 K0.000 F600.000
G1 X221.000 Y47.000 Z0.000 F600.000
G3 X220.000 Y48.000 Z0.000 I-1.000 J-0.000 K0.000 F600.000
G1 X178.800 Y48.000 Z0.000 F600.000
G3 X177.800 Y47.000 Z0.000 I0.000 J-1.000 K0.000 F600.000
G1 X177.800 Y27.500 Z0.000 F600.000
G1 X169.800 Y27.500 Z0.000 F600.000
G1 X169.800 Y47.000 Z0.000 F600.000
G3 X168.800 Y48.000 Z0.000 I-1.000 J-0.000 K0.000 F600.000
G1 X134.546 Y48.000 Z0.000 F600.000
G0 Z13.000
G0 Z13.000
G0 X134.546 Y48.000
G0 X141.536 Y5.986
G0 X141.536 Y5.986 Z11.000
G1 X141.536 Y5.986 Z6.000 F600.000
G3 X140.700 Y5.000 Z6.000 I0.164 J-0.986 K0.000 F600.000
G1 X140.700 Y-19.500 Z6.000 F600.000
G1 X124.700 Y-19.500 Z6.000 F600.000
G1 X124.700 Y5.000 Z6.000 F600.000
G3 X123.700 Y6.000 Z6.000 I-1.000 J-0.000 K0.000 F600.000
G1 X104.700 Y6.000 Z6.000 F600.000
G3 X103.700 Y5.000 Z6.000 I0.000 J-1.000 K0.000 F600.000
G1 X103.700 Y-19.500 Z6.000 F600.000
G1 X87.700 Y-19.500 Z6.000 F600.000
G1 X87.700 Y5.000 Z6.000 F600.000
G3 X86.700 Y6.000 Z6.000 I-1.000 J-0.000 K0.000 F600.000
G1 X70.500 Y6.000 Z6.000 F600.000
G3 X69.500 Y5.000 Z6.000 I0.000 J-1.000 K0.000 F600.000
G1 X69.500 Y-28.000 Z6.000 F600.000
G1 X50.500 Y-28.000 Z6.000 F600.000
G1 X50.500 Y5.000 Z6.000 F600.000
G3 X49.500 Y6.000 Z6.000 I-1.000 J-0.000 K0.000 F600.000
G1 X5.000 Y6.000 Z6.000 F600.000
G3 X4.000 Y5.000 Z6.000 I0.000 J-1.000 K0.000 F600.000
G1 X4.000 Y-35.000 Z6.000 F600.000
G3 X5.000 Y-36.000 Z6.000 I1.000 J0.000 K0.000 F600.000
G1 X185.000 Y-36.000 Z6.000 F600.000
G3 X186.000 Y-35.000 Z6.000 I-0.000 J1.000 K0.000 F600.000
G1 X186.000 Y5.000 Z6.000 F600.000
G3 X185.000 Y6.000 Z6.000 I-1.000 J-0.000 K0.000 F600.000
G1 X163.800 Y6.000 Z6.000 F600.000
G3 X162.800 Y5.000 Z6.000 I0.000 J-1.000 K0.000 F600.000
G1 X162.800 Y-14.500 Z6.000 F600.000
G1 X154.800 Y-14.500 Z6.000 F600.000
G1 X154.800 Y5.000 Z6.000 F600.000
G3 X153.800 Y6.000 Z6.000 I-1.000 J-0.000 K0.000 F600.000
G1 X141.700 Y6.000 Z6.000 F600.000
G3 X141.536 Y5.986 Z6.000 I0.000 J-1.000 K0.000 F600.000
G1 X141.536 Y5.986 Z4.000 F600.000
G3 X140.700 Y5.000 Z4.000 I0.164 J-0.986 K0.000 F600.000
G1 X140.700 Y-19.500 Z4.000 F600.000
G1 X124.700 Y-19.500 Z4.000 F600.000
G1 X124.700 Y5.000 Z4.000 F600.000
G3 X123.700 Y6.000 Z4.000 I-1.000 J-0.000 K0.000 F600.000
G1 X104.700 Y6.000 Z4.000 F600.000
G3 X103.700 Y5.000 Z4.000 I0.000 J-1.000 K0.000 F600.000
G1 X103.700 Y-19.500 Z4.000 F600.000
G1 X87.700 Y-19.500 Z4.000 F600.000
G1 X87.700 Y5.000 Z4.000 F600.000
G3 X86.700 Y6.000 Z4.000 I-1.000 J-0.000 K0.000 F600.000
G1 X70.500 Y6.000 Z4.000 F600.000
G3 X69.500 Y5.000 Z4.000 I0.000 J-1.000 K0.000 F600.000
G1 X69.500 Y-28.000 Z4.000 F600.000
G1 X50.500 Y-28.000 Z4.000 F600.000
G1 X50.500 Y5.000 Z4.000 F600.000
G3 X49.500 Y6.000 Z4.000 I-1.000 J-0.000 K0.000 F600.000
G1 X5.000 Y6.000 Z4.000 F600.000
G3 X4.000 Y5.000 Z4.000 I0.000 J-1.000 K0.000 F600.000
G1 X4.000 Y-35.000 Z4.000 F600.000
G3 X5.000 Y-36.000 Z4.000 I1.000 J0.000 K0.000 F600.000
G1 X185.000 Y-36.000 Z4.000 F600.000
G3 X186.000 Y-35.000 Z4.000 I-0.000 J1.000 K0.000 F600.000
G1 X186.000 Y5.000 Z4.000 F600.000
G3 X185.000 Y6.000 Z4.000 I-1.000 J-0.000 K0.000 F600.000
G1 X163.800 Y6.000 Z4.000 F600.000
G3 X162.800 Y5.000 Z4.000 I0.000 J-1.000 K0.000 F600.000
G1 X162.800 Y-14.500 Z4.000 F600.000
G1 X154.800 Y-14.500 Z4.000 F600.000
G1 X154.800 Y5.000 Z4.000 F600.000
G3 X153.800 Y6.000 Z4.000 I-1.000 J-0.000 K0.000 F600.000
G1 X141.700 Y6.000 Z4.000 F600.000
G3 X141.536 Y5.986 Z4.000 I0.000 J-1.000 K0.000 F600.000
G1 X141.536 Y5.986 Z2.000 F600.000
G3 X140.700 Y5.000 Z2.000 I0.164 J-0.986 K0.000 F600.000
G1 X140.700 Y-19.500 Z2.000 F600.000
G1 X124.700 Y-19.500 Z2.000 F600.000
G1 X124.700 Y5.000 Z2.000 F600.000
G3 X123.700 Y6.000 Z2.000 I-1.000 J-0.000 K0.000 F600.000
G1 X104.700 Y6.000 Z2.000 F600.000
G3 X103.700 Y5.000 Z2.000 I0.000 J-1.000 K0.000 F600.000
G1 X103.700 Y-19.500 Z2.000 F600.000
G1 X87.700 Y-19.500 Z2.000 F600.000
G1 X87.700 Y5.000 Z2.000 F600.000
G3 X86.700 Y6.000 Z2.000 I-1.000 J-0.000 K0.000 F600.000
G1 X70.500 Y6.000 Z2.000 F600.000
G3 X69.500 Y5.000 Z2.000 I0.000 J-1.000 K0.000 F600.000
G1 X69.500 Y-28.000 Z2.000 F600.000
G1 X50.500 Y-28.000 Z2.000 F600.000
G1 X50.500 Y5.000 Z2.000 F600.000
G3 X49.500 Y6.000 Z2.000 I-1.000 J-0.000 K0.000 F600.000
G1 X5.000 Y6.000 Z2.000 F600.000
G3 X4.000 Y5.000 Z2.000 I0.000 J-1.000 K0.000 F600.000
G1 X4.000 Y-35.000 Z2.000 F600.000
G3 X5.000 Y-36.000 Z2.000 I1.000 J0.000 K0.000 F600.000
G1 X185.000 Y-36.000 Z2.000 F600.000
G3 X186.000 Y-35.000 Z2.000 I-0.000 J1.000 K0.000 F600.000
G1 X186.000 Y5.000 Z2.000 F600.000
G3 X185.000 Y6.000 Z2.000 I-1.000 J-0.000 K0.000 F600.000
G1 X163.800 Y6.000 Z2.000 F600.000
G3 X162.800 Y5.000 Z2.000 I0.000 J-1.000 K0.000 F600.000
G1 X162.800 Y-14.500 Z2.000 F600.000
G1 X154.800 Y-14.500 Z2.000 F600.000
G1 X154.800 Y5.000 Z2.000 F600.000
G3 X153.800 Y6.000 Z2.000 I-1.000 J-0.000 K0.000 F600.000
G1 X141.700 Y6.000 Z2.000 F600.000
G3 X141.536 Y5.986 Z2.000 I0.000 J-1.000 K0.000 F600.000
G1 X141.536 Y5.986 Z0.000 F600.000
G3 X140.700 Y5.000 Z0.000 I0.164 J-0.986 K0.000 F600.000
G1 X140.700 Y-19.500 Z0.000 F600.000
G1 X124.700 Y-19.500 Z0.000 F600.000
G1 X124.700 Y5.000 Z0.000 F600.000
G3 X123.700 Y6.000 Z0.000 I-1.000 J-0.000 K0.000 F600.000
G1 X104.700 Y6.000 Z0.000 F600.000
G3 X103.700 Y5.000 Z0.000 I0.000 J-1.000 K0.000 F600.000
G1 X103.700 Y-19.500 Z0.000 F600.000
G1 X87.700 Y-19.500 Z0.000 F600.000
G1 X87.700 Y5.000 Z0.000 F600.000
G3 X86.700 Y6.000 Z0.000 I-1.000 J-0.000 K0.000 F600.000
G1 X70.500 Y6.000 Z0.000 F600.000
G3 X69.500 Y5.000 Z0.000 I0.000 J-1.000 K0.000 F600.000
G1 X69.500 Y-28.000 Z0.000 F600.000
G1 X50.500 Y-28.000 Z0.000 F600.000
G1 X50.500 Y5.000 Z0.000 F600.000
G3 X49.500 Y6.000 Z0.000 I-1.000 J-0.000 K0.000 F600.000
G1 X5.000 Y6.000 Z0.000 F600.000
G3 X4.000 Y5.000 Z0.000 I0.000 J-1.000 K0.000 F600.000
G1 X4.000 Y-35.000 Z0.000 F600.000
G3 X5.000 Y-36.000 Z0.000 I1.000 J0.000 K0.000 F600.000
G1 X185.000 Y-36.000 Z0.000 F600.000
G3 X186.000 Y-35.000 Z0.000 I-0.000 J1.000 K0.000 F600.000
G1 X186.000 Y5.000 Z0.000 F600.000
G3 X185.000 Y6.000 Z0.000 I-1.000 J-0.000 K0.000 F600.000
G1 X163.800 Y6.000 Z0.000 F600.000
G3 X162.800 Y5.000 Z0.000 I0.000 J-1.000 K0.000 F600.000
G1 X162.800 Y-14.500 Z0.000 F600.000
G1 X154.800 Y-14.500 Z0.000 F600.000
G1 X154.800 Y5.000 Z0.000 F600.000
G3 X153.800 Y6.000 Z0.000 I-1.000 J-0.000 K0.000 F600.000
G1 X141.700 Y6.000 Z0.000 F600.000
G3 X141.536 Y5.986 Z0.000 I0.000 J-1.000 K0.000 F600.000
G0 Z13.000
G0 Z13.000
(Finish operation: Profile)
(Begin postamble)
M5
G17 G90
M2
