(Exported by FreeCAD)
(Post Processor: script_module)
(Output Time:2025-03-26 12:41:00.356605)
(Begin preamble)
G17 G90
G21
(Begin operation: Fixture)
(Path: Fixture)
G54
(Finish operation: Fixture)
(Begin operation: 2mm_Endmill001)
(Path: 2mm_Endmill001)
(2mm_Endmill001)
(Begin toolchange)
( M6 T2 )
M3 S10000
(Finish operation: 2mm_Endmill001)
(Begin operation: Profile)
(Path: Profile)
(Profile)
(Compensated Tool Path. Diameter: 2.0)
G0 Z20.000
G0 X0.707 Y40.707
G0 Z10.000
G1 X0.707 Y40.707 Z3.000 F600.000
G3 X-0.000 Y41.000 Z3.000 I-0.707 J-0.707 K0.000 F600.000
G1 X-41.300 Y41.000 Z3.000 F600.000
G3 X-42.300 Y40.000 Z3.000 I0.000 J-1.000 K0.000 F600.000
G1 X-42.300 Y20.500 Z3.000 F600.000
G1 X-50.300 Y20.500 Z3.000 F600.000
G1 X-50.300 Y40.000 Z3.000 F600.000
G3 X-51.300 Y41.000 Z3.000 I-1.000 J-0.000 K0.000 F600.000
G1 X-90.010 Y41.000 Z3.000 F600.000
G3 X-91.010 Y40.000 Z3.000 I0.000 J-1.000 K0.000 F600.000
G1 X-91.010 Y21.000 Z3.000 F600.000
G1 X-100.710 Y21.000 Z3.000 F600.000
G1 X-100.710 Y40.000 Z3.000 F600.000
G3 X-101.710 Y41.000 Z3.000 I-1.000 J-0.000 K0.000 F600.000
G1 X-110.000 Y41.000 Z3.000 F600.000
G3 X-111.000 Y40.000 Z3.000 I0.000 J-1.000 K0.000 F600.000
G1 X-111.000 Y0.000 Z3.000 F600.000
G3 X-110.000 Y-1.000 Z3.000 I1.000 J0.000 K0.000 F600.000
G1 X-0.000 Y-1.000 Z3.000 F600.000
G3 X1.000 Y0.000 Z3.000 I-0.000 J1.000 K0.000 F600.000
G1 X1.000 Y40.000 Z3.000 F600.000
G3 X0.707 Y40.707 Z3.000 I-1.000 J-0.000 K0.000 F600.000
G1 X0.707 Y40.707 Z1.000 F600.000
G3 X-0.000 Y41.000 Z1.000 I-0.707 J-0.707 K0.000 F600.000
G1 X-41.300 Y41.000 Z1.000 F600.000
G3 X-42.300 Y40.000 Z1.000 I0.000 J-1.000 K0.000 F600.000
G1 X-42.300 Y20.500 Z1.000 F600.000
G1 X-50.300 Y20.500 Z1.000 F600.000
G1 X-50.300 Y40.000 Z1.000 F600.000
G3 X-51.300 Y41.000 Z1.000 I-1.000 J-0.000 K0.000 F600.000
G1 X-90.010 Y41.000 Z1.000 F600.000
G3 X-91.010 Y40.000 Z1.000 I0.000 J-1.000 K0.000 F600.000
G1 X-91.010 Y21.000 Z1.000 F600.000
G1 X-100.710 Y21.000 Z1.000 F600.000
G1 X-100.710 Y40.000 Z1.000 F600.000
G3 X-101.710 Y41.000 Z1.000 I-1.000 J-0.000 K0.000 F600.000
G1 X-110.000 Y41.000 Z1.000 F600.000
G3 X-111.000 Y40.000 Z1.000 I0.000 J-1.000 K0.000 F600.000
G1 X-111.000 Y0.000 Z1.000 F600.000
G3 X-110.000 Y-1.000 Z1.000 I1.000 J0.000 K0.000 F600.000
G1 X-0.000 Y-1.000 Z1.000 F600.000
G3 X1.000 Y0.000 Z1.000 I-0.000 J1.000 K0.000 F600.000
G1 X1.000 Y40.000 Z1.000 F600.000
G3 X0.707 Y40.707 Z1.000 I-1.000 J-0.000 K0.000 F600.000
G1 X0.707 Y40.707 Z0.000 F600.000
G3 X-0.000 Y41.000 Z0.000 I-0.707 J-0.707 K0.000 F600.000
G1 X-41.300 Y41.000 Z0.000 F600.000
G3 X-42.300 Y40.000 Z0.000 I0.000 J-1.000 K0.000 F600.000
G1 X-42.300 Y20.500 Z0.000 F600.000
G1 X-50.300 Y20.500 Z0.000 F600.000
G1 X-50.300 Y40.000 Z0.000 F600.000
G3 X-51.300 Y41.000 Z0.000 I-1.000 J-0.000 K0.000 F600.000
G1 X-90.010 Y41.000 Z0.000 F600.000
G3 X-91.010 Y40.000 Z0.000 I0.000 J-1.000 K0.000 F600.000
G1 X-91.010 Y21.000 Z0.000 F600.000
G1 X-100.710 Y21.000 Z0.000 F600.000
G1 X-100.710 Y40.000 Z0.000 F600.000
G3 X-101.710 Y41.000 Z0.000 I-1.000 J-0.000 K0.000 F600.000
G1 X-110.000 Y41.000 Z0.000 F600.000
G3 X-111.000 Y40.000 Z0.000 I0.000 J-1.000 K0.000 F600.000
G1 X-111.000 Y0.000 Z0.000 F600.000
G3 X-110.000 Y-1.000 Z0.000 I1.000 J0.000 K0.000 F600.000
G1 X-0.000 Y-1.000 Z0.000 F600.000
G3 X1.000 Y0.000 Z0.000 I-0.000 J1.000 K0.000 F600.000
G1 X1.000 Y40.000 Z0.000 F600.000
G3 X0.707 Y40.707 Z0.000 I-1.000 J-0.000 K0.000 F600.000
G0 Z20.000
G0 Z20.000
(Finish operation: Profile)
(Begin postamble)
M5
G17 G90
M2
