(Exported by FreeCAD)
(Post Processor: script_module)
(Output Time:2025-03-20 11:41:53.310694)
(Begin preamble)
G17 G90
G21
(Begin operation: Fixture)
(Path: Fixture)
G54
(Finish operation: Fixture)
(Begin operation: 2mm_Endmill001)
(Path: 2mm_Endmill001)
(2mm_Endmill001)
(Begin toolchange)
( M6 T2 )
M3 S13000
(Finish operation: 2mm_Endmill001)
(Begin operation: Pocket_Shape)
(Path: Pocket_Shape)
(Pocket_Shape)
G0 Z5.000
G0 X0.000 Y0.000
G0 X34.170 Y-46.101
G0 X34.170 Y-46.101 Z3.000
G1 X34.170 Y-46.101 Z-2.000 F600.000
G2 X43.368 Y-61.933 Z-2.000 I4.586 J-7.923 K0.000 F600.000
G2 X30.839 Y-58.624 Z-2.000 I-4.613 J7.907 K0.000 F600.000
G2 X34.170 Y-46.101 Z-2.000 I7.916 J4.599 K0.000 F600.000
G3 X30.834 Y-49.437 Z-2.000 I4.549 J-7.885 K0.000 F600.000
G1 X34.170 Y-46.101 Z-2.000 F600.000
G2 X38.206 Y-44.893 Z-2.000 I4.517 J-7.748 K0.000 F600.000
G1 X29.623 Y-53.477 Z-2.000 F600.000
G3 X29.843 Y-56.085 Z-2.000 I8.437 J-0.600 K0.000 F600.000
G1 X40.816 Y-45.112 Z-2.000 F600.000
G2 X42.891 Y-45.866 Z-2.000 I-1.722 J-7.971 K0.000 F600.000
G1 X30.596 Y-58.161 Z-2.000 F600.000
G3 X31.714 Y-59.871 Z-2.000 I7.185 J3.477 K0.000 F600.000
G1 X44.604 Y-46.981 Z-2.000 F600.000
G2 X45.988 Y-48.425 Z-2.000 I-5.447 J-6.605 K0.000 F600.000
G1 X33.156 Y-61.257 Z-2.000 F600.000
G3 X34.909 Y-62.332 Z-2.000 I4.972 J6.144 K0.000 F600.000
G1 X47.061 Y-50.180 Z-2.000 F600.000
G2 X47.748 Y-52.322 Z-2.000 I-7.927 J-3.721 K0.000 F600.000
G1 X37.055 Y-63.015 Z-2.000 F600.000
G3 X39.783 Y-63.116 Z-2.000 I1.677 J8.458 K0.000 F600.000
G1 X47.844 Y-55.054 Z-2.000 F600.000
G2 X45.258 Y-60.469 Z-2.000 I-9.028 J0.987 K0.000 F600.000
G1 X45.258 Y-60.469 Z-4.000 F600.000
G3 X47.844 Y-55.054 Z-4.000 I-6.441 J6.402 K0.000 F600.000
G1 X39.783 Y-63.116 Z-4.000 F600.000
G2 X37.055 Y-63.015 Z-4.000 I-1.051 J8.559 K0.000 F600.000
G1 X47.748 Y-52.322 Z-4.000 F600.000
G3 X47.061 Y-50.180 Z-4.000 I-8.614 J-1.580 K0.000 F600.000
G1 X34.909 Y-62.332 Z-4.000 F600.000
G2 X33.156 Y-61.257 Z-4.000 I3.218 J7.219 K0.000 F600.000
G1 X45.988 Y-48.425 Z-4.000 F600.000
G3 X44.604 Y-46.981 Z-4.000 I-6.831 J-5.160 K0.000 F600.000
G1 X31.714 Y-59.871 Z-4.000 F600.000
G2 X30.596 Y-58.161 Z-4.000 I6.067 J5.187 K0.000 F600.000
G1 X42.891 Y-45.866 Z-4.000 F600.000
G3 X40.816 Y-45.112 Z-4.000 I-3.797 J-7.218 K0.000 F600.000
G1 X29.843 Y-56.085 Z-4.000 F600.000
G2 X29.623 Y-53.477 Z-4.000 I8.216 J2.008 K0.000 F600.000
G1 X38.206 Y-44.893 Z-4.000 F600.000
G3 X34.170 Y-46.101 Z-4.000 I0.481 J-8.956 K0.000 F600.000
G1 X30.834 Y-49.437 Z-4.000 F600.000
G2 X34.170 Y-46.101 Z-4.000 I7.885 J-4.549 K0.000 F600.000
G3 X30.839 Y-58.624 Z-4.000 I4.585 J-7.924 K0.000 F600.000
G3 X43.368 Y-61.933 Z-4.000 I7.916 J4.599 K0.000 F600.000
G3 X34.170 Y-46.101 Z-4.000 I-4.612 J7.908 K0.000 F600.000
G1 X34.170 Y-46.101 Z-6.000 F600.000
G2 X43.368 Y-61.933 Z-6.000 I4.586 J-7.923 K0.000 F600.000
G2 X30.839 Y-58.624 Z-6.000 I-4.613 J7.907 K0.000 F600.000
G2 X34.170 Y-46.101 Z-6.000 I7.916 J4.599 K0.000 F600.000
G3 X30.834 Y-49.437 Z-6.000 I4.549 J-7.885 K0.000 F600.000
G1 X34.170 Y-46.101 Z-6.000 F600.000
G2 X38.206 Y-44.893 Z-6.000 I4.517 J-7.748 K0.000 F600.000
G1 X29.623 Y-53.477 Z-6.000 F600.000
G3 X29.843 Y-56.085 Z-6.000 I8.437 J-0.600 K0.000 F600.000
G1 X40.816 Y-45.112 Z-6.000 F600.000
G2 X42.891 Y-45.866 Z-6.000 I-1.722 J-7.971 K0.000 F600.000
G1 X30.596 Y-58.161 Z-6.000 F600.000
G3 X31.714 Y-59.871 Z-6.000 I7.185 J3.477 K0.000 F600.000
G1 X44.604 Y-46.981 Z-6.000 F600.000
G2 X45.988 Y-48.425 Z-6.000 I-5.447 J-6.605 K0.000 F600.000
G1 X33.156 Y-61.257 Z-6.000 F600.000
G3 X34.909 Y-62.332 Z-6.000 I4.972 J6.144 K0.000 F600.000
G1 X47.061 Y-50.180 Z-6.000 F600.000
G2 X47.748 Y-52.322 Z-6.000 I-7.927 J-3.721 K0.000 F600.000
G1 X37.055 Y-63.015 Z-6.000 F600.000
G3 X39.783 Y-63.116 Z-6.000 I1.677 J8.458 K0.000 F600.000
G1 X47.844 Y-55.054 Z-6.000 F600.000
G2 X45.258 Y-60.469 Z-6.000 I-9.028 J0.987 K0.000 F600.000
G0 Z5.000
G0 Z5.000
G0 X45.258 Y-60.469
G0 X57.415 Y-65.296
G0 X57.415 Y-65.296 Z3.000
G1 X57.415 Y-65.296 Z-2.000 F600.000
G1 X57.841 Y-62.769 Z-2.000 F600.000
G1 X59.311 Y-63.166 Z-2.000 F600.000
G1 X59.518 Y-63.193 Z-2.000 F600.000
G1 X57.415 Y-65.296 Z-2.000 F600.000
G1 X56.843 Y-68.697 Z-2.000 F600.000
G1 X65.885 Y-59.654 Z-2.000 F600.000
G1 X66.308 Y-62.060 Z-2.000 F600.000
G1 X58.196 Y-70.172 Z-2.000 F600.000
G1 X60.954 Y-70.243 Z-2.000 F600.000
G1 X66.731 Y-64.466 Z-2.000 F600.000
G3 X67.264 Y-65.289 Z-2.000 I1.035 J0.087 K0.000 F600.000
G3 X68.402 Y-65.623 Z-2.000 I2.037 J4.834 K0.000 F600.000
G1 X63.379 Y-70.646 Z-2.000 F600.000
G2 X63.507 Y-70.840 Z-2.000 I-0.325 J-0.354 K0.000 F600.000
G1 X66.014 Y-70.840 Z-2.000 F600.000
G1 X70.262 Y-66.591 Z-2.000 F600.000
G1 X69.227 Y-70.455 Z-2.000 F600.000
G1 X69.227 Y-70.455 Z-4.000 F600.000
G1 X70.262 Y-66.591 Z-4.000 F600.000
G1 X66.014 Y-70.840 Z-4.000 F600.000
G1 X63.507 Y-70.840 Z-4.000 F600.000
G3 X63.379 Y-70.646 Z-4.000 I-0.453 J-0.160 K0.000 F600.000
G1 X68.402 Y-65.623 Z-4.000 F600.000
G2 X67.264 Y-65.289 Z-4.000 I0.899 J5.168 K0.000 F600.000
G2 X66.731 Y-64.466 Z-4.000 I0.502 J0.910 K0.000 F600.000
G1 X60.954 Y-70.243 Z-4.000 F600.000
G1 X58.196 Y-70.172 Z-4.000 F600.000
G1 X66.308 Y-62.060 Z-4.000 F600.000
G1 X65.885 Y-59.654 Z-4.000 F600.000
G1 X56.843 Y-68.697 Z-4.000 F600.000
G1 X57.415 Y-65.296 Z-4.000 F600.000
G1 X59.518 Y-63.193 Z-4.000 F600.000
G1 X59.311 Y-63.166 Z-4.000 F600.000
G1 X57.841 Y-62.769 Z-4.000 F600.000
G1 X57.415 Y-65.296 Z-4.000 F600.000
G0 Z5.000
G0 X60.570 Y-62.142 Z5.000
G0 X60.570 Y-62.142 Z3.000
G1 X60.570 Y-62.142 Z-2.000 F600.000
G1 X65.463 Y-57.249 Z-2.000 F600.000
G1 X65.040 Y-54.843 Z-2.000 F600.000
G1 X59.887 Y-59.996 Z-2.000 F600.000
G1 X59.177 Y-57.878 Z-2.000 F600.000
G1 X64.617 Y-52.437 Z-2.000 F600.000
G1 X64.195 Y-50.031 Z-2.000 F600.000
G1 X58.466 Y-55.760 Z-2.000 F600.000
G1 X57.756 Y-53.642 Z-2.000 F600.000
G1 X63.772 Y-47.626 Z-2.000 F600.000
G1 X63.350 Y-45.220 Z-2.000 F600.000
G1 X57.045 Y-51.524 Z-2.000 F600.000
G1 X56.334 Y-49.406 Z-2.000 F600.000
G1 X62.927 Y-42.814 Z-2.000 F600.000
G1 X62.504 Y-40.408 Z-2.000 F600.000
G1 X55.624 Y-47.288 Z-2.000 F600.000
G1 X54.913 Y-45.171 Z-2.000 F600.000
G1 X62.082 Y-38.002 Z-2.000 F600.000
G1 X61.659 Y-35.597 Z-2.000 F600.000
G1 X54.203 Y-43.053 Z-2.000 F600.000
G1 X53.492 Y-40.935 Z-2.000 F600.000
G1 X61.236 Y-33.191 Z-2.000 F600.000
G1 X60.814 Y-30.785 Z-2.000 F600.000
G1 X52.782 Y-38.817 Z-2.000 F600.000
G1 X52.782 Y-38.817 Z-4.000 F600.000
G1 X60.814 Y-30.785 Z-4.000 F600.000
G1 X61.236 Y-33.191 Z-4.000 F600.000
G1 X53.492 Y-40.935 Z-4.000 F600.000
G1 X54.203 Y-43.053 Z-4.000 F600.000
G1 X61.659 Y-35.597 Z-4.000 F600.000
G1 X62.082 Y-38.002 Z-4.000 F600.000
G1 X54.913 Y-45.171 Z-4.000 F600.000
G1 X55.624 Y-47.288 Z-4.000 F600.000
G1 X62.504 Y-40.408 Z-4.000 F600.000
G1 X62.927 Y-42.814 Z-4.000 F600.000
G1 X56.334 Y-49.406 Z-4.000 F600.000
G1 X57.045 Y-51.524 Z-4.000 F600.000
G1 X63.350 Y-45.220 Z-4.000 F600.000
G1 X63.772 Y-47.626 Z-4.000 F600.000
G1 X57.756 Y-53.642 Z-4.000 F600.000
G1 X58.466 Y-55.760 Z-4.000 F600.000
G1 X64.195 Y-50.031 Z-4.000 F600.000
G1 X64.617 Y-52.437 Z-4.000 F600.000
G1 X59.177 Y-57.878 Z-4.000 F600.000
G1 X59.887 Y-59.996 Z-4.000 F600.000
G1 X65.040 Y-54.843 Z-4.000 F600.000
G1 X65.463 Y-57.249 Z-4.000 F600.000
G1 X60.570 Y-62.142 Z-4.000 F600.000
G0 Z5.000
G0 X76.058 Y-24.026 Z5.000
G0 X76.058 Y-24.026 Z3.000
G1 X76.058 Y-24.026 Z-2.000 F600.000
G1 X76.058 Y-24.729 Z-2.000 F600.000
G1 X75.136 Y-24.948 Z-2.000 F600.000
G1 X76.058 Y-24.026 Z-2.000 F600.000
G1 X76.058 Y-21.197 Z-2.000 F600.000
G1 X71.428 Y-25.828 Z-2.000 F600.000
G1 X67.719 Y-26.708 Z-2.000 F600.000
G1 X75.843 Y-18.584 Z-2.000 F600.000
G1 X72.816 Y-18.783 Z-2.000 F600.000
G1 X64.011 Y-27.588 Z-2.000 F600.000
G1 X61.320 Y-28.226 Z-2.000 F600.000
G3 X60.566 Y-29.372 Z-2.000 I0.231 J-0.973 K0.000 F600.000
G1 X60.814 Y-30.785 Z-2.000 F600.000
G1 X52.782 Y-38.817 Z-2.000 F600.000
G1 X52.071 Y-36.699 Z-2.000 F600.000
G1 X69.789 Y-18.981 Z-2.000 F600.000
G1 X66.762 Y-19.180 Z-2.000 F600.000
G1 X51.361 Y-34.581 Z-2.000 F600.000
G1 X50.650 Y-32.463 Z-2.000 F600.000
G1 X63.735 Y-19.378 Z-2.000 F600.000
G1 X60.708 Y-19.577 Z-2.000 F600.000
G1 X49.179 Y-31.106 Z-2.000 F600.000
G1 X45.579 Y-31.877 Z-2.000 F600.000
G1 X58.700 Y-18.756 Z-2.000 F600.000
G1 X58.278 Y-16.350 Z-2.000 F600.000
G1 X41.979 Y-32.649 Z-2.000 F600.000
G1 X38.379 Y-33.421 Z-2.000 F600.000
G1 X57.855 Y-13.944 Z-2.000 F600.000
G1 X57.433 Y-11.539 Z-2.000 F600.000
G1 X34.779 Y-34.192 Z-2.000 F600.000
G1 X31.179 Y-34.964 Z-2.000 F600.000
G1 X57.010 Y-9.133 Z-2.000 F600.000
G1 X56.646 Y-7.064 Z-2.000 F600.000
G1 X56.177 Y-7.138 Z-2.000 F600.000
G1 X45.219 Y-18.095 Z-2.000 F600.000
G1 X44.440 Y-16.046 Z-2.000 F600.000
G1 X52.818 Y-7.668 Z-2.000 F600.000
G1 X49.459 Y-8.198 Z-2.000 F600.000
G1 X43.661 Y-13.997 Z-2.000 F600.000
G1 X42.881 Y-11.948 Z-2.000 F600.000
G1 X46.100 Y-8.729 Z-2.000 F600.000
G1 X42.742 Y-9.259 Z-2.000 F600.000
G1 X42.102 Y-9.899 Z-2.000 F600.000
G1 X41.909 Y-9.391 Z-2.000 F600.000
G1 X42.742 Y-9.259 Z-2.000 F600.000
G1 X42.742 Y-9.259 Z-4.000 F600.000
G1 X41.909 Y-9.391 Z-4.000 F600.000
G1 X42.102 Y-9.899 Z-4.000 F600.000
G1 X42.742 Y-9.259 Z-4.000 F600.000
G1 X46.100 Y-8.729 Z-4.000 F600.000
G1 X42.881 Y-11.948 Z-4.000 F600.000
G1 X43.661 Y-13.997 Z-4.000 F600.000
G1 X49.459 Y-8.198 Z-4.000 F600.000
G1 X52.818 Y-7.668 Z-4.000 F600.000
G1 X44.440 Y-16.046 Z-4.000 F600.000
G1 X45.219 Y-18.095 Z-4.000 F600.000
G1 X56.177 Y-7.138 Z-4.000 F600.000
G1 X56.646 Y-7.064 Z-4.000 F600.000
G1 X57.010 Y-9.133 Z-4.000 F600.000
G1 X31.179 Y-34.964 Z-4.000 F600.000
G1 X34.779 Y-34.192 Z-4.000 F600.000
G1 X57.433 Y-11.539 Z-4.000 F600.000
G1 X57.855 Y-13.944 Z-4.000 F600.000
G1 X38.379 Y-33.421 Z-4.000 F600.000
G1 X41.979 Y-32.649 Z-4.000 F600.000
G1 X58.278 Y-16.350 Z-4.000 F600.000
G1 X58.700 Y-18.756 Z-4.000 F600.000
G1 X45.579 Y-31.877 Z-4.000 F600.000
G1 X49.179 Y-31.106 Z-4.000 F600.000
G1 X60.708 Y-19.577 Z-4.000 F600.000
G1 X63.735 Y-19.378 Z-4.000 F600.000
G1 X50.650 Y-32.463 Z-4.000 F600.000
G1 X51.361 Y-34.581 Z-4.000 F600.000
G1 X66.762 Y-19.180 Z-4.000 F600.000
G1 X69.789 Y-18.981 Z-4.000 F600.000
G1 X52.071 Y-36.699 Z-4.000 F600.000
G1 X52.782 Y-38.817 Z-4.000 F600.000
G1 X60.814 Y-30.785 Z-4.000 F600.000
G1 X60.566 Y-29.372 Z-4.000 F600.000
G2 X61.320 Y-28.226 Z-4.000 I0.985 J0.173 K0.000 F600.000
G1 X64.011 Y-27.588 Z-4.000 F600.000
G1 X72.816 Y-18.783 Z-4.000 F600.000
G1 X75.843 Y-18.584 Z-4.000 F600.000
G1 X67.719 Y-26.708 Z-4.000 F600.000
G1 X71.428 Y-25.828 Z-4.000 F600.000
G1 X76.058 Y-21.197 Z-4.000 F600.000
G1 X76.058 Y-24.026 Z-4.000 F600.000
G1 X75.136 Y-24.948 Z-4.000 F600.000
G1 X76.058 Y-24.729 Z-4.000 F600.000
G1 X76.058 Y-24.026 Z-4.000 F600.000
G0 Z5.000
G0 X42.564 Y-20.751 Z5.000
G0 X42.564 Y-20.751 Z3.000
G1 X42.564 Y-20.751 Z-2.000 F600.000
G1 X27.579 Y-35.736 Z-2.000 F600.000
G1 X23.979 Y-36.507 Z-2.000 F600.000
G1 X39.559 Y-20.927 Z-2.000 F600.000
G1 X36.555 Y-21.102 Z-2.000 F600.000
G1 X22.534 Y-35.124 Z-2.000 F600.000
G1 X22.265 Y-32.565 Z-2.000 F600.000
G1 X33.551 Y-21.278 Z-2.000 F600.000
G1 X30.547 Y-21.453 Z-2.000 F600.000
G1 X21.995 Y-30.005 Z-2.000 F600.000
G1 X21.726 Y-27.446 Z-2.000 F600.000
G1 X27.543 Y-21.629 Z-2.000 F600.000
G1 X24.539 Y-21.805 Z-2.000 F600.000
G1 X21.457 Y-24.887 Z-2.000 F600.000
G1 X21.187 Y-22.328 Z-2.000 F600.000
G1 X21.535 Y-21.980 Z-2.000 F600.000
G1 X21.153 Y-22.003 Z-2.000 F600.000
G1 X22.708 Y-36.779 Z-2.000 F600.000
G1 X49.253 Y-31.090 Z-2.000 F600.000
G2 X50.411 Y-31.750 Z-2.000 I0.210 J-0.978 K0.000 F600.000
G1 X60.520 Y-61.883 Z-2.000 F600.000
G2 X59.311 Y-63.166 Z-2.000 I-0.948 J-0.318 K0.000 F600.000
G1 X57.841 Y-62.769 Z-2.000 F600.000
G1 X56.601 Y-70.132 Z-2.000 F600.000
G1 X62.646 Y-70.286 Z-2.000 F600.000
G2 X63.507 Y-70.840 Z-2.000 I-0.010 J-0.963 K0.000 F600.000
G1 X68.188 Y-70.840 Z-2.000 F600.000
G2 X69.227 Y-70.455 Z-2.000 I0.842 J-0.679 K0.000 F600.000
G1 X70.379 Y-66.157 Z-2.000 F600.000
G1 X67.475 Y-65.372 Z-2.000 F600.000
G2 X66.751 Y-64.580 Z-2.000 I0.261 J0.965 K0.000 F600.000
G1 X60.566 Y-29.372 Z-2.000 F600.000
G2 X61.320 Y-28.226 Z-2.000 I0.985 J0.173 K0.000 F600.000
G1 X76.058 Y-24.729 Z-2.000 F600.000
G1 X76.058 Y-18.570 Z-2.000 F600.000
G1 X59.761 Y-19.639 Z-2.000 F600.000
G2 X58.711 Y-18.814 Z-2.000 I-0.065 J0.998 K0.000 F600.000
G1 X56.646 Y-7.064 Z-2.000 F600.000
G1 X41.909 Y-9.391 Z-2.000 F600.000
G1 X45.665 Y-19.267 Z-2.000 F600.000
G2 X44.789 Y-20.621 Z-2.000 I-0.935 J-0.355 K0.000 F600.000
G1 X21.153 Y-22.003 Z-2.000 F600.000
G1 X21.187 Y-22.328 Z-2.000 F600.000
G1 X21.187 Y-22.328 Z-4.000 F600.000
G1 X21.153 Y-22.003 Z-4.000 F600.000
G1 X44.789 Y-20.621 Z-4.000 F600.000
G3 X45.665 Y-19.267 Z-4.000 I-0.058 J0.998 K0.000 F600.000
G1 X41.909 Y-9.391 Z-4.000 F600.000
G1 X56.646 Y-7.064 Z-4.000 F600.000
G1 X58.711 Y-18.814 Z-4.000 F600.000
G3 X59.761 Y-19.639 Z-4.000 I0.985 J0.173 K0.000 F600.000
G1 X76.058 Y-18.570 Z-4.000 F600.000
G1 X76.058 Y-24.729 Z-4.000 F600.000
G1 X61.320 Y-28.226 Z-4.000 F600.000
G3 X60.566 Y-29.372 Z-4.000 I0.231 J-0.973 K0.000 F600.000
G1 X66.751 Y-64.580 Z-4.000 F600.000
G3 X67.475 Y-65.372 Z-4.000 I0.985 J0.173 K0.000 F600.000
G1 X70.379 Y-66.157 Z-4.000 F600.000
G1 X69.227 Y-70.455 Z-4.000 F600.000
G3 X68.188 Y-70.840 Z-4.000 I-0.197 J-1.064 K0.000 F600.000
G1 X63.507 Y-70.840 Z-4.000 F600.000
G3 X62.646 Y-70.286 Z-4.000 I-0.872 J-0.410 K0.000 F600.000
G1 X56.601 Y-70.132 Z-4.000 F600.000
G1 X57.841 Y-62.769 Z-4.000 F600.000
G1 X59.311 Y-63.166 Z-4.000 F600.000
G3 X60.520 Y-61.883 Z-4.000 I0.261 J0.965 K0.000 F600.000
G1 X50.411 Y-31.750 Z-4.000 F600.000
G3 X49.253 Y-31.090 Z-4.000 I-0.948 J-0.318 K0.000 F600.000
G1 X22.708 Y-36.779 Z-4.000 F600.000
G1 X21.153 Y-22.003 Z-4.000 F600.000
G1 X21.535 Y-21.980 Z-4.000 F600.000
G1 X21.187 Y-22.328 Z-4.000 F600.000
G1 X21.457 Y-24.887 Z-4.000 F600.000
G1 X24.539 Y-21.805 Z-4.000 F600.000
G1 X27.543 Y-21.629 Z-4.000 F600.000
G1 X21.726 Y-27.446 Z-4.000 F600.000
G1 X21.995 Y-30.005 Z-4.000 F600.000
G1 X30.547 Y-21.453 Z-4.000 F600.000
G1 X33.551 Y-21.278 Z-4.000 F600.000
G1 X22.265 Y-32.565 Z-4.000 F600.000
G1 X22.534 Y-35.124 Z-4.000 F600.000
G1 X36.555 Y-21.102 Z-4.000 F600.000
G1 X39.559 Y-20.927 Z-4.000 F600.000
G1 X23.979 Y-36.507 Z-4.000 F600.000
G1 X27.579 Y-35.736 Z-4.000 F600.000
G1 X42.564 Y-20.751 Z-4.000 F600.000
G1 X42.564 Y-20.751 Z-6.000 F600.000
G1 X27.579 Y-35.736 Z-6.000 F600.000
G1 X23.979 Y-36.507 Z-6.000 F600.000
G1 X39.559 Y-20.927 Z-6.000 F600.000
G1 X36.555 Y-21.102 Z-6.000 F600.000
G1 X22.534 Y-35.124 Z-6.000 F600.000
G1 X22.265 Y-32.565 Z-6.000 F600.000
G1 X33.551 Y-21.278 Z-6.000 F600.000
G1 X30.547 Y-21.453 Z-6.000 F600.000
G1 X21.995 Y-30.005 Z-6.000 F600.000
G1 X21.726 Y-27.446 Z-6.000 F600.000
G1 X27.543 Y-21.629 Z-6.000 F600.000
G1 X24.539 Y-21.805 Z-6.000 F600.000
G1 X21.457 Y-24.887 Z-6.000 F600.000
G1 X21.187 Y-22.328 Z-6.000 F600.000
G1 X21.535 Y-21.980 Z-6.000 F600.000
G1 X21.153 Y-22.003 Z-6.000 F600.000
G1 X22.708 Y-36.779 Z-6.000 F600.000
G1 X49.253 Y-31.090 Z-6.000 F600.000
G2 X50.411 Y-31.750 Z-6.000 I0.210 J-0.978 K0.000 F600.000
G1 X60.520 Y-61.883 Z-6.000 F600.000
G2 X59.311 Y-63.166 Z-6.000 I-0.948 J-0.318 K0.000 F600.000
G1 X57.841 Y-62.769 Z-6.000 F600.000
G1 X56.601 Y-70.132 Z-6.000 F600.000
G1 X62.646 Y-70.286 Z-6.000 F600.000
G2 X63.507 Y-70.840 Z-6.000 I-0.010 J-0.963 K0.000 F600.000
G1 X68.188 Y-70.840 Z-6.000 F600.000
G2 X69.227 Y-70.455 Z-6.000 I0.842 J-0.679 K0.000 F600.000
G1 X70.379 Y-66.157 Z-6.000 F600.000
G1 X67.475 Y-65.372 Z-6.000 F600.000
G2 X66.751 Y-64.580 Z-6.000 I0.261 J0.965 K0.000 F600.000
G1 X60.566 Y-29.372 Z-6.000 F600.000
G2 X61.320 Y-28.226 Z-6.000 I0.985 J0.173 K0.000 F600.000
G1 X76.058 Y-24.729 Z-6.000 F600.000
G1 X76.058 Y-18.570 Z-6.000 F600.000
G1 X59.761 Y-19.639 Z-6.000 F600.000
G2 X58.711 Y-18.814 Z-6.000 I-0.065 J0.998 K0.000 F600.000
G1 X56.646 Y-7.064 Z-6.000 F600.000
G1 X41.909 Y-9.391 Z-6.000 F600.000
G1 X45.665 Y-19.267 Z-6.000 F600.000
G2 X44.789 Y-20.621 Z-6.000 I-0.935 J-0.355 K0.000 F600.000
G1 X21.153 Y-22.003 Z-6.000 F600.000
G1 X21.187 Y-22.328 Z-6.000 F600.000
G0 Z5.000
G0 X42.742 Y-9.259 Z5.000
G0 X42.742 Y-9.259 Z3.000
G1 X42.742 Y-9.259 Z-6.000 F600.000
G1 X41.909 Y-9.391 Z-6.000 F600.000
G1 X42.102 Y-9.899 Z-6.000 F600.000
G1 X42.742 Y-9.259 Z-6.000 F600.000
G1 X46.100 Y-8.729 Z-6.000 F600.000
G1 X42.881 Y-11.948 Z-6.000 F600.000
G1 X43.661 Y-13.997 Z-6.000 F600.000
G1 X49.459 Y-8.198 Z-6.000 F600.000
G1 X52.818 Y-7.668 Z-6.000 F600.000
G1 X44.440 Y-16.046 Z-6.000 F600.000
G1 X45.219 Y-18.095 Z-6.000 F600.000
G1 X56.177 Y-7.138 Z-6.000 F600.000
G1 X56.646 Y-7.064 Z-6.000 F600.000
G1 X57.010 Y-9.133 Z-6.000 F600.000
G1 X31.179 Y-34.964 Z-6.000 F600.000
G1 X34.779 Y-34.192 Z-6.000 F600.000
G1 X57.433 Y-11.539 Z-6.000 F600.000
G1 X57.855 Y-13.944 Z-6.000 F600.000
G1 X38.379 Y-33.421 Z-6.000 F600.000
G1 X41.979 Y-32.649 Z-6.000 F600.000
G1 X58.278 Y-16.350 Z-6.000 F600.000
G1 X58.700 Y-18.756 Z-6.000 F600.000
G1 X45.579 Y-31.877 Z-6.000 F600.000
G1 X49.179 Y-31.106 Z-6.000 F600.000
G1 X60.708 Y-19.577 Z-6.000 F600.000
G1 X63.735 Y-19.378 Z-6.000 F600.000
G1 X50.650 Y-32.463 Z-6.000 F600.000
G1 X51.361 Y-34.581 Z-6.000 F600.000
G1 X66.762 Y-19.180 Z-6.000 F600.000
G1 X69.789 Y-18.981 Z-6.000 F600.000
G1 X52.071 Y-36.699 Z-6.000 F600.000
G1 X52.782 Y-38.817 Z-6.000 F600.000
G1 X60.814 Y-30.785 Z-6.000 F600.000
G1 X60.566 Y-29.372 Z-6.000 F600.000
G2 X61.320 Y-28.226 Z-6.000 I0.985 J0.173 K0.000 F600.000
G1 X64.011 Y-27.588 Z-6.000 F600.000
G1 X72.816 Y-18.783 Z-6.000 F600.000
G1 X75.843 Y-18.584 Z-6.000 F600.000
G1 X67.719 Y-26.708 Z-6.000 F600.000
G1 X71.428 Y-25.828 Z-6.000 F600.000
G1 X76.058 Y-21.197 Z-6.000 F600.000
G1 X76.058 Y-24.026 Z-6.000 F600.000
G1 X75.136 Y-24.948 Z-6.000 F600.000
G1 X76.058 Y-24.729 Z-6.000 F600.000
G1 X76.058 Y-24.026 Z-6.000 F600.000
G0 Z5.000
G0 X52.782 Y-38.817 Z5.000
G0 X52.782 Y-38.817 Z3.000
G1 X52.782 Y-38.817 Z-6.000 F600.000
G1 X60.814 Y-30.785 Z-6.000 F600.000
G1 X61.236 Y-33.191 Z-6.000 F600.000
G1 X53.492 Y-40.935 Z-6.000 F600.000
G1 X54.203 Y-43.053 Z-6.000 F600.000
G1 X61.659 Y-35.597 Z-6.000 F600.000
G1 X62.082 Y-38.002 Z-6.000 F600.000
G1 X54.913 Y-45.171 Z-6.000 F600.000
G1 X55.624 Y-47.288 Z-6.000 F600.000
G1 X62.504 Y-40.408 Z-6.000 F600.000
G1 X62.927 Y-42.814 Z-6.000 F600.000
G1 X56.334 Y-49.406 Z-6.000 F600.000
G1 X57.045 Y-51.524 Z-6.000 F600.000
G1 X63.350 Y-45.220 Z-6.000 F600.000
G1 X63.772 Y-47.626 Z-6.000 F600.000
G1 X57.756 Y-53.642 Z-6.000 F600.000
G1 X58.466 Y-55.760 Z-6.000 F600.000
G1 X64.195 Y-50.031 Z-6.000 F600.000
G1 X64.617 Y-52.437 Z-6.000 F600.000
G1 X59.177 Y-57.878 Z-6.000 F600.000
G1 X59.887 Y-59.996 Z-6.000 F600.000
G1 X65.040 Y-54.843 Z-6.000 F600.000
G1 X65.463 Y-57.249 Z-6.000 F600.000
G1 X60.570 Y-62.142 Z-6.000 F600.000
G0 Z5.000
G0 X57.415 Y-65.296 Z5.000
G0 X57.415 Y-65.296 Z3.000
G1 X57.415 Y-65.296 Z-6.000 F600.000
G1 X57.841 Y-62.769 Z-6.000 F600.000
G1 X59.311 Y-63.166 Z-6.000 F600.000
G1 X59.518 Y-63.193 Z-6.000 F600.000
G1 X57.415 Y-65.296 Z-6.000 F600.000
G1 X56.843 Y-68.697 Z-6.000 F600.000
G1 X65.885 Y-59.654 Z-6.000 F600.000
G1 X66.308 Y-62.060 Z-6.000 F600.000
G1 X58.196 Y-70.172 Z-6.000 F600.000
G1 X60.954 Y-70.243 Z-6.000 F600.000
G1 X66.731 Y-64.466 Z-6.000 F600.000
G3 X67.264 Y-65.289 Z-6.000 I1.035 J0.087 K0.000 F600.000
G3 X68.402 Y-65.623 Z-6.000 I2.037 J4.834 K0.000 F600.000
G1 X63.379 Y-70.646 Z-6.000 F600.000
G2 X63.507 Y-70.840 Z-6.000 I-0.325 J-0.354 K0.000 F600.000
G1 X66.014 Y-70.840 Z-6.000 F600.000
G1 X70.262 Y-66.591 Z-6.000 F600.000
G1 X69.227 Y-70.455 Z-6.000 F600.000
G0 Z5.000
G0 Z5.000
G0 X69.227 Y-70.455
G0 X70.714 Y5.767
G0 X70.714 Y5.767 Z3.000
G1 X70.714 Y5.767 Z-2.000 F600.000
G1 X70.714 Y8.595 Z-2.000 F600.000
G1 X67.885 Y5.767 Z-2.000 F600.000
G1 X65.057 Y5.767 Z-2.000 F600.000
G1 X70.714 Y11.424 Z-2.000 F600.000
G1 X70.714 Y14.252 Z-2.000 F600.000
G1 X64.422 Y7.961 Z-2.000 F600.000
G1 X65.075 Y11.442 Z-2.000 F600.000
G1 X70.714 Y17.081 Z-2.000 F600.000
G1 X70.714 Y19.909 Z-2.000 F600.000
G1 X65.728 Y14.923 Z-2.000 F600.000
G1 X66.380 Y18.404 Z-2.000 F600.000
G1 X70.714 Y22.737 Z-2.000 F600.000
G1 X70.714 Y25.566 Z-2.000 F600.000
G1 X67.033 Y21.885 Z-2.000 F600.000
G1 X67.686 Y25.366 Z-2.000 F600.000
G1 X70.714 Y28.394 Z-2.000 F600.000
G1 X70.714 Y31.223 Z-2.000 F600.000
G1 X67.530 Y28.039 Z-2.000 F600.000
G3 X67.042 Y28.187 Z-2.000 I-0.514 J-0.814 K0.000 F600.000
G1 X64.918 Y28.256 Z-2.000 F600.000
G1 X70.714 Y34.051 Z-2.000 F600.000
G1 X70.714 Y36.879 Z-2.000 F600.000
G1 X62.178 Y28.344 Z-2.000 F600.000
G1 X59.438 Y28.433 Z-2.000 F600.000
G1 X69.263 Y38.257 Z-2.000 F600.000
G1 X66.120 Y37.943 Z-2.000 F600.000
G1 X56.698 Y28.521 Z-2.000 F600.000
G1 X53.958 Y28.609 Z-2.000 F600.000
G1 X62.977 Y37.628 Z-2.000 F600.000
G1 X59.835 Y37.314 Z-2.000 F600.000
G1 X51.218 Y28.698 Z-2.000 F600.000
G1 X48.478 Y28.786 Z-2.000 F600.000
G1 X56.692 Y37.000 Z-2.000 F600.000
G1 X53.549 Y36.686 Z-2.000 F600.000
G1 X45.635 Y28.772 Z-2.000 F600.000
G3 X45.137 Y28.273 Z-2.000 I0.335 J-0.833 K0.000 F600.000
G1 X34.349 Y17.485 Z-2.000 F600.000
G1 X35.812 Y21.777 Z-2.000 F600.000
G1 X50.406 Y36.371 Z-2.000 F600.000
G1 X47.264 Y36.057 Z-2.000 F600.000
G1 X37.275 Y26.068 Z-2.000 F600.000
G1 X38.738 Y30.359 Z-2.000 F600.000
G1 X45.458 Y37.080 Z-2.000 F600.000
G1 X45.593 Y40.043 Z-2.000 F600.000
G1 X40.201 Y34.651 Z-2.000 F600.000
G1 X40.201 Y34.651 Z-4.000 F600.000
G1 X45.593 Y40.043 Z-4.000 F600.000
G1 X45.458 Y37.080 Z-4.000 F600.000
G1 X38.738 Y30.359 Z-4.000 F600.000
G1 X37.275 Y26.068 Z-4.000 F600.000
G1 X47.264 Y36.057 Z-4.000 F600.000
G1 X50.406 Y36.371 Z-4.000 F600.000
G1 X35.812 Y21.777 Z-4.000 F600.000
G1 X34.349 Y17.485 Z-4.000 F600.000
G1 X45.137 Y28.273 Z-4.000 F600.000
G2 X45.635 Y28.772 Z-4.000 I0.833 J-0.335 K0.000 F600.000
G1 X53.549 Y36.686 Z-4.000 F600.000
G1 X56.692 Y37.000 Z-4.000 F600.000
G1 X48.478 Y28.786 Z-4.000 F600.000
G1 X51.218 Y28.698 Z-4.000 F600.000
G1 X59.835 Y37.314 Z-4.000 F600.000
G1 X62.977 Y37.628 Z-4.000 F600.000
G1 X53.958 Y28.609 Z-4.000 F600.000
G1 X56.698 Y28.521 Z-4.000 F600.000
G1 X66.120 Y37.943 Z-4.000 F600.000
G1 X69.263 Y38.257 Z-4.000 F600.000
G1 X59.438 Y28.433 Z-4.000 F600.000
G1 X62.178 Y28.344 Z-4.000 F600.000
G1 X70.714 Y36.879 Z-4.000 F600.000
G1 X70.714 Y34.051 Z-4.000 F600.000
G1 X64.918 Y28.256 Z-4.000 F600.000
G1 X67.042 Y28.187 Z-4.000 F600.000
G2 X67.530 Y28.039 Z-4.000 I-0.026 J-0.963 K0.000 F600.000
G1 X70.714 Y31.223 Z-4.000 F600.000
G1 X70.714 Y28.394 Z-4.000 F600.000
G1 X67.686 Y25.366 Z-4.000 F600.000
G1 X67.033 Y21.885 Z-4.000 F600.000
G1 X70.714 Y25.566 Z-4.000 F600.000
G1 X70.714 Y22.737 Z-4.000 F600.000
G1 X66.380 Y18.404 Z-4.000 F600.000
G1 X65.728 Y14.923 Z-4.000 F600.000
G1 X70.714 Y19.909 Z-4.000 F600.000
G1 X70.714 Y17.081 Z-4.000 F600.000
G1 X65.075 Y11.442 Z-4.000 F600.000
G1 X64.422 Y7.961 Z-4.000 F600.000
G1 X70.714 Y14.252 Z-4.000 F600.000
G1 X70.714 Y11.424 Z-4.000 F600.000
G1 X65.057 Y5.767 Z-4.000 F600.000
G1 X67.885 Y5.767 Z-4.000 F600.000
G1 X70.714 Y8.595 Z-4.000 F600.000
G1 X70.714 Y5.767 Z-4.000 F600.000
G0 Z5.000
G0 X44.111 Y7.449 Z5.000
G0 X44.111 Y7.449 Z3.000
G1 X44.111 Y7.449 Z-2.000 F600.000
G1 X44.035 Y5.767 Z-2.000 F600.000
G1 X42.429 Y5.767 Z-2.000 F600.000
G1 X44.111 Y7.449 Z-2.000 F600.000
G1 X44.246 Y10.412 Z-2.000 F600.000
G1 X39.601 Y5.767 Z-2.000 F600.000
G1 X36.773 Y5.767 Z-2.000 F600.000
G1 X44.381 Y13.375 Z-2.000 F600.000
G1 X44.515 Y16.338 Z-2.000 F600.000
G1 X33.944 Y5.767 Z-2.000 F600.000
G1 X31.116 Y5.767 Z-2.000 F600.000
G1 X44.650 Y19.301 Z-2.000 F600.000
G1 X44.785 Y22.264 Z-2.000 F600.000
G1 X31.423 Y8.902 Z-2.000 F600.000
G1 X32.886 Y13.194 Z-2.000 F600.000
G1 X44.919 Y25.227 Z-2.000 F600.000
G1 X45.041 Y27.910 Z-2.000 F600.000
G2 X45.137 Y28.273 Z-2.000 I0.732 J0.002 K0.000 F600.000
G1 X34.349 Y17.485 Z-2.000 F600.000
G1 X34.349 Y17.485 Z-4.000 F600.000
G1 X45.137 Y28.273 Z-4.000 F600.000
G3 X45.041 Y27.910 Z-4.000 I0.637 J-0.362 K0.000 F600.000
G1 X44.919 Y25.227 Z-4.000 F600.000
G1 X32.886 Y13.194 Z-4.000 F600.000
G1 X31.423 Y8.902 Z-4.000 F600.000
G1 X44.785 Y22.264 Z-4.000 F600.000
G1 X44.650 Y19.301 Z-4.000 F600.000
G1 X31.116 Y5.767 Z-4.000 F600.000
G1 X33.944 Y5.767 Z-4.000 F600.000
G1 X44.515 Y16.338 Z-4.000 F600.000
G1 X44.381 Y13.375 Z-4.000 F600.000
G1 X36.773 Y5.767 Z-4.000 F600.000
G1 X39.601 Y5.767 Z-4.000 F600.000
G1 X44.246 Y10.412 Z-4.000 F600.000
G1 X44.111 Y7.449 Z-4.000 F600.000
G1 X42.429 Y5.767 Z-4.000 F600.000
G1 X44.035 Y5.767 Z-4.000 F600.000
G1 X44.111 Y7.449 Z-4.000 F600.000
G0 Z5.000
G0 X22.025 Y47.588 Z5.000
G0 X22.025 Y47.588 Z3.000
G1 X22.025 Y47.588 Z-2.000 F600.000
G1 X21.583 Y48.472 Z-2.000 F600.000
G1 X74.548 Y54.452 Z-2.000 F600.000
G1 X75.812 Y50.029 Z-2.000 F600.000
G1 X46.437 Y42.814 Z-2.000 F600.000
G3 X45.677 Y41.889 Z-2.000 I0.239 J-0.971 K0.000 F600.000
G1 X45.456 Y37.027 Z-2.000 F600.000
G3 X46.554 Y35.986 Z-2.000 I0.999 J-0.045 K0.000 F600.000
G1 X70.714 Y38.402 Z-2.000 F600.000
G1 X70.714 Y5.767 Z-2.000 F600.000
G1 X64.011 Y5.767 Z-2.000 F600.000
G1 X67.993 Y27.004 Z-2.000 F600.000
G3 X67.042 Y28.187 Z-2.000 I-0.983 J0.184 K0.000 F600.000
G1 X46.073 Y28.864 Z-2.000 F600.000
G3 X45.041 Y27.910 Z-2.000 I-0.032 J-0.999 K0.000 F600.000
G1 X44.035 Y5.767 Z-2.000 F600.000
G1 X30.354 Y5.767 Z-2.000 F600.000
G1 X42.078 Y40.159 Z-2.000 F600.000
G3 X40.893 Y41.453 Z-2.000 I-0.947 J0.323 K0.000 F600.000
G1 X26.821 Y37.996 Z-2.000 F600.000
G1 X21.583 Y48.472 Z-2.000 F600.000
G1 X23.078 Y48.641 Z-2.000 F600.000
G1 X22.025 Y47.588 Z-2.000 F600.000
G1 X22.968 Y45.703 Z-2.000 F600.000
G1 X26.267 Y49.001 Z-2.000 F600.000
G1 X29.455 Y49.361 Z-2.000 F600.000
G1 X23.911 Y43.817 Z-2.000 F600.000
G1 X24.854 Y41.931 Z-2.000 F600.000
G1 X32.644 Y49.721 Z-2.000 F600.000
G1 X35.832 Y50.081 Z-2.000 F600.000
G1 X25.797 Y40.046 Z-2.000 F600.000
G1 X26.739 Y38.160 Z-2.000 F600.000
G1 X39.020 Y50.441 Z-2.000 F600.000
G1 X42.209 Y50.801 Z-2.000 F600.000
G1 X30.245 Y38.837 Z-2.000 F600.000
G1 X33.994 Y39.758 Z-2.000 F600.000
G1 X45.397 Y51.161 Z-2.000 F600.000
G1 X48.586 Y51.521 Z-2.000 F600.000
G1 X37.744 Y40.679 Z-2.000 F600.000
G1 X40.893 Y41.453 Z-2.000 F600.000
G2 X41.344 Y41.451 Z-2.000 I0.223 J-0.823 K0.000 F600.000
G1 X51.774 Y51.881 Z-2.000 F600.000
G1 X54.963 Y52.241 Z-2.000 F600.000
G1 X41.664 Y38.942 Z-2.000 F600.000
G1 X40.201 Y34.651 Z-2.000 F600.000
G1 X45.593 Y40.043 Z-2.000 F600.000
G1 X45.677 Y41.889 Z-2.000 F600.000
G2 X46.437 Y42.814 Z-2.000 I0.999 J-0.045 K0.000 F600.000
G1 X48.992 Y43.442 Z-2.000 F600.000
G1 X58.151 Y52.601 Z-2.000 F600.000
G1 X61.339 Y52.961 Z-2.000 F600.000
G1 X52.741 Y44.363 Z-2.000 F600.000
G1 X56.490 Y45.283 Z-2.000 F600.000
G1 X64.528 Y53.321 Z-2.000 F600.000
G1 X67.716 Y53.681 Z-2.000 F600.000
G1 X60.239 Y46.204 Z-2.000 F600.000
G1 X63.989 Y47.125 Z-2.000 F600.000
G1 X70.905 Y54.041 Z-2.000 F600.000
G1 X74.093 Y54.401 Z-2.000 F600.000
G1 X67.738 Y48.046 Z-2.000 F600.000
G1 X71.487 Y48.967 Z-2.000 F600.000
G1 X75.087 Y52.566 Z-2.000 F600.000
G1 X75.715 Y50.366 Z-2.000 F600.000
G1 X75.237 Y49.888 Z-2.000 F600.000
G1 X75.812 Y50.029 Z-2.000 F600.000
G1 X75.715 Y50.366 Z-2.000 F600.000
G1 X75.715 Y50.366 Z-4.000 F600.000
G1 X75.812 Y50.029 Z-4.000 F600.000
G1 X75.237 Y49.888 Z-4.000 F600.000
G1 X75.715 Y50.366 Z-4.000 F600.000
G1 X75.087 Y52.566 Z-4.000 F600.000
G1 X71.487 Y48.967 Z-4.000 F600.000
G1 X67.738 Y48.046 Z-4.000 F600.000
G1 X74.093 Y54.401 Z-4.000 F600.000
G1 X70.905 Y54.041 Z-4.000 F600.000
G1 X63.989 Y47.125 Z-4.000 F600.000
G1 X60.239 Y46.204 Z-4.000 F600.000
G1 X67.716 Y53.681 Z-4.000 F600.000
G1 X64.528 Y53.321 Z-4.000 F600.000
G1 X56.490 Y45.283 Z-4.000 F600.000
G1 X52.741 Y44.363 Z-4.000 F600.000
G1 X61.339 Y52.961 Z-4.000 F600.000
G1 X58.151 Y52.601 Z-4.000 F600.000
G1 X48.992 Y43.442 Z-4.000 F600.000
G1 X46.437 Y42.814 Z-4.000 F600.000
G3 X45.677 Y41.889 Z-4.000 I0.239 J-0.971 K0.000 F600.000
G1 X45.593 Y40.043 Z-4.000 F600.000
G1 X40.201 Y34.651 Z-4.000 F600.000
G1 X41.664 Y38.942 Z-4.000 F600.000
G1 X54.963 Y52.241 Z-4.000 F600.000
G1 X51.774 Y51.881 Z-4.000 F600.000
G1 X41.344 Y41.451 Z-4.000 F600.000
G3 X40.893 Y41.453 Z-4.000 I-0.228 J-0.822 K0.000 F600.000
G1 X37.744 Y40.679 Z-4.000 F600.000
G1 X48.586 Y51.521 Z-4.000 F600.000
G1 X45.397 Y51.161 Z-4.000 F600.000
G1 X33.994 Y39.758 Z-4.000 F600.000
G1 X30.245 Y38.837 Z-4.000 F600.000
G1 X42.209 Y50.801 Z-4.000 F600.000
G1 X39.020 Y50.441 Z-4.000 F600.000
G1 X26.739 Y38.160 Z-4.000 F600.000
G1 X25.797 Y40.046 Z-4.000 F600.000
G1 X35.832 Y50.081 Z-4.000 F600.000
G1 X32.644 Y49.721 Z-4.000 F600.000
G1 X24.854 Y41.931 Z-4.000 F600.000
G1 X23.911 Y43.817 Z-4.000 F600.000
G1 X29.455 Y49.361 Z-4.000 F600.000
G1 X26.267 Y49.001 Z-4.000 F600.000
G1 X22.968 Y45.703 Z-4.000 F600.000
G1 X22.025 Y47.588 Z-4.000 F600.000
G1 X23.078 Y48.641 Z-4.000 F600.000
G1 X21.583 Y48.472 Z-4.000 F600.000
G1 X26.821 Y37.996 Z-4.000 F600.000
G1 X40.893 Y41.453 Z-4.000 F600.000
G2 X42.078 Y40.159 Z-4.000 I0.239 J-0.971 K0.000 F600.000
G1 X30.354 Y5.767 Z-4.000 F600.000
G1 X44.035 Y5.767 Z-4.000 F600.000
G1 X45.041 Y27.910 Z-4.000 F600.000
G2 X46.073 Y28.864 Z-4.000 I0.999 J-0.045 K0.000 F600.000
G1 X67.042 Y28.187 Z-4.000 F600.000
G2 X67.993 Y27.004 Z-4.000 I-0.032 J-0.999 K0.000 F600.000
G1 X64.011 Y5.767 Z-4.000 F600.000
G1 X70.714 Y5.767 Z-4.000 F600.000
G1 X70.714 Y38.402 Z-4.000 F600.000
G1 X46.554 Y35.986 Z-4.000 F600.000
G2 X45.456 Y37.027 Z-4.000 I-0.100 J0.995 K0.000 F600.000
G1 X45.677 Y41.889 Z-4.000 F600.000
G2 X46.437 Y42.814 Z-4.000 I0.999 J-0.045 K0.000 F600.000
G1 X75.812 Y50.029 Z-4.000 F600.000
G1 X74.548 Y54.452 Z-4.000 F600.000
G1 X21.583 Y48.472 Z-4.000 F600.000
G1 X22.025 Y47.588 Z-4.000 F600.000
G0 Z5.000
G0 Z5.000
G0 X22.025 Y47.588
G0 X44.069 Y70.732
G0 X44.069 Y70.732 Z3.000
G1 X44.069 Y70.732 Z-2.000 F600.000
G2 X53.963 Y69.807 Z-2.000 I4.486 J-5.393 K0.000 F600.000
G2 X53.004 Y59.916 Z-2.000 I-5.408 J-4.468 K0.000 F600.000
G2 X44.069 Y70.732 Z-2.000 I-4.451 J5.422 K0.000 F600.000
G3 X43.161 Y69.824 Z-2.000 I4.155 J-5.063 K0.000 F600.000
G1 X44.069 Y70.732 Z-2.000 F600.000
G2 X48.519 Y72.354 Z-2.000 I4.474 J-5.362 K0.000 F600.000
G1 X41.539 Y65.374 Z-2.000 F600.000
G3 X41.960 Y62.967 Z-2.000 I6.741 J-0.063 K0.000 F600.000
G1 X50.926 Y71.933 Z-2.000 F600.000
G2 X52.763 Y70.941 Z-2.000 I-2.050 J-5.996 K0.000 F600.000
G1 X42.952 Y61.130 Z-2.000 F600.000
G3 X44.369 Y59.719 Z-2.000 I5.084 J3.691 K0.000 F600.000
G1 X54.174 Y69.524 Z-2.000 F600.000
G2 X55.159 Y67.680 Z-2.000 I-5.020 J-3.864 K0.000 F600.000
G1 X46.213 Y58.734 Z-2.000 F600.000
G3 X48.635 Y58.328 Z-2.000 I2.287 J6.203 K0.000 F600.000
G1 X55.565 Y65.258 Z-2.000 F600.000
G2 X53.514 Y60.379 Z-2.000 I-6.991 J0.068 K0.000 F600.000
G1 X53.514 Y60.379 Z-4.000 F600.000
G3 X55.565 Y65.258 Z-4.000 I-4.940 J4.947 K0.000 F600.000
G1 X48.635 Y58.328 Z-4.000 F600.000
G2 X46.213 Y58.734 Z-4.000 I-0.135 J6.610 K0.000 F600.000
G1 X55.159 Y67.680 Z-4.000 F600.000
G3 X54.174 Y69.524 Z-4.000 I-6.005 J-2.020 K0.000 F600.000
G1 X44.369 Y59.719 Z-4.000 F600.000
G2 X42.952 Y61.130 Z-4.000 I3.667 J5.102 K0.000 F600.000
G1 X52.763 Y70.941 Z-4.000 F600.000
G3 X50.926 Y71.933 Z-4.000 I-3.887 J-5.004 K0.000 F600.000
G1 X41.960 Y62.967 Z-4.000 F600.000
G2 X41.539 Y65.374 Z-4.000 I6.320 J2.345 K0.000 F600.000
G1 X48.519 Y72.354 Z-4.000 F600.000
G3 X44.069 Y70.732 Z-4.000 I0.024 J-6.983 K0.000 F600.000
G1 X43.161 Y69.824 Z-4.000 F600.000
G2 X44.069 Y70.732 Z-4.000 I5.063 J-4.155 K0.000 F600.000
G3 X53.004 Y59.916 Z-4.000 I4.485 J-5.394 K0.000 F600.000
G3 X53.963 Y69.807 Z-4.000 I-4.449 J5.423 K0.000 F600.000
G3 X44.069 Y70.732 Z-4.000 I-5.408 J-4.468 K0.000 F600.000
G1 X44.069 Y70.732 Z-6.000 F600.000
G2 X53.963 Y69.807 Z-6.000 I4.486 J-5.393 K0.000 F600.000
G2 X53.004 Y59.916 Z-6.000 I-5.408 J-4.468 K0.000 F600.000
G2 X44.069 Y70.732 Z-6.000 I-4.451 J5.422 K0.000 F600.000
G3 X43.161 Y69.824 Z-6.000 I4.155 J-5.063 K0.000 F600.000
G1 X44.069 Y70.732 Z-6.000 F600.000
G2 X48.519 Y72.354 Z-6.000 I4.474 J-5.362 K0.000 F600.000
G1 X41.539 Y65.374 Z-6.000 F600.000
G3 X41.960 Y62.967 Z-6.000 I6.741 J-0.063 K0.000 F600.000
G1 X50.926 Y71.933 Z-6.000 F600.000
G2 X52.763 Y70.941 Z-6.000 I-2.050 J-5.996 K0.000 F600.000
G1 X42.952 Y61.130 Z-6.000 F600.000
G3 X44.369 Y59.719 Z-6.000 I5.084 J3.691 K0.000 F600.000
G1 X54.174 Y69.524 Z-6.000 F600.000
G2 X55.159 Y67.680 Z-6.000 I-5.020 J-3.864 K0.000 F600.000
G1 X46.213 Y58.734 Z-6.000 F600.000
G3 X48.635 Y58.328 Z-6.000 I2.287 J6.203 K0.000 F600.000
G1 X55.565 Y65.258 Z-6.000 F600.000
G2 X53.514 Y60.379 Z-6.000 I-6.991 J0.068 K0.000 F600.000
G0 Z5.000
G0 Z5.000
(Finish operation: Pocket_Shape)
(Begin postamble)
M5
G17 G90
M2
