(Exported by FreeCAD)
(Post Processor: script_module)
(Output Time:2025-03-20 12:06:53.152461)
(Begin preamble)
G17 G90
G21
(Begin operation: Fixture)
(Path: Fixture)
G54
(Finish operation: Fixture)
(Begin operation: 2mm_Endmill001)
(Path: 2mm_Endmill001)
(2mm_Endmill001)
(Begin toolchange)
( M6 T2 )
M3 S13000
(Finish operation: 2mm_Endmill001)
(Begin operation: Pocket_Shape)
(Path: Pocket_Shape)
(Pocket_Shape)
G0 Z5.000
G0 X0.000 Y0.000
G0 X32.884 Y8.120
G0 X32.884 Y8.120 Z3.000
G1 X32.884 Y8.120 Z-2.000 F600.000
G3 X32.300 Y4.707 Z-2.000 I2.114 J-2.119 K0.000 F600.000
G1 X36.293 Y8.700 Z-2.000 F600.000
G2 X37.705 Y7.284 Z-2.000 I-1.286 J-2.693 K0.000 F600.000
G1 X33.716 Y3.295 Z-2.000 F600.000
G3 X37.709 Y4.724 Z-2.000 I1.284 J2.705 K0.000 F600.000
G3 X36.268 Y8.713 Z-2.000 I-2.709 J1.276 K0.000 F600.000
G3 X33.732 Y3.287 Z-2.000 I-1.268 J-2.713 K0.000 F600.000
G3 X37.705 Y7.284 Z-2.000 I1.268 J2.712 K0.000 F600.000
G1 X37.705 Y7.284 Z-4.000 F600.000
G2 X33.732 Y3.287 Z-4.000 I-2.705 J-1.284 K0.000 F600.000
G2 X36.268 Y8.713 Z-4.000 I1.268 J2.713 K0.000 F600.000
G2 X37.709 Y4.724 Z-4.000 I-1.268 J-2.713 K0.000 F600.000
G2 X33.716 Y3.295 Z-4.000 I-2.709 J1.276 K0.000 F600.000
G1 X37.705 Y7.284 Z-4.000 F600.000
G3 X36.293 Y8.700 Z-4.000 I-2.697 J-1.276 K0.000 F600.000
G1 X32.300 Y4.707 Z-4.000 F600.000
G2 X32.884 Y8.120 Z-4.000 I2.698 J1.294 K0.000 F600.000
G1 X32.884 Y8.120 Z-6.000 F600.000
G3 X32.300 Y4.707 Z-6.000 I2.114 J-2.119 K0.000 F600.000
G1 X36.293 Y8.700 Z-6.000 F600.000
G2 X37.705 Y7.284 Z-6.000 I-1.286 J-2.693 K0.000 F600.000
G1 X33.716 Y3.295 Z-6.000 F600.000
G3 X37.709 Y4.724 Z-6.000 I1.284 J2.705 K0.000 F600.000
G3 X36.268 Y8.713 Z-6.000 I-2.709 J1.276 K0.000 F600.000
G3 X33.732 Y3.287 Z-6.000 I-1.268 J-2.713 K0.000 F600.000
G3 X37.705 Y7.284 Z-6.000 I1.268 J2.712 K0.000 F600.000
G0 Z5.000
G0 Z5.000
G0 X37.705 Y7.284
G0 X35.088 Y-16.380
G0 X35.088 Y-16.380 Z3.000
G1 X35.088 Y-16.380 Z-2.000 F600.000
G1 X34.952 Y-16.858 Z-2.000 F600.000
G2 X33.379 Y-20.475 Z-2.000 I-18.831 J6.037 K0.000 F600.000
G2 X25.557 Y-24.998 Z-2.000 I-8.088 J4.964 K0.000 F600.000
G2 X18.840 Y-21.702 Z-2.000 I-0.015 J8.464 K0.000 F600.000
G2 X17.233 Y-12.727 Z-2.000 I7.563 J5.986 K0.000 F600.000
G2 X19.533 Y-9.332 Z-2.000 I7.668 J-2.718 K0.000 F600.000
G2 X26.334 Y-6.605 Z-2.000 I9.009 J-12.626 K0.000 F600.000
G1 X29.115 Y-6.267 Z-2.000 F600.000
G3 X32.087 Y-5.582 Z-2.000 I-2.844 J19.109 K0.000 F600.000
G3 X39.308 Y-2.858 Z-2.000 I-41.186 J120.128 K0.000 F600.000
G2 X39.525 Y-3.048 Z-2.000 I0.029 J-0.186 K0.000 F600.000
G3 X36.565 Y-10.529 Z-2.000 I17.823 J-11.378 K0.000 F600.000
G2 X34.952 Y-16.858 Z-2.000 I-98.758 J21.806 K0.000 F600.000
G2 X33.379 Y-20.475 Z-2.000 I-18.831 J6.037 K0.000 F600.000
G2 X26.550 Y-24.918 Z-2.000 I-8.089 J4.965 K0.000 F600.000
G1 X35.088 Y-16.380 Z-2.000 F600.000
G3 X36.099 Y-12.540 Z-2.000 I-92.109 J26.317 K0.000 F600.000
G1 X23.820 Y-24.819 Z-2.000 F600.000
G2 X21.725 Y-24.086 Z-2.000 I1.668 J8.129 K0.000 F600.000
G1 X36.950 Y-8.861 Z-2.000 F600.000
G2 X38.916 Y-4.067 Z-2.000 I20.286 J-5.518 K0.000 F600.000
G1 X20.029 Y-22.953 Z-2.000 F600.000
G2 X18.672 Y-21.482 Z-2.000 I5.539 J6.468 K0.000 F600.000
G1 X35.979 Y-4.175 Z-2.000 F600.000
G2 X32.127 Y-5.568 Z-2.000 I-43.949 J115.455 K0.000 F600.000
G2 X31.596 Y-5.729 Z-2.000 I-4.929 J15.323 K0.000 F600.000
G1 X17.622 Y-19.704 Z-2.000 F600.000
G2 X16.937 Y-17.560 Z-2.000 I8.648 J3.941 K0.000 F600.000
G1 X28.107 Y-6.390 Z-2.000 F600.000
G1 X26.334 Y-6.605 Z-2.000 F600.000
G3 X24.749 Y-6.920 Z-2.000 I2.122 J-14.850 K0.000 F600.000
G1 X16.797 Y-14.872 Z-2.000 F600.000
G2 X17.233 Y-12.727 Z-2.000 I9.452 J-0.806 K0.000 F600.000
G2 X19.128 Y-9.712 Z-2.000 I7.676 J-2.722 K0.000 F600.000
G1 X19.128 Y-9.712 Z-4.000 F600.000
G3 X17.233 Y-12.727 Z-4.000 I5.781 J-5.737 K0.000 F600.000
G3 X16.797 Y-14.872 Z-4.000 I9.016 J-2.951 K0.000 F600.000
G1 X24.749 Y-6.920 Z-4.000 F600.000
G2 X26.334 Y-6.605 Z-4.000 I3.707 J-14.535 K0.000 F600.000
G1 X28.107 Y-6.390 Z-4.000 F600.000
G1 X16.937 Y-17.560 Z-4.000 F600.000
G3 X17.622 Y-19.704 Z-4.000 I9.332 J1.797 K0.000 F600.000
G1 X31.596 Y-5.729 Z-4.000 F600.000
G3 X32.127 Y-5.568 Z-4.000 I-4.398 J15.484 K0.000 F600.000
G3 X35.979 Y-4.175 Z-4.000 I-40.097 J116.849 K0.000 F600.000
G1 X18.672 Y-21.482 Z-4.000 F600.000
G3 X20.029 Y-22.953 Z-4.000 I6.896 J4.997 K0.000 F600.000
G1 X38.916 Y-4.067 Z-4.000 F600.000
G3 X36.950 Y-8.861 Z-4.000 I18.320 J-10.313 K0.000 F600.000
G1 X21.725 Y-24.086 Z-4.000 F600.000
G3 X23.820 Y-24.819 Z-4.000 I3.764 J7.396 K0.000 F600.000
G1 X36.099 Y-12.540 Z-4.000 F600.000
G2 X35.088 Y-16.380 Z-4.000 I-93.121 J22.477 K0.000 F600.000
G1 X26.550 Y-24.918 Z-4.000 F600.000
G3 X33.379 Y-20.475 Z-4.000 I-1.260 J9.407 K0.000 F600.000
G3 X34.952 Y-16.858 Z-4.000 I-17.258 J9.655 K0.000 F600.000
G3 X36.565 Y-10.529 Z-4.000 I-97.144 J28.135 K0.000 F600.000
G2 X39.525 Y-3.048 Z-4.000 I20.783 J-3.897 K0.000 F600.000
G3 X39.308 Y-2.858 Z-4.000 I-0.188 J0.004 K0.000 F600.000
G2 X32.087 Y-5.582 Z-4.000 I-48.408 J117.404 K0.000 F600.000
G2 X29.115 Y-6.267 Z-4.000 I-5.815 J18.424 K0.000 F600.000
G1 X26.334 Y-6.605 Z-4.000 F600.000
G3 X19.533 Y-9.332 Z-4.000 I2.208 J-15.353 K0.000 F600.000
G3 X17.233 Y-12.727 Z-4.000 I5.367 J-6.113 K0.000 F600.000
G3 X18.840 Y-21.702 Z-4.000 I9.171 J-2.989 K0.000 F600.000
G3 X25.557 Y-24.998 Z-4.000 I6.703 J5.168 K0.000 F600.000
G3 X33.379 Y-20.475 Z-4.000 I-0.267 J9.487 K0.000 F600.000
G3 X34.952 Y-16.858 Z-4.000 I-17.258 J9.655 K0.000 F600.000
G1 X35.088 Y-16.380 Z-4.000 F600.000
G0 Z5.000
G0 Z5.000
G0 X35.088 Y-16.380
G0 X32.509 Y13.020
G0 X32.509 Y13.020 Z3.000
G1 X32.509 Y13.020 Z-2.000 F600.000
G1 X32.312 Y13.009 Z-2.000 F600.000
G2 X31.688 Y28.991 Z-2.000 I-0.312 J7.991 K0.000 F600.000
G2 X32.509 Y13.020 Z-2.000 I0.313 J-7.991 K0.000 F600.000
G1 X39.980 Y20.491 Z-2.000 F600.000
G2 X32.509 Y13.020 Z-2.000 I-7.976 J0.505 K0.000 F600.000
G2 X29.935 Y13.275 Z-2.000 I-0.520 J7.872 K0.000 F600.000
G1 X39.725 Y23.065 Z-2.000 F600.000
G3 X38.890 Y25.058 Z-2.000 I-7.581 J-2.005 K0.000 F600.000
G1 X27.942 Y14.110 Z-2.000 F600.000
G2 X26.347 Y15.343 Z-2.000 I3.975 J6.792 K0.000 F600.000
G1 X37.657 Y26.654 Z-2.000 F600.000
G3 X36.062 Y27.887 Z-2.000 I-5.598 J-5.588 K0.000 F600.000
G1 X25.113 Y16.938 Z-2.000 F600.000
G2 X24.276 Y18.930 Z-2.000 I6.746 J4.004 K0.000 F600.000
G1 X34.070 Y28.723 Z-2.000 F600.000
G3 X31.499 Y28.980 Z-2.000 I-2.059 J-7.616 K0.000 F600.000
G1 X24.020 Y21.501 Z-2.000 F600.000
G2 X26.346 Y26.657 Z-2.000 I7.970 J-0.494 K0.000 F600.000
G1 X26.346 Y26.657 Z-4.000 F600.000
G3 X24.020 Y21.501 Z-4.000 I5.643 J-5.649 K0.000 F600.000
G1 X31.499 Y28.980 Z-4.000 F600.000
G2 X34.070 Y28.723 Z-4.000 I0.512 J-7.873 K0.000 F600.000
G1 X24.276 Y18.930 Z-4.000 F600.000
G3 X25.113 Y16.938 Z-4.000 I7.582 J2.012 K0.000 F600.000
G1 X36.062 Y27.887 Z-4.000 F600.000
G2 X37.657 Y26.654 Z-4.000 I-4.004 J-6.821 K0.000 F600.000
G1 X26.347 Y15.343 Z-4.000 F600.000
G3 X27.942 Y14.110 Z-4.000 I5.570 J5.559 K0.000 F600.000
G1 X38.890 Y25.058 Z-4.000 F600.000
G2 X39.725 Y23.065 Z-4.000 I-6.746 J-3.998 K0.000 F600.000
G1 X29.935 Y13.275 Z-4.000 F600.000
G3 X32.509 Y13.020 Z-4.000 I2.054 J7.617 K0.000 F600.000
G3 X39.980 Y20.491 Z-4.000 I-0.505 J7.976 K0.000 F600.000
G1 X32.509 Y13.020 Z-4.000 F600.000
G3 X31.688 Y28.991 Z-4.000 I-0.508 J7.981 K0.000 F600.000
G3 X32.312 Y13.009 Z-4.000 I0.312 J-7.991 K0.000 F600.000
G1 X32.509 Y13.020 Z-4.000 F600.000
G1 X32.509 Y13.020 Z-6.000 F600.000
G1 X32.312 Y13.009 Z-6.000 F600.000
G2 X31.688 Y28.991 Z-6.000 I-0.312 J7.991 K0.000 F600.000
G2 X32.509 Y13.020 Z-6.000 I0.313 J-7.991 K0.000 F600.000
G1 X39.980 Y20.491 Z-6.000 F600.000
G2 X32.509 Y13.020 Z-6.000 I-7.976 J0.505 K0.000 F600.000
G2 X29.935 Y13.275 Z-6.000 I-0.520 J7.872 K0.000 F600.000
G1 X39.725 Y23.065 Z-6.000 F600.000
G3 X38.890 Y25.058 Z-6.000 I-7.581 J-2.005 K0.000 F600.000
G1 X27.942 Y14.110 Z-6.000 F600.000
G2 X26.347 Y15.343 Z-6.000 I3.975 J6.792 K0.000 F600.000
G1 X37.657 Y26.654 Z-6.000 F600.000
G3 X36.062 Y27.887 Z-6.000 I-5.598 J-5.588 K0.000 F600.000
G1 X25.113 Y16.938 Z-6.000 F600.000
G2 X24.276 Y18.930 Z-6.000 I6.746 J4.004 K0.000 F600.000
G1 X34.070 Y28.723 Z-6.000 F600.000
G3 X31.499 Y28.980 Z-6.000 I-2.059 J-7.616 K0.000 F600.000
G1 X24.020 Y21.501 Z-6.000 F600.000
G2 X26.346 Y26.657 Z-6.000 I7.970 J-0.494 K0.000 F600.000
G0 Z5.000
G0 Z5.000
G0 X26.346 Y26.657
G0 X47.569 Y17.106
G0 X47.569 Y17.106 Z3.000
G1 X47.569 Y17.106 Z-2.000 F600.000
G2 X47.769 Y17.511 Z-2.000 I5.775 J-2.599 K0.000 F600.000
G3 X50.640 Y23.030 Z-2.000 I-216.328 J116.080 K0.000 F600.000
G2 X52.587 Y27.196 Z-2.000 I36.836 J-14.673 K0.000 F600.000
G2 X56.360 Y31.944 Z-2.000 I17.921 J-10.368 K0.000 F600.000
G2 X57.604 Y32.984 Z-2.000 I4.103 J-3.643 K0.000 F600.000
G2 X59.924 Y32.854 Z-2.000 I0.990 J-3.079 K0.000 F600.000
G3 X57.964 Y30.459 Z-2.000 I4.192 J-5.430 K0.000 F600.000
G3 X56.445 Y27.243 Z-2.000 I16.812 J-9.905 K0.000 F600.000
G3 X56.285 Y26.236 Z-2.000 I3.287 J-1.037 K0.000 F600.000
G3 X57.604 Y24.701 Z-2.000 I1.775 J0.190 K0.000 F600.000
G3 X60.713 Y24.487 Z-2.000 I2.435 J12.657 K0.000 F600.000
G1 X76.043 Y24.486 Z-2.000 F600.000
G3 X76.801 Y24.480 Z-2.000 I0.582 J23.654 K0.000 F600.000
G2 X78.281 Y24.017 Z-2.000 I0.107 J-2.258 K0.000 F600.000
G2 X78.278 Y23.980 Z-2.000 I-0.051 J-0.015 K0.000 F600.000
G2 X77.832 Y23.291 Z-2.000 I-7.719 J4.502 K0.000 F600.000
G3 X77.230 Y22.309 Z-2.000 I5.190 J-3.860 K0.000 F600.000
G3 X77.125 Y22.001 Z-2.000 I0.972 J-0.504 K0.000 F600.000
G2 X77.006 Y21.859 Z-2.000 I-0.220 J0.064 K0.000 F600.000
G2 X75.946 Y21.652 Z-2.000 I-1.409 J4.396 K0.000 F600.000
G2 X70.881 Y21.528 Z-2.000 I-4.528 J81.384 K0.000 F600.000
G2 X58.763 Y21.504 Z-2.000 I-7.321 J653.020 K0.000 F600.000
G3 X56.594 Y21.368 Z-2.000 I0.487 J-25.023 K0.000 F600.000
G3 X53.992 Y19.804 Z-2.000 I0.478 J-3.741 K0.000 F600.000
G3 X52.153 Y16.398 Z-2.000 I27.536 J-17.069 K0.000 F600.000
G2 X50.692 Y13.627 Z-2.000 I-19.565 J8.546 K0.000 F600.000
G2 X49.511 Y12.933 Z-2.000 I-1.347 J0.941 K0.000 F600.000
G1 X48.979 Y12.875 Z-2.000 F600.000
G2 X48.594 Y12.879 Z-2.000 I-0.166 J3.172 K0.000 F600.000
G1 X52.190 Y16.475 Z-2.000 F600.000
G1 X52.153 Y16.398 Z-2.000 F600.000
G2 X50.692 Y13.627 Z-2.000 I-19.565 J8.546 K0.000 F600.000
G2 X49.511 Y12.933 Z-2.000 I-1.347 J0.941 K0.000 F600.000
G1 X48.979 Y12.875 Z-2.000 F600.000
G2 X47.547 Y13.109 Z-2.000 I-0.168 J3.472 K0.000 F600.000
G2 X47.083 Y13.557 Z-2.000 I0.243 J0.717 K0.000 F600.000
G2 X47.569 Y17.106 Z-2.000 I6.260 J0.951 K0.000 F600.000
G1 X47.569 Y17.106 Z-4.000 F600.000
G2 X47.769 Y17.511 Z-4.000 I5.775 J-2.599 K0.000 F600.000
G3 X50.640 Y23.030 Z-4.000 I-216.328 J116.080 K0.000 F600.000
G2 X52.587 Y27.196 Z-4.000 I36.836 J-14.673 K0.000 F600.000
G2 X56.360 Y31.944 Z-4.000 I17.921 J-10.368 K0.000 F600.000
G2 X57.604 Y32.984 Z-4.000 I4.103 J-3.643 K0.000 F600.000
G2 X59.924 Y32.854 Z-4.000 I0.990 J-3.079 K0.000 F600.000
G3 X57.964 Y30.459 Z-4.000 I4.192 J-5.430 K0.000 F600.000
G3 X56.445 Y27.243 Z-4.000 I16.812 J-9.905 K0.000 F600.000
G3 X56.285 Y26.236 Z-4.000 I3.287 J-1.037 K0.000 F600.000
G3 X57.604 Y24.701 Z-4.000 I1.775 J0.190 K0.000 F600.000
G3 X60.713 Y24.487 Z-4.000 I2.435 J12.657 K0.000 F600.000
G1 X76.043 Y24.486 Z-4.000 F600.000
G3 X76.801 Y24.480 Z-4.000 I0.582 J23.654 K0.000 F600.000
G2 X78.281 Y24.017 Z-4.000 I0.107 J-2.258 K0.000 F600.000
G2 X78.278 Y23.980 Z-4.000 I-0.051 J-0.015 K0.000 F600.000
G2 X77.832 Y23.291 Z-4.000 I-7.719 J4.502 K0.000 F600.000
G3 X77.230 Y22.309 Z-4.000 I5.190 J-3.860 K0.000 F600.000
G3 X77.125 Y22.001 Z-4.000 I0.972 J-0.504 K0.000 F600.000
G2 X77.006 Y21.859 Z-4.000 I-0.220 J0.064 K0.000 F600.000
G2 X75.946 Y21.652 Z-4.000 I-1.409 J4.396 K0.000 F600.000
G2 X70.881 Y21.528 Z-4.000 I-4.528 J81.384 K0.000 F600.000
G2 X58.763 Y21.504 Z-4.000 I-7.321 J653.020 K0.000 F600.000
G3 X56.594 Y21.368 Z-4.000 I0.487 J-25.023 K0.000 F600.000
G3 X53.992 Y19.804 Z-4.000 I0.478 J-3.741 K0.000 F600.000
G3 X52.153 Y16.398 Z-4.000 I27.536 J-17.069 K0.000 F600.000
G2 X50.692 Y13.627 Z-4.000 I-19.565 J8.546 K0.000 F600.000
G2 X49.511 Y12.933 Z-4.000 I-1.347 J0.941 K0.000 F600.000
G1 X48.979 Y12.875 Z-4.000 F600.000
G2 X48.594 Y12.879 Z-4.000 I-0.166 J3.172 K0.000 F600.000
G1 X52.190 Y16.475 Z-4.000 F600.000
G1 X52.153 Y16.398 Z-4.000 F600.000
G2 X50.692 Y13.627 Z-4.000 I-19.565 J8.546 K0.000 F600.000
G2 X49.511 Y12.933 Z-4.000 I-1.347 J0.941 K0.000 F600.000
G1 X48.979 Y12.875 Z-4.000 F600.000
G2 X47.547 Y13.109 Z-4.000 I-0.168 J3.472 K0.000 F600.000
G2 X47.083 Y13.557 Z-4.000 I0.243 J0.717 K0.000 F600.000
G2 X47.569 Y17.106 Z-4.000 I6.260 J0.951 K0.000 F600.000
G0 Z5.000
G0 X56.575 Y32.173 Z5.000
G0 X56.575 Y32.173 Z3.000
G1 X56.575 Y32.173 Z-2.000 F600.000
G2 X56.360 Y31.944 Z-2.000 I-2.923 J2.533 K0.000 F600.000
G3 X52.587 Y27.196 Z-2.000 I14.148 J-15.116 K0.000 F600.000
G3 X50.906 Y23.677 Z-2.000 I33.649 J-18.232 K0.000 F600.000
G1 X58.318 Y31.088 Z-2.000 F600.000
G3 X57.964 Y30.459 Z-2.000 I5.391 J-3.450 K0.000 F600.000
G3 X56.416 Y27.155 Z-2.000 I16.487 J-9.735 K0.000 F600.000
G3 X56.285 Y26.236 Z-2.000 I3.452 J-0.960 K0.000 F600.000
G1 X56.286 Y26.228 Z-2.000 F600.000
G1 X47.996 Y17.938 Z-2.000 F600.000
G3 X47.638 Y17.255 Z-2.000 I17.217 J-9.443 K0.000 F600.000
G3 X47.021 Y14.135 Z-2.000 I5.721 J-2.753 K0.000 F600.000
G1 X57.591 Y24.705 Z-2.000 F600.000
G3 X58.223 Y24.596 Z-2.000 I1.355 J5.962 K0.000 F600.000
G3 X60.187 Y24.472 Z-2.000 I1.797 J12.837 K0.000 F600.000
G1 X57.134 Y21.420 Z-2.000 F600.000
G2 X58.763 Y21.504 Z-2.000 I2.098 J-24.577 K0.000 F600.000
G1 X60.041 Y21.497 Z-2.000 F600.000
G1 X63.030 Y24.487 Z-2.000 F600.000
G1 X65.858 Y24.487 Z-2.000 F600.000
G1 X62.860 Y21.488 Z-2.000 F600.000
G3 X65.691 Y21.491 Z-2.000 I1.054 J381.018 K0.000 F600.000
G1 X68.687 Y24.486 Z-2.000 F600.000
G1 X71.515 Y24.486 Z-2.000 F600.000
G1 X68.534 Y21.506 Z-2.000 F600.000
G2 X70.881 Y21.528 Z-2.000 I3.391 J-237.198 K0.000 F600.000
G2 X71.385 Y21.528 Z-2.000 I0.148 J-205.296 K0.000 F600.000
G1 X74.343 Y24.486 Z-2.000 F600.000
G1 X76.043 Y24.486 Z-2.000 F600.000
G3 X77.012 Y24.482 Z-2.000 I0.576 J23.268 K0.000 F600.000
G2 X77.155 Y24.469 Z-2.000 I-0.029 J-1.139 K0.000 F600.000
G2 X78.281 Y24.017 Z-2.000 I-0.275 J-2.313 K0.000 F600.000
G2 X78.278 Y23.980 Z-2.000 I-0.051 J-0.015 K0.000 F600.000
G2 X77.832 Y23.291 Z-2.000 I-7.718 J4.502 K0.000 F600.000
G3 X77.230 Y22.309 Z-2.000 I5.190 J-3.860 K0.000 F600.000
G3 X77.125 Y22.001 Z-2.000 I0.972 J-0.504 K0.000 F600.000
G2 X77.006 Y21.859 Z-2.000 I-0.220 J0.064 K0.000 F600.000
G2 X75.946 Y21.652 Z-2.000 I-1.409 J4.396 K0.000 F600.000
G2 X74.262 Y21.577 Z-2.000 I-3.628 J62.596 K0.000 F600.000
G1 X77.155 Y24.469 Z-2.000 F600.000
G1 X77.155 Y24.469 Z-4.000 F600.000
G1 X74.262 Y21.577 Z-4.000 F600.000
G3 X75.946 Y21.652 Z-4.000 I-1.944 J62.671 K0.000 F600.000
G3 X77.006 Y21.859 Z-4.000 I-0.349 J4.603 K0.000 F600.000
G3 X77.125 Y22.001 Z-4.000 I-0.102 J0.206 K0.000 F600.000
G2 X77.230 Y22.309 Z-4.000 I1.077 J-0.195 K0.000 F600.000
G2 X77.832 Y23.291 Z-4.000 I5.792 J-2.878 K0.000 F600.000
G3 X78.278 Y23.980 Z-4.000 I-7.273 J5.191 K0.000 F600.000
G3 X78.281 Y24.017 Z-4.000 I-0.048 J0.022 K0.000 F600.000
G3 X77.155 Y24.469 Z-4.000 I-1.401 J-1.861 K0.000 F600.000
G3 X77.012 Y24.482 Z-4.000 I-0.172 J-1.126 K0.000 F600.000
G2 X76.043 Y24.486 Z-4.000 I-0.392 J23.272 K0.000 F600.000
G1 X74.343 Y24.486 Z-4.000 F600.000
G1 X71.385 Y21.528 Z-4.000 F600.000
G3 X70.881 Y21.528 Z-4.000 I-0.355 J-205.296 K0.000 F600.000
G3 X68.534 Y21.506 Z-4.000 I1.044 J-237.220 K0.000 F600.000
G1 X71.515 Y24.486 Z-4.000 F600.000
G1 X68.687 Y24.486 Z-4.000 F600.000
G1 X65.691 Y21.491 Z-4.000 F600.000
G2 X62.860 Y21.488 Z-4.000 I-1.777 J381.015 K0.000 F600.000
G1 X65.858 Y24.487 Z-4.000 F600.000
G1 X63.030 Y24.487 Z-4.000 F600.000
G1 X60.041 Y21.497 Z-4.000 F600.000
G1 X58.763 Y21.504 Z-4.000 F600.000
G3 X57.134 Y21.420 Z-4.000 I0.469 J-24.661 K0.000 F600.000
G1 X60.187 Y24.472 Z-4.000 F600.000
G2 X58.223 Y24.596 Z-4.000 I-0.167 J12.961 K0.000 F600.000
G2 X57.591 Y24.705 Z-4.000 I0.724 J6.071 K0.000 F600.000
G1 X47.021 Y14.135 Z-4.000 F600.000
G2 X47.638 Y17.255 Z-4.000 I6.338 J0.367 K0.000 F600.000
G2 X47.996 Y17.938 Z-4.000 I17.574 J-8.759 K0.000 F600.000
G1 X56.286 Y26.228 Z-4.000 F600.000
G1 X56.285 Y26.236 Z-4.000 F600.000
G2 X56.416 Y27.155 Z-4.000 I3.583 J-0.042 K0.000 F600.000
G2 X57.964 Y30.459 Z-4.000 I18.035 J-6.431 K0.000 F600.000
G2 X58.318 Y31.088 Z-4.000 I5.745 J-2.821 K0.000 F600.000
G1 X50.906 Y23.677 Z-4.000 F600.000
G2 X52.587 Y27.196 Z-4.000 I35.330 J-14.712 K0.000 F600.000
G2 X56.360 Y31.944 Z-4.000 I17.921 J-10.368 K0.000 F600.000
G3 X56.575 Y32.173 Z-4.000 I-2.708 J2.762 K0.000 F600.000
G0 Z5.000
G0 Z5.000
G0 X56.575 Y32.173
G0 X60.201 Y11.014
G0 X60.201 Y11.014 Z3.000
G1 X60.201 Y11.014 Z-2.000 F600.000
G3 X59.276 Y10.755 Z-2.000 I0.782 J-4.562 K0.000 F600.000
G3 X57.960 Y9.588 Z-2.000 I1.154 J-2.627 K0.000 F600.000
G3 X56.478 Y3.873 Z-2.000 I14.701 J-6.861 K0.000 F600.000
G3 X56.494 Y3.192 Z-2.000 I3.918 J-0.251 K0.000 F600.000
G3 X57.929 Y1.415 Z-2.000 I2.000 J0.148 K0.000 F600.000
G3 X59.270 Y1.232 Z-2.000 I1.452 J5.617 K0.000 F600.000
G3 X59.527 Y1.233 Z-2.000 I0.091 J10.413 K0.000 F600.000
G2 X60.664 Y1.273 Z-2.000 I1.597 J-29.055 K0.000 F600.000
G3 X63.657 Y3.378 Z-2.000 I0.084 J3.061 K0.000 F600.000
G3 X63.809 Y3.983 Z-2.000 I-5.661 J1.751 K0.000 F600.000
G3 X63.892 Y9.301 Z-2.000 I-18.320 J2.944 K0.000 F600.000
G3 X62.308 Y10.887 Z-2.000 I-2.071 J-0.485 K0.000 F600.000
G3 X60.201 Y11.014 Z-2.000 I-1.326 J-4.434 K0.000 F600.000
G1 X60.201 Y11.014 Z-4.000 F600.000
G3 X59.276 Y10.755 Z-4.000 I0.782 J-4.562 K0.000 F600.000
G3 X57.960 Y9.588 Z-4.000 I1.154 J-2.627 K0.000 F600.000
G3 X56.478 Y3.873 Z-4.000 I14.701 J-6.861 K0.000 F600.000
G3 X56.494 Y3.192 Z-4.000 I3.918 J-0.251 K0.000 F600.000
G3 X57.929 Y1.415 Z-4.000 I2.000 J0.148 K0.000 F600.000
G3 X59.270 Y1.232 Z-4.000 I1.452 J5.617 K0.000 F600.000
G3 X59.527 Y1.233 Z-4.000 I0.091 J10.413 K0.000 F600.000
G2 X60.664 Y1.273 Z-4.000 I1.597 J-29.055 K0.000 F600.000
G3 X63.657 Y3.378 Z-4.000 I0.084 J3.061 K0.000 F600.000
G3 X63.809 Y3.983 Z-4.000 I-5.661 J1.751 K0.000 F600.000
G3 X63.892 Y9.301 Z-4.000 I-18.320 J2.944 K0.000 F600.000
G3 X62.308 Y10.887 Z-4.000 I-2.071 J-0.485 K0.000 F600.000
G3 X60.201 Y11.014 Z-4.000 I-1.326 J-4.434 K0.000 F600.000
G0 Z5.000
G0 X64.504 Y9.572 Z5.000
G0 X64.504 Y9.572 Z3.000
G1 X64.504 Y9.572 Z-2.000 F600.000
G3 X64.281 Y7.161 Z-2.000 I6.714 J-1.836 K0.000 F600.000
G3 X64.651 Y3.385 Z-2.000 I13.501 J-0.584 K0.000 F600.000
G3 X67.679 Y1.251 Z-2.000 I2.939 J0.956 K0.000 F600.000
G3 X68.321 Y1.231 Z-2.000 I1.059 J23.773 K0.000 F600.000
G3 X69.353 Y1.341 Z-2.000 I-0.009 J4.976 K0.000 F600.000
G3 X69.719 Y1.442 Z-2.000 I-0.432 J2.289 K0.000 F600.000
G3 X70.673 Y2.665 Z-2.000 I-0.702 J1.531 K0.000 F600.000
G3 X70.494 Y9.043 Z-2.000 I-23.581 J2.530 K0.000 F600.000
G3 X68.913 Y10.772 Z-2.000 I-2.424 J-0.630 K0.000 F600.000
G3 X65.506 Y10.722 Z-2.000 I-1.643 J-4.074 K0.000 F600.000
G3 X64.504 Y9.572 Z-2.000 I1.007 J-1.890 K0.000 F600.000
G1 X64.504 Y9.572 Z-4.000 F600.000
G3 X64.281 Y7.161 Z-4.000 I6.714 J-1.836 K0.000 F600.000
G3 X64.651 Y3.385 Z-4.000 I13.501 J-0.584 K0.000 F600.000
G3 X67.679 Y1.251 Z-4.000 I2.939 J0.956 K0.000 F600.000
G3 X68.321 Y1.231 Z-4.000 I1.059 J23.773 K0.000 F600.000
G3 X69.353 Y1.341 Z-4.000 I-0.009 J4.976 K0.000 F600.000
G3 X69.719 Y1.442 Z-4.000 I-0.432 J2.289 K0.000 F600.000
G3 X70.673 Y2.665 Z-4.000 I-0.702 J1.531 K0.000 F600.000
G3 X70.494 Y9.043 Z-4.000 I-23.581 J2.530 K0.000 F600.000
G3 X68.913 Y10.772 Z-4.000 I-2.424 J-0.630 K0.000 F600.000
G3 X65.506 Y10.722 Z-4.000 I-1.643 J-4.074 K0.000 F600.000
G3 X64.504 Y9.572 Z-4.000 I1.007 J-1.890 K0.000 F600.000
G0 Z5.000
G0 X67.018 Y1.303 Z5.000
G0 X67.018 Y1.303 Z3.000
G1 X67.018 Y1.303 Z-2.000 F600.000
G1 X63.754 Y-1.960 Z-2.000 F600.000
G3 X62.413 Y-0.473 Z-2.000 I-2.373 J-0.791 K0.000 F600.000
G1 X65.231 Y2.345 Z-2.000 F600.000
G2 X64.641 Y3.424 Z-2.000 I2.226 J1.918 K0.000 F600.000
G2 X64.448 Y4.390 Z-2.000 I10.809 J2.666 K0.000 F600.000
G1 X63.741 Y3.683 Z-2.000 F600.000
G3 X63.822 Y4.045 Z-2.000 I-4.305 J1.151 K0.000 F600.000
G3 X64.043 Y6.813 Z-2.000 I-18.182 J2.846 K0.000 F600.000
G1 X64.277 Y7.048 Z-2.000 F600.000
G3 X64.266 Y7.371 Z-2.000 I-1.598 J0.108 K0.000 F600.000
G2 X64.504 Y9.572 Z-2.000 I6.979 J0.361 K0.000 F600.000
G2 X65.506 Y10.722 Z-2.000 I2.009 J-0.741 K0.000 F600.000
G2 X68.216 Y10.987 Z-2.000 I1.762 J-4.019 K0.000 F600.000
G1 X71.935 Y14.706 Z-2.000 F600.000
G3 X71.293 Y14.757 Z-2.000 I-0.919 J-7.446 K0.000 F600.000
G3 X69.175 Y14.774 Z-2.000 I-2.572 J-183.191 K0.000 F600.000
G1 X63.853 Y9.452 Z-2.000 F600.000
G3 X62.427 Y10.855 Z-2.000 I-2.035 J-0.643 K0.000 F600.000
G1 X66.350 Y14.777 Z-2.000 F600.000
G3 X63.503 Y14.759 Z-2.000 I0.141 J-246.264 K0.000 F600.000
G1 X59.618 Y10.874 Z-2.000 F600.000
G3 X58.994 Y10.614 Z-2.000 I0.694 J-2.543 K0.000 F600.000
G3 X57.939 Y9.549 Z-2.000 I1.441 J-2.482 K0.000 F600.000
G3 X57.667 Y8.923 Z-2.000 I9.930 J-4.689 K0.000 F600.000
G1 X53.485 Y4.741 Z-2.000 F600.000
G3 X55.536 Y9.620 Z-2.000 I-42.812 J20.866 K0.000 F600.000
G2 X57.120 Y13.485 Z-2.000 I33.602 J-11.515 K0.000 F600.000
G2 X58.416 Y14.410 Z-2.000 I1.802 J-1.153 K0.000 F600.000
G2 X60.621 Y14.706 Z-2.000 I3.202 J-15.541 K0.000 F600.000
G1 X55.536 Y9.620 Z-2.000 F600.000
G1 X55.536 Y9.620 Z-4.000 F600.000
G1 X60.621 Y14.706 Z-4.000 F600.000
G3 X58.416 Y14.410 Z-4.000 I0.997 J-15.836 K0.000 F600.000
G3 X57.120 Y13.485 Z-4.000 I0.506 J-2.079 K0.000 F600.000
G3 X55.536 Y9.620 Z-4.000 I32.019 J-15.380 K0.000 F600.000
G2 X53.485 Y4.741 Z-4.000 I-44.863 J15.986 K0.000 F600.000
G1 X57.667 Y8.923 Z-4.000 F600.000
G2 X57.939 Y9.549 Z-4.000 I10.202 J-4.063 K0.000 F600.000
G2 X58.994 Y10.614 Z-4.000 I2.496 J-1.417 K0.000 F600.000
G2 X59.618 Y10.874 Z-4.000 I1.317 J-2.283 K0.000 F600.000
G1 X63.503 Y14.759 Z-4.000 F600.000
G2 X66.350 Y14.777 Z-4.000 I2.988 J-246.246 K0.000 F600.000
G1 X62.427 Y10.855 Z-4.000 F600.000
G2 X63.853 Y9.452 Z-4.000 I-0.609 J-2.045 K0.000 F600.000
G1 X69.175 Y14.774 Z-4.000 F600.000
G2 X71.293 Y14.757 Z-4.000 I-0.455 J-183.208 K0.000 F600.000
G2 X71.935 Y14.706 Z-4.000 I-0.277 J-7.498 K0.000 F600.000
G1 X68.216 Y10.987 Z-4.000 F600.000
G3 X65.506 Y10.722 Z-4.000 I-0.948 J-4.284 K0.000 F600.000
G3 X64.504 Y9.572 Z-4.000 I1.007 J-1.890 K0.000 F600.000
G3 X64.266 Y7.371 Z-4.000 I6.742 J-1.841 K0.000 F600.000
G2 X64.277 Y7.048 Z-4.000 I-1.587 J-0.215 K0.000 F600.000
G1 X64.043 Y6.813 Z-4.000 F600.000
G2 X63.822 Y4.045 Z-4.000 I-18.403 J0.078 K0.000 F600.000
G2 X63.741 Y3.683 Z-4.000 I-4.386 J0.788 K0.000 F600.000
G1 X64.448 Y4.390 Z-4.000 F600.000
G3 X64.641 Y3.424 Z-4.000 I11.002 J1.700 K0.000 F600.000
G3 X65.231 Y2.345 Z-4.000 I2.816 J0.838 K0.000 F600.000
G1 X62.413 Y-0.473 Z-4.000 F600.000
G2 X63.754 Y-1.960 Z-4.000 I-1.032 J-2.279 K0.000 F600.000
G1 X67.018 Y1.303 Z-4.000 F600.000
G1 X67.162 Y-0.157 Z-4.000 F600.000
G3 X65.884 Y-0.392 Z-4.000 I0.777 J-7.829 K0.000 F600.000
G3 X64.390 Y-2.098 Z-4.000 I0.671 J-2.094 K0.000 F600.000
G3 X64.286 Y-2.874 Z-4.000 I3.192 J-0.826 K0.000 F600.000
G2 X64.259 Y-9.102 Z-4.000 I-417.363 J-1.366 K0.000 F600.000
G3 X64.455 Y-10.657 Z-4.000 I6.395 J0.013 K0.000 F600.000
G3 X64.583 Y-11.072 Z-4.000 I2.604 J0.580 K0.000 F600.000
G3 X66.116 Y-12.200 Z-4.000 I1.939 J1.031 K0.000 F600.000
G3 X67.538 Y-12.283 Z-4.000 I1.252 J9.286 K0.000 F600.000
G3 X69.176 Y-12.134 Z-4.000 I-0.134 J10.581 K0.000 F600.000
G3 X70.665 Y-10.548 Z-4.000 I-0.493 J1.955 K0.000 F600.000
G3 X70.777 Y-9.832 Z-4.000 I-2.933 J0.826 K0.000 F600.000
G3 X70.775 Y-3.078 Z-4.000 I-237.514 J3.292 K0.000 F600.000
G3 X70.605 Y-1.606 Z-4.000 I-13.054 J-0.761 K0.000 F600.000
G3 X70.147 Y-0.701 Z-4.000 I-1.705 J-0.295 K0.000 F600.000
G3 X69.457 Y-0.266 Z-4.000 I-1.177 J-1.102 K0.000 F600.000
G3 X67.162 Y-0.157 Z-4.000 I-1.518 J-7.720 K0.000 F600.000
G1 X67.162 Y-0.157 Z-2.000 F600.000
G3 X65.884 Y-0.392 Z-2.000 I0.777 J-7.829 K0.000 F600.000
G3 X64.390 Y-2.098 Z-2.000 I0.671 J-2.094 K0.000 F600.000
G3 X64.286 Y-2.874 Z-2.000 I3.192 J-0.826 K0.000 F600.000
G2 X64.259 Y-9.102 Z-2.000 I-417.363 J-1.366 K0.000 F600.000
G3 X64.455 Y-10.657 Z-2.000 I6.395 J0.013 K0.000 F600.000
G3 X64.583 Y-11.072 Z-2.000 I2.604 J0.580 K0.000 F600.000
G3 X66.116 Y-12.200 Z-2.000 I1.939 J1.031 K0.000 F600.000
G3 X67.538 Y-12.283 Z-2.000 I1.252 J9.286 K0.000 F600.000
G3 X69.176 Y-12.134 Z-2.000 I-0.134 J10.581 K0.000 F600.000
G3 X70.665 Y-10.548 Z-2.000 I-0.493 J1.955 K0.000 F600.000
G3 X70.777 Y-9.832 Z-2.000 I-2.933 J0.826 K0.000 F600.000
G3 X70.775 Y-3.078 Z-2.000 I-237.514 J3.292 K0.000 F600.000
G3 X70.605 Y-1.606 Z-2.000 I-13.054 J-0.761 K0.000 F600.000
G3 X70.147 Y-0.701 Z-2.000 I-1.705 J-0.295 K0.000 F600.000
G3 X69.457 Y-0.266 Z-2.000 I-1.177 J-1.102 K0.000 F600.000
G3 X67.162 Y-0.157 Z-2.000 I-1.518 J-7.720 K0.000 F600.000
G0 Z5.000
G0 X63.662 Y-1.726 Z5.000
G0 X63.662 Y-1.726 Z3.000
G1 X63.662 Y-1.726 Z-2.000 F600.000
G3 X62.014 Y-0.329 Z-2.000 I-2.283 J-1.023 K0.000 F600.000
G3 X56.856 Y-0.245 Z-2.000 I-2.888 J-18.773 K0.000 F600.000
G3 X54.398 Y-2.232 Z-2.000 I0.357 J-2.956 K0.000 F600.000
G3 X53.093 Y-9.755 Z-2.000 I30.446 J-9.157 K0.000 F600.000
G3 X55.101 Y-12.136 Z-2.000 I2.238 J-0.150 K0.000 F600.000
G3 X56.871 Y-12.288 Z-2.000 I1.643 J8.756 K0.000 F600.000
G3 X57.226 Y-12.276 Z-2.000 I-0.024 J5.886 K0.000 F600.000
G3 X60.582 Y-12.118 Z-2.000 I-0.103 J38.035 K0.000 F600.000
G3 X63.968 Y-8.841 Z-2.000 I-0.374 J3.775 K0.000 F600.000
G3 X64.007 Y-3.322 Z-2.000 I-58.932 J3.170 K0.000 F600.000
G3 X63.767 Y-2.004 Z-2.000 I-7.384 J-0.664 K0.000 F600.000
G3 X63.662 Y-1.726 Z-2.000 I-2.389 J-0.746 K0.000 F600.000
G1 X63.662 Y-1.726 Z-4.000 F600.000
G3 X62.014 Y-0.329 Z-4.000 I-2.283 J-1.023 K0.000 F600.000
G3 X56.856 Y-0.245 Z-4.000 I-2.888 J-18.773 K0.000 F600.000
G3 X54.398 Y-2.232 Z-4.000 I0.357 J-2.956 K0.000 F600.000
G3 X53.093 Y-9.755 Z-4.000 I30.446 J-9.157 K0.000 F600.000
G3 X55.101 Y-12.136 Z-4.000 I2.238 J-0.150 K0.000 F600.000
G3 X56.871 Y-12.288 Z-4.000 I1.643 J8.756 K0.000 F600.000
G3 X57.226 Y-12.276 Z-4.000 I-0.024 J5.886 K0.000 F600.000
G3 X60.582 Y-12.118 Z-4.000 I-0.103 J38.035 K0.000 F600.000
G3 X63.968 Y-8.841 Z-4.000 I-0.374 J3.775 K0.000 F600.000
G3 X64.007 Y-3.322 Z-4.000 I-58.932 J3.170 K0.000 F600.000
G3 X63.767 Y-2.004 Z-4.000 I-7.384 J-0.664 K0.000 F600.000
G3 X63.662 Y-1.726 Z-4.000 I-2.389 J-0.746 K0.000 F600.000
G0 Z5.000
G0 X61.399 Y1.341 Z5.000
G0 X61.399 Y1.341 Z3.000
G1 X61.399 Y1.341 Z-2.000 F600.000
G1 X59.932 Y-0.126 Z-2.000 F600.000
G3 X57.000 Y-0.229 Z-2.000 I-0.800 J-18.890 K0.000 F600.000
G1 X58.525 Y1.295 Z-2.000 F600.000
G1 X58.525 Y1.295 Z-4.000 F600.000
G1 X57.000 Y-0.229 Z-4.000 F600.000
G2 X59.932 Y-0.126 Z-4.000 I2.132 J-18.786 K0.000 F600.000
G1 X61.399 Y1.341 Z-4.000 F600.000
G0 Z5.000
G0 X51.782 Y3.038 Z5.000
G0 X51.782 Y3.038 Z3.000
G1 X51.782 Y3.038 Z-2.000 F600.000
G1 X48.573 Y-0.171 Z-2.000 F600.000
G3 X47.071 Y-0.080 Z-2.000 I-1.935 J-19.534 K0.000 F600.000
G2 X46.040 Y0.044 Z-2.000 I1.258 J14.751 K0.000 F600.000
G2 X46.003 Y0.085 Z-2.000 I0.055 J0.089 K0.000 F600.000
G1 X48.243 Y2.328 Z-2.000 F600.000
G3 X46.623 Y1.922 Z-2.000 I0.583 J-5.764 K0.000 F600.000
G3 X46.003 Y1.037 Z-2.000 I0.496 J-1.007 K0.000 F600.000
G2 X45.992 Y0.116 Z-2.000 I-20.736 J-0.219 K0.000 F600.000
G3 X46.051 Y0.039 Z-2.000 I0.103 J0.017 K0.000 F600.000
G3 X47.071 Y-0.080 Z-2.000 I4.668 J35.655 K0.000 F600.000
G2 X50.246 Y-0.414 Z-2.000 I-0.375 J-18.828 K0.000 F600.000
G2 X51.460 Y-2.348 Z-2.000 I-0.403 J-1.601 K0.000 F600.000
G2 X50.973 Y-3.740 Z-2.000 I-7.752 J1.926 K0.000 F600.000
G3 X47.652 Y-13.775 Z-2.000 I35.080 J-17.178 K0.000 F600.000
G3 X47.636 Y-14.118 Z-2.000 I2.870 J-0.307 K0.000 F600.000
G3 X47.699 Y-14.371 Z-2.000 I0.342 J-0.049 K0.000 F600.000
G3 X47.867 Y-14.481 Z-2.000 I0.240 J0.183 K0.000 F600.000
G3 X50.068 Y-14.707 Z-2.000 I3.078 J19.147 K0.000 F600.000
G1 X60.000 Y-14.786 Z-2.000 F600.000
G2 X66.234 Y-15.002 Z-2.000 I0.878 J-64.571 K0.000 F600.000
G2 X68.648 Y-15.389 Z-2.000 I-0.280 J-9.459 K0.000 F600.000
G2 X70.472 Y-18.114 Z-2.000 I-0.549 J-2.341 K0.000 F600.000
G2 X69.882 Y-20.663 Z-2.000 I-23.529 J4.100 K0.000 F600.000
G3 X68.336 Y-26.850 Z-2.000 I42.092 J-13.807 K0.000 F600.000
G3 X68.248 Y-28.903 Z-2.000 I9.734 J-1.446 K0.000 F600.000
G3 X69.309 Y-31.141 Z-2.000 I2.814 J-0.036 K0.000 F600.000
G3 X71.561 Y-31.996 Z-2.000 I2.849 J4.112 K0.000 F600.000
G3 X72.685 Y-32.091 Z-2.000 I1.613 J12.286 K0.000 F600.000
G1 X72.685 Y-32.091 Z-2.000 F600.000
G3 X75.035 Y-31.958 Z-2.000 I0.497 J12.007 K0.000 F600.000
G3 X76.674 Y-31.370 Z-2.000 I-0.926 J5.165 K0.000 F600.000
G3 X77.824 Y-29.600 Z-2.000 I-1.273 J2.086 K0.000 F600.000
G3 X77.520 Y-26.560 Z-2.000 I-10.811 J0.452 K0.000 F600.000
G3 X75.013 Y-19.078 Z-2.000 I-104.518 J-30.855 K0.000 F600.000
G2 X74.598 Y-17.119 Z-2.000 I9.325 J2.998 K0.000 F600.000
G2 X74.908 Y-15.897 Z-2.000 I2.053 J0.130 K0.000 F600.000
G2 X76.598 Y-14.869 Z-2.000 I2.041 J-1.452 K0.000 F600.000
G3 X78.180 Y-14.496 Z-2.000 I-0.531 J5.785 K0.000 F600.000
G3 X79.499 Y-13.310 Z-2.000 I-0.635 J2.033 K0.000 F600.000
G3 X79.366 Y-12.736 Z-2.000 I-0.528 J0.180 K0.000 F600.000
G3 X78.173 Y-12.312 Z-2.000 I-1.335 J-1.867 K0.000 F600.000
G2 X76.225 Y-12.247 Z-2.000 I2.063 J90.526 K0.000 F600.000
G2 X75.121 Y-11.632 Z-2.000 I0.240 J1.729 K0.000 F600.000
G2 X74.554 Y-10.208 Z-2.000 I2.702 J1.901 K0.000 F600.000
G2 X74.601 Y-2.129 Z-2.000 I32.740 J3.849 K0.000 F600.000
G2 X75.121 Y-0.794 Z-2.000 I3.082 J-0.432 K0.000 F600.000
G2 X76.672 Y-0.139 Z-2.000 I1.341 J-1.010 K0.000 F600.000
G3 X76.808 Y-0.071 Z-2.000 I-0.012 J0.194 K0.000 F600.000
G3 X77.399 Y2.072 Z-2.000 I-2.845 J1.937 K0.000 F600.000
G3 X77.293 Y2.183 Z-2.000 I-0.246 J-0.129 K0.000 F600.000
G3 X75.779 Y2.389 Z-2.000 I-1.463 J-5.082 K0.000 F600.000
G2 X74.696 Y2.396 Z-2.000 I-0.506 J5.215 K0.000 F600.000
G2 X73.205 Y3.789 Z-2.000 I0.102 J1.604 K0.000 F600.000
G2 X73.167 Y4.826 Z-2.000 I545.552 J20.440 K0.000 F600.000
G3 X73.166 Y13.929 Z-2.000 I-652.225 J4.468 K0.000 F600.000
G3 X73.071 Y14.408 Z-2.000 I-0.889 J0.073 K0.000 F600.000
G3 X72.945 Y14.520 Z-2.000 I-0.254 J-0.160 K0.000 F600.000
G3 X71.293 Y14.757 Z-2.000 I-1.954 J-7.738 K0.000 F600.000
G3 X60.969 Y14.725 Z-2.000 I-4.044 J-358.038 K0.000 F600.000
G3 X58.416 Y14.410 Z-2.000 I0.673 J-15.993 K0.000 F600.000
G3 X57.120 Y13.485 Z-2.000 I0.506 J-2.079 K0.000 F600.000
G3 X55.450 Y9.380 Z-2.000 I33.942 J-16.193 K0.000 F600.000
G2 X53.337 Y4.441 Z-2.000 I-44.885 J16.287 K0.000 F600.000
G2 X51.495 Y2.917 Z-2.000 I-3.149 J1.931 K0.000 F600.000
G2 X48.648 Y2.357 Z-2.000 I-4.426 J15.012 K0.000 F600.000
G3 X46.623 Y1.922 Z-2.000 I0.203 J-5.868 K0.000 F600.000
G3 X46.003 Y1.037 Z-2.000 I0.496 J-1.007 K0.000 F600.000
G2 X45.992 Y0.116 Z-2.000 I-20.737 J-0.219 K0.000 F600.000
G3 X46.002 Y0.086 Z-2.000 I0.098 J0.016 K0.000 F600.000
G1 X46.002 Y0.086 Z-4.000 F600.000
G2 X45.992 Y0.116 Z-4.000 I0.088 J0.045 K0.000 F600.000
G3 X46.003 Y1.037 Z-4.000 I-20.726 J0.702 K0.000 F600.000
G2 X46.623 Y1.922 Z-4.000 I1.116 J-0.123 K0.000 F600.000
G2 X48.648 Y2.357 Z-4.000 I2.229 J-5.432 K0.000 F600.000
G3 X51.495 Y2.917 Z-4.000 I-1.579 J15.571 K0.000 F600.000
G3 X53.337 Y4.441 Z-4.000 I-1.307 J3.455 K0.000 F600.000
G3 X55.450 Y9.380 Z-4.000 I-42.771 J21.225 K0.000 F600.000
G2 X57.120 Y13.485 Z-4.000 I35.611 J-12.088 K0.000 F600.000
G2 X58.416 Y14.410 Z-4.000 I1.802 J-1.153 K0.000 F600.000
G2 X60.969 Y14.725 Z-4.000 I3.226 J-15.679 K0.000 F600.000
G2 X71.293 Y14.757 Z-4.000 I6.280 J-358.006 K0.000 F600.000
G2 X72.945 Y14.520 Z-4.000 I-0.302 J-7.976 K0.000 F600.000
G2 X73.071 Y14.408 Z-4.000 I-0.127 J-0.272 K0.000 F600.000
G2 X73.166 Y13.929 Z-4.000 I-0.794 J-0.406 K0.000 F600.000
G2 X73.167 Y4.826 Z-4.000 I-652.224 J-4.635 K0.000 F600.000
G3 X73.205 Y3.789 Z-4.000 I545.590 J19.404 K0.000 F600.000
G3 X74.696 Y2.396 Z-4.000 I1.594 J0.212 K0.000 F600.000
G3 X75.779 Y2.389 Z-4.000 I0.577 J5.208 K0.000 F600.000
G2 X77.293 Y2.183 Z-4.000 I0.050 J-5.288 K0.000 F600.000
G2 X77.399 Y2.072 Z-4.000 I-0.141 J-0.240 K0.000 F600.000
G2 X76.808 Y-0.071 Z-4.000 I-3.435 J-0.205 K0.000 F600.000
G2 X76.672 Y-0.139 Z-4.000 I-0.148 J0.126 K0.000 F600.000
G3 X75.121 Y-0.794 Z-4.000 I-0.210 J-1.666 K0.000 F600.000
G3 X74.601 Y-2.129 Z-4.000 I2.562 J-1.766 K0.000 F600.000
G3 X74.554 Y-10.208 Z-4.000 I32.693 J-4.230 K0.000 F600.000
G3 X75.121 Y-11.632 Z-4.000 I3.269 J0.476 K0.000 F600.000
G3 X76.225 Y-12.247 Z-4.000 I1.343 J1.115 K0.000 F600.000
G3 X78.173 Y-12.312 Z-4.000 I4.012 J90.461 K0.000 F600.000
G2 X79.366 Y-12.736 Z-4.000 I-0.142 J-2.291 K0.000 F600.000
G2 X79.499 Y-13.310 Z-4.000 I-0.395 J-0.394 K0.000 F600.000
G2 X78.180 Y-14.496 Z-4.000 I-1.954 J0.847 K0.000 F600.000
G2 X76.598 Y-14.869 Z-4.000 I-2.113 J5.411 K0.000 F600.000
G3 X74.908 Y-15.897 Z-4.000 I0.351 J-2.480 K0.000 F600.000
G3 X74.598 Y-17.119 Z-4.000 I1.744 J-1.092 K0.000 F600.000
G3 X75.013 Y-19.078 Z-4.000 I9.740 J1.039 K0.000 F600.000
G2 X77.520 Y-26.560 Z-4.000 I-102.011 J-38.337 K0.000 F600.000
G2 X77.824 Y-29.600 Z-4.000 I-10.506 J-2.588 K0.000 F600.000
G2 X76.674 Y-31.370 Z-4.000 I-2.424 J0.316 K0.000 F600.000
G2 X75.035 Y-31.958 Z-4.000 I-2.566 J4.578 K0.000 F600.000
G2 X72.685 Y-32.091 Z-4.000 I-1.853 J11.874 K0.000 F600.000
G1 X72.685 Y-32.091 Z-4.000 F600.000
G2 X71.561 Y-31.996 Z-4.000 I0.489 J12.382 K0.000 F600.000
G2 X69.309 Y-31.141 Z-4.000 I0.597 J4.967 K0.000 F600.000
G2 X68.248 Y-28.903 Z-4.000 I1.753 J2.202 K0.000 F600.000
G2 X68.336 Y-26.850 Z-4.000 I9.822 J0.607 K0.000 F600.000
G2 X69.882 Y-20.663 Z-4.000 I43.639 J-7.620 K0.000 F600.000
G3 X70.472 Y-18.114 Z-4.000 I-22.940 J6.650 K0.000 F600.000
G3 X68.648 Y-15.389 Z-4.000 I-2.374 J0.383 K0.000 F600.000
G3 X66.234 Y-15.002 Z-4.000 I-2.693 J-9.072 K0.000 F600.000
G3 X60.000 Y-14.786 Z-4.000 I-5.356 J-64.355 K0.000 F600.000
G1 X50.068 Y-14.707 Z-4.000 F600.000
G2 X47.867 Y-14.481 Z-4.000 I0.877 J19.373 K0.000 F600.000
G2 X47.699 Y-14.371 Z-4.000 I0.073 J0.293 K0.000 F600.000
G2 X47.636 Y-14.118 Z-4.000 I0.279 J0.204 K0.000 F600.000
G2 X47.652 Y-13.775 Z-4.000 I2.886 J0.036 K0.000 F600.000
G2 X50.973 Y-3.740 Z-4.000 I38.402 J-7.143 K0.000 F600.000
G3 X51.460 Y-2.348 Z-4.000 I-7.266 J3.318 K0.000 F600.000
G3 X50.246 Y-0.414 Z-4.000 I-1.617 J0.333 K0.000 F600.000
G3 X47.071 Y-0.080 Z-4.000 I-3.550 J-18.495 K0.000 F600.000
G2 X46.051 Y0.039 Z-4.000 I3.648 J35.773 K0.000 F600.000
G2 X45.992 Y0.116 Z-4.000 I0.044 J0.094 K0.000 F600.000
G3 X46.003 Y1.037 Z-4.000 I-20.726 J0.702 K0.000 F600.000
G2 X46.623 Y1.922 Z-4.000 I1.116 J-0.123 K0.000 F600.000
G2 X48.243 Y2.328 Z-4.000 I2.204 J-5.358 K0.000 F600.000
G1 X46.003 Y0.085 Z-4.000 F600.000
G3 X46.040 Y0.044 Z-4.000 I0.093 J0.049 K0.000 F600.000
G3 X47.071 Y-0.080 Z-4.000 I2.289 J14.626 K0.000 F600.000
G2 X48.573 Y-0.171 Z-4.000 I-0.432 J-19.624 K0.000 F600.000
G1 X51.782 Y3.038 Z-4.000 F600.000
G0 Z5.000
G0 X48.573 Y-0.171 Z5.000
G0 X48.573 Y-0.171 Z3.000
G1 X48.573 Y-0.171 Z-2.000 F600.000
G1 X51.782 Y3.038 Z-2.000 F600.000
G3 X53.318 Y4.410 Z-2.000 I-1.613 J3.352 K0.000 F600.000
G3 X53.485 Y4.741 Z-2.000 I-2.259 J1.344 K0.000 F600.000
G1 X57.667 Y8.923 Z-2.000 F600.000
G3 X56.604 Y5.032 Z-2.000 I14.886 J-6.158 K0.000 F600.000
G1 X50.858 Y-0.715 Z-2.000 F600.000
G2 X51.482 Y-2.237 Z-2.000 I-1.019 J-1.307 K0.000 F600.000
G2 X51.193 Y-3.208 Z-2.000 I-7.072 J1.579 K0.000 F600.000
G1 X56.751 Y2.350 Z-2.000 F600.000
G3 X57.929 Y1.415 Z-2.000 I1.739 J0.982 K0.000 F600.000
G3 X58.525 Y1.295 Z-2.000 I1.440 J5.607 K0.000 F600.000
G1 X57.000 Y-0.229 Z-2.000 F600.000
G3 X54.398 Y-2.232 Z-2.000 I0.218 J-2.975 K0.000 F600.000
G3 X54.158 Y-3.072 Z-2.000 I17.963 J-5.598 K0.000 F600.000
G1 X49.172 Y-8.058 Z-2.000 F600.000
G3 X48.018 Y-12.040 Z-2.000 I35.805 J-12.533 K0.000 F600.000
G1 X53.406 Y-6.652 Z-2.000 F600.000
G3 X53.091 Y-9.795 Z-2.000 I31.289 J-4.722 K0.000 F600.000
G1 X48.336 Y-14.550 Z-2.000 F600.000
G3 X50.068 Y-14.707 Z-2.000 I2.593 J18.990 K0.000 F600.000
G1 X51.000 Y-14.714 Z-2.000 F600.000
G1 X54.003 Y-11.711 Z-2.000 F600.000
G3 X55.101 Y-12.136 Z-2.000 I1.315 J1.769 K0.000 F600.000
G3 X56.268 Y-12.275 Z-2.000 I1.582 J8.324 K0.000 F600.000
G1 X53.807 Y-14.737 Z-2.000 F600.000
G1 X56.613 Y-14.759 Z-2.000 F600.000
G1 X59.150 Y-12.221 Z-2.000 F600.000
G1 X59.150 Y-12.221 Z-4.000 F600.000
G1 X56.613 Y-14.759 Z-4.000 F600.000
G1 X53.807 Y-14.737 Z-4.000 F600.000
G1 X56.268 Y-12.275 Z-4.000 F600.000
G2 X55.101 Y-12.136 Z-4.000 I0.414 J8.463 K0.000 F600.000
G2 X54.003 Y-11.711 Z-4.000 I0.218 J2.194 K0.000 F600.000
G1 X51.000 Y-14.714 Z-4.000 F600.000
G1 X50.068 Y-14.707 Z-4.000 F600.000
G2 X48.336 Y-14.550 Z-4.000 I0.862 J19.146 K0.000 F600.000
G1 X53.091 Y-9.795 Z-4.000 F600.000
G2 X53.406 Y-6.652 Z-4.000 I31.604 J-1.579 K0.000 F600.000
G1 X48.018 Y-12.040 Z-4.000 F600.000
G2 X49.172 Y-8.058 Z-4.000 I36.959 J-8.551 K0.000 F600.000
G1 X54.158 Y-3.072 Z-4.000 F600.000
G2 X54.398 Y-2.232 Z-4.000 I18.203 J-4.758 K0.000 F600.000
G2 X57.000 Y-0.229 Z-4.000 I2.820 J-0.972 K0.000 F600.000
G1 X58.525 Y1.295 Z-4.000 F600.000
G2 X57.929 Y1.415 Z-4.000 I0.844 J5.727 K0.000 F600.000
G2 X56.751 Y2.350 Z-4.000 I0.561 J1.917 K0.000 F600.000
G1 X51.193 Y-3.208 Z-4.000 F600.000
G3 X51.482 Y-2.237 Z-4.000 I-6.783 J2.550 K0.000 F600.000
G3 X50.858 Y-0.715 Z-4.000 I-1.643 J0.216 K0.000 F600.000
G1 X56.604 Y5.032 Z-4.000 F600.000
G2 X57.667 Y8.923 Z-4.000 I15.949 J-2.266 K0.000 F600.000
G1 X53.485 Y4.741 Z-4.000 F600.000
G2 X53.318 Y4.410 Z-4.000 I-2.425 J1.013 K0.000 F600.000
G2 X51.782 Y3.038 Z-4.000 I-3.149 J1.981 K0.000 F600.000
G1 X48.573 Y-0.171 Z-4.000 F600.000
G0 Z5.000
G0 X70.786 Y-9.071 Z5.000
G0 X70.786 Y-9.071 Z3.000
G1 X70.786 Y-9.071 Z-2.000 F600.000
G1 X74.339 Y-5.518 Z-2.000 F600.000
G2 X74.560 Y-2.469 Z-2.000 I32.333 J-0.809 K0.000 F600.000
G1 X70.799 Y-6.229 Z-2.000 F600.000
G3 X70.779 Y-3.421 Z-2.000 I-203.794 J-0.093 K0.000 F600.000
G1 X76.540 Y2.340 Z-2.000 F600.000
G3 X75.779 Y2.389 Z-2.000 I-0.701 J-4.976 K0.000 F600.000
G2 X74.696 Y2.396 Z-2.000 I-0.506 J5.215 K0.000 F600.000
G2 X73.985 Y2.613 Z-2.000 I0.106 J1.623 K0.000 F600.000
G1 X70.374 Y-0.997 Z-2.000 F600.000
G3 X69.541 Y-0.292 Z-2.000 I-1.466 J-0.887 K0.000 F600.000
G3 X69.083 Y-0.201 Z-2.000 I-0.748 J-2.565 K0.000 F600.000
G3 X68.411 Y-0.132 Z-2.000 I-1.131 J-7.765 K0.000 F600.000
G1 X73.174 Y4.631 Z-2.000 F600.000
G1 X73.174 Y4.631 Z-4.000 F600.000
G1 X68.411 Y-0.132 Z-4.000 F600.000
G2 X69.083 Y-0.201 Z-4.000 I-0.459 J-7.833 K0.000 F600.000
G2 X69.541 Y-0.292 Z-4.000 I-0.290 J-2.656 K0.000 F600.000
G2 X70.374 Y-0.997 Z-4.000 I-0.632 J-1.592 K0.000 F600.000
G1 X73.985 Y2.613 Z-4.000 F600.000
G3 X74.696 Y2.396 Z-4.000 I0.818 J1.406 K0.000 F600.000
G3 X75.779 Y2.389 Z-4.000 I0.577 J5.208 K0.000 F600.000
G2 X76.540 Y2.340 Z-4.000 I0.059 J-5.024 K0.000 F600.000
G1 X70.779 Y-3.421 Z-4.000 F600.000
G2 X70.799 Y-6.229 Z-4.000 I-203.773 J-2.901 K0.000 F600.000
G1 X74.560 Y-2.469 Z-4.000 F600.000
G3 X74.339 Y-5.518 Z-4.000 I32.112 J-3.858 K0.000 F600.000
G1 X70.786 Y-9.071 Z-4.000 F600.000
G0 Z5.000
G0 X76.443 Y-14.728 Z5.000
G0 X76.443 Y-14.728 Z3.000
G1 X76.443 Y-14.728 Z-2.000 F600.000
G1 X76.215 Y-14.956 Z-2.000 F600.000
G2 X76.530 Y-14.880 Z-2.000 I0.656 J-2.021 K0.000 F600.000
G3 X78.179 Y-14.496 Z-2.000 I-0.543 J6.073 K0.000 F600.000
G3 X79.448 Y-13.423 Z-2.000 I-0.643 J2.047 K0.000 F600.000
G3 X79.377 Y-12.746 Z-2.000 I-0.482 J0.292 K0.000 F600.000
G3 X78.748 Y-12.423 Z-2.000 I-1.278 J-1.712 K0.000 F600.000
G1 X76.443 Y-14.728 Z-2.000 F600.000
G1 X76.443 Y-14.728 Z-4.000 F600.000
G1 X76.215 Y-14.956 Z-4.000 F600.000
G2 X76.530 Y-14.880 Z-4.000 I0.656 J-2.021 K0.000 F600.000
G3 X78.179 Y-14.496 Z-4.000 I-0.543 J6.073 K0.000 F600.000
G3 X79.448 Y-13.423 Z-4.000 I-0.643 J2.047 K0.000 F600.000
G3 X79.377 Y-12.746 Z-4.000 I-0.482 J0.292 K0.000 F600.000
G3 X78.748 Y-12.423 Z-4.000 I-1.278 J-1.712 K0.000 F600.000
G1 X76.443 Y-14.728 Z-4.000 F600.000
G0 Z5.000
G0 X77.136 Y-31.005 Z5.000
G0 X77.136 Y-31.005 Z3.000
G1 X77.136 Y-31.005 Z-2.000 F600.000
G3 X77.824 Y-29.600 Z-2.000 I-1.731 J1.720 K0.000 F600.000
G3 X77.721 Y-27.592 Z-2.000 I-10.737 J0.454 K0.000 F600.000
G1 X73.213 Y-32.100 Z-2.000 F600.000
G2 X71.209 Y-31.944 Z-2.000 I-0.067 J12.124 K0.000 F600.000
G2 X70.677 Y-31.807 Z-2.000 I0.733 J3.947 K0.000 F600.000
G1 X77.151 Y-25.333 Z-2.000 F600.000
G3 X76.467 Y-23.189 Z-2.000 I-68.138 J-20.546 K0.000 F600.000
G1 X68.907 Y-30.749 Z-2.000 F600.000
G2 X68.247 Y-28.885 Z-2.000 I2.167 J1.816 K0.000 F600.000
G1 X68.235 Y-28.593 Z-2.000 F600.000
G1 X75.745 Y-21.082 Z-2.000 F600.000
G3 X75.034 Y-19.139 Z-2.000 I-89.744 J-31.738 K0.000 F600.000
G2 X74.992 Y-19.007 Z-2.000 I1.682 J0.605 K0.000 F600.000
G1 X68.619 Y-25.380 Z-2.000 F600.000
G2 X69.596 Y-21.575 Z-2.000 I42.433 J-8.862 K0.000 F600.000
G1 X74.648 Y-16.523 Z-2.000 F600.000
G2 X74.940 Y-15.854 Z-2.000 I1.836 J-0.405 K0.000 F600.000
G2 X76.215 Y-14.956 Z-2.000 I1.998 J-1.482 K0.000 F600.000
G1 X78.748 Y-12.423 Z-2.000 F600.000
G3 X78.173 Y-12.312 Z-2.000 I-0.718 J-2.182 K0.000 F600.000
G2 X76.225 Y-12.247 Z-2.000 I2.063 J90.525 K0.000 F600.000
G2 X76.113 Y-12.229 Z-2.000 I0.096 J0.994 K0.000 F600.000
G1 X70.501 Y-17.841 Z-2.000 F600.000
G3 X69.634 Y-15.880 Z-2.000 I-2.400 J0.112 K0.000 F600.000
G1 X74.702 Y-10.812 Z-2.000 F600.000
G2 X74.554 Y-10.208 Z-2.000 I2.888 J1.027 K0.000 F600.000
G2 X74.386 Y-8.299 Z-2.000 I31.486 J3.725 K0.000 F600.000
G1 X67.551 Y-15.134 Z-2.000 F600.000
G3 X66.234 Y-15.002 Z-2.000 I-1.577 J-9.072 K0.000 F600.000
G3 X64.947 Y-14.909 Z-2.000 I-4.006 J-46.625 K0.000 F600.000
G1 X67.575 Y-12.282 Z-2.000 F600.000
G2 X66.116 Y-12.200 Z-2.000 I-0.206 J9.389 K0.000 F600.000
G2 X65.220 Y-11.809 Z-2.000 I0.416 J2.174 K0.000 F600.000
G1 X62.233 Y-14.795 Z-2.000 F600.000
G3 X60.000 Y-14.786 Z-2.000 I-1.381 J-60.508 K0.000 F600.000
G1 X59.419 Y-14.781 Z-2.000 F600.000
G1 X64.311 Y-9.889 Z-2.000 F600.000
G2 X64.259 Y-9.102 Z-2.000 I5.967 J0.786 K0.000 F600.000
G3 X64.278 Y-7.094 Z-2.000 I-263.116 J3.379 K0.000 F600.000
G1 X64.029 Y-7.342 Z-2.000 F600.000
G3 X64.040 Y-4.503 Z-2.000 I-55.419 J1.629 K0.000 F600.000
G1 X64.287 Y-4.256 Z-2.000 F600.000
G2 X64.285 Y-2.885 Z-2.000 I117.708 J0.863 K0.000 F600.000
G2 X64.390 Y-2.098 Z-2.000 I3.299 J-0.040 K0.000 F600.000
G2 X65.884 Y-0.392 Z-2.000 I2.165 J-0.388 K0.000 F600.000
G2 X68.411 Y-0.132 Z-2.000 I2.060 J-7.621 K0.000 F600.000
G1 X73.174 Y4.631 Z-2.000 F600.000
G2 X73.167 Y4.837 Z-2.000 I3.318 J0.213 K0.000 F600.000
G3 X73.180 Y7.465 Z-2.000 I-370.469 J3.052 K0.000 F600.000
G1 X70.807 Y5.092 Z-2.000 F600.000
G3 X70.666 Y7.780 Z-2.000 I-23.302 J0.125 K0.000 F600.000
G1 X73.181 Y10.295 Z-2.000 F600.000
G3 X73.170 Y13.113 Z-2.000 I-397.175 J-0.090 K0.000 F600.000
G1 X70.031 Y9.973 Z-2.000 F600.000
G3 X68.897 Y10.778 Z-2.000 I-1.966 J-1.567 K0.000 F600.000
G3 X68.216 Y10.987 Z-2.000 I-1.583 J-3.951 K0.000 F600.000
G1 X71.935 Y14.706 Z-2.000 F600.000
G1 X71.935 Y14.706 Z-4.000 F600.000
G1 X68.216 Y10.987 Z-4.000 F600.000
G2 X68.897 Y10.778 Z-4.000 I-0.903 J-4.160 K0.000 F600.000
G2 X70.031 Y9.973 Z-4.000 I-0.832 J-2.373 K0.000 F600.000
G1 X73.170 Y13.113 Z-4.000 F600.000
G2 X73.181 Y10.295 Z-4.000 I-397.164 J-2.908 K0.000 F600.000
G1 X70.666 Y7.780 Z-4.000 F600.000
G2 X70.807 Y5.092 Z-4.000 I-23.161 J-2.563 K0.000 F600.000
G1 X73.180 Y7.465 Z-4.000 F600.000
G2 X73.167 Y4.837 Z-4.000 I-370.481 J0.424 K0.000 F600.000
G3 X73.174 Y4.631 Z-4.000 I3.325 J0.008 K0.000 F600.000
G1 X68.411 Y-0.132 Z-4.000 F600.000
G3 X65.884 Y-0.392 Z-4.000 I-0.467 J-7.880 K0.000 F600.000
G3 X64.390 Y-2.098 Z-4.000 I0.671 J-2.094 K0.000 F600.000
G3 X64.285 Y-2.885 Z-4.000 I3.194 J-0.827 K0.000 F600.000
G3 X64.287 Y-4.256 Z-4.000 I117.710 J-0.508 K0.000 F600.000
G1 X64.040 Y-4.503 Z-4.000 F600.000
G2 X64.029 Y-7.342 Z-4.000 I-55.430 J-1.210 K0.000 F600.000
G1 X64.278 Y-7.094 Z-4.000 F600.000
G2 X64.259 Y-9.102 Z-4.000 I-263.134 J1.370 K0.000 F600.000
G3 X64.311 Y-9.889 Z-4.000 I6.018 J-0.001 K0.000 F600.000
G1 X59.419 Y-14.781 Z-4.000 F600.000
G1 X60.000 Y-14.786 Z-4.000 F600.000
G2 X62.233 Y-14.795 Z-4.000 I0.852 J-60.517 K0.000 F600.000
G1 X65.220 Y-11.809 Z-4.000 F600.000
G3 X66.116 Y-12.200 Z-4.000 I1.312 J1.783 K0.000 F600.000
G3 X67.575 Y-12.282 Z-4.000 I1.253 J9.308 K0.000 F600.000
G1 X64.947 Y-14.909 Z-4.000 F600.000
G2 X66.234 Y-15.002 Z-4.000 I-2.719 J-46.717 K0.000 F600.000
G2 X67.551 Y-15.134 Z-4.000 I-0.260 J-9.204 K0.000 F600.000
G1 X74.386 Y-8.299 Z-4.000 F600.000
G3 X74.554 Y-10.208 Z-4.000 I31.653 J1.816 K0.000 F600.000
G3 X74.702 Y-10.812 Z-4.000 I3.036 J0.423 K0.000 F600.000
G1 X69.634 Y-15.880 Z-4.000 F600.000
G2 X70.501 Y-17.841 Z-4.000 I-1.534 J-1.850 K0.000 F600.000
G1 X76.113 Y-12.229 Z-4.000 F600.000
G3 X76.225 Y-12.247 Z-4.000 I0.208 J0.976 K0.000 F600.000
G3 X78.173 Y-12.312 Z-4.000 I4.012 J90.460 K0.000 F600.000
G2 X78.748 Y-12.423 Z-4.000 I-0.143 J-2.293 K0.000 F600.000
G1 X76.215 Y-14.956 Z-4.000 F600.000
G3 X74.940 Y-15.854 Z-4.000 I0.723 J-2.380 K0.000 F600.000
G3 X74.648 Y-16.523 Z-4.000 I1.544 J-1.073 K0.000 F600.000
G1 X69.596 Y-21.575 Z-4.000 F600.000
G3 X68.619 Y-25.380 Z-4.000 I41.456 J-12.667 K0.000 F600.000
G1 X74.992 Y-19.007 Z-4.000 F600.000
G3 X75.034 Y-19.139 Z-4.000 I1.724 J0.473 K0.000 F600.000
G2 X75.745 Y-21.082 Z-4.000 I-89.033 J-33.681 K0.000 F600.000
G1 X68.235 Y-28.593 Z-4.000 F600.000
G1 X68.247 Y-28.885 Z-4.000 F600.000
G3 X68.907 Y-30.749 Z-4.000 I2.827 J-0.048 K0.000 F600.000
G1 X76.467 Y-23.189 Z-4.000 F600.000
G2 X77.151 Y-25.333 Z-4.000 I-67.454 J-22.691 K0.000 F600.000
G1 X70.677 Y-31.807 Z-4.000 F600.000
G3 X71.209 Y-31.944 Z-4.000 I1.265 J3.810 K0.000 F600.000
G3 X73.213 Y-32.100 Z-4.000 I1.937 J11.969 K0.000 F600.000
G1 X77.721 Y-27.592 Z-4.000 F600.000
G2 X77.824 Y-29.600 Z-4.000 I-10.634 J-1.555 K0.000 F600.000
G2 X77.136 Y-31.005 Z-4.000 I-2.420 J0.315 K0.000 F600.000
G1 X77.136 Y-31.005 Z-6.000 F600.000
G3 X77.824 Y-29.600 Z-6.000 I-1.731 J1.720 K0.000 F600.000
G3 X77.721 Y-27.592 Z-6.000 I-10.737 J0.454 K0.000 F600.000
G1 X73.213 Y-32.100 Z-6.000 F600.000
G2 X71.209 Y-31.944 Z-6.000 I-0.067 J12.124 K0.000 F600.000
G2 X70.677 Y-31.807 Z-6.000 I0.733 J3.947 K0.000 F600.000
G1 X77.151 Y-25.333 Z-6.000 F600.000
G3 X76.467 Y-23.189 Z-6.000 I-68.138 J-20.546 K0.000 F600.000
G1 X68.907 Y-30.749 Z-6.000 F600.000
G2 X68.247 Y-28.885 Z-6.000 I2.167 J1.816 K0.000 F600.000
G1 X68.235 Y-28.593 Z-6.000 F600.000
G1 X75.745 Y-21.082 Z-6.000 F600.000
G3 X75.034 Y-19.139 Z-6.000 I-89.744 J-31.738 K0.000 F600.000
G2 X74.992 Y-19.007 Z-6.000 I1.682 J0.605 K0.000 F600.000
G1 X68.619 Y-25.380 Z-6.000 F600.000
G2 X69.596 Y-21.575 Z-6.000 I42.433 J-8.862 K0.000 F600.000
G1 X74.648 Y-16.523 Z-6.000 F600.000
G2 X74.940 Y-15.854 Z-6.000 I1.836 J-0.405 K0.000 F600.000
G2 X76.215 Y-14.956 Z-6.000 I1.998 J-1.482 K0.000 F600.000
G1 X78.748 Y-12.423 Z-6.000 F600.000
G3 X78.173 Y-12.312 Z-6.000 I-0.718 J-2.182 K0.000 F600.000
G2 X76.225 Y-12.247 Z-6.000 I2.063 J90.525 K0.000 F600.000
G2 X76.113 Y-12.229 Z-6.000 I0.096 J0.994 K0.000 F600.000
G1 X70.501 Y-17.841 Z-6.000 F600.000
G3 X69.634 Y-15.880 Z-6.000 I-2.400 J0.112 K0.000 F600.000
G1 X74.702 Y-10.812 Z-6.000 F600.000
G2 X74.554 Y-10.208 Z-6.000 I2.888 J1.027 K0.000 F600.000
G2 X74.386 Y-8.299 Z-6.000 I31.486 J3.725 K0.000 F600.000
G1 X67.551 Y-15.134 Z-6.000 F600.000
G3 X66.234 Y-15.002 Z-6.000 I-1.577 J-9.072 K0.000 F600.000
G3 X64.947 Y-14.909 Z-6.000 I-4.006 J-46.625 K0.000 F600.000
G1 X67.575 Y-12.282 Z-6.000 F600.000
G2 X66.116 Y-12.200 Z-6.000 I-0.206 J9.389 K0.000 F600.000
G2 X65.220 Y-11.809 Z-6.000 I0.416 J2.174 K0.000 F600.000
G1 X62.233 Y-14.795 Z-6.000 F600.000
G3 X60.000 Y-14.786 Z-6.000 I-1.381 J-60.508 K0.000 F600.000
G1 X59.419 Y-14.781 Z-6.000 F600.000
G1 X64.311 Y-9.889 Z-6.000 F600.000
G2 X64.259 Y-9.102 Z-6.000 I5.967 J0.786 K0.000 F600.000
G3 X64.278 Y-7.094 Z-6.000 I-263.116 J3.379 K0.000 F600.000
G1 X64.029 Y-7.342 Z-6.000 F600.000
G3 X64.040 Y-4.503 Z-6.000 I-55.419 J1.629 K0.000 F600.000
G1 X64.287 Y-4.256 Z-6.000 F600.000
G2 X64.285 Y-2.885 Z-6.000 I117.708 J0.863 K0.000 F600.000
G2 X64.390 Y-2.098 Z-6.000 I3.299 J-0.040 K0.000 F600.000
G2 X65.884 Y-0.392 Z-6.000 I2.165 J-0.388 K0.000 F600.000
G2 X68.411 Y-0.132 Z-6.000 I2.060 J-7.621 K0.000 F600.000
G1 X73.174 Y4.631 Z-6.000 F600.000
G2 X73.167 Y4.837 Z-6.000 I3.318 J0.213 K0.000 F600.000
G3 X73.180 Y7.465 Z-6.000 I-370.469 J3.052 K0.000 F600.000
G1 X70.807 Y5.092 Z-6.000 F600.000
G3 X70.666 Y7.780 Z-6.000 I-23.302 J0.125 K0.000 F600.000
G1 X73.181 Y10.295 Z-6.000 F600.000
G3 X73.170 Y13.113 Z-6.000 I-397.175 J-0.090 K0.000 F600.000
G1 X70.031 Y9.973 Z-6.000 F600.000
G3 X68.897 Y10.778 Z-6.000 I-1.966 J-1.567 K0.000 F600.000
G3 X68.216 Y10.987 Z-6.000 I-1.583 J-3.951 K0.000 F600.000
G1 X71.935 Y14.706 Z-6.000 F600.000
G0 Z5.000
G0 X69.381 Y10.548 Z5.000
G0 X69.381 Y10.548 Z3.000
G1 X69.381 Y10.548 Z-6.000 F600.000
G3 X68.913 Y10.772 Z-6.000 I-1.311 J-2.134 K0.000 F600.000
G3 X65.506 Y10.722 Z-6.000 I-1.643 J-4.074 K0.000 F600.000
G3 X64.504 Y9.572 Z-6.000 I1.007 J-1.890 K0.000 F600.000
G3 X64.281 Y7.161 Z-6.000 I6.714 J-1.836 K0.000 F600.000
G3 X64.651 Y3.385 Z-6.000 I13.501 J-0.584 K0.000 F600.000
G3 X67.679 Y1.251 Z-6.000 I2.939 J0.956 K0.000 F600.000
G3 X68.321 Y1.231 Z-6.000 I1.059 J23.773 K0.000 F600.000
G3 X69.353 Y1.341 Z-6.000 I-0.009 J4.976 K0.000 F600.000
G3 X69.719 Y1.442 Z-6.000 I-0.432 J2.289 K0.000 F600.000
G3 X70.673 Y2.665 Z-6.000 I-0.702 J1.531 K0.000 F600.000
G3 X70.494 Y9.043 Z-6.000 I-23.581 J2.530 K0.000 F600.000
G3 X69.381 Y10.548 Z-6.000 I-2.424 J-0.630 K0.000 F600.000
G0 Z5.000
G0 X63.892 Y9.301 Z5.000
G0 X63.892 Y9.301 Z3.000
G1 X63.892 Y9.301 Z-6.000 F600.000
G3 X62.308 Y10.887 Z-6.000 I-2.071 J-0.485 K0.000 F600.000
G3 X59.276 Y10.755 Z-6.000 I-1.326 J-4.434 K0.000 F600.000
G3 X57.960 Y9.588 Z-6.000 I1.154 J-2.627 K0.000 F600.000
G3 X56.478 Y3.873 Z-6.000 I14.701 J-6.861 K0.000 F600.000
G3 X56.494 Y3.192 Z-6.000 I3.918 J-0.251 K0.000 F600.000
G3 X57.929 Y1.415 Z-6.000 I2.000 J0.148 K0.000 F600.000
G3 X59.270 Y1.232 Z-6.000 I1.452 J5.617 K0.000 F600.000
G3 X59.527 Y1.233 Z-6.000 I0.091 J10.413 K0.000 F600.000
G2 X60.664 Y1.273 Z-6.000 I1.597 J-29.055 K0.000 F600.000
G3 X63.657 Y3.378 Z-6.000 I0.084 J3.061 K0.000 F600.000
G3 X63.809 Y3.983 Z-6.000 I-5.661 J1.751 K0.000 F600.000
G3 X63.892 Y9.301 Z-6.000 I-18.320 J2.944 K0.000 F600.000
G0 Z5.000
G0 X61.399 Y1.341 Z5.000
G0 X61.399 Y1.341 Z3.000
G1 X61.399 Y1.341 Z-6.000 F600.000
G1 X59.932 Y-0.126 Z-6.000 F600.000
G3 X57.000 Y-0.229 Z-6.000 I-0.800 J-18.890 K0.000 F600.000
G1 X58.525 Y1.295 Z-6.000 F600.000
G1 X58.566 Y-0.117 Z-6.000 F600.000
G3 X56.856 Y-0.245 Z-6.000 I0.560 J-18.986 K0.000 F600.000
G3 X54.398 Y-2.232 Z-6.000 I0.357 J-2.956 K0.000 F600.000
G3 X53.093 Y-9.755 Z-6.000 I30.446 J-9.157 K0.000 F600.000
G3 X55.101 Y-12.136 Z-6.000 I2.238 J-0.150 K0.000 F600.000
G3 X56.871 Y-12.288 Z-6.000 I1.643 J8.756 K0.000 F600.000
G3 X57.226 Y-12.276 Z-6.000 I-0.024 J5.886 K0.000 F600.000
G3 X60.582 Y-12.118 Z-6.000 I-0.103 J38.035 K0.000 F600.000
G3 X63.968 Y-8.841 Z-6.000 I-0.374 J3.775 K0.000 F600.000
G3 X64.007 Y-3.322 Z-6.000 I-58.932 J3.170 K0.000 F600.000
G3 X63.767 Y-2.004 Z-6.000 I-7.384 J-0.664 K0.000 F600.000
G3 X62.014 Y-0.329 Z-6.000 I-2.389 J-0.746 K0.000 F600.000
G3 X58.566 Y-0.117 Z-6.000 I-2.888 J-18.773 K0.000 F600.000
G0 Z5.000
G0 X64.447 Y-1.861 Z5.000
G0 X64.447 Y-1.861 Z3.000
G1 X64.447 Y-1.861 Z-6.000 F600.000
G3 X64.390 Y-2.098 Z-6.000 I2.108 J-0.625 K0.000 F600.000
G3 X64.286 Y-2.874 Z-6.000 I3.192 J-0.826 K0.000 F600.000
G2 X64.259 Y-9.102 Z-6.000 I-417.363 J-1.366 K0.000 F600.000
G3 X64.455 Y-10.657 Z-6.000 I6.395 J0.013 K0.000 F600.000
G3 X64.583 Y-11.072 Z-6.000 I2.604 J0.580 K0.000 F600.000
G3 X66.116 Y-12.200 Z-6.000 I1.939 J1.031 K0.000 F600.000
G3 X67.538 Y-12.283 Z-6.000 I1.252 J9.286 K0.000 F600.000
G3 X69.176 Y-12.134 Z-6.000 I-0.134 J10.581 K0.000 F600.000
G3 X70.665 Y-10.548 Z-6.000 I-0.493 J1.955 K0.000 F600.000
G3 X70.777 Y-9.832 Z-6.000 I-2.933 J0.826 K0.000 F600.000
G3 X70.775 Y-3.078 Z-6.000 I-237.514 J3.292 K0.000 F600.000
G3 X70.605 Y-1.606 Z-6.000 I-13.054 J-0.761 K0.000 F600.000
G3 X70.147 Y-0.701 Z-6.000 I-1.705 J-0.295 K0.000 F600.000
G3 X69.457 Y-0.266 Z-6.000 I-1.177 J-1.102 K0.000 F600.000
G3 X65.884 Y-0.392 Z-6.000 I-1.518 J-7.720 K0.000 F600.000
G3 X64.447 Y-1.861 Z-6.000 I0.671 J-2.094 K0.000 F600.000
G0 Z5.000
G0 X67.018 Y1.303 Z5.000
G0 X67.018 Y1.303 Z3.000
G1 X67.018 Y1.303 Z-6.000 F600.000
G1 X63.754 Y-1.960 Z-6.000 F600.000
G3 X62.413 Y-0.473 Z-6.000 I-2.373 J-0.791 K0.000 F600.000
G1 X65.231 Y2.345 Z-6.000 F600.000
G2 X64.641 Y3.424 Z-6.000 I2.226 J1.918 K0.000 F600.000
G2 X64.448 Y4.390 Z-6.000 I10.809 J2.666 K0.000 F600.000
G1 X63.741 Y3.683 Z-6.000 F600.000
G3 X63.822 Y4.045 Z-6.000 I-4.305 J1.151 K0.000 F600.000
G3 X64.043 Y6.813 Z-6.000 I-18.182 J2.846 K0.000 F600.000
G1 X64.277 Y7.048 Z-6.000 F600.000
G3 X64.266 Y7.371 Z-6.000 I-1.598 J0.108 K0.000 F600.000
G2 X64.504 Y9.572 Z-6.000 I6.979 J0.361 K0.000 F600.000
G2 X65.506 Y10.722 Z-6.000 I2.009 J-0.741 K0.000 F600.000
G2 X68.216 Y10.987 Z-6.000 I1.762 J-4.019 K0.000 F600.000
G1 X71.935 Y14.706 Z-6.000 F600.000
G3 X71.293 Y14.757 Z-6.000 I-0.919 J-7.446 K0.000 F600.000
G3 X69.175 Y14.774 Z-6.000 I-2.572 J-183.191 K0.000 F600.000
G1 X63.853 Y9.452 Z-6.000 F600.000
G3 X62.427 Y10.855 Z-6.000 I-2.035 J-0.643 K0.000 F600.000
G1 X66.350 Y14.777 Z-6.000 F600.000
G3 X63.503 Y14.759 Z-6.000 I0.141 J-246.264 K0.000 F600.000
G1 X59.618 Y10.874 Z-6.000 F600.000
G3 X58.994 Y10.614 Z-6.000 I0.694 J-2.543 K0.000 F600.000
G3 X57.939 Y9.549 Z-6.000 I1.441 J-2.482 K0.000 F600.000
G3 X57.667 Y8.923 Z-6.000 I9.930 J-4.689 K0.000 F600.000
G1 X53.485 Y4.741 Z-6.000 F600.000
G3 X55.536 Y9.620 Z-6.000 I-42.812 J20.866 K0.000 F600.000
G2 X57.120 Y13.485 Z-6.000 I33.602 J-11.515 K0.000 F600.000
G2 X58.416 Y14.410 Z-6.000 I1.802 J-1.153 K0.000 F600.000
G2 X60.621 Y14.706 Z-6.000 I3.202 J-15.541 K0.000 F600.000
G1 X55.536 Y9.620 Z-6.000 F600.000
G0 Z5.000
G0 X51.782 Y3.038 Z5.000
G0 X51.782 Y3.038 Z3.000
G1 X51.782 Y3.038 Z-6.000 F600.000
G1 X48.573 Y-0.171 Z-6.000 F600.000
G3 X47.071 Y-0.080 Z-6.000 I-1.935 J-19.534 K0.000 F600.000
G2 X46.040 Y0.044 Z-6.000 I1.258 J14.751 K0.000 F600.000
G2 X46.003 Y0.085 Z-6.000 I0.055 J0.089 K0.000 F600.000
G1 X48.243 Y2.328 Z-6.000 F600.000
G3 X46.623 Y1.922 Z-6.000 I0.583 J-5.764 K0.000 F600.000
G3 X46.003 Y1.037 Z-6.000 I0.496 J-1.007 K0.000 F600.000
G2 X45.992 Y0.116 Z-6.000 I-20.736 J-0.219 K0.000 F600.000
G3 X46.051 Y0.039 Z-6.000 I0.103 J0.017 K0.000 F600.000
G3 X47.071 Y-0.080 Z-6.000 I4.668 J35.655 K0.000 F600.000
G2 X50.246 Y-0.414 Z-6.000 I-0.375 J-18.828 K0.000 F600.000
G2 X51.460 Y-2.348 Z-6.000 I-0.403 J-1.601 K0.000 F600.000
G2 X50.973 Y-3.740 Z-6.000 I-7.752 J1.926 K0.000 F600.000
G3 X47.652 Y-13.775 Z-6.000 I35.080 J-17.178 K0.000 F600.000
G3 X47.636 Y-14.118 Z-6.000 I2.870 J-0.307 K0.000 F600.000
G3 X47.699 Y-14.371 Z-6.000 I0.342 J-0.049 K0.000 F600.000
G3 X47.867 Y-14.481 Z-6.000 I0.240 J0.183 K0.000 F600.000
G3 X50.068 Y-14.707 Z-6.000 I3.078 J19.147 K0.000 F600.000
G1 X60.000 Y-14.786 Z-6.000 F600.000
G2 X66.234 Y-15.002 Z-6.000 I0.878 J-64.571 K0.000 F600.000
G2 X68.648 Y-15.389 Z-6.000 I-0.280 J-9.459 K0.000 F600.000
G2 X70.472 Y-18.114 Z-6.000 I-0.549 J-2.341 K0.000 F600.000
G2 X69.882 Y-20.663 Z-6.000 I-23.529 J4.100 K0.000 F600.000
G3 X68.336 Y-26.850 Z-6.000 I42.092 J-13.807 K0.000 F600.000
G3 X68.248 Y-28.903 Z-6.000 I9.734 J-1.446 K0.000 F600.000
G3 X69.309 Y-31.141 Z-6.000 I2.814 J-0.036 K0.000 F600.000
G3 X71.561 Y-31.996 Z-6.000 I2.849 J4.112 K0.000 F600.000
G3 X72.685 Y-32.091 Z-6.000 I1.613 J12.286 K0.000 F600.000
G1 X72.685 Y-32.091 Z-6.000 F600.000
G3 X75.035 Y-31.958 Z-6.000 I0.497 J12.007 K0.000 F600.000
G3 X76.674 Y-31.370 Z-6.000 I-0.926 J5.165 K0.000 F600.000
G3 X77.824 Y-29.600 Z-6.000 I-1.273 J2.086 K0.000 F600.000
G3 X77.520 Y-26.560 Z-6.000 I-10.811 J0.452 K0.000 F600.000
G3 X75.013 Y-19.078 Z-6.000 I-104.518 J-30.855 K0.000 F600.000
G2 X74.598 Y-17.119 Z-6.000 I9.325 J2.998 K0.000 F600.000
G2 X74.908 Y-15.897 Z-6.000 I2.053 J0.130 K0.000 F600.000
G2 X76.598 Y-14.869 Z-6.000 I2.041 J-1.452 K0.000 F600.000
G3 X78.180 Y-14.496 Z-6.000 I-0.531 J5.785 K0.000 F600.000
G3 X79.499 Y-13.310 Z-6.000 I-0.635 J2.033 K0.000 F600.000
G3 X79.366 Y-12.736 Z-6.000 I-0.528 J0.180 K0.000 F600.000
G3 X78.173 Y-12.312 Z-6.000 I-1.335 J-1.867 K0.000 F600.000
G2 X76.225 Y-12.247 Z-6.000 I2.063 J90.526 K0.000 F600.000
G2 X75.121 Y-11.632 Z-6.000 I0.240 J1.729 K0.000 F600.000
G2 X74.554 Y-10.208 Z-6.000 I2.702 J1.901 K0.000 F600.000
G2 X74.601 Y-2.129 Z-6.000 I32.740 J3.849 K0.000 F600.000
G2 X75.121 Y-0.794 Z-6.000 I3.082 J-0.432 K0.000 F600.000
G2 X76.672 Y-0.139 Z-6.000 I1.341 J-1.010 K0.000 F600.000
G3 X76.808 Y-0.071 Z-6.000 I-0.012 J0.194 K0.000 F600.000
G3 X77.399 Y2.072 Z-6.000 I-2.845 J1.937 K0.000 F600.000
G3 X77.293 Y2.183 Z-6.000 I-0.246 J-0.129 K0.000 F600.000
G3 X75.779 Y2.389 Z-6.000 I-1.463 J-5.082 K0.000 F600.000
G2 X74.696 Y2.396 Z-6.000 I-0.506 J5.215 K0.000 F600.000
G2 X73.205 Y3.789 Z-6.000 I0.102 J1.604 K0.000 F600.000
G2 X73.167 Y4.826 Z-6.000 I545.552 J20.440 K0.000 F600.000
G3 X73.166 Y13.929 Z-6.000 I-652.225 J4.468 K0.000 F600.000
G3 X73.071 Y14.408 Z-6.000 I-0.889 J0.073 K0.000 F600.000
G3 X72.945 Y14.520 Z-6.000 I-0.254 J-0.160 K0.000 F600.000
G3 X71.293 Y14.757 Z-6.000 I-1.954 J-7.738 K0.000 F600.000
G3 X60.969 Y14.725 Z-6.000 I-4.044 J-358.038 K0.000 F600.000
G3 X58.416 Y14.410 Z-6.000 I0.673 J-15.993 K0.000 F600.000
G3 X57.120 Y13.485 Z-6.000 I0.506 J-2.079 K0.000 F600.000
G3 X55.450 Y9.380 Z-6.000 I33.942 J-16.193 K0.000 F600.000
G2 X53.337 Y4.441 Z-6.000 I-44.885 J16.287 K0.000 F600.000
G2 X51.495 Y2.917 Z-6.000 I-3.149 J1.931 K0.000 F600.000
G2 X48.648 Y2.357 Z-6.000 I-4.426 J15.012 K0.000 F600.000
G3 X46.623 Y1.922 Z-6.000 I0.203 J-5.868 K0.000 F600.000
G3 X46.003 Y1.037 Z-6.000 I0.496 J-1.007 K0.000 F600.000
G2 X45.992 Y0.116 Z-6.000 I-20.737 J-0.219 K0.000 F600.000
G3 X46.002 Y0.086 Z-6.000 I0.098 J0.016 K0.000 F600.000
G0 Z5.000
G0 X48.573 Y-0.171 Z5.000
G0 X48.573 Y-0.171 Z3.000
G1 X48.573 Y-0.171 Z-6.000 F600.000
G1 X51.782 Y3.038 Z-6.000 F600.000
G3 X53.318 Y4.410 Z-6.000 I-1.613 J3.352 K0.000 F600.000
G3 X53.485 Y4.741 Z-6.000 I-2.259 J1.344 K0.000 F600.000
G1 X57.667 Y8.923 Z-6.000 F600.000
G3 X56.604 Y5.032 Z-6.000 I14.886 J-6.158 K0.000 F600.000
G1 X50.858 Y-0.715 Z-6.000 F600.000
G2 X51.482 Y-2.237 Z-6.000 I-1.019 J-1.307 K0.000 F600.000
G2 X51.193 Y-3.208 Z-6.000 I-7.072 J1.579 K0.000 F600.000
G1 X56.751 Y2.350 Z-6.000 F600.000
G3 X57.929 Y1.415 Z-6.000 I1.739 J0.982 K0.000 F600.000
G3 X58.525 Y1.295 Z-6.000 I1.440 J5.607 K0.000 F600.000
G1 X57.000 Y-0.229 Z-6.000 F600.000
G3 X54.398 Y-2.232 Z-6.000 I0.218 J-2.975 K0.000 F600.000
G3 X54.158 Y-3.072 Z-6.000 I17.963 J-5.598 K0.000 F600.000
G1 X49.172 Y-8.058 Z-6.000 F600.000
G3 X48.018 Y-12.040 Z-6.000 I35.805 J-12.533 K0.000 F600.000
G1 X53.406 Y-6.652 Z-6.000 F600.000
G3 X53.091 Y-9.795 Z-6.000 I31.289 J-4.722 K0.000 F600.000
G1 X48.336 Y-14.550 Z-6.000 F600.000
G3 X50.068 Y-14.707 Z-6.000 I2.593 J18.990 K0.000 F600.000
G1 X51.000 Y-14.714 Z-6.000 F600.000
G1 X54.003 Y-11.711 Z-6.000 F600.000
G3 X55.101 Y-12.136 Z-6.000 I1.315 J1.769 K0.000 F600.000
G3 X56.268 Y-12.275 Z-6.000 I1.582 J8.324 K0.000 F600.000
G1 X53.807 Y-14.737 Z-6.000 F600.000
G1 X56.613 Y-14.759 Z-6.000 F600.000
G1 X59.150 Y-12.221 Z-6.000 F600.000
G0 Z5.000
G0 X70.786 Y-9.071 Z5.000
G0 X70.786 Y-9.071 Z3.000
G1 X70.786 Y-9.071 Z-6.000 F600.000
G1 X74.339 Y-5.518 Z-6.000 F600.000
G2 X74.560 Y-2.469 Z-6.000 I32.333 J-0.809 K0.000 F600.000
G1 X70.799 Y-6.229 Z-6.000 F600.000
G3 X70.779 Y-3.421 Z-6.000 I-203.794 J-0.093 K0.000 F600.000
G1 X76.540 Y2.340 Z-6.000 F600.000
G3 X75.779 Y2.389 Z-6.000 I-0.701 J-4.976 K0.000 F600.000
G2 X74.696 Y2.396 Z-6.000 I-0.506 J5.215 K0.000 F600.000
G2 X73.985 Y2.613 Z-6.000 I0.106 J1.623 K0.000 F600.000
G1 X70.374 Y-0.997 Z-6.000 F600.000
G3 X69.541 Y-0.292 Z-6.000 I-1.466 J-0.887 K0.000 F600.000
G3 X69.083 Y-0.201 Z-6.000 I-0.748 J-2.565 K0.000 F600.000
G3 X68.411 Y-0.132 Z-6.000 I-1.131 J-7.765 K0.000 F600.000
G1 X73.174 Y4.631 Z-6.000 F600.000
G0 Z5.000
G0 X78.748 Y-12.423 Z5.000
G0 X78.748 Y-12.423 Z3.000
G1 X78.748 Y-12.423 Z-6.000 F600.000
G1 X76.215 Y-14.956 Z-6.000 F600.000
G2 X76.530 Y-14.880 Z-6.000 I0.656 J-2.021 K0.000 F600.000
G3 X78.179 Y-14.496 Z-6.000 I-0.543 J6.073 K0.000 F600.000
G3 X79.448 Y-13.423 Z-6.000 I-0.643 J2.047 K0.000 F600.000
G3 X79.377 Y-12.746 Z-6.000 I-0.482 J0.292 K0.000 F600.000
G3 X78.748 Y-12.423 Z-6.000 I-1.278 J-1.712 K0.000 F600.000
G0 Z5.000
G0 Z5.000
(Finish operation: Pocket_Shape)
(Begin postamble)
M5
G17 G90
M2
