(Exported by FreeCAD)
(Post Processor: script_module)
(Output Time:2025-03-20 11:58:44.049415)
(Begin preamble)
G17 G90
G21
(Begin operation: Fixture)
(Path: Fixture)
G54
(Finish operation: Fixture)
(Begin operation: 2mm_Endmill001)
(Path: 2mm_Endmill001)
(2mm_Endmill001)
(Begin toolchange)
( M6 T2 )
M3 S13000
(Finish operation: 2mm_Endmill001)
(Begin operation: Pocket_Shape)
(Path: Pocket_Shape)
(Pocket_Shape)
G0 Z5.000
G0 X30.263 Y-15.818
G0 Z3.000
G1 X30.263 Y-15.818 Z-2.000 F600.000
G1 X34.603 Y-11.478 Z-2.000 F600.000
G3 X30.799 Y-12.834 Z-2.000 I0.487 J-7.378 K0.000 F600.000
G3 X29.867 Y-14.016 Z-2.000 I1.446 J-2.098 K0.000 F600.000
G3 X29.901 Y-15.033 Z-2.000 I1.473 J-0.460 K0.000 F600.000
G3 X30.263 Y-15.818 Z-2.000 I3.789 J1.270 K0.000 F600.000
G3 X31.404 Y-17.505 Z-2.000 I11.005 J6.215 K0.000 F600.000
G1 X37.070 Y-11.839 Z-2.000 F600.000
G2 X38.643 Y-13.095 Z-2.000 I-1.400 J-3.368 K0.000 F600.000
G1 X32.643 Y-19.095 Z-2.000 F600.000
G1 X33.731 Y-20.548 Z-2.000 F600.000
G2 X33.845 Y-20.721 Z-2.000 I-1.846 J-1.355 K0.000 F600.000
G1 X39.521 Y-15.045 Z-2.000 F600.000
G2 X39.938 Y-17.456 Z-2.000 I-13.336 J-3.549 K0.000 F600.000
G1 X34.893 Y-22.501 Z-2.000 F600.000
G2 X35.578 Y-24.242 Z-2.000 I-8.607 J-4.393 K0.000 F600.000
G2 X35.662 Y-24.561 Z-2.000 I-2.205 J-0.752 K0.000 F600.000
G1 X40.100 Y-20.123 Z-2.000 F600.000
G2 X40.112 Y-22.939 Z-2.000 I-111.176 J-1.890 K0.000 F600.000
G1 X36.044 Y-27.008 Z-2.000 F600.000
G2 X35.787 Y-30.093 Z-2.000 I-11.500 J-0.596 K0.000 F600.000
G1 X40.051 Y-25.829 Z-2.000 F600.000
G1 X39.992 Y-26.583 Z-2.000 F600.000
G3 X39.638 Y-29.070 Z-2.000 I108.575 J-16.704 K0.000 F600.000
G1 X23.877 Y-44.831 Z-2.000 F600.000
G3 X25.704 Y-44.379 Z-2.000 I-0.313 J5.186 K0.000 F600.000
G3 X29.275 Y-42.262 Z-2.000 I-7.491 J16.703 K0.000 F600.000
G1 X40.246 Y-31.291 Z-2.000 F600.000
G3 X41.390 Y-31.655 Z-2.000 I1.076 J1.401 K0.000 F600.000
G3 X43.052 Y-31.313 Z-2.000 I-0.360 J5.958 K0.000 F600.000
G1 X34.987 Y-39.378 Z-2.000 F600.000
G1 X35.076 Y-39.409 Z-2.000 F600.000
G2 X36.134 Y-41.059 Z-2.000 I-0.901 J-1.742 K0.000 F600.000
G1 X46.676 Y-30.517 Z-2.000 F600.000
G2 X48.168 Y-30.662 Z-2.000 I0.360 J-4.036 K0.000 F600.000
G2 X48.341 Y-30.770 Z-2.000 I0.001 J-0.193 K0.000 F600.000
G2 X48.257 Y-31.228 Z-2.000 I-0.749 J-0.099 K0.000 F600.000
G2 X47.478 Y-32.509 Z-2.000 I-4.403 J1.800 K0.000 F600.000
G2 X45.246 Y-34.648 Z-2.000 I-15.292 J13.727 K0.000 F600.000
G3 X43.521 Y-36.501 Z-2.000 I7.810 J-8.999 K0.000 F600.000
G1 X36.234 Y-43.788 Z-2.000 F600.000
G2 X36.207 Y-46.643 Z-2.000 I-132.287 J-0.183 K0.000 F600.000
G1 X41.689 Y-41.162 Z-2.000 F600.000
G3 X41.368 Y-44.311 Z-2.000 I18.614 J-3.488 K0.000 F600.000
G1 X36.070 Y-49.609 Z-2.000 F600.000
G2 X35.623 Y-52.884 Z-2.000 I-20.638 J1.147 K0.000 F600.000
G1 X41.295 Y-47.212 Z-2.000 F600.000
G3 X41.296 Y-50.039 Z-2.000 I231.536 J-1.302 K0.000 F600.000
G1 X23.713 Y-67.622 Z-2.000 F600.000
G3 X24.286 Y-68.573 Z-2.000 I3.734 J1.601 K0.000 F600.000
G3 X25.169 Y-68.995 Z-2.000 I0.843 J0.630 K0.000 F600.000
G1 X41.404 Y-52.760 Z-2.000 F600.000
G3 X41.480 Y-53.199 Z-2.000 I3.027 J0.298 K0.000 F600.000
G3 X42.629 Y-54.364 Z-2.000 I1.365 J0.197 K0.000 F600.000
G1 X30.942 Y-66.050 Z-2.000 F600.000
G3 X38.866 Y-60.955 Z-2.000 I-921.803 J1442.163 K0.000 F600.000
G1 X48.446 Y-51.375 Z-2.000 F600.000
G1 X48.640 Y-51.458 Z-2.000 F600.000
G2 X49.668 Y-52.528 Z-2.000 I-1.812 J-2.770 K0.000 F600.000
G2 X49.696 Y-52.686 Z-2.000 I-0.121 J-0.102 K0.000 F600.000
G2 X49.496 Y-53.065 Z-2.000 I-1.119 J0.346 K0.000 F600.000
G2 X48.680 Y-53.969 Z-2.000 I-5.027 J3.716 K0.000 F600.000
G0 Z5.000
G0 X31.399 Y-57.108 Z5.000
G0 X31.399 Y-57.108 Z3.000
G1 X31.399 Y-57.108 Z-2.000 F600.000
G1 X23.019 Y-65.488 Z-2.000 F600.000
G2 X22.591 Y-63.087 Z-2.000 I15.550 J4.011 K0.000 F600.000
G1 X28.923 Y-56.756 Z-2.000 F600.000
G2 X26.665 Y-56.185 Z-2.000 I85.288 J342.579 K0.000 F600.000
G1 X22.447 Y-60.403 Z-2.000 F600.000
G2 X22.953 Y-57.142 Z-2.000 I9.536 J0.192 K0.000 F600.000
G1 X23.014 Y-57.008 Z-2.000 F600.000
G1 X23.912 Y-56.110 Z-2.000 F600.000
G3 X23.014 Y-57.008 Z-2.000 I0.596 J-1.494 K0.000 F600.000
G0 Z5.000
G0 X20.973 Y-33.593 Z5.000
G0 X20.973 Y-33.593 Z3.000
G1 X20.973 Y-33.593 Z-2.000 F600.000
G3 X18.626 Y-34.562 Z-2.000 I0.233 J-3.891 K0.000 F600.000
G3 X17.668 Y-36.898 Z-2.000 I2.688 J-2.467 K0.000 F600.000
G1 X20.973 Y-33.593 Z-2.000 F600.000
G2 X22.586 Y-33.513 Z-2.000 I1.131 J-6.512 K0.000 F600.000
G2 X26.137 Y-33.796 Z-2.000 I-1.656 J-43.222 K0.000 F600.000
G3 X30.068 Y-34.124 Z-2.000 I6.171 J50.273 K0.000 F600.000
G3 X32.902 Y-33.796 Z-2.000 I0.439 J8.616 K0.000 F600.000
G3 X35.362 Y-31.509 Z-2.000 I-1.185 J3.741 K0.000 F600.000
G3 X33.767 Y-20.601 Z-2.000 I-10.959 J3.969 K0.000 F600.000
G3 X31.298 Y-17.368 Z-2.000 I-78.629 J-57.510 K0.000 F600.000
G2 X29.901 Y-15.033 Z-2.000 I6.682 J5.581 K0.000 F600.000
G2 X29.867 Y-14.016 Z-2.000 I1.440 J0.557 K0.000 F600.000
G2 X30.799 Y-12.834 Z-2.000 I2.378 J-0.916 K0.000 F600.000
G2 X35.875 Y-11.508 Z-2.000 I4.295 J-6.063 K0.000 F600.000
G2 X39.220 Y-14.134 Z-2.000 I-0.424 J-3.984 K0.000 F600.000
G2 X40.027 Y-18.420 Z-2.000 I-13.923 J-4.843 K0.000 F600.000
G2 X40.104 Y-24.529 Z-2.000 I-73.501 J-3.982 K0.000 F600.000
G2 X39.911 Y-27.201 Z-2.000 I-20.254 J0.123 K0.000 F600.000
G3 X39.610 Y-29.654 Z-2.000 I13.926 J-2.952 K0.000 F600.000
G3 X40.120 Y-31.174 Z-2.000 I2.154 J-0.123 K0.000 F600.000
G3 X41.945 Y-31.596 Z-2.000 I1.286 J1.406 K0.000 F600.000
G3 X44.669 Y-30.835 Z-2.000 I-8.345 J35.107 K0.000 F600.000
G2 X46.693 Y-30.516 Z-2.000 I2.613 J-9.989 K0.000 F600.000
G2 X48.168 Y-30.662 Z-2.000 I0.343 J-4.038 K0.000 F600.000
G2 X48.341 Y-30.770 Z-2.000 I0.001 J-0.193 K0.000 F600.000
G2 X48.206 Y-31.356 Z-2.000 I-1.081 J-0.060 K0.000 F600.000
G2 X46.697 Y-33.352 Z-2.000 I-5.521 J2.607 K0.000 F600.000
G3 X44.317 Y-35.549 Z-2.000 I25.294 J-29.783 K0.000 F600.000
G3 X42.765 Y-37.681 Z-2.000 I7.032 J-6.749 K0.000 F600.000
G3 X41.641 Y-41.422 Z-2.000 I10.014 J-5.049 K0.000 F600.000
G3 X41.297 Y-46.660 Z-2.000 I33.952 J-4.855 K0.000 F600.000
G3 X41.414 Y-52.848 Z-2.000 I66.845 J-1.832 K0.000 F600.000
G3 X42.071 Y-54.162 Z-2.000 I1.841 J0.099 K0.000 F600.000
G3 X43.567 Y-54.132 Z-2.000 I0.726 J1.120 K0.000 F600.000
G3 X45.612 Y-52.577 Z-2.000 I-22.106 J31.181 K0.000 F600.000
G2 X47.679 Y-51.405 Z-2.000 I5.326 J-6.987 K0.000 F600.000
G2 X48.640 Y-51.458 Z-2.000 I0.424 J-1.045 K0.000 F600.000
G2 X49.668 Y-52.528 Z-2.000 I-1.812 J-2.770 K0.000 F600.000
G2 X49.696 Y-52.686 Z-2.000 I-0.121 J-0.102 K0.000 F600.000
G2 X49.496 Y-53.065 Z-2.000 I-1.119 J0.346 K0.000 F600.000
G2 X47.288 Y-55.153 Z-2.000 I-8.979 J7.282 K0.000 F600.000
G2 X41.854 Y-58.994 Z-2.000 I-51.503 J67.110 K0.000 F600.000
G2 X32.091 Y-65.315 Z-2.000 I-540.994 J824.780 K0.000 F600.000
G2 X27.047 Y-68.390 Z-2.000 I-41.602 J62.582 K0.000 F600.000
G2 X25.418 Y-68.978 Z-2.000 I-2.760 J5.096 K0.000 F600.000
G2 X24.469 Y-68.753 Z-2.000 I-0.237 J1.117 K0.000 F600.000
G2 X23.645 Y-67.471 Z-2.000 I2.421 J2.461 K0.000 F600.000
G2 X22.448 Y-60.103 Z-2.000 I18.146 J6.729 K0.000 F600.000
G2 X22.953 Y-57.142 Z-2.000 I9.459 J-0.090 K0.000 F600.000
G2 X23.950 Y-56.092 Z-2.000 I1.602 J-0.524 K0.000 F600.000
G2 X25.574 Y-55.992 Z-2.000 I1.027 J-3.436 K0.000 F600.000
G2 X28.365 Y-56.616 Z-2.000 I-2.508 J-17.774 K0.000 F600.000
G3 X30.433 Y-57.060 Z-2.000 I4.379 J15.362 K0.000 F600.000
G3 X33.516 Y-56.494 Z-2.000 I0.770 J4.491 K0.000 F600.000
G3 X35.316 Y-53.993 Z-2.000 I-2.712 J3.850 K0.000 F600.000
G3 X35.902 Y-51.330 Z-2.000 I-11.396 J3.906 K0.000 F600.000
G3 X36.098 Y-49.320 Z-2.000 I-29.123 J3.851 K0.000 F600.000
G3 X36.200 Y-41.713 Z-2.000 I-92.247 J5.040 K0.000 F600.000
G3 X36.032 Y-40.583 Z-2.000 I-5.220 J-0.197 K0.000 F600.000
G3 X34.061 Y-39.319 Z-2.000 I-1.594 J-0.317 K0.000 F600.000
G3 X32.380 Y-40.101 Z-2.000 I1.209 J-4.800 K0.000 F600.000
G3 X28.105 Y-43.059 Z-2.000 I140.453 J-207.525 K0.000 F600.000
G2 X25.087 Y-44.603 Z-2.000 I-6.867 J9.702 K0.000 F600.000
G2 X22.117 Y-44.516 Z-2.000 I-1.372 J3.913 K0.000 F600.000
G2 X19.313 Y-42.195 Z-2.000 I3.123 J6.629 K0.000 F600.000
G2 X17.682 Y-36.720 Z-2.000 I5.892 J4.736 K0.000 F600.000
G2 X18.626 Y-34.562 Z-2.000 I3.608 J-0.293 K0.000 F600.000
G2 X20.973 Y-33.593 Z-2.000 I2.580 J-2.922 K0.000 F600.000
G2 X23.810 Y-33.584 Z-2.000 I1.456 J-11.988 K0.000 F600.000
G1 X17.923 Y-39.471 Z-2.000 F600.000
G3 X18.794 Y-41.429 Z-2.000 I6.786 J1.844 K0.000 F600.000
G1 X26.400 Y-33.823 Z-2.000 F600.000
G3 X28.982 Y-34.069 Z-2.000 I6.960 J59.292 K0.000 F600.000
G1 X20.036 Y-43.015 Z-2.000 F600.000
G3 X21.619 Y-44.260 Z-2.000 I4.831 J4.514 K0.000 F600.000
G1 X31.843 Y-34.036 Z-2.000 F600.000
G0 Z5.000
G0 X46.382 Y-33.640 Z5.000
G0 X46.382 Y-33.640 Z3.000
G1 X46.382 Y-33.640 Z-2.000 F600.000
G3 X47.255 Y-32.767 Z-2.000 I-6.024 J6.897 K0.000 F600.000
G1 X46.382 Y-33.640 Z-2.000 F600.000
G1 X46.382 Y-33.640 Z-4.000 F600.000
G3 X47.255 Y-32.767 Z-4.000 I-6.024 J6.897 K0.000 F600.000
G1 X46.382 Y-33.640 Z-4.000 F600.000
G0 Z5.000
G0 X31.843 Y-34.036 Z5.000
G0 X31.843 Y-34.036 Z3.000
G1 X31.843 Y-34.036 Z-4.000 F600.000
G1 X21.619 Y-44.260 Z-4.000 F600.000
G2 X20.036 Y-43.015 Z-4.000 I3.248 J5.759 K0.000 F600.000
G1 X28.982 Y-34.069 Z-4.000 F600.000
G2 X26.400 Y-33.823 Z-4.000 I4.378 J59.538 K0.000 F600.000
G1 X18.794 Y-41.429 Z-4.000 F600.000
G2 X17.923 Y-39.471 Z-4.000 I5.915 J3.802 K0.000 F600.000
G1 X23.810 Y-33.584 Z-4.000 F600.000
G3 X20.973 Y-33.593 Z-4.000 I-1.381 J-11.996 K0.000 F600.000
G3 X18.626 Y-34.562 Z-4.000 I0.233 J-3.891 K0.000 F600.000
G3 X17.682 Y-36.720 Z-4.000 I2.664 J-2.451 K0.000 F600.000
G3 X19.313 Y-42.195 Z-4.000 I7.523 J-0.740 K0.000 F600.000
G3 X22.117 Y-44.516 Z-4.000 I5.928 J4.309 K0.000 F600.000
G3 X25.087 Y-44.603 Z-4.000 I1.598 J3.826 K0.000 F600.000
G3 X28.105 Y-43.059 Z-4.000 I-3.850 J11.246 K0.000 F600.000
G2 X32.380 Y-40.101 Z-4.000 I144.728 J-204.566 K0.000 F600.000
G2 X34.061 Y-39.319 Z-4.000 I2.890 J-4.019 K0.000 F600.000
G2 X36.032 Y-40.583 Z-4.000 I0.377 J-1.581 K0.000 F600.000
G2 X36.200 Y-41.713 Z-4.000 I-5.052 J-1.327 K0.000 F600.000
G2 X36.098 Y-49.320 Z-4.000 I-92.349 J-2.567 K0.000 F600.000
G2 X35.902 Y-51.330 Z-4.000 I-29.319 J1.841 K0.000 F600.000
G2 X35.316 Y-53.993 Z-4.000 I-11.983 J1.243 K0.000 F600.000
G2 X33.516 Y-56.494 Z-4.000 I-4.512 J1.349 K0.000 F600.000
G2 X30.433 Y-57.060 Z-4.000 I-2.313 J3.925 K0.000 F600.000
G2 X28.365 Y-56.616 Z-4.000 I2.312 J15.805 K0.000 F600.000
G3 X25.574 Y-55.992 Z-4.000 I-5.299 J-17.150 K0.000 F600.000
G3 X23.950 Y-56.092 Z-4.000 I-0.597 J-3.537 K0.000 F600.000
G3 X22.953 Y-57.142 Z-4.000 I0.605 J-1.573 K0.000 F600.000
G3 X22.448 Y-60.103 Z-4.000 I8.954 J-3.051 K0.000 F600.000
G3 X23.645 Y-67.471 Z-4.000 I19.343 J-0.638 K0.000 F600.000
G3 X24.469 Y-68.753 Z-4.000 I3.245 J1.179 K0.000 F600.000
G3 X25.418 Y-68.978 Z-4.000 I0.712 J0.893 K0.000 F600.000
G3 X27.047 Y-68.390 Z-4.000 I-1.131 J5.684 K0.000 F600.000
G3 X32.091 Y-65.315 Z-4.000 I-36.557 J65.656 K0.000 F600.000
G3 X41.854 Y-58.994 Z-4.000 I-531.231 J831.102 K0.000 F600.000
G3 X47.288 Y-55.153 Z-4.000 I-46.069 J70.951 K0.000 F600.000
G3 X49.496 Y-53.065 Z-4.000 I-6.771 J9.370 K0.000 F600.000
G3 X49.696 Y-52.686 Z-4.000 I-0.920 J0.726 K0.000 F600.000
G3 X49.668 Y-52.528 Z-4.000 I-0.148 J0.055 K0.000 F600.000
G3 X48.640 Y-51.458 Z-4.000 I-2.840 J-1.700 K0.000 F600.000
G3 X47.679 Y-51.405 Z-4.000 I-0.537 J-0.992 K0.000 F600.000
G3 X45.612 Y-52.577 Z-4.000 I3.259 J-8.159 K0.000 F600.000
G2 X43.567 Y-54.132 Z-4.000 I-24.151 J29.626 K0.000 F600.000
G2 X42.071 Y-54.162 Z-4.000 I-0.770 J1.090 K0.000 F600.000
G2 X41.414 Y-52.848 Z-4.000 I1.185 J1.413 K0.000 F600.000
G2 X41.297 Y-46.660 Z-4.000 I66.728 J4.356 K0.000 F600.000
G2 X41.641 Y-41.422 Z-4.000 I34.295 J0.383 K0.000 F600.000
G2 X42.765 Y-37.681 Z-4.000 I11.139 J-1.308 K0.000 F600.000
G2 X44.317 Y-35.549 Z-4.000 I8.584 J-4.617 K0.000 F600.000
G2 X46.697 Y-33.352 Z-4.000 I27.674 J-27.586 K0.000 F600.000
G3 X48.206 Y-31.356 Z-4.000 I-4.012 J4.603 K0.000 F600.000
G3 X48.341 Y-30.770 Z-4.000 I-0.946 J0.526 K0.000 F600.000
G3 X48.168 Y-30.662 Z-4.000 I-0.173 J-0.085 K0.000 F600.000
G3 X46.693 Y-30.516 Z-4.000 I-1.132 J-3.891 K0.000 F600.000
G3 X44.669 Y-30.835 Z-4.000 I0.590 J-10.309 K0.000 F600.000
G2 X41.945 Y-31.596 Z-4.000 I-11.069 J34.346 K0.000 F600.000
G2 X40.120 Y-31.174 Z-4.000 I-0.538 J1.828 K0.000 F600.000
G2 X39.610 Y-29.654 Z-4.000 I1.644 J1.397 K0.000 F600.000
G2 X39.911 Y-27.201 Z-4.000 I14.227 J-0.499 K0.000 F600.000
G3 X40.104 Y-24.529 Z-4.000 I-20.060 J2.795 K0.000 F600.000
G3 X40.027 Y-18.420 Z-4.000 I-73.578 J2.128 K0.000 F600.000
G3 X39.220 Y-14.134 Z-4.000 I-14.731 J-0.557 K0.000 F600.000
G3 X35.875 Y-11.508 Z-4.000 I-3.770 J-1.359 K0.000 F600.000
G3 X30.799 Y-12.834 Z-4.000 I-0.780 J-7.389 K0.000 F600.000
G3 X29.867 Y-14.016 Z-4.000 I1.446 J-2.098 K0.000 F600.000
G3 X29.901 Y-15.033 Z-4.000 I1.473 J-0.460 K0.000 F600.000
G3 X31.298 Y-17.368 Z-4.000 I8.079 J3.245 K0.000 F600.000
G2 X33.767 Y-20.601 Z-4.000 I-76.160 J-60.742 K0.000 F600.000
G2 X35.362 Y-31.509 Z-4.000 I-9.365 J-6.940 K0.000 F600.000
G2 X32.902 Y-33.796 Z-4.000 I-3.645 J1.455 K0.000 F600.000
G2 X30.068 Y-34.124 Z-4.000 I-2.394 J8.288 K0.000 F600.000
G2 X26.137 Y-33.796 Z-4.000 I2.240 J50.601 K0.000 F600.000
G3 X22.586 Y-33.513 Z-4.000 I-5.207 J-42.940 K0.000 F600.000
G3 X20.973 Y-33.593 Z-4.000 I-0.482 J-6.592 K0.000 F600.000
G1 X17.668 Y-36.898 Z-4.000 F600.000
G2 X18.626 Y-34.562 Z-4.000 I3.646 J-0.130 K0.000 F600.000
G2 X20.973 Y-33.593 Z-4.000 I2.580 J-2.922 K0.000 F600.000
G0 Z5.000
G0 X30.263 Y-15.818 Z5.000
G0 X30.263 Y-15.818 Z3.000
G1 X30.263 Y-15.818 Z-4.000 F600.000
G1 X34.603 Y-11.478 Z-4.000 F600.000
G3 X30.799 Y-12.834 Z-4.000 I0.487 J-7.378 K0.000 F600.000
G3 X29.867 Y-14.016 Z-4.000 I1.446 J-2.098 K0.000 F600.000
G3 X29.901 Y-15.033 Z-4.000 I1.473 J-0.460 K0.000 F600.000
G3 X30.263 Y-15.818 Z-4.000 I3.789 J1.270 K0.000 F600.000
G3 X31.404 Y-17.505 Z-4.000 I11.005 J6.215 K0.000 F600.000
G1 X37.070 Y-11.839 Z-4.000 F600.000
G2 X38.643 Y-13.095 Z-4.000 I-1.400 J-3.368 K0.000 F600.000
G1 X32.643 Y-19.095 Z-4.000 F600.000
G1 X33.731 Y-20.548 Z-4.000 F600.000
G2 X33.845 Y-20.721 Z-4.000 I-1.846 J-1.355 K0.000 F600.000
G1 X39.521 Y-15.045 Z-4.000 F600.000
G2 X39.938 Y-17.456 Z-4.000 I-13.336 J-3.549 K0.000 F600.000
G1 X34.893 Y-22.501 Z-4.000 F600.000
G2 X35.578 Y-24.242 Z-4.000 I-8.607 J-4.393 K0.000 F600.000
G2 X35.662 Y-24.561 Z-4.000 I-2.205 J-0.752 K0.000 F600.000
G1 X40.100 Y-20.123 Z-4.000 F600.000
G2 X40.112 Y-22.939 Z-4.000 I-111.176 J-1.890 K0.000 F600.000
G1 X36.044 Y-27.008 Z-4.000 F600.000
G2 X35.787 Y-30.093 Z-4.000 I-11.500 J-0.596 K0.000 F600.000
G1 X40.051 Y-25.829 Z-4.000 F600.000
G1 X39.992 Y-26.583 Z-4.000 F600.000
G3 X39.638 Y-29.070 Z-4.000 I108.575 J-16.704 K0.000 F600.000
G1 X23.877 Y-44.831 Z-4.000 F600.000
G3 X25.704 Y-44.379 Z-4.000 I-0.313 J5.186 K0.000 F600.000
G3 X29.275 Y-42.262 Z-4.000 I-7.491 J16.703 K0.000 F600.000
G1 X40.246 Y-31.291 Z-4.000 F600.000
G3 X41.390 Y-31.655 Z-4.000 I1.076 J1.401 K0.000 F600.000
G3 X43.052 Y-31.313 Z-4.000 I-0.360 J5.958 K0.000 F600.000
G1 X34.987 Y-39.378 Z-4.000 F600.000
G1 X35.076 Y-39.409 Z-4.000 F600.000
G2 X36.134 Y-41.059 Z-4.000 I-0.901 J-1.742 K0.000 F600.000
G1 X46.676 Y-30.517 Z-4.000 F600.000
G2 X48.168 Y-30.662 Z-4.000 I0.360 J-4.036 K0.000 F600.000
G2 X48.341 Y-30.770 Z-4.000 I0.001 J-0.193 K0.000 F600.000
G2 X48.257 Y-31.228 Z-4.000 I-0.749 J-0.099 K0.000 F600.000
G2 X47.478 Y-32.509 Z-4.000 I-4.403 J1.800 K0.000 F600.000
G2 X45.246 Y-34.648 Z-4.000 I-15.292 J13.727 K0.000 F600.000
G3 X43.521 Y-36.501 Z-4.000 I7.810 J-8.999 K0.000 F600.000
G1 X36.234 Y-43.788 Z-4.000 F600.000
G2 X36.207 Y-46.643 Z-4.000 I-132.287 J-0.183 K0.000 F600.000
G1 X41.689 Y-41.162 Z-4.000 F600.000
G3 X41.368 Y-44.311 Z-4.000 I18.614 J-3.488 K0.000 F600.000
G1 X36.070 Y-49.609 Z-4.000 F600.000
G2 X35.623 Y-52.884 Z-4.000 I-20.638 J1.147 K0.000 F600.000
G1 X41.295 Y-47.212 Z-4.000 F600.000
G3 X41.296 Y-50.039 Z-4.000 I231.536 J-1.302 K0.000 F600.000
G1 X23.713 Y-67.622 Z-4.000 F600.000
G3 X24.286 Y-68.573 Z-4.000 I3.734 J1.601 K0.000 F600.000
G3 X25.169 Y-68.995 Z-4.000 I0.843 J0.630 K0.000 F600.000
G1 X41.404 Y-52.760 Z-4.000 F600.000
G3 X41.480 Y-53.199 Z-4.000 I3.027 J0.298 K0.000 F600.000
G3 X42.629 Y-54.364 Z-4.000 I1.365 J0.197 K0.000 F600.000
G1 X30.942 Y-66.050 Z-4.000 F600.000
G3 X38.866 Y-60.955 Z-4.000 I-921.803 J1442.163 K0.000 F600.000
G1 X48.446 Y-51.375 Z-4.000 F600.000
G1 X48.640 Y-51.458 Z-4.000 F600.000
G2 X49.668 Y-52.528 Z-4.000 I-1.812 J-2.770 K0.000 F600.000
G2 X49.696 Y-52.686 Z-4.000 I-0.121 J-0.102 K0.000 F600.000
G2 X49.496 Y-53.065 Z-4.000 I-1.119 J0.346 K0.000 F600.000
G2 X48.680 Y-53.969 Z-4.000 I-5.027 J3.716 K0.000 F600.000
G0 Z5.000
G0 X31.399 Y-57.108 Z5.000
G0 X31.399 Y-57.108 Z3.000
G1 X31.399 Y-57.108 Z-4.000 F600.000
G1 X23.019 Y-65.488 Z-4.000 F600.000
G2 X22.591 Y-63.087 Z-4.000 I15.550 J4.011 K0.000 F600.000
G1 X28.923 Y-56.756 Z-4.000 F600.000
G2 X26.665 Y-56.185 Z-4.000 I85.288 J342.579 K0.000 F600.000
G1 X22.447 Y-60.403 Z-4.000 F600.000
G2 X22.953 Y-57.142 Z-4.000 I9.536 J0.192 K0.000 F600.000
G1 X23.014 Y-57.008 Z-4.000 F600.000
G1 X23.912 Y-56.110 Z-4.000 F600.000
G3 X23.014 Y-57.008 Z-4.000 I0.596 J-1.494 K0.000 F600.000
G1 X23.014 Y-57.008 Z-6.000 F600.000
G2 X23.912 Y-56.110 Z-6.000 I1.494 J-0.596 K0.000 F600.000
G1 X23.014 Y-57.008 Z-6.000 F600.000
G1 X22.953 Y-57.142 Z-6.000 F600.000
G3 X22.447 Y-60.403 Z-6.000 I9.030 J-3.069 K0.000 F600.000
G1 X26.665 Y-56.185 Z-6.000 F600.000
G3 X28.923 Y-56.756 Z-6.000 I87.546 J342.009 K0.000 F600.000
G1 X22.591 Y-63.087 Z-6.000 F600.000
G3 X23.019 Y-65.488 Z-6.000 I15.978 J1.610 K0.000 F600.000
G1 X31.399 Y-57.108 Z-6.000 F600.000
G0 Z5.000
G0 X48.680 Y-53.969 Z5.000
G0 X48.680 Y-53.969 Z3.000
G1 X48.680 Y-53.969 Z-6.000 F600.000
G3 X49.496 Y-53.065 Z-6.000 I-4.210 J4.620 K0.000 F600.000
G3 X49.696 Y-52.686 Z-6.000 I-0.920 J0.726 K0.000 F600.000
G3 X49.668 Y-52.528 Z-6.000 I-0.148 J0.055 K0.000 F600.000
G3 X48.640 Y-51.458 Z-6.000 I-2.840 J-1.700 K0.000 F600.000
G1 X48.446 Y-51.375 Z-6.000 F600.000
G1 X38.866 Y-60.955 Z-6.000 F600.000
G2 X30.942 Y-66.050 Z-6.000 I-929.727 J1437.067 K0.000 F600.000
G1 X42.629 Y-54.364 Z-6.000 F600.000
G2 X41.480 Y-53.199 Z-6.000 I0.216 J1.362 K0.000 F600.000
G2 X41.404 Y-52.760 Z-6.000 I2.951 J0.737 K0.000 F600.000
G1 X25.169 Y-68.995 Z-6.000 F600.000
G2 X24.286 Y-68.573 Z-6.000 I-0.040 J1.052 K0.000 F600.000
G2 X23.713 Y-67.622 Z-6.000 I3.161 J2.552 K0.000 F600.000
G1 X41.296 Y-50.039 Z-6.000 F600.000
G2 X41.295 Y-47.212 Z-6.000 I231.534 J1.525 K0.000 F600.000
G1 X35.623 Y-52.884 Z-6.000 F600.000
G3 X36.070 Y-49.609 Z-6.000 I-20.191 J4.422 K0.000 F600.000
G1 X41.368 Y-44.311 Z-6.000 F600.000
G2 X41.689 Y-41.162 Z-6.000 I18.935 J-0.338 K0.000 F600.000
G1 X36.207 Y-46.643 Z-6.000 F600.000
G3 X36.234 Y-43.788 Z-6.000 I-132.260 J2.673 K0.000 F600.000
G1 X43.521 Y-36.501 Z-6.000 F600.000
G2 X45.246 Y-34.648 Z-6.000 I9.535 J-7.146 K0.000 F600.000
G3 X47.478 Y-32.509 Z-6.000 I-13.061 J15.865 K0.000 F600.000
G3 X48.257 Y-31.228 Z-6.000 I-3.624 J3.081 K0.000 F600.000
G3 X48.341 Y-30.770 Z-6.000 I-0.665 J0.359 K0.000 F600.000
G3 X48.168 Y-30.662 Z-6.000 I-0.173 J-0.085 K0.000 F600.000
G3 X46.676 Y-30.517 Z-6.000 I-1.132 J-3.890 K0.000 F600.000
G1 X36.134 Y-41.059 Z-6.000 F600.000
G3 X35.076 Y-39.409 Z-6.000 I-1.959 J-0.092 K0.000 F600.000
G1 X34.987 Y-39.378 Z-6.000 F600.000
G1 X43.052 Y-31.313 Z-6.000 F600.000
G2 X41.390 Y-31.655 Z-6.000 I-2.022 J5.616 K0.000 F600.000
G2 X40.246 Y-31.291 Z-6.000 I-0.069 J1.765 K0.000 F600.000
G1 X29.275 Y-42.262 Z-6.000 F600.000
G2 X25.704 Y-44.379 Z-6.000 I-11.062 J14.586 K0.000 F600.000
G2 X23.877 Y-44.831 Z-6.000 I-2.140 J4.734 K0.000 F600.000
G1 X39.638 Y-29.070 Z-6.000 F600.000
G2 X39.992 Y-26.583 Z-6.000 I108.928 J-14.217 K0.000 F600.000
G1 X40.051 Y-25.829 Z-6.000 F600.000
G1 X35.787 Y-30.093 Z-6.000 F600.000
G3 X36.044 Y-27.008 Z-6.000 I-11.243 J2.490 K0.000 F600.000
G1 X40.112 Y-22.939 Z-6.000 F600.000
G3 X40.100 Y-20.123 Z-6.000 I-111.188 J0.926 K0.000 F600.000
G1 X35.662 Y-24.561 Z-6.000 F600.000
G3 X35.578 Y-24.242 Z-6.000 I-2.289 J-0.434 K0.000 F600.000
G3 X34.893 Y-22.501 Z-6.000 I-9.292 J-2.652 K0.000 F600.000
G1 X39.938 Y-17.456 Z-6.000 F600.000
G3 X39.521 Y-15.045 Z-6.000 I-13.753 J-1.138 K0.000 F600.000
G1 X33.845 Y-20.721 Z-6.000 F600.000
G3 X33.731 Y-20.548 Z-6.000 I-1.961 J-1.183 K0.000 F600.000
G1 X32.643 Y-19.095 Z-6.000 F600.000
G1 X38.643 Y-13.095 Z-6.000 F600.000
G3 X37.070 Y-11.839 Z-6.000 I-2.973 J-2.112 K0.000 F600.000
G1 X31.404 Y-17.505 Z-6.000 F600.000
G2 X30.263 Y-15.818 Z-6.000 I9.864 J7.902 K0.000 F600.000
G2 X29.901 Y-15.033 Z-6.000 I3.428 J2.055 K0.000 F600.000
G2 X29.867 Y-14.016 Z-6.000 I1.440 J0.557 K0.000 F600.000
G2 X30.799 Y-12.834 Z-6.000 I2.378 J-0.916 K0.000 F600.000
G2 X34.603 Y-11.478 Z-6.000 I4.291 J-6.021 K0.000 F600.000
G1 X30.263 Y-15.818 Z-6.000 F600.000
G0 Z5.000
G0 X31.843 Y-34.036 Z5.000
G0 X31.843 Y-34.036 Z3.000
G1 X31.843 Y-34.036 Z-6.000 F600.000
G1 X21.619 Y-44.260 Z-6.000 F600.000
G2 X20.036 Y-43.015 Z-6.000 I3.248 J5.759 K0.000 F600.000
G1 X28.982 Y-34.069 Z-6.000 F600.000
G2 X26.400 Y-33.823 Z-6.000 I4.378 J59.538 K0.000 F600.000
G1 X18.794 Y-41.429 Z-6.000 F600.000
G2 X17.923 Y-39.471 Z-6.000 I5.915 J3.802 K0.000 F600.000
G1 X23.810 Y-33.584 Z-6.000 F600.000
G3 X20.973 Y-33.593 Z-6.000 I-1.381 J-11.996 K0.000 F600.000
G3 X18.626 Y-34.562 Z-6.000 I0.233 J-3.891 K0.000 F600.000
G3 X17.682 Y-36.720 Z-6.000 I2.664 J-2.451 K0.000 F600.000
G3 X19.313 Y-42.195 Z-6.000 I7.523 J-0.740 K0.000 F600.000
G3 X22.117 Y-44.516 Z-6.000 I5.928 J4.309 K0.000 F600.000
G3 X25.087 Y-44.603 Z-6.000 I1.598 J3.826 K0.000 F600.000
G3 X28.105 Y-43.059 Z-6.000 I-3.850 J11.246 K0.000 F600.000
G2 X32.380 Y-40.101 Z-6.000 I144.728 J-204.566 K0.000 F600.000
G2 X34.061 Y-39.319 Z-6.000 I2.890 J-4.019 K0.000 F600.000
G2 X36.032 Y-40.583 Z-6.000 I0.377 J-1.581 K0.000 F600.000
G2 X36.200 Y-41.713 Z-6.000 I-5.052 J-1.327 K0.000 F600.000
G2 X36.098 Y-49.320 Z-6.000 I-92.349 J-2.567 K0.000 F600.000
G2 X35.902 Y-51.330 Z-6.000 I-29.319 J1.841 K0.000 F600.000
G2 X35.316 Y-53.993 Z-6.000 I-11.983 J1.243 K0.000 F600.000
G2 X33.516 Y-56.494 Z-6.000 I-4.512 J1.349 K0.000 F600.000
G2 X30.433 Y-57.060 Z-6.000 I-2.313 J3.925 K0.000 F600.000
G2 X28.365 Y-56.616 Z-6.000 I2.312 J15.805 K0.000 F600.000
G3 X25.574 Y-55.992 Z-6.000 I-5.299 J-17.150 K0.000 F600.000
G3 X23.950 Y-56.092 Z-6.000 I-0.597 J-3.537 K0.000 F600.000
G3 X22.953 Y-57.142 Z-6.000 I0.605 J-1.573 K0.000 F600.000
G3 X22.448 Y-60.103 Z-6.000 I8.954 J-3.051 K0.000 F600.000
G3 X23.645 Y-67.471 Z-6.000 I19.343 J-0.638 K0.000 F600.000
G3 X24.469 Y-68.753 Z-6.000 I3.245 J1.179 K0.000 F600.000
G3 X25.418 Y-68.978 Z-6.000 I0.712 J0.893 K0.000 F600.000
G3 X27.047 Y-68.390 Z-6.000 I-1.131 J5.684 K0.000 F600.000
G3 X32.091 Y-65.315 Z-6.000 I-36.557 J65.656 K0.000 F600.000
G3 X41.854 Y-58.994 Z-6.000 I-531.231 J831.102 K0.000 F600.000
G3 X47.288 Y-55.153 Z-6.000 I-46.069 J70.951 K0.000 F600.000
G3 X49.496 Y-53.065 Z-6.000 I-6.771 J9.370 K0.000 F600.000
G3 X49.696 Y-52.686 Z-6.000 I-0.920 J0.726 K0.000 F600.000
G3 X49.668 Y-52.528 Z-6.000 I-0.148 J0.055 K0.000 F600.000
G3 X48.640 Y-51.458 Z-6.000 I-2.840 J-1.700 K0.000 F600.000
G3 X47.679 Y-51.405 Z-6.000 I-0.537 J-0.992 K0.000 F600.000
G3 X45.612 Y-52.577 Z-6.000 I3.259 J-8.159 K0.000 F600.000
G2 X43.567 Y-54.132 Z-6.000 I-24.151 J29.626 K0.000 F600.000
G2 X42.071 Y-54.162 Z-6.000 I-0.770 J1.090 K0.000 F600.000
G2 X41.414 Y-52.848 Z-6.000 I1.185 J1.413 K0.000 F600.000
G2 X41.297 Y-46.660 Z-6.000 I66.728 J4.356 K0.000 F600.000
G2 X41.641 Y-41.422 Z-6.000 I34.295 J0.383 K0.000 F600.000
G2 X42.765 Y-37.681 Z-6.000 I11.139 J-1.308 K0.000 F600.000
G2 X44.317 Y-35.549 Z-6.000 I8.584 J-4.617 K0.000 F600.000
G2 X46.697 Y-33.352 Z-6.000 I27.674 J-27.586 K0.000 F600.000
G3 X48.206 Y-31.356 Z-6.000 I-4.012 J4.603 K0.000 F600.000
G3 X48.341 Y-30.770 Z-6.000 I-0.946 J0.526 K0.000 F600.000
G3 X48.168 Y-30.662 Z-6.000 I-0.173 J-0.085 K0.000 F600.000
G3 X46.693 Y-30.516 Z-6.000 I-1.132 J-3.891 K0.000 F600.000
G3 X44.669 Y-30.835 Z-6.000 I0.590 J-10.309 K0.000 F600.000
G2 X41.945 Y-31.596 Z-6.000 I-11.069 J34.346 K0.000 F600.000
G2 X40.120 Y-31.174 Z-6.000 I-0.538 J1.828 K0.000 F600.000
G2 X39.610 Y-29.654 Z-6.000 I1.644 J1.397 K0.000 F600.000
G2 X39.911 Y-27.201 Z-6.000 I14.227 J-0.499 K0.000 F600.000
G3 X40.104 Y-24.529 Z-6.000 I-20.060 J2.795 K0.000 F600.000
G3 X40.027 Y-18.420 Z-6.000 I-73.578 J2.128 K0.000 F600.000
G3 X39.220 Y-14.134 Z-6.000 I-14.731 J-0.557 K0.000 F600.000
G3 X35.875 Y-11.508 Z-6.000 I-3.770 J-1.359 K0.000 F600.000
G3 X30.799 Y-12.834 Z-6.000 I-0.780 J-7.389 K0.000 F600.000
G3 X29.867 Y-14.016 Z-6.000 I1.446 J-2.098 K0.000 F600.000
G3 X29.901 Y-15.033 Z-6.000 I1.473 J-0.460 K0.000 F600.000
G3 X31.298 Y-17.368 Z-6.000 I8.079 J3.245 K0.000 F600.000
G2 X33.767 Y-20.601 Z-6.000 I-76.160 J-60.742 K0.000 F600.000
G2 X35.362 Y-31.509 Z-6.000 I-9.365 J-6.940 K0.000 F600.000
G2 X32.902 Y-33.796 Z-6.000 I-3.645 J1.455 K0.000 F600.000
G2 X30.068 Y-34.124 Z-6.000 I-2.394 J8.288 K0.000 F600.000
G2 X26.137 Y-33.796 Z-6.000 I2.240 J50.601 K0.000 F600.000
G3 X22.586 Y-33.513 Z-6.000 I-5.207 J-42.940 K0.000 F600.000
G3 X20.973 Y-33.593 Z-6.000 I-0.482 J-6.592 K0.000 F600.000
G1 X17.668 Y-36.898 Z-6.000 F600.000
G2 X18.626 Y-34.562 Z-6.000 I3.646 J-0.130 K0.000 F600.000
G2 X20.973 Y-33.593 Z-6.000 I2.580 J-2.922 K0.000 F600.000
G0 Z5.000
G0 X46.382 Y-33.640 Z5.000
G0 X46.382 Y-33.640 Z3.000
G1 X46.382 Y-33.640 Z-6.000 F600.000
G3 X47.255 Y-32.767 Z-6.000 I-6.024 J6.897 K0.000 F600.000
G1 X46.382 Y-33.640 Z-6.000 F600.000
G0 Z5.000
G0 Z5.000
G0 X46.382 Y-33.640
G0 X66.377 Y-31.818
G0 X66.377 Y-31.818 Z3.000
G1 X66.377 Y-31.818 Z-2.000 F600.000
G2 X68.665 Y-32.297 Z-2.000 I0.090 J-5.277 K0.000 F600.000
G2 X70.369 Y-33.496 Z-2.000 I-1.338 J-3.711 K0.000 F600.000
G2 X70.897 Y-35.263 Z-2.000 I-2.714 J-1.772 K0.000 F600.000
G2 X70.606 Y-39.491 Z-2.000 I-28.957 J-0.133 K0.000 F600.000
G3 X69.117 Y-53.917 Z-2.000 I229.051 J-30.927 K0.000 F600.000
G2 X68.411 Y-58.417 Z-2.000 I-16.512 J0.285 K0.000 F600.000
G2 X64.412 Y-64.892 Z-2.000 I-18.721 J7.089 K0.000 F600.000
G2 X60.302 Y-67.463 Z-2.000 I-6.202 J5.345 K0.000 F600.000
G2 X57.093 Y-67.882 Z-2.000 I-4.158 J19.375 K0.000 F600.000
G2 X53.027 Y-67.803 Z-2.000 I-1.643 J20.134 K0.000 F600.000
G2 X54.524 Y-66.045 Z-2.000 I14.894 J-11.173 K0.000 F600.000
G3 X59.947 Y-59.926 Z-2.000 I-61.046 J59.555 K0.000 F600.000
G3 X64.451 Y-52.137 Z-2.000 I-22.202 J18.037 K0.000 F600.000
G3 X66.914 Y-37.194 Z-2.000 I-38.944 J14.092 K0.000 F600.000
G3 X66.382 Y-33.538 Z-2.000 I-14.657 J-0.265 K0.000 F600.000
G2 X66.101 Y-32.325 Z-2.000 I21.359 J5.588 K0.000 F600.000
G2 X66.129 Y-31.885 Z-2.000 I0.803 J0.171 K0.000 F600.000
G2 X66.377 Y-31.818 Z-2.000 I0.237 J-0.387 K0.000 F600.000
G1 X66.099 Y-32.096 Z-2.000 F600.000
G2 X66.131 Y-31.883 Z-2.000 I0.356 J0.055 K0.000 F600.000
G2 X66.377 Y-31.818 Z-2.000 I0.264 J-0.499 K0.000 F600.000
G2 X68.707 Y-32.316 Z-2.000 I0.091 J-5.271 K0.000 F600.000
G1 X66.602 Y-34.421 Z-2.000 F600.000
G2 X66.900 Y-36.951 Z-2.000 I-14.260 J-2.961 K0.000 F600.000
G1 X70.363 Y-33.488 Z-2.000 F600.000
G2 X70.568 Y-33.831 Z-2.000 I-1.133 J-0.910 K0.000 F600.000
G2 X70.904 Y-35.776 Z-2.000 I-3.905 J-1.675 K0.000 F600.000
G1 X66.887 Y-39.793 Z-2.000 F600.000
G2 X66.628 Y-42.880 Z-2.000 I-31.393 J1.079 K0.000 F600.000
G1 X70.679 Y-38.829 Z-2.000 F600.000
G2 X70.292 Y-42.044 Z-2.000 I-137.871 J14.965 K0.000 F600.000
G1 X66.101 Y-46.236 Z-2.000 F600.000
G2 X65.180 Y-49.985 Z-2.000 I-30.215 J5.433 K0.000 F600.000
G1 X69.908 Y-45.257 Z-2.000 F600.000
G3 X69.576 Y-48.417 Z-2.000 I126.232 J-14.858 K0.000 F600.000
G1 X63.348 Y-54.646 Z-2.000 F600.000
G2 X60.964 Y-58.571 Z-2.000 I-23.921 J11.841 K0.000 F600.000
G2 X55.792 Y-64.692 Z-2.000 I-48.223 J35.499 K0.000 F600.000
G3 X53.045 Y-67.777 Z-2.000 I32.436 J-31.650 K0.000 F600.000
G1 X69.296 Y-51.526 Z-2.000 F600.000
G3 X69.073 Y-54.577 Z-2.000 I97.779 J-8.665 K0.000 F600.000
G1 X55.715 Y-67.935 Z-2.000 F600.000
G3 X58.752 Y-67.727 Z-2.000 I-0.265 J26.066 K0.000 F600.000
G1 X68.564 Y-57.915 Z-2.000 F600.000
G1 X68.411 Y-58.417 Z-2.000 F600.000
G2 X63.789 Y-65.519 Z-2.000 I-18.722 J7.131 K0.000 F600.000
G1 X63.789 Y-65.519 Z-4.000 F600.000
G3 X68.411 Y-58.417 Z-4.000 I-14.100 J14.233 K0.000 F600.000
G1 X68.564 Y-57.915 Z-4.000 F600.000
G1 X58.752 Y-67.727 Z-4.000 F600.000
G2 X55.715 Y-67.935 Z-4.000 I-3.302 J25.858 K0.000 F600.000
G1 X69.073 Y-54.577 Z-4.000 F600.000
G2 X69.296 Y-51.526 Z-4.000 I98.001 J-5.614 K0.000 F600.000
G1 X53.045 Y-67.777 Z-4.000 F600.000
G2 X55.792 Y-64.692 Z-4.000 I35.183 J-28.564 K0.000 F600.000
G3 X60.964 Y-58.571 Z-4.000 I-43.051 J41.620 K0.000 F600.000
G3 X63.348 Y-54.646 Z-4.000 I-21.537 J15.766 K0.000 F600.000
G1 X69.576 Y-48.417 Z-4.000 F600.000
G2 X69.908 Y-45.257 Z-4.000 I126.564 J-11.698 K0.000 F600.000
G1 X65.180 Y-49.985 Z-4.000 F600.000
G3 X66.101 Y-46.236 Z-4.000 I-29.294 J9.182 K0.000 F600.000
G1 X70.292 Y-42.044 Z-4.000 F600.000
G3 X70.679 Y-38.829 Z-4.000 I-137.484 J18.180 K0.000 F600.000
G1 X66.628 Y-42.880 Z-4.000 F600.000
G3 X66.887 Y-39.793 Z-4.000 I-31.134 J4.166 K0.000 F600.000
G1 X70.904 Y-35.776 Z-4.000 F600.000
G3 X70.568 Y-33.831 Z-4.000 I-4.241 J0.270 K0.000 F600.000
G3 X70.363 Y-33.488 Z-4.000 I-1.338 J-0.568 K0.000 F600.000
G1 X66.900 Y-36.951 Z-4.000 F600.000
G3 X66.602 Y-34.421 Z-4.000 I-14.557 J-0.430 K0.000 F600.000
G1 X68.707 Y-32.316 Z-4.000 F600.000
G3 X66.377 Y-31.818 Z-4.000 I-2.239 J-4.773 K0.000 F600.000
G3 X66.131 Y-31.883 Z-4.000 I0.018 J-0.564 K0.000 F600.000
G3 X66.099 Y-32.096 Z-4.000 I0.324 J-0.157 K0.000 F600.000
G1 X66.377 Y-31.818 Z-4.000 F600.000
G3 X66.129 Y-31.885 Z-4.000 I-0.011 J-0.454 K0.000 F600.000
G3 X66.101 Y-32.325 Z-4.000 I0.776 J-0.270 K0.000 F600.000
G3 X66.382 Y-33.538 Z-4.000 I21.640 J4.375 K0.000 F600.000
G2 X66.914 Y-37.194 Z-4.000 I-14.125 J-3.921 K0.000 F600.000
G2 X64.451 Y-52.137 Z-4.000 I-41.406 J-0.851 K0.000 F600.000
G2 X59.947 Y-59.926 Z-4.000 I-26.706 J10.248 K0.000 F600.000
G2 X54.524 Y-66.045 Z-4.000 I-66.469 J53.435 K0.000 F600.000
G3 X53.027 Y-67.803 Z-4.000 I13.397 J-12.930 K0.000 F600.000
G3 X57.093 Y-67.882 Z-4.000 I2.423 J20.055 K0.000 F600.000
G3 X60.302 Y-67.463 Z-4.000 I-0.948 J19.793 K0.000 F600.000
G3 X64.412 Y-64.892 Z-4.000 I-2.092 J7.915 K0.000 F600.000
G3 X68.411 Y-58.417 Z-4.000 I-14.722 J13.565 K0.000 F600.000
G3 X69.117 Y-53.917 Z-4.000 I-15.806 J4.785 K0.000 F600.000
G2 X70.606 Y-39.491 Z-4.000 I230.540 J-16.501 K0.000 F600.000
G3 X70.897 Y-35.263 Z-4.000 I-28.666 J4.096 K0.000 F600.000
G3 X70.369 Y-33.496 Z-4.000 I-3.242 J-0.005 K0.000 F600.000
G3 X68.665 Y-32.297 Z-4.000 I-3.042 J-2.512 K0.000 F600.000
G3 X66.377 Y-31.818 Z-4.000 I-2.198 J-4.799 K0.000 F600.000
G1 X66.377 Y-31.818 Z-6.000 F600.000
G2 X68.665 Y-32.297 Z-6.000 I0.090 J-5.277 K0.000 F600.000
G2 X70.369 Y-33.496 Z-6.000 I-1.338 J-3.711 K0.000 F600.000
G2 X70.897 Y-35.263 Z-6.000 I-2.714 J-1.772 K0.000 F600.000
G2 X70.606 Y-39.491 Z-6.000 I-28.957 J-0.133 K0.000 F600.000
G3 X69.117 Y-53.917 Z-6.000 I229.051 J-30.927 K0.000 F600.000
G2 X68.411 Y-58.417 Z-6.000 I-16.512 J0.285 K0.000 F600.000
G2 X64.412 Y-64.892 Z-6.000 I-18.721 J7.089 K0.000 F600.000
G2 X60.302 Y-67.463 Z-6.000 I-6.202 J5.345 K0.000 F600.000
G2 X57.093 Y-67.882 Z-6.000 I-4.158 J19.375 K0.000 F600.000
G2 X53.027 Y-67.803 Z-6.000 I-1.643 J20.134 K0.000 F600.000
G2 X54.524 Y-66.045 Z-6.000 I14.894 J-11.173 K0.000 F600.000
G3 X59.947 Y-59.926 Z-6.000 I-61.046 J59.555 K0.000 F600.000
G3 X64.451 Y-52.137 Z-6.000 I-22.202 J18.037 K0.000 F600.000
G3 X66.914 Y-37.194 Z-6.000 I-38.944 J14.092 K0.000 F600.000
G3 X66.382 Y-33.538 Z-6.000 I-14.657 J-0.265 K0.000 F600.000
G2 X66.101 Y-32.325 Z-6.000 I21.359 J5.588 K0.000 F600.000
G2 X66.129 Y-31.885 Z-6.000 I0.803 J0.171 K0.000 F600.000
G2 X66.377 Y-31.818 Z-6.000 I0.237 J-0.387 K0.000 F600.000
G1 X66.099 Y-32.096 Z-6.000 F600.000
G2 X66.131 Y-31.883 Z-6.000 I0.356 J0.055 K0.000 F600.000
G2 X66.377 Y-31.818 Z-6.000 I0.264 J-0.499 K0.000 F600.000
G2 X68.707 Y-32.316 Z-6.000 I0.091 J-5.271 K0.000 F600.000
G1 X66.602 Y-34.421 Z-6.000 F600.000
G2 X66.900 Y-36.951 Z-6.000 I-14.260 J-2.961 K0.000 F600.000
G1 X70.363 Y-33.488 Z-6.000 F600.000
G2 X70.568 Y-33.831 Z-6.000 I-1.133 J-0.910 K0.000 F600.000
G2 X70.904 Y-35.776 Z-6.000 I-3.905 J-1.675 K0.000 F600.000
G1 X66.887 Y-39.793 Z-6.000 F600.000
G2 X66.628 Y-42.880 Z-6.000 I-31.393 J1.079 K0.000 F600.000
G1 X70.679 Y-38.829 Z-6.000 F600.000
G2 X70.292 Y-42.044 Z-6.000 I-137.871 J14.965 K0.000 F600.000
G1 X66.101 Y-46.236 Z-6.000 F600.000
G2 X65.180 Y-49.985 Z-6.000 I-30.215 J5.433 K0.000 F600.000
G1 X69.908 Y-45.257 Z-6.000 F600.000
G3 X69.576 Y-48.417 Z-6.000 I126.232 J-14.858 K0.000 F600.000
G1 X63.348 Y-54.646 Z-6.000 F600.000
G2 X60.964 Y-58.571 Z-6.000 I-23.921 J11.841 K0.000 F600.000
G2 X55.792 Y-64.692 Z-6.000 I-48.223 J35.499 K0.000 F600.000
G3 X53.045 Y-67.777 Z-6.000 I32.436 J-31.650 K0.000 F600.000
G1 X69.296 Y-51.526 Z-6.000 F600.000
G3 X69.073 Y-54.577 Z-6.000 I97.779 J-8.665 K0.000 F600.000
G1 X55.715 Y-67.935 Z-6.000 F600.000
G3 X58.752 Y-67.727 Z-6.000 I-0.265 J26.066 K0.000 F600.000
G1 X68.564 Y-57.915 Z-6.000 F600.000
G1 X68.411 Y-58.417 Z-6.000 F600.000
G2 X63.789 Y-65.519 Z-6.000 I-18.722 J7.131 K0.000 F600.000
G0 Z5.000
G0 Z5.000
G0 X63.789 Y-65.519
G0 X61.181 Y-40.246
G0 X61.181 Y-40.246 Z3.000
G1 X61.181 Y-40.246 Z-2.000 F600.000
G2 X60.765 Y-42.708 Z-2.000 I-6.425 J-0.181 K0.000 F600.000
G2 X59.822 Y-43.486 Z-2.000 I-1.094 J0.366 K0.000 F600.000
G2 X58.101 Y-43.326 Z-2.000 I-0.586 J3.038 K0.000 F600.000
G1 X61.181 Y-40.246 Z-2.000 F600.000
G3 X61.135 Y-37.463 Z-2.000 I-33.945 J0.833 K0.000 F600.000
G1 X57.065 Y-41.532 Z-2.000 F600.000
G1 X57.023 Y-41.003 Z-2.000 F600.000
G2 X56.999 Y-38.771 Z-2.000 I125.202 J2.508 K0.000 F600.000
G1 X60.986 Y-34.783 Z-2.000 F600.000
G2 X60.850 Y-32.091 Z-2.000 I50.480 J3.909 K0.000 F600.000
G1 X56.937 Y-36.004 Z-2.000 F600.000
G3 X56.693 Y-33.419 Z-2.000 I-28.357 J-1.369 K0.000 F600.000
G1 X60.852 Y-29.260 Z-2.000 F600.000
G2 X61.402 Y-26.987 Z-2.000 I5.688 J-0.172 K0.000 F600.000
G2 X63.900 Y-25.354 Z-2.000 I2.870 J-1.663 K0.000 F600.000
G2 X64.886 Y-25.226 Z-2.000 I1.612 J-8.580 K0.000 F600.000
G1 X74.791 Y-15.322 Z-2.000 F600.000
G3 X72.135 Y-15.149 Z-2.000 I-3.749 J-37.066 K0.000 F600.000
G1 X56.243 Y-31.041 Z-2.000 F600.000
G3 X55.612 Y-28.843 Z-2.000 I-24.031 J-5.701 K0.000 F600.000
G1 X69.367 Y-15.088 Z-2.000 F600.000
G3 X66.529 Y-15.098 Z-2.000 I-1.198 J-64.110 K0.000 F600.000
G1 X54.877 Y-26.751 Z-2.000 F600.000
G2 X54.136 Y-24.662 Z-2.000 I60.902 J22.756 K0.000 F600.000
G1 X63.607 Y-15.192 Z-2.000 F600.000
G3 X60.915 Y-15.367 Z-2.000 I2.364 J-57.205 K0.000 F600.000
G1 X60.563 Y-15.407 Z-2.000 F600.000
G1 X53.496 Y-22.474 Z-2.000 F600.000
G2 X53.348 Y-19.794 Z-2.000 I6.543 J1.706 K0.000 F600.000
G1 X57.111 Y-16.031 Z-2.000 F600.000
G3 X54.757 Y-17.227 Z-2.000 I1.572 J-6.008 K0.000 F600.000
G3 X53.272 Y-20.566 Z-2.000 I2.890 J-3.285 K0.000 F600.000
G3 X53.967 Y-24.169 Z-2.000 I11.367 J0.323 K0.000 F600.000
G2 X55.877 Y-29.674 Z-2.000 I-212.441 J-76.779 K0.000 F600.000
G2 X56.941 Y-36.072 Z-2.000 I-25.165 J-7.473 K0.000 F600.000
G2 X57.023 Y-41.003 Z-2.000 I-122.188 J-4.511 K0.000 F600.000
G3 X57.309 Y-42.647 Z-2.000 I4.406 J-0.082 K0.000 F600.000
G3 X58.415 Y-43.433 Z-2.000 I1.365 J0.748 K0.000 F600.000
G3 X60.314 Y-43.300 Z-2.000 I0.774 J2.563 K0.000 F600.000
G3 X61.018 Y-41.875 Z-2.000 I-1.563 J1.658 K0.000 F600.000
G3 X61.189 Y-39.032 Z-2.000 I-12.379 J2.171 K0.000 F600.000
G3 X60.871 Y-32.773 Z-2.000 I-261.071 J-10.121 K0.000 F600.000
G2 X60.871 Y-28.984 Z-2.000 I27.636 J1.895 K0.000 F600.000
G2 X61.436 Y-26.926 Z-2.000 I4.798 J-0.212 K0.000 F600.000
G2 X63.900 Y-25.354 Z-2.000 I2.840 J-1.733 K0.000 F600.000
G2 X68.240 Y-25.073 Z-2.000 I3.985 J-27.898 K0.000 F600.000
G2 X73.613 Y-25.286 Z-2.000 I0.943 J-44.029 K0.000 F600.000
G2 X76.615 Y-26.122 Z-2.000 I-0.448 J-7.422 K0.000 F600.000
G2 X77.976 Y-28.536 Z-2.000 I-1.505 J-2.438 K0.000 F600.000
G2 X77.677 Y-36.997 Z-2.000 I-65.872 J-1.913 K0.000 F600.000
G3 X77.525 Y-39.511 Z-2.000 I29.213 J-3.032 K0.000 F600.000
G3 X77.625 Y-41.011 Z-2.000 I8.148 J-0.212 K0.000 F600.000
G3 X78.422 Y-42.744 Z-2.000 I3.100 J0.376 K0.000 F600.000
G3 X79.879 Y-43.077 Z-2.000 I0.941 J0.765 K0.000 F600.000
G3 X81.322 Y-42.308 Z-2.000 I-7.401 J15.613 K0.000 F600.000
G3 X82.754 Y-41.291 Z-2.000 I-2.210 J4.634 K0.000 F600.000
G3 X83.431 Y-38.363 Z-2.000 I-3.277 J2.300 K0.000 F600.000
G3 X83.097 Y-36.884 Z-2.000 I-8.462 J-1.134 K0.000 F600.000
G2 X81.960 Y-33.247 Z-2.000 I33.254 J12.386 K0.000 F600.000
G2 X81.652 Y-27.895 Z-2.000 I14.472 J3.518 K0.000 F600.000
G2 X81.920 Y-26.259 Z-2.000 I20.559 J-2.517 K0.000 F600.000
G2 X83.329 Y-22.092 Z-2.000 I19.622 J-4.315 K0.000 F600.000
G3 X84.080 Y-20.057 Z-2.000 I-9.441 J4.638 K0.000 F600.000
G3 X84.095 Y-18.772 Z-2.000 I-2.113 J0.667 K0.000 F600.000
G3 X82.898 Y-17.458 Z-2.000 I-2.664 J-1.222 K0.000 F600.000
G3 X79.302 Y-16.023 Z-2.000 I-6.351 J-10.693 K0.000 F600.000
G3 X72.494 Y-15.161 Z-2.000 I-7.943 J-35.426 K0.000 F600.000
G3 X60.915 Y-15.367 Z-2.000 I-4.050 J-97.890 K0.000 F600.000
G3 X57.541 Y-15.900 Z-2.000 I1.337 J-19.390 K0.000 F600.000
G3 X55.202 Y-16.889 Z-2.000 I1.562 J-6.957 K0.000 F600.000
G3 X53.348 Y-19.794 Z-2.000 I2.262 J-3.488 K0.000 F600.000
G0 Z5.000
G0 X74.791 Y-15.322 Z5.000
G0 X74.791 Y-15.322 Z3.000
G1 X74.791 Y-15.322 Z-2.000 F600.000
G1 X64.886 Y-25.226 Z-2.000 F600.000
G2 X67.859 Y-25.081 Z-2.000 I3.394 J-39.132 K0.000 F600.000
G1 X77.312 Y-15.629 Z-2.000 F600.000
G1 X77.596 Y-15.669 Z-2.000 F600.000
G1 X79.302 Y-16.023 Z-2.000 F600.000
G1 X79.650 Y-16.119 Z-2.000 F600.000
G1 X70.679 Y-25.090 Z-2.000 F600.000
G2 X73.339 Y-25.259 Z-2.000 I-0.925 J-35.704 K0.000 F600.000
G1 X81.753 Y-16.844 Z-2.000 F600.000
G2 X83.495 Y-17.931 Z-2.000 I-2.132 J-5.353 K0.000 F600.000
G1 X75.710 Y-25.717 Z-2.000 F600.000
G2 X77.410 Y-26.844 Z-2.000 I-0.788 J-3.035 K0.000 F600.000
G1 X84.036 Y-20.219 Z-2.000 F600.000
G1 X84.000 Y-20.352 Z-2.000 F600.000
G2 X83.329 Y-22.092 Z-2.000 I-15.828 J5.101 K0.000 F600.000
G3 X82.309 Y-24.774 Z-2.000 I19.609 J-8.990 K0.000 F600.000
G1 X77.998 Y-29.085 Z-2.000 F600.000
G2 X77.977 Y-31.934 Z-2.000 I-107.266 J-0.633 K0.000 F600.000
G1 X81.617 Y-28.294 Z-2.000 F600.000
G3 X81.606 Y-31.134 Z-2.000 I13.847 J-1.477 K0.000 F600.000
G1 X77.854 Y-34.886 Z-2.000 F600.000
G2 X77.603 Y-37.965 Z-2.000 I-326.465 J25.065 K0.000 F600.000
G1 X82.035 Y-33.533 Z-2.000 F600.000
G3 X82.703 Y-35.693 Z-2.000 I24.697 J6.458 K0.000 F600.000
G1 X77.597 Y-40.800 Z-2.000 F600.000
G3 X78.453 Y-42.772 Z-2.000 I3.337 J0.276 K0.000 F600.000
G1 X83.350 Y-37.875 Z-2.000 F600.000
G2 X83.385 Y-39.863 Z-2.000 I-5.022 J-1.081 K0.000 F600.000
G2 X82.607 Y-41.446 Z-2.000 I-2.929 J0.456 K0.000 F600.000
G1 X82.607 Y-41.446 Z-4.000 F600.000
G3 X83.385 Y-39.863 Z-4.000 I-2.152 J2.039 K0.000 F600.000
G3 X83.350 Y-37.875 Z-4.000 I-5.056 J0.907 K0.000 F600.000
G1 X78.453 Y-42.772 Z-4.000 F600.000
G2 X77.597 Y-40.800 Z-4.000 I2.482 J2.249 K0.000 F600.000
G1 X82.703 Y-35.693 Z-4.000 F600.000
G2 X82.035 Y-33.533 Z-4.000 I24.028 J8.618 K0.000 F600.000
G1 X77.603 Y-37.965 Z-4.000 F600.000
G3 X77.854 Y-34.886 Z-4.000 I-326.214 J28.145 K0.000 F600.000
G1 X81.606 Y-31.134 Z-4.000 F600.000
G2 X81.617 Y-28.294 Z-4.000 I13.859 J1.363 K0.000 F600.000
G1 X77.977 Y-31.934 Z-4.000 F600.000
G3 X77.998 Y-29.085 Z-4.000 I-107.245 J2.217 K0.000 F600.000
G1 X82.309 Y-24.774 Z-4.000 F600.000
G2 X83.329 Y-22.092 Z-4.000 I20.628 J-6.308 K0.000 F600.000
G3 X84.000 Y-20.352 Z-4.000 I-15.157 J6.841 K0.000 F600.000
G1 X84.036 Y-20.219 Z-4.000 F600.000
G1 X77.410 Y-26.844 Z-4.000 F600.000
G3 X75.710 Y-25.717 Z-4.000 I-2.489 J-1.907 K0.000 F600.000
G1 X83.495 Y-17.931 Z-4.000 F600.000
G3 X81.753 Y-16.844 Z-4.000 I-3.873 J-4.267 K0.000 F600.000
G1 X73.339 Y-25.259 Z-4.000 F600.000
G3 X70.679 Y-25.090 Z-4.000 I-3.585 J-35.536 K0.000 F600.000
G1 X79.650 Y-16.119 Z-4.000 F600.000
G1 X79.302 Y-16.023 Z-4.000 F600.000
G1 X77.596 Y-15.669 Z-4.000 F600.000
G1 X77.312 Y-15.629 Z-4.000 F600.000
G1 X67.859 Y-25.081 Z-4.000 F600.000
G3 X64.886 Y-25.226 Z-4.000 I0.421 J-39.277 K0.000 F600.000
G1 X74.791 Y-15.322 Z-4.000 F600.000
G0 Z5.000
G0 X53.348 Y-19.794 Z5.000
G0 X53.348 Y-19.794 Z3.000
G1 X53.348 Y-19.794 Z-4.000 F600.000
G2 X55.202 Y-16.889 Z-4.000 I4.117 J-0.583 K0.000 F600.000
G2 X57.541 Y-15.900 Z-4.000 I3.901 J-5.969 K0.000 F600.000
G2 X60.915 Y-15.367 Z-4.000 I4.712 J-18.856 K0.000 F600.000
G2 X72.494 Y-15.161 Z-4.000 I7.529 J-97.684 K0.000 F600.000
G2 X79.302 Y-16.023 Z-4.000 I-1.135 J-36.288 K0.000 F600.000
G2 X82.898 Y-17.458 Z-4.000 I-2.755 J-12.128 K0.000 F600.000
G2 X84.095 Y-18.772 Z-4.000 I-1.467 J-2.537 K0.000 F600.000
G2 X84.080 Y-20.057 Z-4.000 I-2.128 J-0.617 K0.000 F600.000
G2 X83.329 Y-22.092 Z-4.000 I-10.191 J2.603 K0.000 F600.000
G3 X81.920 Y-26.259 Z-4.000 I18.213 J-8.482 K0.000 F600.000
G3 X81.652 Y-27.895 Z-4.000 I20.292 J-4.153 K0.000 F600.000
G3 X81.960 Y-33.247 Z-4.000 I14.781 J-1.834 K0.000 F600.000
G3 X83.097 Y-36.884 Z-4.000 I34.390 J8.749 K0.000 F600.000
G2 X83.431 Y-38.363 Z-4.000 I-8.128 J-2.613 K0.000 F600.000
G2 X82.754 Y-41.291 Z-4.000 I-3.953 J-0.629 K0.000 F600.000
G2 X81.322 Y-42.308 Z-4.000 I-3.643 J3.618 K0.000 F600.000
G2 X79.879 Y-43.077 Z-4.000 I-8.844 J14.844 K0.000 F600.000
G2 X78.422 Y-42.744 Z-4.000 I-0.515 J1.098 K0.000 F600.000
G2 X77.625 Y-41.011 Z-4.000 I2.303 J2.109 K0.000 F600.000
G2 X77.525 Y-39.511 Z-4.000 I8.049 J1.288 K0.000 F600.000
G2 X77.677 Y-36.997 Z-4.000 I29.365 J-0.517 K0.000 F600.000
G3 X77.976 Y-28.536 Z-4.000 I-65.573 J6.547 K0.000 F600.000
G3 X76.615 Y-26.122 Z-4.000 I-2.865 J-0.024 K0.000 F600.000
G3 X73.613 Y-25.286 Z-4.000 I-3.451 J-6.586 K0.000 F600.000
G3 X68.240 Y-25.073 Z-4.000 I-4.430 J-43.816 K0.000 F600.000
G3 X63.900 Y-25.354 Z-4.000 I-0.355 J-28.179 K0.000 F600.000
G3 X61.436 Y-26.926 Z-4.000 I0.376 J-3.306 K0.000 F600.000
G3 X60.871 Y-28.984 Z-4.000 I4.232 J-2.270 K0.000 F600.000
G3 X60.871 Y-32.773 Z-4.000 I27.637 J-1.894 K0.000 F600.000
G2 X61.189 Y-39.032 Z-4.000 I-260.753 J-16.381 K0.000 F600.000
G2 X61.018 Y-41.875 Z-4.000 I-12.550 J-0.672 K0.000 F600.000
G2 X60.314 Y-43.300 Z-4.000 I-2.267 J0.234 K0.000 F600.000
G2 X58.415 Y-43.433 Z-4.000 I-1.125 J2.430 K0.000 F600.000
G2 X57.309 Y-42.647 Z-4.000 I0.259 J1.535 K0.000 F600.000
G2 X57.023 Y-41.003 Z-4.000 I4.120 J1.562 K0.000 F600.000
G3 X56.941 Y-36.072 Z-4.000 I-122.270 J0.419 K0.000 F600.000
G3 X55.877 Y-29.674 Z-4.000 I-26.229 J-1.075 K0.000 F600.000
G3 X53.967 Y-24.169 Z-4.000 I-214.351 J-71.274 K0.000 F600.000
G2 X53.272 Y-20.566 Z-4.000 I10.672 J3.926 K0.000 F600.000
G2 X54.757 Y-17.227 Z-4.000 I4.375 J0.054 K0.000 F600.000
G2 X57.111 Y-16.031 Z-4.000 I3.925 J-4.813 K0.000 F600.000
G1 X53.348 Y-19.794 Z-4.000 F600.000
G3 X53.496 Y-22.474 Z-4.000 I6.691 J-0.974 K0.000 F600.000
G1 X60.563 Y-15.407 Z-4.000 F600.000
G1 X60.915 Y-15.367 Z-4.000 F600.000
G2 X63.607 Y-15.192 Z-4.000 I5.056 J-57.030 K0.000 F600.000
G1 X54.136 Y-24.662 Z-4.000 F600.000
G3 X54.877 Y-26.751 Z-4.000 I61.642 J20.667 K0.000 F600.000
G1 X66.529 Y-15.098 Z-4.000 F600.000
G2 X69.367 Y-15.088 Z-4.000 I1.640 J-64.101 K0.000 F600.000
G1 X55.612 Y-28.843 Z-4.000 F600.000
G2 X56.243 Y-31.041 Z-4.000 I-23.401 J-7.899 K0.000 F600.000
G1 X72.135 Y-15.149 Z-4.000 F600.000
G2 X74.791 Y-15.322 Z-4.000 I-1.094 J-37.239 K0.000 F600.000
G1 X64.886 Y-25.226 Z-4.000 F600.000
G3 X63.900 Y-25.354 Z-4.000 I0.626 J-8.708 K0.000 F600.000
G3 X61.402 Y-26.987 Z-4.000 I0.372 J-3.296 K0.000 F600.000
G3 X60.852 Y-29.260 Z-4.000 I5.138 J-2.445 K0.000 F600.000
G1 X56.693 Y-33.419 Z-4.000 F600.000
G2 X56.937 Y-36.004 Z-4.000 I-28.113 J-3.954 K0.000 F600.000
G1 X60.850 Y-32.091 Z-4.000 F600.000
G3 X60.986 Y-34.783 Z-4.000 I50.616 J1.217 K0.000 F600.000
G1 X56.999 Y-38.771 Z-4.000 F600.000
G3 X57.023 Y-41.003 Z-4.000 I125.227 J0.276 K0.000 F600.000
G1 X57.065 Y-41.532 Z-4.000 F600.000
G1 X61.135 Y-37.463 Z-4.000 F600.000
G2 X61.181 Y-40.246 Z-4.000 I-33.899 J-1.950 K0.000 F600.000
G1 X58.101 Y-43.326 Z-4.000 F600.000
G3 X59.822 Y-43.486 Z-4.000 I1.136 J2.878 K0.000 F600.000
G3 X60.765 Y-42.708 Z-4.000 I-0.152 J1.144 K0.000 F600.000
G3 X61.181 Y-40.246 Z-4.000 I-6.009 J2.282 K0.000 F600.000
G1 X61.181 Y-40.246 Z-6.000 F600.000
G2 X60.765 Y-42.708 Z-6.000 I-6.425 J-0.181 K0.000 F600.000
G2 X59.822 Y-43.486 Z-6.000 I-1.094 J0.366 K0.000 F600.000
G2 X58.101 Y-43.326 Z-6.000 I-0.586 J3.038 K0.000 F600.000
G1 X61.181 Y-40.246 Z-6.000 F600.000
G3 X61.135 Y-37.463 Z-6.000 I-33.945 J0.833 K0.000 F600.000
G1 X57.065 Y-41.532 Z-6.000 F600.000
G1 X57.023 Y-41.003 Z-6.000 F600.000
G2 X56.999 Y-38.771 Z-6.000 I125.202 J2.508 K0.000 F600.000
G1 X60.986 Y-34.783 Z-6.000 F600.000
G2 X60.850 Y-32.091 Z-6.000 I50.480 J3.909 K0.000 F600.000
G1 X56.937 Y-36.004 Z-6.000 F600.000
G3 X56.693 Y-33.419 Z-6.000 I-28.357 J-1.369 K0.000 F600.000
G1 X60.852 Y-29.260 Z-6.000 F600.000
G2 X61.402 Y-26.987 Z-6.000 I5.688 J-0.172 K0.000 F600.000
G2 X63.900 Y-25.354 Z-6.000 I2.870 J-1.663 K0.000 F600.000
G2 X64.886 Y-25.226 Z-6.000 I1.612 J-8.580 K0.000 F600.000
G1 X74.791 Y-15.322 Z-6.000 F600.000
G3 X72.135 Y-15.149 Z-6.000 I-3.749 J-37.066 K0.000 F600.000
G1 X56.243 Y-31.041 Z-6.000 F600.000
G3 X55.612 Y-28.843 Z-6.000 I-24.031 J-5.701 K0.000 F600.000
G1 X69.367 Y-15.088 Z-6.000 F600.000
G3 X66.529 Y-15.098 Z-6.000 I-1.198 J-64.110 K0.000 F600.000
G1 X54.877 Y-26.751 Z-6.000 F600.000
G2 X54.136 Y-24.662 Z-6.000 I60.902 J22.756 K0.000 F600.000
G1 X63.607 Y-15.192 Z-6.000 F600.000
G3 X60.915 Y-15.367 Z-6.000 I2.364 J-57.205 K0.000 F600.000
G1 X60.563 Y-15.407 Z-6.000 F600.000
G1 X53.496 Y-22.474 Z-6.000 F600.000
G2 X53.348 Y-19.794 Z-6.000 I6.543 J1.706 K0.000 F600.000
G1 X57.111 Y-16.031 Z-6.000 F600.000
G3 X54.757 Y-17.227 Z-6.000 I1.572 J-6.008 K0.000 F600.000
G3 X53.272 Y-20.566 Z-6.000 I2.890 J-3.285 K0.000 F600.000
G3 X53.967 Y-24.169 Z-6.000 I11.367 J0.323 K0.000 F600.000
G2 X55.877 Y-29.674 Z-6.000 I-212.441 J-76.779 K0.000 F600.000
G2 X56.941 Y-36.072 Z-6.000 I-25.165 J-7.473 K0.000 F600.000
G2 X57.023 Y-41.003 Z-6.000 I-122.188 J-4.511 K0.000 F600.000
G3 X57.309 Y-42.647 Z-6.000 I4.406 J-0.082 K0.000 F600.000
G3 X58.415 Y-43.433 Z-6.000 I1.365 J0.748 K0.000 F600.000
G3 X60.314 Y-43.300 Z-6.000 I0.774 J2.563 K0.000 F600.000
G3 X61.018 Y-41.875 Z-6.000 I-1.563 J1.658 K0.000 F600.000
G3 X61.189 Y-39.032 Z-6.000 I-12.379 J2.171 K0.000 F600.000
G3 X60.871 Y-32.773 Z-6.000 I-261.071 J-10.121 K0.000 F600.000
G2 X60.871 Y-28.984 Z-6.000 I27.636 J1.895 K0.000 F600.000
G2 X61.436 Y-26.926 Z-6.000 I4.798 J-0.212 K0.000 F600.000
G2 X63.900 Y-25.354 Z-6.000 I2.840 J-1.733 K0.000 F600.000
G2 X68.240 Y-25.073 Z-6.000 I3.985 J-27.898 K0.000 F600.000
G2 X73.613 Y-25.286 Z-6.000 I0.943 J-44.029 K0.000 F600.000
G2 X76.615 Y-26.122 Z-6.000 I-0.448 J-7.422 K0.000 F600.000
G2 X77.976 Y-28.536 Z-6.000 I-1.505 J-2.438 K0.000 F600.000
G2 X77.677 Y-36.997 Z-6.000 I-65.872 J-1.913 K0.000 F600.000
G3 X77.525 Y-39.511 Z-6.000 I29.213 J-3.032 K0.000 F600.000
G3 X77.625 Y-41.011 Z-6.000 I8.148 J-0.212 K0.000 F600.000
G3 X78.422 Y-42.744 Z-6.000 I3.100 J0.376 K0.000 F600.000
G3 X79.879 Y-43.077 Z-6.000 I0.941 J0.765 K0.000 F600.000
G3 X81.322 Y-42.308 Z-6.000 I-7.401 J15.613 K0.000 F600.000
G3 X82.754 Y-41.291 Z-6.000 I-2.210 J4.634 K0.000 F600.000
G3 X83.431 Y-38.363 Z-6.000 I-3.277 J2.300 K0.000 F600.000
G3 X83.097 Y-36.884 Z-6.000 I-8.462 J-1.134 K0.000 F600.000
G2 X81.960 Y-33.247 Z-6.000 I33.254 J12.386 K0.000 F600.000
G2 X81.652 Y-27.895 Z-6.000 I14.472 J3.518 K0.000 F600.000
G2 X81.920 Y-26.259 Z-6.000 I20.559 J-2.517 K0.000 F600.000
G2 X83.329 Y-22.092 Z-6.000 I19.622 J-4.315 K0.000 F600.000
G3 X84.080 Y-20.057 Z-6.000 I-9.441 J4.638 K0.000 F600.000
G3 X84.095 Y-18.772 Z-6.000 I-2.113 J0.667 K0.000 F600.000
G3 X82.898 Y-17.458 Z-6.000 I-2.664 J-1.222 K0.000 F600.000
G3 X79.302 Y-16.023 Z-6.000 I-6.351 J-10.693 K0.000 F600.000
G3 X72.494 Y-15.161 Z-6.000 I-7.943 J-35.426 K0.000 F600.000
G3 X60.915 Y-15.367 Z-6.000 I-4.050 J-97.890 K0.000 F600.000
G3 X57.541 Y-15.900 Z-6.000 I1.337 J-19.390 K0.000 F600.000
G3 X55.202 Y-16.889 Z-6.000 I1.562 J-6.957 K0.000 F600.000
G3 X53.348 Y-19.794 Z-6.000 I2.262 J-3.488 K0.000 F600.000
G0 Z5.000
G0 X74.791 Y-15.322 Z5.000
G0 X74.791 Y-15.322 Z3.000
G1 X74.791 Y-15.322 Z-6.000 F600.000
G1 X64.886 Y-25.226 Z-6.000 F600.000
G2 X67.859 Y-25.081 Z-6.000 I3.394 J-39.132 K0.000 F600.000
G1 X77.312 Y-15.629 Z-6.000 F600.000
G1 X77.596 Y-15.669 Z-6.000 F600.000
G1 X79.302 Y-16.023 Z-6.000 F600.000
G1 X79.650 Y-16.119 Z-6.000 F600.000
G1 X70.679 Y-25.090 Z-6.000 F600.000
G2 X73.339 Y-25.259 Z-6.000 I-0.925 J-35.704 K0.000 F600.000
G1 X81.753 Y-16.844 Z-6.000 F600.000
G2 X83.495 Y-17.931 Z-6.000 I-2.132 J-5.353 K0.000 F600.000
G1 X75.710 Y-25.717 Z-6.000 F600.000
G2 X77.410 Y-26.844 Z-6.000 I-0.788 J-3.035 K0.000 F600.000
G1 X84.036 Y-20.219 Z-6.000 F600.000
G1 X84.000 Y-20.352 Z-6.000 F600.000
G2 X83.329 Y-22.092 Z-6.000 I-15.828 J5.101 K0.000 F600.000
G3 X82.309 Y-24.774 Z-6.000 I19.609 J-8.990 K0.000 F600.000
G1 X77.998 Y-29.085 Z-6.000 F600.000
G2 X77.977 Y-31.934 Z-6.000 I-107.266 J-0.633 K0.000 F600.000
G1 X81.617 Y-28.294 Z-6.000 F600.000
G3 X81.606 Y-31.134 Z-6.000 I13.847 J-1.477 K0.000 F600.000
G1 X77.854 Y-34.886 Z-6.000 F600.000
G2 X77.603 Y-37.965 Z-6.000 I-326.465 J25.065 K0.000 F600.000
G1 X82.035 Y-33.533 Z-6.000 F600.000
G3 X82.703 Y-35.693 Z-6.000 I24.697 J6.458 K0.000 F600.000
G1 X77.597 Y-40.800 Z-6.000 F600.000
G3 X78.453 Y-42.772 Z-6.000 I3.337 J0.276 K0.000 F600.000
G1 X83.350 Y-37.875 Z-6.000 F600.000
G2 X83.385 Y-39.863 Z-6.000 I-5.022 J-1.081 K0.000 F600.000
G2 X82.607 Y-41.446 Z-6.000 I-2.929 J0.456 K0.000 F600.000
G0 Z5.000
G0 Z5.000
G0 X82.607 Y-41.446
G0 X80.064 Y-53.116
G0 X80.064 Y-53.116 Z3.000
G1 X80.064 Y-53.116 Z-2.000 F600.000
G2 X79.000 Y-62.998 Z-2.000 I-1.064 J-4.884 K0.000 F600.000
G2 X79.000 Y-53.002 Z-2.000 I0.000 J4.998 K0.000 F600.000
G2 X80.064 Y-53.116 Z-2.000 I0.000 J-4.998 K0.000 F600.000
G0 Z5.000
G0 X74.057 Y-58.699 Z5.000
G0 X74.057 Y-58.699 Z3.000
G1 X74.057 Y-58.699 Z-2.000 F600.000
G2 X79.699 Y-53.057 Z-2.000 I4.933 J0.709 K0.000 F600.000
G1 X74.057 Y-58.699 Z-2.000 F600.000
G3 X74.833 Y-60.751 Z-2.000 I4.739 J0.619 K0.000 F600.000
G1 X81.751 Y-53.833 Z-2.000 F600.000
G2 X83.165 Y-55.247 Z-2.000 I-2.582 J-3.998 K0.000 F600.000
G1 X76.247 Y-62.165 Z-2.000 F600.000
G3 X78.298 Y-62.943 Z-2.000 I2.664 J3.934 K0.000 F600.000
G1 X83.943 Y-57.298 Z-2.000 F600.000
G2 X82.534 Y-61.534 Z-2.000 I-4.911 J-0.720 K0.000 F600.000
G1 X82.534 Y-61.534 Z-4.000 F600.000
G3 X83.943 Y-57.298 Z-4.000 I-3.502 J3.517 K0.000 F600.000
G1 X78.298 Y-62.943 Z-4.000 F600.000
G2 X76.247 Y-62.165 Z-4.000 I0.612 J4.711 K0.000 F600.000
G1 X83.165 Y-55.247 Z-4.000 F600.000
G3 X81.751 Y-53.833 Z-4.000 I-3.996 J-2.584 K0.000 F600.000
G1 X74.833 Y-60.751 Z-4.000 F600.000
G2 X74.057 Y-58.699 Z-4.000 I3.963 J2.671 K0.000 F600.000
G1 X79.699 Y-53.057 Z-4.000 F600.000
G3 X74.057 Y-58.699 Z-4.000 I-0.709 J-4.933 K0.000 F600.000
G0 Z5.000
G0 X74.051 Y-58.699 Z5.000
G0 X74.051 Y-58.699 Z3.000
G1 X74.051 Y-58.699 Z-4.000 F600.000
G2 X79.000 Y-53.002 Z-4.000 I4.949 J0.699 K0.000 F600.000
G2 X79.000 Y-62.998 Z-4.000 I0.000 J-4.998 K0.000 F600.000
G2 X74.051 Y-58.699 Z-4.000 I0.000 J4.998 K0.000 F600.000
G1 X74.051 Y-58.699 Z-6.000 F600.000
G2 X79.000 Y-53.002 Z-6.000 I4.949 J0.699 K0.000 F600.000
G2 X79.000 Y-62.998 Z-6.000 I0.000 J-4.998 K0.000 F600.000
G2 X74.051 Y-58.699 Z-6.000 I0.000 J4.998 K0.000 F600.000
G0 Z5.000
G0 X74.057 Y-58.699 Z5.000
G0 X74.057 Y-58.699 Z3.000
G1 X74.057 Y-58.699 Z-6.000 F600.000
G2 X79.699 Y-53.057 Z-6.000 I4.933 J0.709 K0.000 F600.000
G1 X74.057 Y-58.699 Z-6.000 F600.000
G3 X74.833 Y-60.751 Z-6.000 I4.739 J0.619 K0.000 F600.000
G1 X81.751 Y-53.833 Z-6.000 F600.000
G2 X83.165 Y-55.247 Z-6.000 I-2.582 J-3.998 K0.000 F600.000
G1 X76.247 Y-62.165 Z-6.000 F600.000
G3 X78.298 Y-62.943 Z-6.000 I2.664 J3.934 K0.000 F600.000
G1 X83.943 Y-57.298 Z-6.000 F600.000
G2 X82.534 Y-61.534 Z-6.000 I-4.911 J-0.720 K0.000 F600.000
G0 Z5.000
G0 Z5.000
G0 X82.534 Y-61.534
G0 X73.530 Y15.681
G0 X73.530 Y15.681 Z3.000
G1 X73.530 Y15.681 Z-2.000 F600.000
G1 X71.849 Y14.000 Z-2.000 F600.000
G1 X69.021 Y14.000 Z-2.000 F600.000
G1 X70.545 Y15.525 Z-2.000 F600.000
G2 X68.438 Y16.246 Z-2.000 I0.428 J4.694 K0.000 F600.000
G1 X66.192 Y14.000 Z-2.000 F600.000
G1 X63.364 Y14.000 Z-2.000 F600.000
G1 X67.251 Y17.888 Z-2.000 F600.000
G2 X67.019 Y20.483 Z-2.000 I9.922 J2.197 K0.000 F600.000
G1 X60.535 Y14.000 Z-2.000 F600.000
G1 X57.707 Y14.000 Z-2.000 F600.000
G1 X67.082 Y23.375 Z-2.000 F600.000
G2 X67.625 Y23.918 Z-2.000 I0.849 J-0.306 K0.000 F600.000
G1 X75.979 Y32.272 Z-2.000 F600.000
G3 X75.420 Y34.541 Z-2.000 I-6.131 J-0.307 K0.000 F600.000
G1 X54.878 Y14.000 Z-2.000 F600.000
G1 X52.050 Y14.000 Z-2.000 F600.000
G1 X68.874 Y30.824 Z-2.000 F600.000
G2 X67.389 Y32.167 Z-2.000 I0.528 J2.076 K0.000 F600.000
G1 X55.895 Y20.673 Z-2.000 F600.000
G3 X55.994 Y23.600 Z-2.000 I-37.253 J2.721 K0.000 F600.000
G1 X67.045 Y34.652 Z-2.000 F600.000
G2 X67.253 Y37.688 Z-2.000 I29.625 J-0.508 K0.000 F600.000
G1 X54.708 Y25.144 Z-2.000 F600.000
G3 X52.523 Y25.787 Z-2.000 I-15.025 J-46.999 K0.000 F600.000
G1 X66.752 Y40.016 Z-2.000 F600.000
G2 X62.942 Y39.034 Z-2.000 I-4.426 J9.294 K0.000 F600.000
G1 X56.231 Y32.323 Z-2.000 F600.000
G3 X56.157 Y33.617 Z-2.000 I-6.172 J0.296 K0.000 F600.000
G1 X55.948 Y34.868 Z-2.000 F600.000
G1 X60.161 Y39.082 Z-2.000 F600.000
G2 X57.767 Y39.516 Z-2.000 I0.672 J10.524 K0.000 F600.000
G2 X56.432 Y39.908 Z-2.000 I11.083 J40.192 K0.000 F600.000
G3 X55.611 Y39.967 Z-2.000 I-0.513 J-1.403 K0.000 F600.000
G3 X55.481 Y39.688 Z-2.000 I0.212 J-0.270 K0.000 F600.000
G3 X55.563 Y37.312 Z-2.000 I8.150 J-0.905 K0.000 F600.000
G1 X57.767 Y39.516 Z-2.000 F600.000
G0 Z5.000
G0 X54.673 Y30.765 Z5.000
G0 X54.673 Y30.765 Z3.000
G1 X54.673 Y30.765 Z-2.000 F600.000
G1 X50.277 Y26.369 Z-2.000 F600.000
G2 X48.118 Y27.038 Z-2.000 I2.673 J12.451 K0.000 F600.000
G1 X52.030 Y30.951 Z-2.000 F600.000
G2 X49.887 Y31.636 Z-2.000 I53.016 J169.445 K0.000 F600.000
G3 X48.021 Y32.076 Z-2.000 I-2.746 J-7.461 K0.000 F600.000
G2 X47.795 Y30.190 Z-2.000 I-3.853 J-0.493 K0.000 F600.000
G2 X46.452 Y28.883 Z-2.000 I-2.818 J1.550 K0.000 F600.000
G3 X45.664 Y28.440 Z-2.000 I3.393 J-6.970 K0.000 F600.000
G3 X47.586 Y27.243 Z-2.000 I4.580 J5.209 K0.000 F600.000
G3 X50.962 Y26.190 Z-2.000 I8.125 J20.115 K0.000 F600.000
G2 X55.525 Y24.851 Z-2.000 I-8.763 J-38.322 K0.000 F600.000
G2 X56.000 Y23.983 Z-2.000 I-0.546 J-0.862 K0.000 F600.000
G2 X55.776 Y19.538 Z-2.000 I-30.516 J-0.689 K0.000 F600.000
G2 X54.851 Y16.898 Z-2.000 I-5.415 J0.414 K0.000 F600.000
G2 X52.002 Y15.236 Z-2.000 I-3.414 J2.581 K0.000 F600.000
G2 X45.696 Y15.803 Z-2.000 I-2.126 J11.707 K0.000 F600.000
G3 X44.570 Y15.982 Z-2.000 I-0.859 J-1.769 K0.000 F600.000
G3 X43.490 Y14.980 Z-2.000 I1.170 J-2.343 K0.000 F600.000
G3 X42.951 Y14.004 Z-2.000 I2.666 J-2.109 K0.000 F600.000
G3 X43.971 Y14.000 Z-2.000 I0.720 J56.915 K0.000 F600.000
G1 X72.996 Y14.000 Z-2.000 F600.000
G3 X76.583 Y14.090 Z-2.000 I0.688 J44.263 K0.000 F600.000
G3 X80.364 Y14.902 Z-2.000 I-0.643 J12.204 K0.000 F600.000
G3 X84.480 Y18.400 Z-2.000 I-4.074 J8.964 K0.000 F600.000
G3 X86.303 Y23.320 Z-2.000 I-7.798 J5.688 K0.000 F600.000
G3 X85.319 Y27.389 Z-2.000 I-6.907 J0.483 K0.000 F600.000
G3 X83.574 Y28.877 Z-2.000 I-2.894 J-1.626 K0.000 F600.000
G3 X81.084 Y28.353 Z-2.000 I-0.760 J-2.565 K0.000 F600.000
G3 X79.478 Y25.540 Z-2.000 I3.399 J-3.807 K0.000 F600.000
G3 X78.693 Y21.381 Z-2.000 I338.804 J-66.105 K0.000 F600.000
G2 X77.544 Y18.283 Z-2.000 I-8.895 J1.534 K0.000 F600.000
G2 X73.538 Y15.682 Z-2.000 I-5.164 J3.569 K0.000 F600.000
G2 X69.669 Y15.690 Z-2.000 I-1.919 J7.724 K0.000 F600.000
G2 X67.593 Y17.090 Z-2.000 I0.707 J3.289 K0.000 F600.000
G2 X67.077 Y18.939 Z-2.000 I3.621 J2.005 K0.000 F600.000
G2 X67.022 Y19.968 Z-2.000 I14.634 J1.299 K0.000 F600.000
G1 X67.000 Y22.993 Z-2.000 F600.000
G2 X67.727 Y23.962 Z-2.000 I1.000 J0.007 K0.000 F600.000
G3 X72.055 Y25.563 Z-2.000 I-4.088 J17.698 K0.000 F600.000
G3 X74.961 Y28.040 Z-2.000 I-3.568 J7.132 K0.000 F600.000
G3 X75.999 Y31.734 Z-2.000 I-5.134 J3.435 K0.000 F600.000
G3 X75.076 Y35.160 Z-2.000 I-6.213 J0.164 K0.000 F600.000
G3 X74.069 Y36.455 Z-2.000 I-10.800 J-7.365 K0.000 F600.000
G2 X72.777 Y32.707 Z-2.000 I-7.373 J0.446 K0.000 F600.000
G2 X70.251 Y30.875 Z-2.000 I-4.199 J3.131 K0.000 F600.000
G2 X67.928 Y31.356 Z-2.000 I-0.776 J2.105 K0.000 F600.000
G2 X67.194 Y32.817 Z-2.000 I2.029 J1.933 K0.000 F600.000
G2 X67.113 Y36.217 Z-2.000 I12.618 J2.003 K0.000 F600.000
G2 X67.520 Y40.413 Z-2.000 I642.977 J-60.319 K0.000 F600.000
G2 X62.966 Y39.035 Z-2.000 I-5.174 J8.886 K0.000 F600.000
G2 X58.320 Y39.360 Z-2.000 I-1.217 J15.979 K0.000 F600.000
G3 X56.159 Y39.966 Z-2.000 I-100.687 J-354.727 K0.000 F600.000
G3 X55.683 Y39.989 Z-2.000 I-0.314 J-1.523 K0.000 F600.000
G3 X55.556 Y39.908 Z-2.000 I0.007 J-0.150 K0.000 F600.000
G3 X55.433 Y39.268 Z-2.000 I1.386 J-0.599 K0.000 F600.000
G3 X55.719 Y36.197 Z-2.000 I16.879 J0.025 K0.000 F600.000
G2 X56.205 Y33.254 Z-2.000 I-38.581 J-7.890 K0.000 F600.000
G2 X56.160 Y31.938 Z-2.000 I-3.206 J-0.549 K0.000 F600.000
G2 X54.730 Y30.773 Z-2.000 I-1.614 J0.521 K0.000 F600.000
G2 X51.212 Y31.209 Z-2.000 I-0.975 J6.538 K0.000 F600.000
G3 X49.887 Y31.636 Z-2.000 I-14.931 J-44.034 K0.000 F600.000
G3 X48.021 Y32.076 Z-2.000 I-2.746 J-7.461 K0.000 F600.000
G3 X48.036 Y31.420 Z-2.000 I13.014 J-0.034 K0.000 F600.000
G2 X47.110 Y29.337 Z-2.000 I-2.527 J-0.125 K0.000 F600.000
G2 X45.664 Y28.440 Z-2.000 I-5.364 J7.040 K0.000 F600.000
G3 X46.239 Y27.988 Z-2.000 I2.198 J2.208 K0.000 F600.000
G1 X49.887 Y31.636 Z-2.000 F600.000
G0 Z5.000
G0 X45.445 Y15.880 Z5.000
G0 X45.445 Y15.880 Z3.000
G1 X45.445 Y15.880 Z-2.000 F600.000
G1 X43.565 Y14.000 Z-2.000 F600.000
G2 X42.951 Y14.004 Z-2.000 I-0.190 J19.069 K0.000 F600.000
G2 X44.446 Y15.934 Z-2.000 I3.782 J-1.385 K0.000 F600.000
G2 X44.943 Y15.997 Z-2.000 I0.349 J-0.759 K0.000 F600.000
G2 X45.445 Y15.880 Z-2.000 I-0.366 J-2.698 K0.000 F600.000
G3 X47.640 Y15.247 Z-2.000 I5.032 J13.336 K0.000 F600.000
G1 X46.393 Y14.000 Z-2.000 F600.000
G1 X49.222 Y14.000 Z-2.000 F600.000
G1 X50.292 Y15.070 Z-2.000 F600.000
G0 Z5.000
G0 X72.162 Y25.627 Z5.000
G0 X72.162 Y25.627 Z3.000
G1 X72.162 Y25.627 Z-2.000 F600.000
G3 X74.961 Y28.040 Z-2.000 I-3.584 J6.988 K0.000 F600.000
G3 X75.446 Y28.910 Z-2.000 I-3.940 J2.761 K0.000 F600.000
G1 X72.162 Y25.627 Z-2.000 F600.000
G2 X67.727 Y23.962 Z-2.000 I-8.402 J15.644 K0.000 F600.000
G1 X67.625 Y23.918 Z-2.000 F600.000
G1 X75.979 Y32.272 Z-2.000 F600.000
G0 Z5.000
G0 X73.998 Y35.948 Z5.000
G0 X73.998 Y35.948 Z3.000
G1 X73.998 Y35.948 Z-2.000 F600.000
G1 X74.069 Y36.455 Z-2.000 F600.000
G2 X74.271 Y36.221 Z-2.000 I-2.472 J-2.337 K0.000 F600.000
G1 X73.998 Y35.948 Z-2.000 F600.000
G0 Z5.000
G0 X79.204 Y24.183 Z5.000
G0 X79.204 Y24.183 Z3.000
G1 X79.204 Y24.183 Z-2.000 F600.000
G1 X83.802 Y28.782 Z-2.000 F600.000
G3 X81.084 Y28.353 Z-2.000 I-1.018 J-2.374 K0.000 F600.000
G3 X79.478 Y25.540 Z-2.000 I3.399 J-3.807 K0.000 F600.000
G3 X79.204 Y24.183 Z-2.000 I13.621 J-3.457 K0.000 F600.000
G2 X78.532 Y20.683 Z-2.000 I-38.574 J5.591 K0.000 F600.000
G1 X85.285 Y27.436 Z-2.000 F600.000
G2 X86.115 Y25.438 Z-2.000 I-4.957 J-3.232 K0.000 F600.000
G1 X74.692 Y14.015 Z-2.000 F600.000
G3 X77.718 Y14.212 Z-2.000 I0.026 J22.922 K0.000 F600.000
G1 X86.245 Y22.739 Z-2.000 F600.000
G2 X86.090 Y21.872 Z-2.000 I-4.879 J0.421 K0.000 F600.000
G2 X83.354 Y17.020 Z-2.000 I-10.533 J2.743 K0.000 F600.000
G1 X83.354 Y17.020 Z-4.000 F600.000
G3 X86.090 Y21.872 Z-4.000 I-7.797 J7.594 K0.000 F600.000
G3 X86.245 Y22.739 Z-4.000 I-4.725 J1.288 K0.000 F600.000
G1 X77.718 Y14.212 Z-4.000 F600.000
G2 X74.692 Y14.015 Z-4.000 I-3.000 J22.725 K0.000 F600.000
G1 X86.115 Y25.438 Z-4.000 F600.000
G3 X85.285 Y27.436 Z-4.000 I-5.788 J-1.234 K0.000 F600.000
G1 X78.532 Y20.683 Z-4.000 F600.000
G3 X79.204 Y24.183 Z-4.000 I-37.902 J9.091 K0.000 F600.000
G2 X79.478 Y25.540 Z-4.000 I13.895 J-2.100 K0.000 F600.000
G2 X81.084 Y28.353 Z-4.000 I5.006 J-0.995 K0.000 F600.000
G2 X83.802 Y28.782 Z-4.000 I1.700 J-1.945 K0.000 F600.000
G1 X79.204 Y24.183 Z-4.000 F600.000
G0 Z5.000
G0 X72.162 Y25.627 Z5.000
G0 X72.162 Y25.627 Z3.000
G1 X72.162 Y25.627 Z-4.000 F600.000
G3 X74.961 Y28.040 Z-4.000 I-3.584 J6.988 K0.000 F600.000
G3 X75.446 Y28.910 Z-4.000 I-3.940 J2.761 K0.000 F600.000
G1 X72.162 Y25.627 Z-4.000 F600.000
G2 X67.727 Y23.962 Z-4.000 I-8.402 J15.644 K0.000 F600.000
G1 X67.625 Y23.918 Z-4.000 F600.000
G1 X75.979 Y32.272 Z-4.000 F600.000
G0 Z5.000
G0 X73.998 Y35.948 Z5.000
G0 X73.998 Y35.948 Z3.000
G1 X73.998 Y35.948 Z-4.000 F600.000
G1 X74.069 Y36.455 Z-4.000 F600.000
G2 X74.271 Y36.221 Z-4.000 I-2.472 J-2.337 K0.000 F600.000
G1 X73.998 Y35.948 Z-4.000 F600.000
G0 Z5.000
G0 X57.767 Y39.516 Z5.000
G0 X57.767 Y39.516 Z3.000
G1 X57.767 Y39.516 Z-4.000 F600.000
G1 X55.563 Y37.312 Z-4.000 F600.000
G2 X55.481 Y39.688 Z-4.000 I8.067 J1.470 K0.000 F600.000
G2 X55.611 Y39.967 Z-4.000 I0.343 J0.009 K0.000 F600.000
G2 X56.432 Y39.908 Z-4.000 I0.308 J-1.462 K0.000 F600.000
G3 X57.767 Y39.516 Z-4.000 I12.418 J39.800 K0.000 F600.000
G3 X60.161 Y39.082 Z-4.000 I3.066 J10.090 K0.000 F600.000
G1 X55.948 Y34.868 Z-4.000 F600.000
G1 X56.157 Y33.617 Z-4.000 F600.000
G2 X56.231 Y32.323 Z-4.000 I-6.099 J-0.997 K0.000 F600.000
G1 X62.942 Y39.034 Z-4.000 F600.000
G3 X66.752 Y40.016 Z-4.000 I-0.616 J10.276 K0.000 F600.000
G1 X52.523 Y25.787 Z-4.000 F600.000
G2 X54.708 Y25.144 Z-4.000 I-12.840 J-47.643 K0.000 F600.000
G1 X67.253 Y37.688 Z-4.000 F600.000
G3 X67.045 Y34.652 Z-4.000 I29.416 J-3.545 K0.000 F600.000
G1 X55.994 Y23.600 Z-4.000 F600.000
G2 X55.895 Y20.673 Z-4.000 I-37.352 J-0.206 K0.000 F600.000
G1 X67.389 Y32.167 Z-4.000 F600.000
G3 X68.874 Y30.824 Z-4.000 I2.013 J0.732 K0.000 F600.000
G1 X52.050 Y14.000 Z-4.000 F600.000
G1 X54.878 Y14.000 Z-4.000 F600.000
G1 X75.420 Y34.541 Z-4.000 F600.000
G2 X75.979 Y32.272 Z-4.000 I-5.572 J-2.576 K0.000 F600.000
G1 X67.625 Y23.918 Z-4.000 F600.000
G3 X67.082 Y23.375 Z-4.000 I0.306 J-0.849 K0.000 F600.000
G1 X57.707 Y14.000 Z-4.000 F600.000
G1 X60.535 Y14.000 Z-4.000 F600.000
G1 X67.019 Y20.483 Z-4.000 F600.000
G3 X67.251 Y17.888 Z-4.000 I10.155 J-0.398 K0.000 F600.000
G1 X63.364 Y14.000 Z-4.000 F600.000
G1 X66.192 Y14.000 Z-4.000 F600.000
G1 X68.438 Y16.246 Z-4.000 F600.000
G3 X70.545 Y15.525 Z-4.000 I2.536 J3.973 K0.000 F600.000
G1 X69.021 Y14.000 Z-4.000 F600.000
G1 X71.849 Y14.000 Z-4.000 F600.000
G1 X73.530 Y15.681 Z-4.000 F600.000
G0 Z5.000
G0 X50.292 Y15.070 Z5.000
G0 X50.292 Y15.070 Z3.000
G1 X50.292 Y15.070 Z-4.000 F600.000
G1 X49.222 Y14.000 Z-4.000 F600.000
G1 X46.393 Y14.000 Z-4.000 F600.000
G1 X47.640 Y15.247 Z-4.000 F600.000
G2 X45.445 Y15.880 Z-4.000 I2.836 J13.969 K0.000 F600.000
G3 X44.943 Y15.997 Z-4.000 I-0.868 J-2.580 K0.000 F600.000
G3 X44.446 Y15.934 Z-4.000 I-0.148 J-0.823 K0.000 F600.000
G3 X42.951 Y14.004 Z-4.000 I2.286 J-3.316 K0.000 F600.000
G3 X43.565 Y14.000 Z-4.000 I0.424 J19.065 K0.000 F600.000
G1 X45.445 Y15.880 Z-4.000 F600.000
G0 Z5.000
G0 X49.887 Y31.636 Z5.000
G0 X49.887 Y31.636 Z3.000
G1 X49.887 Y31.636 Z-4.000 F600.000
G1 X46.239 Y27.988 Z-4.000 F600.000
G2 X45.664 Y28.440 Z-4.000 I1.622 J2.660 K0.000 F600.000
G3 X47.110 Y29.337 Z-4.000 I-3.918 J7.937 K0.000 F600.000
G3 X48.036 Y31.420 Z-4.000 I-1.600 J1.959 K0.000 F600.000
G2 X48.021 Y32.076 Z-4.000 I12.999 J0.622 K0.000 F600.000
G2 X49.887 Y31.636 Z-4.000 I-0.881 J-7.901 K0.000 F600.000
G2 X51.212 Y31.209 Z-4.000 I-13.606 J-44.461 K0.000 F600.000
G3 X54.730 Y30.773 Z-4.000 I2.542 J6.102 K0.000 F600.000
G3 X56.160 Y31.938 Z-4.000 I-0.184 J1.686 K0.000 F600.000
G3 X56.205 Y33.254 Z-4.000 I-3.161 J0.768 K0.000 F600.000
G3 X55.719 Y36.197 Z-4.000 I-39.067 J-4.947 K0.000 F600.000
G2 X55.433 Y39.268 Z-4.000 I16.593 J3.096 K0.000 F600.000
G2 X55.556 Y39.908 Z-4.000 I1.510 J0.041 K0.000 F600.000
G2 X55.683 Y39.989 Z-4.000 I0.134 J-0.068 K0.000 F600.000
G2 X56.159 Y39.966 Z-4.000 I0.163 J-1.547 K0.000 F600.000
G2 X58.320 Y39.360 Z-4.000 I-98.527 J-355.333 K0.000 F600.000
G3 X62.966 Y39.035 Z-4.000 I3.429 J15.655 K0.000 F600.000
G3 X67.520 Y40.413 Z-4.000 I-0.619 J10.264 K0.000 F600.000
G3 X67.113 Y36.217 Z-4.000 I642.569 J-64.515 K0.000 F600.000
G3 X67.194 Y32.817 Z-4.000 I12.700 J-1.397 K0.000 F600.000
G3 X67.928 Y31.356 Z-4.000 I2.762 J0.472 K0.000 F600.000
G3 X70.251 Y30.875 Z-4.000 I1.547 J1.624 K0.000 F600.000
G3 X72.777 Y32.707 Z-4.000 I-1.673 J4.963 K0.000 F600.000
G3 X74.069 Y36.455 Z-4.000 I-6.081 J4.193 K0.000 F600.000
G2 X75.076 Y35.160 Z-4.000 I-9.793 J-8.659 K0.000 F600.000
G2 X75.999 Y31.734 Z-4.000 I-5.290 J-3.262 K0.000 F600.000
G2 X74.961 Y28.040 Z-4.000 I-6.172 J-0.259 K0.000 F600.000
G2 X72.055 Y25.563 Z-4.000 I-6.474 J4.655 K0.000 F600.000
G2 X67.727 Y23.962 Z-4.000 I-8.416 J16.097 K0.000 F600.000
G3 X67.000 Y22.993 Z-4.000 I0.273 J-0.962 K0.000 F600.000
G1 X67.022 Y19.968 Z-4.000 F600.000
G3 X67.077 Y18.939 Z-4.000 I14.689 J0.270 K0.000 F600.000
G3 X67.593 Y17.090 Z-4.000 I4.136 J0.156 K0.000 F600.000
G3 X69.669 Y15.690 Z-4.000 I2.783 J1.889 K0.000 F600.000
G3 X73.538 Y15.682 Z-4.000 I1.950 J7.716 K0.000 F600.000
G3 X77.544 Y18.283 Z-4.000 I-1.158 J6.170 K0.000 F600.000
G3 X78.693 Y21.381 Z-4.000 I-7.747 J4.633 K0.000 F600.000
G2 X79.478 Y25.540 Z-4.000 I339.589 J-61.946 K0.000 F600.000
G2 X81.084 Y28.353 Z-4.000 I5.006 J-0.995 K0.000 F600.000
G2 X83.574 Y28.877 Z-4.000 I1.730 J-2.040 K0.000 F600.000
G2 X85.319 Y27.389 Z-4.000 I-1.148 J-3.114 K0.000 F600.000
G2 X86.303 Y23.320 Z-4.000 I-5.923 J-3.586 K0.000 F600.000
G2 X84.480 Y18.400 Z-4.000 I-9.622 J0.767 K0.000 F600.000
G2 X80.364 Y14.902 Z-4.000 I-8.190 J5.466 K0.000 F600.000
G2 X76.583 Y14.090 Z-4.000 I-4.424 J11.392 K0.000 F600.000
G2 X72.996 Y14.000 Z-4.000 I-2.900 J44.173 K0.000 F600.000
G1 X43.971 Y14.000 Z-4.000 F600.000
G2 X42.951 Y14.004 Z-4.000 I-0.300 J56.919 K0.000 F600.000
G2 X43.490 Y14.980 Z-4.000 I3.205 J-1.133 K0.000 F600.000
G2 X44.570 Y15.982 Z-4.000 I2.250 J-1.341 K0.000 F600.000
G2 X45.696 Y15.803 Z-4.000 I0.267 J-1.948 K0.000 F600.000
G3 X52.002 Y15.236 Z-4.000 I4.180 J11.140 K0.000 F600.000
G3 X54.851 Y16.898 Z-4.000 I-0.565 J4.242 K0.000 F600.000
G3 X55.776 Y19.538 Z-4.000 I-4.491 J3.055 K0.000 F600.000
G3 X56.000 Y23.983 Z-4.000 I-30.292 J3.756 K0.000 F600.000
G3 X55.525 Y24.851 Z-4.000 I-1.020 J0.006 K0.000 F600.000
G3 X50.962 Y26.190 Z-4.000 I-13.327 J-36.983 K0.000 F600.000
G2 X47.586 Y27.243 Z-4.000 I4.749 J21.168 K0.000 F600.000
G2 X45.664 Y28.440 Z-4.000 I2.658 J6.407 K0.000 F600.000
G2 X46.452 Y28.883 Z-4.000 I4.182 J-6.527 K0.000 F600.000
G3 X47.795 Y30.190 Z-4.000 I-1.475 J2.858 K0.000 F600.000
G3 X48.021 Y32.076 Z-4.000 I-3.626 J1.393 K0.000 F600.000
G2 X49.887 Y31.636 Z-4.000 I-0.881 J-7.901 K0.000 F600.000
G3 X52.030 Y30.951 Z-4.000 I55.159 J168.760 K0.000 F600.000
G1 X48.118 Y27.038 Z-4.000 F600.000
G3 X50.277 Y26.369 Z-4.000 I4.833 J11.782 K0.000 F600.000
G1 X54.673 Y30.765 Z-4.000 F600.000
G0 Z5.000
G0 Z5.000
G0 X54.673 Y30.765
G0 X64.386 Y56.999
G0 X64.386 Y56.999 Z3.000
G1 X64.386 Y56.999 Z-2.000 F600.000
G2 X62.833 Y58.275 Z-2.000 I3.127 J5.388 K0.000 F600.000
G2 X62.000 Y59.382 Z-2.000 I4.154 J3.993 K0.000 F600.000
G2 X59.614 Y57.001 Z-2.000 I-5.888 J3.514 K0.000 F600.000
G2 X62.000 Y54.618 Z-2.000 I-3.505 J-5.895 K0.000 F600.000
G2 X64.386 Y56.999 Z-2.000 I5.888 J-3.514 K0.000 F600.000
G2 X62.833 Y58.275 Z-2.000 I3.127 J5.388 K0.000 F600.000
G1 X60.730 Y56.172 Z-2.000 F600.000
G3 X59.614 Y57.001 Z-2.000 I-4.436 J-4.810 K0.000 F600.000
G3 X62.000 Y59.382 Z-2.000 I-3.521 J5.914 K0.000 F600.000
G3 X62.833 Y58.275 Z-2.000 I4.987 J2.886 K0.000 F600.000
G1 X62.833 Y58.275 Z-4.000 F600.000
G2 X62.000 Y59.382 Z-4.000 I4.154 J3.993 K0.000 F600.000
G2 X59.614 Y57.001 Z-4.000 I-5.907 J3.533 K0.000 F600.000
G2 X60.730 Y56.172 Z-4.000 I-3.320 J-5.638 K0.000 F600.000
G1 X62.833 Y58.275 Z-4.000 F600.000
G3 X64.386 Y56.999 Z-4.000 I4.680 J4.113 K0.000 F600.000
G3 X62.000 Y54.618 Z-4.000 I3.502 J-5.895 K0.000 F600.000
G3 X59.614 Y57.001 Z-4.000 I-5.890 J-3.512 K0.000 F600.000
G3 X62.000 Y59.382 Z-4.000 I-3.502 J5.895 K0.000 F600.000
G3 X62.833 Y58.275 Z-4.000 I4.987 J2.886 K0.000 F600.000
G3 X64.386 Y56.999 Z-4.000 I4.680 J4.113 K0.000 F600.000
G1 X64.386 Y56.999 Z-6.000 F600.000
G2 X62.833 Y58.275 Z-6.000 I3.127 J5.388 K0.000 F600.000
G2 X62.000 Y59.382 Z-6.000 I4.154 J3.993 K0.000 F600.000
G2 X59.614 Y57.001 Z-6.000 I-5.888 J3.514 K0.000 F600.000
G2 X62.000 Y54.618 Z-6.000 I-3.505 J-5.895 K0.000 F600.000
G2 X64.386 Y56.999 Z-6.000 I5.888 J-3.514 K0.000 F600.000
G2 X62.833 Y58.275 Z-6.000 I3.127 J5.388 K0.000 F600.000
G1 X60.730 Y56.172 Z-6.000 F600.000
G3 X59.614 Y57.001 Z-6.000 I-4.436 J-4.810 K0.000 F600.000
G3 X62.000 Y59.382 Z-6.000 I-3.521 J5.914 K0.000 F600.000
G3 X62.833 Y58.275 Z-6.000 I4.987 J2.886 K0.000 F600.000
G0 Z5.000
G0 Z5.000
G0 X62.833 Y58.275
G0 X67.467 Y65.373
G0 X67.467 Y65.373 Z3.000
G1 X67.467 Y65.373 Z-2.000 F600.000
G3 X62.046 Y66.999 Z-2.000 I-5.466 J-8.373 K0.000 F600.000
G3 X52.000 Y57.023 Z-2.000 I-0.046 J-9.999 K0.000 F600.000
G3 X62.000 Y47.000 Z-2.000 I9.999 J-0.023 K0.000 F600.000
G3 X67.467 Y65.373 Z-2.000 I0.000 J10.000 K0.000 F600.000
G0 Z5.000
G0 X71.472 Y53.824 Z5.000
G0 X71.472 Y53.824 Z3.000
G1 X71.472 Y53.824 Z-2.000 F600.000
G1 X75.983 Y58.335 Z-2.000 F600.000
G3 X75.876 Y61.057 Z-2.000 I-14.367 J0.797 K0.000 F600.000
G1 X71.993 Y57.173 Z-2.000 F600.000
G3 X71.640 Y59.649 Z-2.000 I-9.634 J-0.111 K0.000 F600.000
G1 X75.416 Y63.425 Z-2.000 F600.000
G3 X74.650 Y65.487 Z-2.000 I-10.713 J-2.806 K0.000 F600.000
G1 X70.834 Y61.671 Z-2.000 F600.000
G3 X69.700 Y63.366 Z-2.000 I-7.367 J-3.703 K0.000 F600.000
G1 X73.560 Y67.225 Z-2.000 F600.000
G3 X72.161 Y68.655 Z-2.000 I-6.771 J-5.226 K0.000 F600.000
G1 X68.278 Y64.772 Z-2.000 F600.000
G3 X66.569 Y65.891 Z-2.000 I-5.810 J-7.015 K0.000 F600.000
G1 X70.474 Y69.797 Z-2.000 F600.000
G2 X69.986 Y70.542 Z-2.000 I0.506 J0.864 K0.000 F600.000
G3 X69.767 Y71.673 Z-2.000 I-3.730 J-0.136 K0.000 F600.000
G1 X69.683 Y71.834 Z-2.000 F600.000
G1 X64.520 Y66.670 Z-2.000 F600.000
G3 X62.020 Y67.000 Z-2.000 I-2.505 J-9.360 K0.000 F600.000
G1 X67.885 Y72.865 Z-2.000 F600.000
G3 X66.634 Y72.405 Z-2.000 I0.925 J-4.452 K0.000 F600.000
G3 X65.306 Y71.653 Z-2.000 I7.464 J-14.733 K0.000 F600.000
G2 X64.704 Y71.514 Z-2.000 I-0.515 J0.857 K0.000 F600.000
G1 X63.787 Y71.595 Z-2.000 F600.000
G1 X58.584 Y66.392 Z-2.000 F600.000
G3 X52.608 Y60.416 Z-2.000 I3.375 J-9.351 K0.000 F600.000
G1 X48.256 Y56.064 Z-2.000 F600.000
G2 X48.006 Y58.643 Z-2.000 I16.960 J2.944 K0.000 F600.000
G1 X61.004 Y71.640 Z-2.000 F600.000
G3 X57.811 Y71.276 Z-2.000 I0.548 J-18.989 K0.000 F600.000
G1 X48.205 Y61.669 Z-2.000 F600.000
G2 X49.528 Y65.822 Z-2.000 I12.438 J-1.678 K0.000 F600.000
G1 X53.432 Y69.725 Z-2.000 F600.000
G3 X49.047 Y64.813 Z-2.000 I4.418 J-8.357 K0.000 F600.000
G3 X48.248 Y56.103 Z-2.000 I15.342 J-5.799 K0.000 F600.000
G3 X49.891 Y51.353 Z-2.000 I14.066 J2.206 K0.000 F600.000
G3 X54.590 Y46.827 Z-2.000 I10.359 J6.054 K0.000 F600.000
G3 X61.382 Y45.012 Z-2.000 I7.281 J13.626 K0.000 F600.000
G1 X61.382 Y45.012 Z-2.000 F600.000
G3 X70.226 Y47.313 Z-2.000 I0.730 J15.343 K0.000 F600.000
G3 X75.220 Y53.904 Z-2.000 I-6.364 J10.010 K0.000 F600.000
G3 X75.058 Y64.545 Z-2.000 I-16.101 J5.077 K0.000 F600.000
G3 X70.457 Y69.808 Z-2.000 I-9.080 J-3.296 K0.000 F600.000
G2 X69.986 Y70.542 Z-2.000 I0.523 J0.853 K0.000 F600.000
G3 X69.767 Y71.673 Z-2.000 I-3.730 J-0.136 K0.000 F600.000
G3 X68.600 Y72.807 Z-2.000 I-2.518 J-1.425 K0.000 F600.000
G3 X67.743 Y72.840 Z-2.000 I-0.475 J-1.182 K0.000 F600.000
G3 X65.306 Y71.653 Z-2.000 I2.964 J-9.178 K0.000 F600.000
G2 X64.704 Y71.514 Z-2.000 I-0.515 J0.857 K0.000 F600.000
G3 X57.080 Y71.127 Z-2.000 I-2.670 J-22.641 K0.000 F600.000
G3 X52.170 Y68.922 Z-2.000 I2.860 J-12.942 K0.000 F600.000
G3 X49.528 Y65.822 Z-2.000 I5.406 J-7.282 K0.000 F600.000
G0 Z5.000
G0 X48.256 Y56.064 Z5.000
G0 X48.256 Y56.064 Z3.000
G1 X48.256 Y56.064 Z-2.000 F600.000
G1 X52.608 Y60.416 Z-2.000 F600.000
G3 X52.000 Y56.980 Z-2.000 I9.186 J-3.398 K0.000 F600.000
G1 X48.820 Y53.799 Z-2.000 F600.000
G3 X49.650 Y51.801 Z-2.000 I11.220 J3.490 K0.000 F600.000
G1 X52.330 Y54.480 Z-2.000 F600.000
G3 X53.109 Y52.431 Z-2.000 I8.918 J2.220 K0.000 F600.000
G1 X50.751 Y50.073 Z-2.000 F600.000
G3 X52.109 Y48.603 Z-2.000 I8.390 J6.393 K0.000 F600.000
G1 X54.228 Y50.722 Z-2.000 F600.000
G3 X55.634 Y49.300 Z-2.000 I6.669 J5.193 K0.000 F600.000
G1 X53.703 Y47.368 Z-2.000 F600.000
G3 X55.528 Y46.365 Z-2.000 I6.527 J9.707 K0.000 F600.000
G1 X57.329 Y48.166 Z-2.000 F600.000
G3 X59.351 Y47.360 Z-2.000 I4.412 J8.128 K0.000 F600.000
G1 X57.599 Y45.608 Z-2.000 F600.000
G3 X59.955 Y45.135 Z-2.000 I3.876 J13.202 K0.000 F600.000
G1 X61.827 Y47.007 Z-2.000 F600.000
G3 X65.176 Y47.528 Z-2.000 I0.228 J9.561 K0.000 F600.000
G1 X62.670 Y45.022 Z-2.000 F600.000
G3 X65.971 Y45.495 Z-2.000 I-0.459 J14.971 K0.000 F600.000
G1 X75.535 Y55.058 Z-2.000 F600.000
G2 X72.525 Y49.220 Z-2.000 I-12.214 J2.602 K0.000 F600.000
G1 X72.525 Y49.220 Z-4.000 F600.000
G3 X75.535 Y55.058 Z-4.000 I-9.205 J8.440 K0.000 F600.000
G1 X65.971 Y45.495 Z-4.000 F600.000
G2 X62.670 Y45.022 Z-4.000 I-3.760 J14.499 K0.000 F600.000
G1 X65.176 Y47.528 Z-4.000 F600.000
G2 X61.827 Y47.007 Z-4.000 I-3.121 J9.040 K0.000 F600.000
G1 X59.955 Y45.135 Z-4.000 F600.000
G2 X57.599 Y45.608 Z-4.000 I1.520 J13.675 K0.000 F600.000
G1 X59.351 Y47.360 Z-4.000 F600.000
G2 X57.329 Y48.166 Z-4.000 I2.390 J8.934 K0.000 F600.000
G1 X55.528 Y46.365 Z-4.000 F600.000
G2 X53.703 Y47.368 Z-4.000 I4.703 J10.711 K0.000 F600.000
G1 X55.634 Y49.300 Z-4.000 F600.000
G2 X54.228 Y50.722 Z-4.000 I5.262 J6.614 K0.000 F600.000
G1 X52.109 Y48.603 Z-4.000 F600.000
G2 X50.751 Y50.073 Z-4.000 I7.032 J7.862 K0.000 F600.000
G1 X53.109 Y52.431 Z-4.000 F600.000
G2 X52.330 Y54.480 Z-4.000 I8.138 J4.269 K0.000 F600.000
G1 X49.650 Y51.801 Z-4.000 F600.000
G2 X48.820 Y53.799 Z-4.000 I10.389 J5.489 K0.000 F600.000
G1 X52.000 Y56.980 Z-4.000 F600.000
G2 X52.608 Y60.416 Z-4.000 I9.794 J0.039 K0.000 F600.000
G1 X48.256 Y56.064 Z-4.000 F600.000
G0 Z5.000
G0 X52.023 Y56.320 Z5.000
G0 X52.023 Y56.320 Z3.000
G1 X52.023 Y56.320 Z-4.000 F600.000
G3 X62.000 Y47.000 Z-4.000 I9.976 J0.679 K0.000 F600.000
G3 X62.046 Y66.999 Z-4.000 I0.000 J10.000 K0.000 F600.000
G3 X52.023 Y56.320 Z-4.000 I-0.046 J-9.999 K0.000 F600.000
G0 Z5.000
G0 X49.528 Y65.822 Z5.000
G0 X49.528 Y65.822 Z3.000
G1 X49.528 Y65.822 Z-4.000 F600.000
G2 X52.170 Y68.922 Z-4.000 I8.048 J-4.181 K0.000 F600.000
G2 X57.080 Y71.127 Z-4.000 I7.770 J-10.738 K0.000 F600.000
G2 X64.704 Y71.514 Z-4.000 I4.954 J-22.253 K0.000 F600.000
G3 X65.306 Y71.653 Z-4.000 I0.087 J0.996 K0.000 F600.000
G2 X67.743 Y72.840 Z-4.000 I5.401 J-7.991 K0.000 F600.000
G2 X68.600 Y72.807 Z-4.000 I0.382 J-1.215 K0.000 F600.000
G2 X69.767 Y71.673 Z-4.000 I-1.351 J-2.559 K0.000 F600.000
G2 X69.986 Y70.542 Z-4.000 I-3.510 J-1.268 K0.000 F600.000
G3 X70.457 Y69.808 Z-4.000 I0.993 J0.118 K0.000 F600.000
G2 X75.058 Y64.545 Z-4.000 I-4.478 J-8.559 K0.000 F600.000
G2 X75.220 Y53.904 Z-4.000 I-15.939 J-5.565 K0.000 F600.000
G2 X70.226 Y47.313 Z-4.000 I-11.358 J3.419 K0.000 F600.000
G2 X61.382 Y45.012 Z-4.000 I-8.114 J13.042 K0.000 F600.000
G1 X61.382 Y45.012 Z-4.000 F600.000
G2 X54.590 Y46.827 Z-4.000 I0.489 J15.442 K0.000 F600.000
G2 X49.891 Y51.353 Z-4.000 I5.660 J10.579 K0.000 F600.000
G2 X48.248 Y56.103 Z-4.000 I12.423 J6.957 K0.000 F600.000
G2 X49.047 Y64.813 Z-4.000 I16.142 J2.910 K0.000 F600.000
G2 X53.432 Y69.725 Z-4.000 I8.803 J-3.445 K0.000 F600.000
G1 X49.528 Y65.822 Z-4.000 F600.000
G3 X48.205 Y61.669 Z-4.000 I11.115 J-5.830 K0.000 F600.000
G1 X57.811 Y71.276 Z-4.000 F600.000
G2 X61.004 Y71.640 Z-4.000 I3.741 J-18.625 K0.000 F600.000
G1 X48.006 Y58.643 Z-4.000 F600.000
G3 X48.256 Y56.064 Z-4.000 I17.210 J0.366 K0.000 F600.000
G1 X52.608 Y60.416 Z-4.000 F600.000
G2 X58.584 Y66.392 Z-4.000 I9.351 J-3.375 K0.000 F600.000
G1 X63.787 Y71.595 Z-4.000 F600.000
G1 X64.704 Y71.514 Z-4.000 F600.000
G3 X65.306 Y71.653 Z-4.000 I0.087 J0.996 K0.000 F600.000
G2 X66.634 Y72.405 Z-4.000 I8.793 J-13.981 K0.000 F600.000
G2 X67.885 Y72.865 Z-4.000 I2.176 J-3.993 K0.000 F600.000
G1 X62.020 Y67.000 Z-4.000 F600.000
G2 X64.520 Y66.670 Z-4.000 I-0.006 J-9.689 K0.000 F600.000
G1 X69.683 Y71.834 Z-4.000 F600.000
G1 X69.767 Y71.673 Z-4.000 F600.000
G2 X69.986 Y70.542 Z-4.000 I-3.510 J-1.268 K0.000 F600.000
G3 X70.474 Y69.797 Z-4.000 I0.994 J0.119 K0.000 F600.000
G1 X66.569 Y65.891 Z-4.000 F600.000
G2 X68.278 Y64.772 Z-4.000 I-4.100 J-8.134 K0.000 F600.000
G1 X72.161 Y68.655 Z-4.000 F600.000
G2 X73.560 Y67.225 Z-4.000 I-5.372 J-6.656 K0.000 F600.000
G1 X69.700 Y63.366 Z-4.000 F600.000
G2 X70.834 Y61.671 Z-4.000 I-6.233 J-5.398 K0.000 F600.000
G1 X74.650 Y65.487 Z-4.000 F600.000
G2 X75.416 Y63.425 Z-4.000 I-9.947 J-4.869 K0.000 F600.000
G1 X71.640 Y59.649 Z-4.000 F600.000
G2 X71.993 Y57.173 Z-4.000 I-9.281 J-2.586 K0.000 F600.000
G1 X75.876 Y61.057 Z-4.000 F600.000
G2 X75.983 Y58.335 Z-4.000 I-14.260 J-1.924 K0.000 F600.000
G1 X71.472 Y53.824 Z-4.000 F600.000
G1 X71.472 Y53.824 Z-6.000 F600.000
G1 X75.983 Y58.335 Z-6.000 F600.000
G3 X75.876 Y61.057 Z-6.000 I-14.367 J0.797 K0.000 F600.000
G1 X71.993 Y57.173 Z-6.000 F600.000
G3 X71.640 Y59.649 Z-6.000 I-9.634 J-0.111 K0.000 F600.000
G1 X75.416 Y63.425 Z-6.000 F600.000
G3 X74.650 Y65.487 Z-6.000 I-10.713 J-2.806 K0.000 F600.000
G1 X70.834 Y61.671 Z-6.000 F600.000
G3 X69.700 Y63.366 Z-6.000 I-7.367 J-3.703 K0.000 F600.000
G1 X73.560 Y67.225 Z-6.000 F600.000
G3 X72.161 Y68.655 Z-6.000 I-6.771 J-5.226 K0.000 F600.000
G1 X68.278 Y64.772 Z-6.000 F600.000
G3 X66.569 Y65.891 Z-6.000 I-5.810 J-7.015 K0.000 F600.000
G1 X70.474 Y69.797 Z-6.000 F600.000
G2 X69.986 Y70.542 Z-6.000 I0.506 J0.864 K0.000 F600.000
G3 X69.767 Y71.673 Z-6.000 I-3.730 J-0.136 K0.000 F600.000
G1 X69.683 Y71.834 Z-6.000 F600.000
G1 X64.520 Y66.670 Z-6.000 F600.000
G3 X62.020 Y67.000 Z-6.000 I-2.505 J-9.360 K0.000 F600.000
G1 X67.885 Y72.865 Z-6.000 F600.000
G3 X66.634 Y72.405 Z-6.000 I0.925 J-4.452 K0.000 F600.000
G3 X65.306 Y71.653 Z-6.000 I7.464 J-14.733 K0.000 F600.000
G2 X64.704 Y71.514 Z-6.000 I-0.515 J0.857 K0.000 F600.000
G1 X63.787 Y71.595 Z-6.000 F600.000
G1 X58.584 Y66.392 Z-6.000 F600.000
G3 X52.608 Y60.416 Z-6.000 I3.375 J-9.351 K0.000 F600.000
G1 X48.256 Y56.064 Z-6.000 F600.000
G2 X48.006 Y58.643 Z-6.000 I16.960 J2.944 K0.000 F600.000
G1 X61.004 Y71.640 Z-6.000 F600.000
G3 X57.811 Y71.276 Z-6.000 I0.548 J-18.989 K0.000 F600.000
G1 X48.205 Y61.669 Z-6.000 F600.000
G2 X49.528 Y65.822 Z-6.000 I12.438 J-1.678 K0.000 F600.000
G1 X53.432 Y69.725 Z-6.000 F600.000
G3 X49.047 Y64.813 Z-6.000 I4.418 J-8.357 K0.000 F600.000
G3 X48.248 Y56.103 Z-6.000 I15.342 J-5.799 K0.000 F600.000
G3 X49.891 Y51.353 Z-6.000 I14.066 J2.206 K0.000 F600.000
G3 X54.590 Y46.827 Z-6.000 I10.359 J6.054 K0.000 F600.000
G3 X61.382 Y45.012 Z-6.000 I7.281 J13.626 K0.000 F600.000
G1 X61.382 Y45.012 Z-6.000 F600.000
G3 X70.226 Y47.313 Z-6.000 I0.730 J15.343 K0.000 F600.000
G3 X75.220 Y53.904 Z-6.000 I-6.364 J10.010 K0.000 F600.000
G3 X75.058 Y64.545 Z-6.000 I-16.101 J5.077 K0.000 F600.000
G3 X70.457 Y69.808 Z-6.000 I-9.080 J-3.296 K0.000 F600.000
G2 X69.986 Y70.542 Z-6.000 I0.523 J0.853 K0.000 F600.000
G3 X69.767 Y71.673 Z-6.000 I-3.730 J-0.136 K0.000 F600.000
G3 X68.600 Y72.807 Z-6.000 I-2.518 J-1.425 K0.000 F600.000
G3 X67.743 Y72.840 Z-6.000 I-0.475 J-1.182 K0.000 F600.000
G3 X65.306 Y71.653 Z-6.000 I2.964 J-9.178 K0.000 F600.000
G2 X64.704 Y71.514 Z-6.000 I-0.515 J0.857 K0.000 F600.000
G3 X57.080 Y71.127 Z-6.000 I-2.670 J-22.641 K0.000 F600.000
G3 X52.170 Y68.922 Z-6.000 I2.860 J-12.942 K0.000 F600.000
G3 X49.528 Y65.822 Z-6.000 I5.406 J-7.282 K0.000 F600.000
G0 Z5.000
G0 X53.836 Y62.774 Z5.000
G0 X53.836 Y62.774 Z3.000
G1 X53.836 Y62.774 Z-6.000 F600.000
G3 X62.000 Y47.000 Z-6.000 I8.164 J-5.775 K0.000 F600.000
G3 X62.046 Y66.999 Z-6.000 I0.000 J10.000 K0.000 F600.000
G3 X53.836 Y62.774 Z-6.000 I-0.046 J-9.999 K0.000 F600.000
G0 Z5.000
G0 X48.256 Y56.064 Z5.000
G0 X48.256 Y56.064 Z3.000
G1 X48.256 Y56.064 Z-6.000 F600.000
G1 X52.608 Y60.416 Z-6.000 F600.000
G3 X52.000 Y56.980 Z-6.000 I9.186 J-3.398 K0.000 F600.000
G1 X48.820 Y53.799 Z-6.000 F600.000
G3 X49.650 Y51.801 Z-6.000 I11.220 J3.490 K0.000 F600.000
G1 X52.330 Y54.480 Z-6.000 F600.000
G3 X53.109 Y52.431 Z-6.000 I8.918 J2.220 K0.000 F600.000
G1 X50.751 Y50.073 Z-6.000 F600.000
G3 X52.109 Y48.603 Z-6.000 I8.390 J6.393 K0.000 F600.000
G1 X54.228 Y50.722 Z-6.000 F600.000
G3 X55.634 Y49.300 Z-6.000 I6.669 J5.193 K0.000 F600.000
G1 X53.703 Y47.368 Z-6.000 F600.000
G3 X55.528 Y46.365 Z-6.000 I6.527 J9.707 K0.000 F600.000
G1 X57.329 Y48.166 Z-6.000 F600.000
G3 X59.351 Y47.360 Z-6.000 I4.412 J8.128 K0.000 F600.000
G1 X57.599 Y45.608 Z-6.000 F600.000
G3 X59.955 Y45.135 Z-6.000 I3.876 J13.202 K0.000 F600.000
G1 X61.827 Y47.007 Z-6.000 F600.000
G3 X65.176 Y47.528 Z-6.000 I0.228 J9.561 K0.000 F600.000
G1 X62.670 Y45.022 Z-6.000 F600.000
G3 X65.971 Y45.495 Z-6.000 I-0.459 J14.971 K0.000 F600.000
G1 X75.535 Y55.058 Z-6.000 F600.000
G2 X72.525 Y49.220 Z-6.000 I-12.214 J2.602 K0.000 F600.000
G0 Z5.000
G0 Z5.000
G0 X72.525 Y49.220
G0 X42.372 Y39.996
G0 X42.372 Y39.996 Z3.000
G1 X42.372 Y39.996 Z-2.000 F600.000
G2 X42.224 Y39.421 Z-2.000 I-3.526 J0.601 K0.000 F600.000
G2 X40.103 Y35.131 Z-2.000 I-23.117 J8.761 K0.000 F600.000
G3 X37.423 Y30.538 Z-2.000 I97.115 J-59.746 K0.000 F600.000
G3 X36.133 Y27.132 Z-2.000 I10.112 J-5.776 K0.000 F600.000
G3 X35.842 Y24.802 Z-2.000 I27.823 J-4.657 K0.000 F600.000
G3 X35.181 Y19.880 Z-2.000 I140.375 J-21.353 K0.000 F600.000
G3 X35.003 Y15.045 Z-2.000 I50.336 J-4.274 K0.000 F600.000
G2 X34.949 Y10.472 Z-2.000 I-361.065 J2.008 K0.000 F600.000
G2 X34.642 Y8.582 Z-2.000 I-8.072 J0.343 K0.000 F600.000
G2 X33.850 Y7.496 Z-2.000 I-2.027 J0.647 K0.000 F600.000
G2 X29.800 Y6.651 Z-2.000 I-3.165 J5.042 K0.000 F600.000
G2 X25.403 Y9.161 Z-2.000 I1.150 J7.122 K0.000 F600.000
G2 X25.228 Y10.880 Z-2.000 I1.310 J1.002 K0.000 F600.000
G2 X26.253 Y12.557 Z-2.000 I5.831 J-2.414 K0.000 F600.000
G3 X28.495 Y15.292 Z-2.000 I-67.428 J57.559 K0.000 F600.000
G3 X29.959 Y18.563 Z-2.000 I-5.071 J4.233 K0.000 F600.000
G3 X30.386 Y21.977 Z-2.000 I-99.198 J14.139 K0.000 F600.000
G3 X30.408 Y23.209 Z-2.000 I-7.141 J0.741 K0.000 F600.000
G3 X29.053 Y24.726 Z-2.000 I-1.543 J-0.014 K0.000 F600.000
G3 X27.623 Y24.357 Z-2.000 I-0.083 J-2.632 K0.000 F600.000
G3 X26.238 Y23.595 Z-2.000 I6.773 J-13.949 K0.000 F600.000
G2 X21.790 Y22.098 Z-2.000 I-5.975 J10.398 K0.000 F600.000
G2 X20.987 Y22.133 Z-2.000 I-0.338 J1.506 K0.000 F600.000
G2 X20.640 Y22.606 Z-2.000 I0.468 J0.707 K0.000 F600.000
G2 X20.659 Y23.084 Z-2.000 I0.402 J0.223 K0.000 F600.000
G2 X21.270 Y23.467 Z-2.000 I1.346 J-1.468 K0.000 F600.000
G1 X22.456 Y23.940 Z-2.000 F600.000
G3 X24.136 Y24.681 Z-2.000 I-4.735 J13.014 K0.000 F600.000
G3 X28.258 Y27.379 Z-2.000 I-17.927 J31.885 K0.000 F600.000
G3 X30.536 Y30.721 Z-2.000 I-3.645 J4.932 K0.000 F600.000
G3 X30.955 Y34.211 Z-2.000 I-13.005 J3.330 K0.000 F600.000
G3 X30.745 Y38.828 Z-2.000 I-47.314 J0.168 K0.000 F600.000
G3 X29.934 Y47.469 Z-2.000 I-910.883 J-81.215 K0.000 F600.000
G3 X29.824 Y48.004 Z-2.000 I-3.190 J-0.376 K0.000 F600.000
G3 X28.321 Y49.232 Z-2.000 I-1.477 J-0.275 K0.000 F600.000
G3 X26.784 Y48.539 Z-2.000 I0.476 J-3.107 K0.000 F600.000
G3 X25.721 Y47.642 Z-2.000 I5.767 J-7.919 K0.000 F600.000
G3 X24.180 Y46.141 Z-2.000 I21.369 J-23.475 K0.000 F600.000
G3 X19.618 Y41.486 Z-2.000 I167.741 J-168.966 K0.000 F600.000
G1 X18.151 Y40.096 Z-2.000 F600.000
G2 X16.461 Y38.794 Z-2.000 I-8.270 J8.985 K0.000 F600.000
G2 X15.433 Y38.369 Z-2.000 I-1.692 J2.642 K0.000 F600.000
G2 X13.255 Y38.733 Z-2.000 I-0.470 J3.886 K0.000 F600.000
G1 X13.261 Y38.742 Z-2.000 F600.000
G2 X13.997 Y39.538 Z-2.000 I5.460 J-4.314 K0.000 F600.000
G2 X16.655 Y41.896 Z-2.000 I42.804 J-45.563 K0.000 F600.000
G3 X19.765 Y44.685 Z-2.000 I-39.299 J46.958 K0.000 F600.000
G3 X20.571 Y45.661 Z-2.000 I-3.356 J3.590 K0.000 F600.000
G3 X20.013 Y47.704 Z-2.000 I-1.083 J0.801 K0.000 F600.000
G3 X20.447 Y47.791 Z-2.000 I-0.186 J2.059 K0.000 F600.000
G2 X20.013 Y47.704 Z-2.000 I-0.621 J1.972 K0.000 F600.000
G2 X20.232 Y47.575 Z-2.000 I-0.547 J-1.185 K0.000 F600.000
G1 X20.447 Y47.791 Z-2.000 F600.000
G3 X22.810 Y48.887 Z-2.000 I-1.600 J6.541 K0.000 F600.000
G3 X27.664 Y53.906 Z-2.000 I-11.398 J15.881 K0.000 F600.000
G3 X28.262 Y57.546 Z-2.000 I-3.951 J2.518 K0.000 F600.000
G3 X26.308 Y62.282 Z-2.000 I-16.612 J-4.082 K0.000 F600.000
G3 X23.480 Y65.665 Z-2.000 I-10.058 J-5.535 K0.000 F600.000
G3 X21.783 Y66.817 Z-2.000 I-80.688 J-117.081 K0.000 F600.000
G2 X21.171 Y67.740 Z-2.000 I0.800 J1.195 K0.000 F600.000
G2 X21.202 Y70.191 Z-2.000 I6.668 J1.141 K0.000 F600.000
G2 X21.906 Y72.456 Z-2.000 I5.564 J-0.487 K0.000 F600.000
G2 X22.540 Y72.847 Z-2.000 I0.694 J-0.414 K0.000 F600.000
G2 X23.749 Y72.498 Z-2.000 I-0.001 J-2.275 K0.000 F600.000
G2 X26.023 Y70.246 Z-2.000 I-4.330 J-6.646 K0.000 F600.000
G2 X28.069 Y66.625 Z-2.000 I-20.013 J-13.697 K0.000 F600.000
G3 X29.982 Y63.009 Z-2.000 I47.144 J22.625 K0.000 F600.000
G3 X31.013 Y61.579 Z-2.000 I7.469 J4.299 K0.000 F600.000
G3 X33.803 Y60.855 Z-2.000 I1.876 J1.493 K0.000 F600.000
G3 X36.764 Y62.745 Z-2.000 I-6.907 J14.088 K0.000 F600.000
G3 X38.551 Y64.898 Z-2.000 I-4.261 J5.355 K0.000 F600.000
G2 X39.730 Y67.099 Z-2.000 I36.458 J-18.107 K0.000 F600.000
G2 X40.540 Y63.884 Z-2.000 I-7.176 J-3.519 K0.000 F600.000
G2 X39.752 Y61.236 Z-2.000 I-3.975 J-0.258 K0.000 F600.000
G2 X37.844 Y59.634 Z-2.000 I-10.746 J10.862 K0.000 F600.000
G3 X35.268 Y57.300 Z-2.000 I10.480 J-14.155 K0.000 F600.000
G3 X33.582 Y53.505 Z-2.000 I6.711 J-5.254 K0.000 F600.000
G3 X33.589 Y49.635 Z-2.000 I14.403 J-1.907 K0.000 F600.000
G3 X34.636 Y42.475 Z-2.000 I133.175 J15.804 K0.000 F600.000
G2 X35.000 Y37.953 Z-2.000 I-26.363 J-4.401 K0.000 F600.000
G3 X35.128 Y36.290 Z-2.000 I7.134 J-0.289 K0.000 F600.000
G3 X36.676 Y35.099 Z-2.000 I1.431 J0.258 K0.000 F600.000
G3 X38.055 Y36.049 Z-2.000 I-0.333 J1.960 K0.000 F600.000
G3 X38.973 Y37.910 Z-2.000 I-6.749 J4.488 K0.000 F600.000
G2 X39.621 Y39.425 Z-2.000 I99.771 J-41.727 K0.000 F600.000
G2 X40.354 Y39.980 Z-2.000 I0.784 J-0.274 K0.000 F600.000
G2 X42.372 Y39.996 Z-2.000 I1.335 J-40.234 K0.000 F600.000
G0 Z5.000
G0 X40.941 Y40.000 Z5.000
G0 X40.941 Y40.000 Z3.000
G1 X40.941 Y40.000 Z-2.000 F600.000
G3 X40.106 Y39.928 Z-2.000 I-0.132 J-3.354 K0.000 F600.000
G3 X39.621 Y39.425 Z-2.000 I0.313 J-0.787 K0.000 F600.000
G3 X39.056 Y38.115 Z-2.000 I8.813 J-4.576 K0.000 F600.000
G1 X40.941 Y40.000 Z-2.000 F600.000
G2 X42.372 Y39.996 Z-2.000 I0.254 J-196.891 K0.000 F600.000
G1 X42.294 Y39.646 Z-2.000 F600.000
G2 X41.519 Y37.749 Z-2.000 I-10.136 J3.036 K0.000 F600.000
G1 X28.429 Y24.660 Z-2.000 F600.000
G2 X30.303 Y23.705 Z-2.000 I0.468 J-1.397 K0.000 F600.000
G1 X37.794 Y31.196 Z-2.000 F600.000
G1 X37.423 Y30.538 Z-2.000 F600.000
G3 X36.055 Y26.629 Z-2.000 I9.682 J-5.582 K0.000 F600.000
G1 X30.236 Y20.810 Z-2.000 F600.000
G3 X29.965 Y18.605 Z-2.000 I140.426 J-18.368 K0.000 F600.000
G2 X29.678 Y17.423 Z-2.000 I-5.706 J0.761 K0.000 F600.000
G1 X35.634 Y23.379 Z-2.000 F600.000
G3 X35.208 Y20.124 Z-2.000 I102.786 J-15.128 K0.000 F600.000
G1 X25.075 Y9.992 Z-2.000 F600.000
G3 X25.218 Y9.469 Z-2.000 I1.025 J-0.002 K0.000 F600.000
G3 X26.221 Y8.309 Z-2.000 I3.304 J1.845 K0.000 F600.000
G1 X35.039 Y17.127 Z-2.000 F600.000
G3 X35.002 Y14.262 Z-2.000 I92.673 J-2.634 K0.000 F600.000
G1 X27.965 Y7.225 Z-2.000 F600.000
G3 X30.179 Y6.611 Z-2.000 I2.724 J5.528 K0.000 F600.000
G1 X34.984 Y11.415 Z-2.000 F600.000
G2 X34.642 Y8.582 Z-2.000 I-9.759 J-0.259 K0.000 F600.000
G2 X34.132 Y7.735 Z-2.000 I-2.049 J0.657 K0.000 F600.000
G0 Z5.000
G0 X20.662 Y22.549 Z5.000
G0 X20.662 Y22.549 Z3.000
G1 X20.662 Y22.549 Z-2.000 F600.000
G1 X21.786 Y23.673 Z-2.000 F600.000
G3 X20.883 Y23.262 Z-2.000 I1.435 J-4.347 K0.000 F600.000
G3 X20.624 Y23.037 Z-2.000 I0.295 J-0.603 K0.000 F600.000
G3 X20.662 Y22.549 Z-2.000 I0.647 J-0.195 K0.000 F600.000
G3 X20.987 Y22.133 Z-2.000 I0.773 J0.267 K0.000 F600.000
G3 X21.590 Y22.078 Z-2.000 I0.389 J0.930 K0.000 F600.000
G3 X23.359 Y22.418 Z-2.000 I-0.801 J8.937 K0.000 F600.000
G1 X28.728 Y27.787 Z-2.000 F600.000
G0 Z5.000
G0 X36.098 Y35.157 Z5.000
G0 X36.098 Y35.157 Z3.000
G1 X36.098 Y35.157 Z-2.000 F600.000
G1 X29.154 Y28.213 Z-2.000 F600.000
G3 X30.736 Y31.612 Z-2.000 I-4.563 J4.192 K0.000 F600.000
G3 X30.877 Y32.764 Z-2.000 I-10.513 J1.866 K0.000 F600.000
G1 X35.031 Y36.919 Z-2.000 F600.000
G2 X34.950 Y39.665 Z-2.000 I1506.433 J46.136 K0.000 F600.000
G1 X30.929 Y35.645 Z-2.000 F600.000
G3 X30.780 Y38.324 Z-2.000 I-28.013 J-0.215 K0.000 F600.000
G1 X34.670 Y42.214 Z-2.000 F600.000
G2 X34.295 Y44.668 Z-2.000 I5789.663 J886.242 K0.000 F600.000
G1 X30.554 Y40.926 Z-2.000 F600.000
G2 X30.300 Y43.501 Z-2.000 I372.096 J37.914 K0.000 F600.000
G1 X33.921 Y47.122 Z-2.000 F600.000
G2 X33.591 Y49.620 Z-2.000 I49.411 J7.798 K0.000 F600.000
G1 X30.064 Y46.094 Z-2.000 F600.000
G3 X29.915 Y47.586 Z-2.000 I-37.505 J-2.991 K0.000 F600.000
G3 X29.635 Y48.493 Z-2.000 I-2.910 J-0.401 K0.000 F600.000
G1 X33.472 Y52.330 Z-2.000 F600.000
G2 X34.559 Y56.245 Z-2.000 I8.248 J-0.181 K0.000 F600.000
G1 X26.992 Y48.678 Z-2.000 F600.000
G0 Z5.000
G0 X33.378 Y60.721 Z5.000
G0 X33.378 Y60.721 Z3.000
G1 X33.378 Y60.721 Z-2.000 F600.000
G1 X28.337 Y55.680 Z-2.000 F600.000
G3 X28.078 Y58.249 Z-2.000 I-5.542 J0.738 K0.000 F600.000
G1 X31.213 Y61.385 Z-2.000 F600.000
G2 X29.992 Y62.992 Z-2.000 I5.091 J5.135 K0.000 F600.000
G1 X27.306 Y60.306 Z-2.000 F600.000
G3 X26.360 Y62.189 Z-2.000 I-14.289 J-6.001 K0.000 F600.000
G1 X28.985 Y64.813 Z-2.000 F600.000
G3 X28.035 Y66.692 Z-2.000 I-257.122 J-128.801 K0.000 F600.000
G1 X25.235 Y63.892 Z-2.000 F600.000
G3 X23.863 Y65.348 Z-2.000 I-6.140 J-4.413 K0.000 F600.000
G1 X27.063 Y68.548 Z-2.000 F600.000
G3 X25.984 Y70.297 Z-2.000 I-12.393 J-6.439 K0.000 F600.000
G1 X22.214 Y66.527 Z-2.000 F600.000
G2 X21.448 Y67.129 Z-2.000 I1.017 J2.082 K0.000 F600.000
G2 X21.095 Y68.238 Z-2.000 I1.788 J1.180 K0.000 F600.000
G1 X24.659 Y71.801 Z-2.000 F600.000
G3 X23.224 Y72.742 Z-2.000 I-2.821 J-2.741 K0.000 F600.000
G1 X22.854 Y72.824 Z-2.000 F600.000
G3 X22.049 Y72.632 Z-2.000 I-0.229 J-0.821 K0.000 F600.000
G3 X21.470 Y71.440 Z-2.000 I2.303 J-1.857 K0.000 F600.000
G1 X22.854 Y72.824 Z-2.000 F600.000
G0 Z5.000
G0 X39.738 Y67.081 Z5.000
G0 X39.738 Y67.081 Z3.000
G1 X39.738 Y67.081 Z-2.000 F600.000
G1 X39.675 Y67.018 Z-2.000 F600.000
G2 X39.730 Y67.099 Z-2.000 I0.517 J-0.291 K0.000 F600.000
G1 X39.738 Y67.081 Z-2.000 F600.000
G2 X40.418 Y64.932 Z-2.000 I-6.698 J-3.299 K0.000 F600.000
G1 X13.959 Y38.474 Z-2.000 F600.000
G3 X15.433 Y38.369 Z-2.000 I1.003 J3.714 K0.000 F600.000
G3 X17.393 Y39.453 Z-2.000 I-1.395 J4.838 K0.000 F600.000
G3 X19.618 Y41.486 Z-2.000 I-17.221 J21.079 K0.000 F600.000
G3 X24.164 Y46.125 Z-2.000 I-1525.253 J1499.329 K0.000 F600.000
G2 X26.693 Y48.470 Z-2.000 I18.926 J-17.877 K0.000 F600.000
G2 X26.992 Y48.678 Z-2.000 I1.444 J-1.752 K0.000 F600.000
G1 X34.559 Y56.245 Z-2.000 F600.000
G2 X35.417 Y57.474 Z-2.000 I5.124 J-2.663 K0.000 F600.000
G2 X38.332 Y60.018 Z-2.000 I15.157 J-14.425 K0.000 F600.000
G1 X40.107 Y61.793 Z-2.000 F600.000
G2 X39.752 Y61.236 Z-2.000 I-2.232 J1.031 K0.000 F600.000
G2 X38.332 Y60.018 Z-2.000 I-8.386 J8.341 K0.000 F600.000
G1 X38.332 Y60.018 Z-4.000 F600.000
G3 X39.752 Y61.236 Z-4.000 I-6.967 J9.559 K0.000 F600.000
G3 X40.107 Y61.793 Z-4.000 I-1.877 J1.588 K0.000 F600.000
G1 X38.332 Y60.018 Z-4.000 F600.000
G3 X35.417 Y57.474 Z-4.000 I12.241 J-16.969 K0.000 F600.000
G3 X34.559 Y56.245 Z-4.000 I4.266 J-3.891 K0.000 F600.000
G1 X26.992 Y48.678 Z-4.000 F600.000
G3 X26.693 Y48.470 Z-4.000 I1.145 J-1.960 K0.000 F600.000
G3 X24.164 Y46.125 Z-4.000 I16.397 J-20.223 K0.000 F600.000
G2 X19.618 Y41.486 Z-4.000 I-1529.799 J1494.691 K0.000 F600.000
G2 X17.393 Y39.453 Z-4.000 I-19.446 J19.046 K0.000 F600.000
G2 X15.433 Y38.369 Z-4.000 I-3.355 J3.753 K0.000 F600.000
G2 X13.959 Y38.474 Z-4.000 I-0.471 J3.818 K0.000 F600.000
G1 X40.418 Y64.932 Z-4.000 F600.000
G3 X39.738 Y67.081 Z-4.000 I-7.377 J-1.150 K0.000 F600.000
G1 X39.730 Y67.099 Z-4.000 F600.000
G3 X39.675 Y67.018 Z-4.000 I0.463 J-0.372 K0.000 F600.000
G1 X39.738 Y67.081 Z-4.000 F600.000
G0 Z5.000
G0 X39.738 Y67.081 Z5.000
G0 X39.738 Y67.081 Z3.000
G1 X39.738 Y67.081 Z-4.000 F600.000
G2 X40.540 Y63.884 Z-4.000 I-7.185 J-3.501 K0.000 F600.000
G2 X39.752 Y61.236 Z-4.000 I-3.975 J-0.258 K0.000 F600.000
G2 X37.844 Y59.634 Z-4.000 I-10.746 J10.862 K0.000 F600.000
G3 X35.268 Y57.300 Z-4.000 I10.480 J-14.155 K0.000 F600.000
G3 X33.582 Y53.505 Z-4.000 I6.711 J-5.254 K0.000 F600.000
G3 X33.589 Y49.635 Z-4.000 I14.403 J-1.907 K0.000 F600.000
G3 X34.636 Y42.475 Z-4.000 I133.175 J15.804 K0.000 F600.000
G2 X35.000 Y37.953 Z-4.000 I-26.363 J-4.401 K0.000 F600.000
G3 X35.128 Y36.290 Z-4.000 I7.134 J-0.289 K0.000 F600.000
G3 X36.676 Y35.099 Z-4.000 I1.431 J0.258 K0.000 F600.000
G3 X38.055 Y36.049 Z-4.000 I-0.333 J1.960 K0.000 F600.000
G3 X38.973 Y37.910 Z-4.000 I-6.749 J4.488 K0.000 F600.000
G2 X39.621 Y39.425 Z-4.000 I99.771 J-41.727 K0.000 F600.000
G2 X40.354 Y39.980 Z-4.000 I0.784 J-0.274 K0.000 F600.000
G2 X42.372 Y39.996 Z-4.000 I1.335 J-40.234 K0.000 F600.000
G2 X42.224 Y39.421 Z-4.000 I-3.526 J0.601 K0.000 F600.000
G2 X40.103 Y35.131 Z-4.000 I-23.117 J8.761 K0.000 F600.000
G3 X37.423 Y30.538 Z-4.000 I97.115 J-59.746 K0.000 F600.000
G3 X36.133 Y27.132 Z-4.000 I10.112 J-5.776 K0.000 F600.000
G3 X35.842 Y24.802 Z-4.000 I27.823 J-4.657 K0.000 F600.000
G3 X35.181 Y19.880 Z-4.000 I140.375 J-21.353 K0.000 F600.000
G3 X35.003 Y15.045 Z-4.000 I50.336 J-4.274 K0.000 F600.000
G2 X34.949 Y10.472 Z-4.000 I-361.065 J2.008 K0.000 F600.000
G2 X34.642 Y8.582 Z-4.000 I-8.072 J0.343 K0.000 F600.000
G2 X33.850 Y7.496 Z-4.000 I-2.027 J0.647 K0.000 F600.000
G2 X29.800 Y6.651 Z-4.000 I-3.165 J5.042 K0.000 F600.000
G2 X25.403 Y9.161 Z-4.000 I1.150 J7.122 K0.000 F600.000
G2 X25.228 Y10.880 Z-4.000 I1.310 J1.002 K0.000 F600.000
G2 X26.253 Y12.557 Z-4.000 I5.831 J-2.414 K0.000 F600.000
G3 X28.495 Y15.292 Z-4.000 I-67.428 J57.559 K0.000 F600.000
G3 X29.959 Y18.563 Z-4.000 I-5.071 J4.233 K0.000 F600.000
G3 X30.386 Y21.977 Z-4.000 I-99.198 J14.139 K0.000 F600.000
G3 X30.408 Y23.209 Z-4.000 I-7.141 J0.741 K0.000 F600.000
G3 X29.053 Y24.726 Z-4.000 I-1.543 J-0.014 K0.000 F600.000
G3 X27.623 Y24.357 Z-4.000 I-0.083 J-2.632 K0.000 F600.000
G3 X26.238 Y23.595 Z-4.000 I6.773 J-13.949 K0.000 F600.000
G2 X21.790 Y22.098 Z-4.000 I-5.975 J10.398 K0.000 F600.000
G2 X20.987 Y22.133 Z-4.000 I-0.338 J1.506 K0.000 F600.000
G2 X20.640 Y22.606 Z-4.000 I0.468 J0.707 K0.000 F600.000
G2 X20.659 Y23.084 Z-4.000 I0.402 J0.223 K0.000 F600.000
G2 X21.270 Y23.467 Z-4.000 I1.346 J-1.468 K0.000 F600.000
G1 X22.456 Y23.940 Z-4.000 F600.000
G3 X24.136 Y24.681 Z-4.000 I-4.735 J13.014 K0.000 F600.000
G3 X28.258 Y27.379 Z-4.000 I-17.927 J31.885 K0.000 F600.000
G3 X30.536 Y30.721 Z-4.000 I-3.645 J4.932 K0.000 F600.000
G3 X30.955 Y34.211 Z-4.000 I-13.005 J3.330 K0.000 F600.000
G3 X30.745 Y38.828 Z-4.000 I-47.314 J0.168 K0.000 F600.000
G3 X29.934 Y47.469 Z-4.000 I-910.883 J-81.215 K0.000 F600.000
G3 X29.824 Y48.004 Z-4.000 I-3.190 J-0.376 K0.000 F600.000
G3 X28.321 Y49.232 Z-4.000 I-1.477 J-0.275 K0.000 F600.000
G3 X26.784 Y48.539 Z-4.000 I0.476 J-3.107 K0.000 F600.000
G3 X25.721 Y47.642 Z-4.000 I5.767 J-7.919 K0.000 F600.000
G3 X24.180 Y46.141 Z-4.000 I21.369 J-23.475 K0.000 F600.000
G3 X19.618 Y41.486 Z-4.000 I167.741 J-168.966 K0.000 F600.000
G1 X18.151 Y40.096 Z-4.000 F600.000
G2 X16.461 Y38.794 Z-4.000 I-8.270 J8.985 K0.000 F600.000
G2 X15.433 Y38.369 Z-4.000 I-1.692 J2.642 K0.000 F600.000
G2 X13.255 Y38.733 Z-4.000 I-0.470 J3.886 K0.000 F600.000
G1 X13.261 Y38.742 Z-4.000 F600.000
G2 X13.997 Y39.538 Z-4.000 I5.460 J-4.314 K0.000 F600.000
G2 X16.655 Y41.896 Z-4.000 I42.804 J-45.563 K0.000 F600.000
G3 X19.765 Y44.685 Z-4.000 I-39.299 J46.958 K0.000 F600.000
G3 X20.571 Y45.661 Z-4.000 I-3.356 J3.590 K0.000 F600.000
G3 X20.013 Y47.704 Z-4.000 I-1.083 J0.801 K0.000 F600.000
G3 X20.447 Y47.791 Z-4.000 I-0.186 J2.059 K0.000 F600.000
G2 X20.013 Y47.704 Z-4.000 I-0.621 J1.972 K0.000 F600.000
G2 X20.232 Y47.575 Z-4.000 I-0.547 J-1.185 K0.000 F600.000
G1 X20.447 Y47.791 Z-4.000 F600.000
G3 X22.810 Y48.887 Z-4.000 I-1.600 J6.541 K0.000 F600.000
G3 X27.664 Y53.906 Z-4.000 I-11.398 J15.881 K0.000 F600.000
G3 X28.262 Y57.546 Z-4.000 I-3.951 J2.518 K0.000 F600.000
G3 X26.308 Y62.282 Z-4.000 I-16.612 J-4.082 K0.000 F600.000
G3 X23.480 Y65.665 Z-4.000 I-10.058 J-5.535 K0.000 F600.000
G3 X21.783 Y66.817 Z-4.000 I-80.688 J-117.081 K0.000 F600.000
G2 X21.171 Y67.740 Z-4.000 I0.800 J1.195 K0.000 F600.000
G2 X21.202 Y70.191 Z-4.000 I6.668 J1.141 K0.000 F600.000
G2 X21.906 Y72.456 Z-4.000 I5.564 J-0.487 K0.000 F600.000
G2 X22.540 Y72.847 Z-4.000 I0.694 J-0.414 K0.000 F600.000
G2 X23.749 Y72.498 Z-4.000 I-0.001 J-2.275 K0.000 F600.000
G2 X26.023 Y70.246 Z-4.000 I-4.330 J-6.646 K0.000 F600.000
G2 X28.069 Y66.625 Z-4.000 I-20.013 J-13.697 K0.000 F600.000
G3 X29.982 Y63.009 Z-4.000 I47.144 J22.625 K0.000 F600.000
G3 X31.013 Y61.579 Z-4.000 I7.469 J4.299 K0.000 F600.000
G3 X33.803 Y60.855 Z-4.000 I1.876 J1.493 K0.000 F600.000
G3 X36.764 Y62.745 Z-4.000 I-6.907 J14.088 K0.000 F600.000
G3 X38.551 Y64.898 Z-4.000 I-4.261 J5.355 K0.000 F600.000
G2 X39.730 Y67.099 Z-4.000 I36.458 J-18.107 K0.000 F600.000
G2 X39.738 Y67.081 Z-4.000 I-7.176 J-3.519 K0.000 F600.000
G0 Z5.000
G0 X33.378 Y60.721 Z5.000
G0 X33.378 Y60.721 Z3.000
G1 X33.378 Y60.721 Z-4.000 F600.000
G1 X28.337 Y55.680 Z-4.000 F600.000
G3 X28.078 Y58.249 Z-4.000 I-5.542 J0.738 K0.000 F600.000
G1 X31.213 Y61.385 Z-4.000 F600.000
G2 X29.992 Y62.992 Z-4.000 I5.091 J5.135 K0.000 F600.000
G1 X27.306 Y60.306 Z-4.000 F600.000
G3 X26.360 Y62.189 Z-4.000 I-14.289 J-6.001 K0.000 F600.000
G1 X28.985 Y64.813 Z-4.000 F600.000
G3 X28.035 Y66.692 Z-4.000 I-257.122 J-128.801 K0.000 F600.000
G1 X25.235 Y63.892 Z-4.000 F600.000
G3 X23.863 Y65.348 Z-4.000 I-6.140 J-4.413 K0.000 F600.000
G1 X27.063 Y68.548 Z-4.000 F600.000
G3 X25.984 Y70.297 Z-4.000 I-12.393 J-6.439 K0.000 F600.000
G1 X22.214 Y66.527 Z-4.000 F600.000
