(Exported by FreeCAD)
(Post Processor: script_module)
(Output Time:2025-04-16 20:03:35.769567)
(Begin preamble)
G17 G90
G21
(Begin operation: Fixture)
(Path: Fixture)
G54
(Finish operation: Fixture)
(Begin operation: 2mm_Endmill003)
(Path: 2mm_Endmill003)
(2mm_Endmill003)
(Begin toolchange)
( M6 T2 )
M3 S10000
(Finish operation: 2mm_Endmill003)
(Begin operation: Pocket_Shape006)
(Path: Pocket_Shape006)
(Pocket_Shape006)
G0 Z13.000
G0 X4.643 Y38.959
G0 Z11.000
G1 X4.643 Y38.959 Z6.000 F600.000
G3 X3.693 Y39.482 Z6.000 I-1.447 J-1.502 K0.000 F600.000
G3 X0.530 Y39.248 Z6.000 I-1.256 J-4.502 K0.000 F600.000
G3 X-1.529 Y36.532 Z6.000 I1.687 J-3.418 K0.000 F600.000
G3 X-1.594 Y34.629 Z6.000 I4.714 J-1.114 K0.000 F600.000
G3 X0.280 Y32.774 Z6.000 I2.286 J0.436 K0.000 F600.000
G3 X2.106 Y32.766 Z6.000 I0.934 J4.550 K0.000 F600.000
G3 X5.021 Y35.345 Z6.000 I-0.683 J3.710 K0.000 F600.000
G3 X5.243 Y37.859 Z6.000 I-4.698 J1.681 K0.000 F600.000
G3 X4.643 Y38.959 Z6.000 I-2.047 J-0.403 K0.000 F600.000
G0 Z13.000
G0 X4.465 Y38.775 Z13.000
G0 X4.465 Y38.775 Z11.000
G1 X4.465 Y38.775 Z6.000 F600.000
G3 X3.302 Y39.306 Z6.000 I-1.323 J-1.358 K0.000 F600.000
G2 X4.444 Y37.520 Z6.000 I-0.949 J-1.865 K0.000 F600.000
G2 X4.469 Y36.951 Z6.000 I-3.455 J-0.436 K0.000 F600.000
G2 X3.921 Y34.423 Z6.000 I-7.063 J0.208 K0.000 F600.000
G2 X3.271 Y33.483 Z6.000 I-2.578 J1.086 K0.000 F600.000
G3 X4.785 Y35.427 Z6.000 I-1.879 J3.024 K0.000 F600.000
G3 X4.998 Y37.804 Z6.000 I-4.444 J1.597 K0.000 F600.000
G3 X4.465 Y38.775 Z6.000 I-1.856 J-0.387 K0.000 F600.000
G0 Z13.000
G0 X4.474 Y38.393 Z13.000
G0 X4.474 Y38.393 Z11.000
G1 X4.474 Y38.393 Z6.000 F600.000
G2 X4.718 Y36.926 Z6.000 I-3.049 J-1.260 K0.000 F600.000
G2 X4.534 Y35.511 Z6.000 I-8.214 J0.349 K0.000 F600.000
G1 X4.506 Y35.411 Z6.000 F600.000
G3 X4.753 Y37.748 Z6.000 I-4.395 J1.647 K0.000 F600.000
G3 X4.474 Y38.393 Z6.000 I-1.425 J-0.234 K0.000 F600.000
G0 Z13.000
G0 X4.034 Y38.196 Z13.000
G0 X4.034 Y38.196 Z11.000
G1 X4.034 Y38.196 Z6.000 F600.000
G3 X3.056 Y39.147 Z6.000 I-1.686 J-0.756 K0.000 F600.000
G3 X1.172 Y39.078 Z6.000 I-0.851 J-2.543 K0.000 F600.000
G3 X-0.065 Y37.752 Z6.000 I0.977 J-2.151 K0.000 F600.000
G3 X-0.562 Y35.406 Z6.000 I5.668 J-2.428 K0.000 F600.000
G3 X-0.139 Y33.764 Z6.000 I2.693 J-0.181 K0.000 F600.000
G3 X1.361 Y33.046 Z6.000 I1.449 J1.100 K0.000 F600.000
G3 X3.700 Y34.540 Z6.000 I0.172 J2.309 K0.000 F600.000
G3 X4.220 Y36.977 Z6.000 I-6.337 J2.628 K0.000 F600.000
G1 X4.195 Y37.504 Z6.000 F600.000
G3 X4.034 Y38.196 Z6.000 I-1.847 J-0.064 K0.000 F600.000
G0 Z13.000
G0 X0.488 Y38.943 Z13.000
G0 X0.488 Y38.943 Z11.000
G1 X0.488 Y38.943 Z6.000 F600.000
G3 X-1.285 Y36.478 Z6.000 I1.730 J-3.115 K0.000 F600.000
G3 X-1.349 Y34.681 Z6.000 I4.444 J-1.058 K0.000 F600.000
G3 X0.404 Y33.007 Z6.000 I2.053 J0.395 K0.000 F600.000
G2 X-0.781 Y34.847 Z6.000 I1.008 J1.950 K0.000 F600.000
G2 X-0.016 Y38.364 Z6.000 I5.932 J0.551 K0.000 F600.000
G2 X0.488 Y38.943 Z6.000 I2.376 J-1.559 K0.000 F600.000
G0 Z13.000
G0 X-0.789 Y37.172 Z13.000
G0 X-0.789 Y37.172 Z11.000
G1 X-0.789 Y37.172 Z6.000 F600.000
G3 X-1.103 Y34.733 Z6.000 I4.119 J-1.772 K0.000 F600.000
G3 X-0.881 Y34.140 Z6.000 I1.434 J0.200 K0.000 F600.000
G2 X-0.789 Y37.172 Z6.000 I5.038 J1.364 K0.000 F600.000
G0 Z13.000
G0 Z13.000
G0 X-0.789 Y37.172
G0 X-2.681 Y37.540
G0 X-2.681 Y37.540 Z11.000
G1 X-2.681 Y37.540 Z6.000 F600.000
G1 X-1.846 Y41.831 Z6.000 F600.000
G1 X-3.723 Y41.831 Z6.000 F600.000
G3 X-6.874 Y35.594 Z6.000 I451.885 J-232.195 K0.000 F600.000
G1 X-7.348 Y34.569 Z6.000 F600.000
G2 X-8.300 Y34.734 Z6.000 I-0.454 J0.210 K0.000 F600.000
G3 X-9.052 Y41.831 Z6.000 I-170.205 J-14.444 K0.000 F600.000
G1 X-10.998 Y41.831 Z6.000 F600.000
G1 X-12.749 Y32.831 Z6.000 F600.000
G1 X-11.907 Y32.831 Z6.000 F600.000
G3 X-10.727 Y38.929 Z6.000 I-225.808 J46.871 K0.000 F600.000
G3 X-10.464 Y40.948 Z6.000 I-46.467 J7.063 K0.000 F600.000
G2 X-9.470 Y40.937 Z6.000 I0.497 J-0.059 K0.000 F600.000
G3 X-8.570 Y32.831 Z6.000 I347.700 J34.491 K0.000 F600.000
G1 X-7.832 Y32.831 Z6.000 F600.000
G3 X-4.726 Y38.985 Z6.000 I-220.750 J115.260 K0.000 F600.000
G3 X-3.754 Y41.098 Z6.000 I-199.869 J93.322 K0.000 F600.000
G2 X-2.813 Y40.772 Z6.000 I0.455 J-0.208 K0.000 F600.000
G3 X-3.335 Y38.504 Z6.000 I49.836 J-12.658 K0.000 F600.000
G1 X-4.439 Y32.831 Z6.000 F600.000
G1 X-3.597 Y32.831 Z6.000 F600.000
G1 X-2.681 Y37.540 Z6.000 F600.000
G0 Z13.000
G0 X-2.926 Y37.588 Z13.000
G0 X-2.926 Y37.588 Z11.000
G1 X-2.926 Y37.588 Z6.000 F600.000
G1 X-2.149 Y41.581 Z6.000 F600.000
G1 X-3.018 Y41.581 Z6.000 F600.000
G2 X-2.570 Y40.713 Z6.000 I-0.270 J-0.689 K0.000 F600.000
G3 X-3.090 Y38.453 Z6.000 I49.655 J-12.613 K0.000 F600.000
G1 X-4.136 Y33.081 Z6.000 F600.000
G1 X-3.803 Y33.081 Z6.000 F600.000
G1 X-2.926 Y37.588 Z6.000 F600.000
G0 Z13.000
G0 X-3.571 Y41.579 Z13.000
G0 X-3.571 Y41.579 Z11.000
G1 X-3.571 Y41.579 Z6.000 F600.000
G1 X-3.566 Y41.581 Z6.000 F600.000
G3 X-3.571 Y41.579 Z6.000 I-0.002 J-0.002 K0.000 F600.000
G0 Z13.000
G0 X-9.187 Y40.885 Z13.000
G0 X-9.187 Y40.885 Z11.000
G1 X-9.187 Y40.885 Z6.000 F600.000
G3 X-9.275 Y41.581 Z6.000 I-150.361 J-18.587 K0.000 F600.000
G1 X-9.688 Y41.581 Z6.000 F600.000
G2 X-9.206 Y40.798 Z6.000 I-0.300 J-0.725 K0.000 F600.000
G3 X-8.601 Y35.287 Z6.000 I278.640 J27.793 K0.000 F600.000
G3 X-9.187 Y40.885 Z6.000 I-150.948 J-12.989 K0.000 F600.000
G0 Z13.000
G0 X-10.236 Y41.581 Z13.000
G0 X-10.236 Y41.581 Z11.000
G1 X-10.236 Y41.581 Z6.000 F600.000
G1 X-10.792 Y41.581 Z6.000 F600.000
G1 X-12.446 Y33.081 Z6.000 F600.000
G1 X-12.113 Y33.081 Z6.000 F600.000
G3 X-10.973 Y38.970 Z6.000 I-218.092 J45.268 K0.000 F600.000
G3 X-10.713 Y40.978 Z6.000 I-46.284 J7.030 K0.000 F600.000
G2 X-10.236 Y41.581 Z6.000 I0.711 J-0.072 K0.000 F600.000
G0 Z13.000
G0 X-8.526 Y34.639 Z13.000
G0 X-8.526 Y34.639 Z11.000
G1 X-8.526 Y34.639 Z6.000 F600.000
G1 X-8.347 Y33.081 Z6.000 F600.000
G1 X-7.986 Y33.081 Z6.000 F600.000
G1 X-7.464 Y34.114 Z6.000 F600.000
G2 X-8.526 Y34.639 Z6.000 I-0.342 J0.645 K0.000 F600.000
G0 Z13.000
G0 X-8.186 Y33.865 Z13.000
G0 X-8.186 Y33.865 Z11.000
G1 X-8.186 Y33.865 Z6.000 F600.000
G1 X-8.127 Y33.355 Z6.000 F600.000
G1 X-7.906 Y33.794 Z6.000 F600.000
G2 X-8.186 Y33.865 Z6.000 I-0.012 J0.536 K0.000 F600.000
G0 Z13.000
G0 Z13.000
G0 X-8.186 Y33.865
G0 X6.014 Y32.831
G0 X6.014 Y32.831 Z11.000
G1 X6.014 Y32.831 Z6.000 F600.000
G1 X6.998 Y32.831 Z6.000 F600.000
G1 X7.767 Y36.770 Z6.000 F600.000
G2 X8.502 Y38.231 Z6.000 I2.784 J-0.485 K0.000 F600.000
G2 X8.096 Y38.795 Z6.000 I0.066 J0.476 K0.000 F600.000
G3 X8.200 Y39.527 Z6.000 I-18.139 J2.953 K0.000 F600.000
G1 X7.285 Y39.527 Z6.000 F600.000
G2 X7.077 Y38.288 Z6.000 I-22.174 J3.087 K0.000 F600.000
G1 X6.014 Y32.831 Z6.000 F600.000
G0 Z13.000
G0 X6.317 Y33.081 Z13.000
G0 X6.317 Y33.081 Z11.000
G1 X6.317 Y33.081 Z6.000 F600.000
G1 X6.792 Y33.081 Z6.000 F600.000
G1 X7.526 Y36.838 Z6.000 F600.000
G2 X8.105 Y38.150 Z6.000 I3.168 J-0.614 K0.000 F600.000
G2 X7.880 Y39.024 Z6.000 I0.565 J0.612 K0.000 F600.000
G1 X7.914 Y39.277 Z6.000 F600.000
G1 X7.499 Y39.277 Z6.000 F600.000
G2 X7.322 Y38.240 Z6.000 I-19.844 J2.857 K0.000 F600.000
G1 X6.317 Y33.081 Z6.000 F600.000
G0 Z13.000
G0 X7.386 Y37.259 Z13.000
G0 X7.386 Y37.259 Z11.000
G1 X7.386 Y37.259 Z6.000 F600.000
G2 X7.787 Y38.132 Z6.000 I2.796 J-0.757 K0.000 F600.000
G2 X7.622 Y38.477 Z6.000 I0.534 J0.468 K0.000 F600.000
G2 X7.386 Y37.259 Z6.000 I-122.084 J22.997 K0.000 F600.000
G0 Z13.000
G0 X9.496 Y38.971 Z13.000
G0 X9.496 Y38.971 Z11.000
G1 X9.496 Y38.971 Z6.000 F600.000
G2 X11.218 Y38.963 Z6.000 I0.851 J-2.052 K0.000 F600.000
G2 X11.921 Y37.688 Z6.000 I-0.618 J-1.172 K0.000 F600.000
G2 X11.728 Y36.457 Z6.000 I-8.770 J0.744 K0.000 F600.000
G1 X11.009 Y32.831 Z6.000 F600.000
G1 X11.969 Y32.831 Z6.000 F600.000
G1 X12.791 Y37.056 Z6.000 F600.000
G3 X12.924 Y38.340 Z6.000 I-3.735 J1.035 K0.000 F600.000
G3 X12.305 Y39.433 Z6.000 I-1.245 J0.017 K0.000 F600.000
G3 X9.496 Y38.971 Z6.000 I-1.056 J-2.354 K0.000 F600.000
G0 Z13.000
G0 X10.792 Y39.353 Z13.000
G0 X10.792 Y39.353 Z11.000
G1 X10.792 Y39.353 Z6.000 F600.000
G2 X12.170 Y37.669 Z6.000 I-0.180 J-1.554 K0.000 F600.000
G2 X11.973 Y36.408 Z6.000 I-9.012 J0.763 K0.000 F600.000
G1 X11.313 Y33.081 Z6.000 F600.000
G1 X11.763 Y33.081 Z6.000 F600.000
G1 X12.545 Y37.100 Z6.000 F600.000
G3 X12.675 Y38.315 Z6.000 I-3.522 J0.990 K0.000 F600.000
G3 X12.389 Y39.064 Z6.000 I-1.095 J0.011 K0.000 F600.000
G3 X11.722 Y39.363 Z6.000 I-0.844 J-0.992 K0.000 F600.000
G3 X10.792 Y39.353 Z6.000 I-0.439 J-2.431 K0.000 F600.000
G0 Z13.000
G0 X11.910 Y39.055 Z13.000
G0 X11.910 Y39.055 Z11.000
G1 X11.910 Y39.055 Z6.000 F600.000
G2 X12.409 Y37.906 Z6.000 I-1.199 J-1.203 K0.000 F600.000
G3 X12.223 Y38.875 Z6.000 I-1.193 J0.274 K0.000 F600.000
G3 X11.910 Y39.055 Z6.000 I-0.525 J-0.555 K0.000 F600.000
G0 Z13.000
G0 Z13.000
(Finish operation: Pocket_Shape006)
(Begin operation: Pocket_Shape007)
(Path: Pocket_Shape007)
(Pocket_Shape007)
G0 Z13.000
G0 X-31.288 Y-11.579
G0 Z11.000
G1 X-31.288 Y-11.579 Z6.000 F600.000
G3 X-31.677 Y-11.137 Z6.000 I-3.839 J-2.995 K0.000 F600.000
G3 X-33.780 Y-10.673 Z6.000 I-1.454 J-1.593 K0.000 F600.000
G3 X-35.383 Y-12.365 Z6.000 I0.396 J-1.980 K0.000 F600.000
G3 X-35.589 Y-15.148 Z6.000 I21.571 J-3.000 K0.000 F600.000
G2 X-36.211 Y-16.621 Z6.000 I-2.026 J-0.013 K0.000 F600.000
G2 X-38.496 Y-16.257 Z6.000 I-0.975 J1.233 K0.000 F600.000
G2 X-39.109 Y-13.678 Z6.000 I2.897 J2.050 K0.000 F600.000
G2 X-38.349 Y-12.415 Z6.000 I2.165 J-0.443 K0.000 F600.000
G1 X-38.863 Y-11.412 Z6.000 F600.000
G3 X-39.617 Y-12.500 Z6.000 I1.208 J-1.642 K0.000 F600.000
G3 X-39.706 Y-14.239 Z6.000 I4.112 J-1.083 K0.000 F600.000
G3 X-39.011 Y-16.465 Z6.000 I6.481 J0.801 K0.000 F600.000
G3 X-37.874 Y-17.724 Z6.000 I2.925 J1.500 K0.000 F600.000
G3 X-36.460 Y-17.928 Z6.000 I0.940 J1.509 K0.000 F600.000
G3 X-34.951 Y-16.474 Z6.000 I-0.374 J1.898 K0.000 F600.000
G3 X-34.726 Y-14.091 Z6.000 I-9.993 J2.144 K0.000 F600.000
G2 X-34.579 Y-12.888 Z6.000 I4.971 J0.004 K0.000 F600.000
G2 X-31.503 Y-12.374 Z6.000 I1.649 J-0.407 K0.000 F600.000
G2 X-30.668 Y-15.326 Z6.000 I-4.347 J-2.823 K0.000 F600.000
G2 X-31.588 Y-16.853 Z6.000 I-1.971 J0.148 K0.000 F600.000
G1 X-31.142 Y-17.872 Z6.000 F600.000
G3 X-30.024 Y-16.247 Z6.000 I-1.005 J1.889 K0.000 F600.000
G3 X-30.449 Y-13.222 Z6.000 I-6.800 J0.587 K0.000 F600.000
G3 X-31.288 Y-11.579 Z6.000 I-4.678 J-1.351 K0.000 F600.000
G0 Z13.000
G0 X-31.485 Y-11.733 Z13.000
G0 X-31.485 Y-11.733 Z11.000
G1 X-31.485 Y-11.733 Z6.000 F600.000
G3 X-31.845 Y-11.323 Z6.000 I-3.648 J-2.845 K0.000 F600.000
G3 X-33.720 Y-10.917 Z6.000 I-1.286 J-1.405 K0.000 F600.000
G3 X-35.139 Y-12.421 Z6.000 I0.339 J-1.742 K0.000 F600.000
G3 X-35.341 Y-15.173 Z6.000 I21.615 J-2.968 K0.000 F600.000
G2 X-36.063 Y-16.823 Z6.000 I-2.256 J0.004 K0.000 F600.000
G2 X-38.702 Y-16.399 Z6.000 I-1.123 J1.434 K0.000 F600.000
G2 X-39.074 Y-15.724 Z6.000 I2.125 J1.613 K0.000 F600.000
G3 X-37.744 Y-17.509 Z6.000 I3.227 J1.018 K0.000 F600.000
G3 X-36.517 Y-17.685 Z6.000 I0.811 J1.294 K0.000 F600.000
G3 X-35.190 Y-16.401 Z6.000 I-0.319 J1.657 K0.000 F600.000
G3 X-34.975 Y-14.070 Z6.000 I-9.874 J2.087 K0.000 F600.000
G2 X-34.727 Y-12.536 Z6.000 I4.519 J0.056 K0.000 F600.000
G2 X-31.294 Y-12.236 Z6.000 I1.796 J-0.762 K0.000 F600.000
G2 X-30.420 Y-15.357 Z6.000 I-4.540 J-2.955 K0.000 F600.000
G2 X-31.276 Y-16.941 Z6.000 I-2.214 J0.174 K0.000 F600.000
G1 X-31.034 Y-17.496 Z6.000 F600.000
G3 X-30.271 Y-16.205 Z6.000 I-1.052 J1.492 K0.000 F600.000
G3 X-30.687 Y-13.300 Z6.000 I-6.556 J0.545 K0.000 F600.000
G3 X-31.485 Y-11.733 Z6.000 I-4.446 J-1.277 K0.000 F600.000
G0 Z13.000
G0 X-32.937 Y-11.097 Z13.000
G0 X-32.937 Y-11.097 Z11.000
G1 X-32.937 Y-11.097 Z6.000 F600.000
G3 X-34.491 Y-11.616 Z6.000 I-0.186 J-2.030 K0.000 F600.000
G3 X-34.774 Y-12.083 Z6.000 I1.048 J-0.953 K0.000 F600.000
G2 X-32.937 Y-11.097 Z6.000 I1.828 J-1.200 K0.000 F600.000
G0 Z13.000
G0 X-38.659 Y-12.358 Z13.000
G0 X-38.659 Y-12.358 Z11.000
G1 X-38.659 Y-12.358 Z6.000 F600.000
G1 X-38.938 Y-11.814 Z6.000 F600.000
G3 X-39.483 Y-13.088 Z6.000 I1.519 J-1.404 K0.000 F600.000
G3 X-39.387 Y-14.567 Z6.000 I4.322 J-0.463 K0.000 F600.000
G2 X-38.659 Y-12.358 Z6.000 I2.519 J0.394 K0.000 F600.000
G0 Z13.000
G0 X-38.964 Y-12.312 Z13.000
G0 X-38.964 Y-12.312 Z11.000
G1 X-38.964 Y-12.312 Z6.000 F600.000
G1 X-38.977 Y-12.286 Z6.000 F600.000
G1 X-39.045 Y-12.408 Z6.000 F600.000
G1 X-38.964 Y-12.312 Z6.000 F600.000
G0 Z13.000
G0 X-37.204 Y-17.457 Z13.000
G0 X-37.204 Y-17.457 Z11.000
G1 X-37.204 Y-17.457 Z6.000 F600.000
G3 X-36.575 Y-17.441 Z6.000 I0.288 J1.072 K0.000 F600.000
G3 X-35.541 Y-16.611 Z6.000 I-0.221 J1.335 K0.000 F600.000
G2 X-37.204 Y-17.457 Z6.000 I-1.592 J1.074 K0.000 F600.000
G0 Z13.000
G0 X-30.976 Y-17.005 Z13.000
G0 X-30.976 Y-17.005 Z11.000
G1 X-30.976 Y-17.005 Z6.000 F600.000
G1 X-30.944 Y-17.078 Z6.000 F600.000
G3 X-30.683 Y-16.698 Z6.000 I-0.639 J0.716 K0.000 F600.000
G2 X-30.976 Y-17.005 Z6.000 I-1.626 J1.254 K0.000 F600.000
G0 Z13.000
G0 Z13.000
G0 X-30.976 Y-17.005
G0 X-32.989 Y-9.132
G0 X-32.989 Y-9.132 Z11.000
G1 X-32.989 Y-9.132 Z6.000 F600.000
G3 X-31.865 Y-7.589 Z6.000 I-0.371 J1.451 K0.000 F600.000
G3 X-32.654 Y-5.918 Z6.000 I-2.274 J-0.053 K0.000 F600.000
G1 X-32.732 Y-5.868 Z6.000 F600.000
G2 X-32.776 Y-7.690 Z6.000 I-1.375 J-0.879 K0.000 F600.000
G2 X-35.387 Y-7.590 Z6.000 I-1.266 J1.061 K0.000 F600.000
G2 X-35.924 Y-6.432 Z6.000 I2.714 J1.963 K0.000 F600.000
G1 X-36.202 Y-5.315 Z6.000 F600.000
G2 X-35.722 Y-4.694 Z6.000 I0.485 J0.121 K0.000 F600.000
G2 X-34.138 Y-4.821 Z6.000 I0.453 J-4.296 K0.000 F600.000
G2 X-33.729 Y-4.346 Z6.000 I0.478 J0.002 K0.000 F600.000
G3 X-33.249 Y-4.255 Z6.000 I-0.068 J1.673 K0.000 F600.000
G3 X-32.918 Y-3.560 Z6.000 I-0.282 J0.560 K0.000 F600.000
G3 X-33.207 Y-2.459 Z6.000 I-3.736 J-0.391 K0.000 F600.000
G1 X-33.375 Y-2.485 Z6.000 F600.000
G2 X-34.128 Y-3.649 Z6.000 I-0.924 J-0.228 K0.000 F600.000
G1 X-34.685 Y-3.722 Z6.000 F600.000
G3 X-37.752 Y-3.869 Z6.000 I3.675 J-108.994 K0.000 F600.000
G3 X-39.143 Y-4.440 Z6.000 I-0.048 J-1.863 K0.000 F600.000
G3 X-39.404 Y-5.153 Z6.000 I1.076 J-0.797 K0.000 F600.000
G3 X-38.568 Y-8.136 Z6.000 I5.085 J-0.184 K0.000 F600.000
G3 X-37.483 Y-8.878 Z6.000 I1.491 J1.015 K0.000 F600.000
G1 X-37.592 Y-8.028 Z6.000 F600.000
G2 X-38.770 Y-7.076 Z6.000 I0.253 J1.518 K0.000 F600.000
G2 X-38.992 Y-5.893 Z6.000 I1.795 J0.950 K0.000 F600.000
G2 X-38.323 Y-5.000 Z6.000 I1.203 J-0.205 K0.000 F600.000
G2 X-36.677 Y-4.782 Z6.000 I1.248 J-3.106 K0.000 F600.000
G2 X-36.369 Y-5.122 Z6.000 I-0.176 J-0.468 K0.000 F600.000
G3 X-35.784 Y-7.198 Z6.000 I26.640 J6.391 K0.000 F600.000
G3 X-34.786 Y-8.857 Z6.000 I3.482 J0.965 K0.000 F600.000
G3 X-33.091 Y-9.154 Z6.000 I1.130 J1.467 K0.000 F600.000
G3 X-32.989 Y-9.132 Z6.000 I-0.269 J1.473 K0.000 F600.000
G0 Z13.000
G0 X-33.051 Y-8.889 Z13.000
G0 X-33.051 Y-8.889 Z11.000
G1 X-33.051 Y-8.889 Z6.000 F600.000
G3 X-32.116 Y-7.602 Z6.000 I-0.309 J1.207 K0.000 F600.000
G3 X-32.240 Y-6.974 Z6.000 I-1.612 J0.008 K0.000 F600.000
G2 X-33.660 Y-8.483 Z6.000 I-1.678 J0.157 K0.000 F600.000
G2 X-34.956 Y-8.298 Z6.000 I-0.413 J1.735 K0.000 F600.000
G3 X-33.152 Y-8.911 Z6.000 I1.286 J0.824 K0.000 F600.000
G3 X-33.051 Y-8.889 Z6.000 I-0.208 J1.229 K0.000 F600.000
G0 Z13.000
G0 X-33.112 Y-8.647 Z13.000
G0 X-33.112 Y-8.647 Z11.000
G1 X-33.112 Y-8.647 Z6.000 F600.000
G3 X-32.447 Y-8.073 Z6.000 I-0.243 J0.954 K0.000 F600.000
G2 X-33.654 Y-8.734 Z6.000 I-1.611 J1.508 K0.000 F600.000
G3 X-33.213 Y-8.668 Z6.000 I-0.023 J1.645 K0.000 F600.000
G3 X-33.112 Y-8.647 Z6.000 I-0.142 J0.974 K0.000 F600.000
G0 Z13.000
G0 X-34.320 Y-4.523 Z13.000
G0 X-34.320 Y-4.523 Z11.000
G1 X-34.320 Y-4.523 Z6.000 F600.000
G2 X-33.770 Y-4.099 Z6.000 I0.667 J-0.297 K0.000 F600.000
G3 X-33.353 Y-4.026 Z6.000 I-0.040 J1.451 K0.000 F600.000
G3 X-33.168 Y-3.583 Z6.000 I-0.226 J0.355 K0.000 F600.000
G1 X-33.226 Y-3.235 Z6.000 F600.000
G2 X-34.094 Y-3.897 Z6.000 I-1.031 J0.452 K0.000 F600.000
G1 X-34.673 Y-3.972 Z6.000 F600.000
G3 X-37.734 Y-4.118 Z6.000 I3.664 J-108.730 K0.000 F600.000
G3 X-38.943 Y-4.593 Z6.000 I-0.060 J-1.626 K0.000 F600.000
G3 X-39.156 Y-5.570 Z6.000 I1.046 J-0.739 K0.000 F600.000
G2 X-38.068 Y-4.633 Z6.000 I1.424 J-0.553 K0.000 F600.000
G2 X-36.645 Y-4.530 Z6.000 I1.016 J-4.153 K0.000 F600.000
G2 X-36.310 Y-4.743 Z6.000 I-0.161 J-0.622 K0.000 F600.000
G2 X-35.724 Y-4.444 Z6.000 I0.585 J-0.423 K0.000 F600.000
G2 X-34.320 Y-4.523 Z6.000 I0.464 J-4.284 K0.000 F600.000
G0 Z13.000
G0 X-34.441 Y-4.245 Z13.000
G0 X-34.441 Y-4.245 Z11.000
G1 X-34.441 Y-4.245 Z6.000 F600.000
G1 X-34.392 Y-4.187 Z6.000 F600.000
G1 X-34.616 Y-4.216 Z6.000 F600.000
G1 X-34.441 Y-4.245 Z6.000 F600.000
G0 Z13.000
G0 X-36.135 Y-4.288 Z13.000
G0 X-36.135 Y-4.288 Z11.000
G1 X-36.135 Y-4.288 Z6.000 F600.000
G1 X-36.544 Y-4.307 Z6.000 F600.000
G2 X-36.324 Y-4.408 Z6.000 I-0.070 J-0.444 K0.000 F600.000
G2 X-36.135 Y-4.288 Z6.000 I0.308 J-0.277 K0.000 F600.000
G0 Z13.000
G0 X-37.817 Y-8.240 Z13.000
G0 X-37.817 Y-8.240 Z11.000
G1 X-37.817 Y-8.240 Z6.000 F600.000
G2 X-38.381 Y-7.963 Z6.000 I0.673 J2.086 K0.000 F600.000
G3 X-37.785 Y-8.493 Z6.000 I1.421 J1.000 K0.000 F600.000
G1 X-37.817 Y-8.240 Z6.000 F600.000
G0 Z13.000
G0 Z13.000
G0 X-37.817 Y-8.240
G0 X-39.810 Y-2.401
G0 X-39.810 Y-2.401 Z11.000
G1 X-39.810 Y-2.401 Z6.000 F600.000
G2 X-39.927 Y-1.774 Z6.000 I1.515 J0.607 K0.000 F600.000
G2 X-39.460 Y-1.349 Z6.000 I0.495 J-0.074 K0.000 F600.000
G1 X-35.659 Y-1.146 Z6.000 F600.000
G3 X-34.331 Y-0.891 Z6.000 I0.032 J3.413 K0.000 F600.000
G3 X-33.816 Y0.162 Z6.000 I-0.438 J0.866 K0.000 F600.000
G3 X-34.184 Y1.399 Z6.000 I-3.674 J-0.417 K0.000 F600.000
G1 X-34.480 Y1.378 Z6.000 F600.000
G2 X-35.335 Y-0.145 Z6.000 I-0.984 J-0.450 K0.000 F600.000
G1 X-36.004 Y-0.226 Z6.000 F600.000
G1 X-39.884 Y-0.432 Z6.000 F600.000
G2 X-40.396 Y-0.054 Z6.000 I-0.027 J0.499 K0.000 F600.000
G1 X-40.647 Y0.955 Z6.000 F600.000
G1 X-41.002 Y0.933 Z6.000 F600.000
G1 X-40.800 Y0.124 Z6.000 F600.000
G2 X-41.256 Y-0.496 Z6.000 I-0.485 J-0.121 K0.000 F600.000
G1 X-42.501 Y-0.570 Z6.000 F600.000
G1 X-42.417 Y-0.908 Z6.000 F600.000
G1 X-40.708 Y-1.339 Z6.000 F600.000
G2 X-40.345 Y-1.702 Z6.000 I-0.122 J-0.485 K0.000 F600.000
G1 X-40.166 Y-2.419 Z6.000 F600.000
G1 X-39.810 Y-2.401 Z6.000 F600.000
G0 Z13.000
G0 X-40.132 Y-1.583 Z13.000
G0 X-40.132 Y-1.583 Z11.000
G1 X-40.132 Y-1.583 Z6.000 F600.000
G2 X-39.473 Y-1.099 Z6.000 I0.697 J-0.259 K0.000 F600.000
G1 X-35.678 Y-0.897 Z6.000 F600.000
G3 X-34.439 Y-0.664 Z6.000 I0.045 J3.171 K0.000 F600.000
G3 X-34.066 Y0.137 Z6.000 I-0.334 J0.643 K0.000 F600.000
G3 X-34.171 Y0.666 Z6.000 I-2.550 J-0.234 K0.000 F600.000
G2 X-35.305 Y-0.393 Z6.000 I-1.299 J0.254 K0.000 F600.000
G1 X-35.991 Y-0.475 Z6.000 F600.000
G1 X-39.871 Y-0.682 Z6.000 F600.000
G2 X-40.579 Y-0.232 Z6.000 I-0.053 J0.700 K0.000 F600.000
G2 X-41.241 Y-0.746 Z6.000 I-0.701 J0.221 K0.000 F600.000
G1 X-41.885 Y-0.784 Z6.000 F600.000
G1 X-40.646 Y-1.096 Z6.000 F600.000
G2 X-40.132 Y-1.583 Z6.000 I-0.149 J-0.673 K0.000 F600.000
G0 Z13.000
G0 X-40.116 Y-1.124 Z13.000
G0 X-40.116 Y-1.124 Z11.000
G1 X-40.116 Y-1.124 Z6.000 F600.000
G2 X-39.789 Y-0.928 Z6.000 I0.420 J-0.331 K0.000 F600.000
G2 X-40.566 Y-0.681 Z6.000 I-0.115 J0.984 K0.000 F600.000
G2 X-40.729 Y-0.817 Z6.000 I-0.326 J0.223 K0.000 F600.000
G2 X-40.116 Y-1.124 Z6.000 I-0.150 J-1.069 K0.000 F600.000
G0 Z13.000
G0 X-34.966 Y-0.553 Z13.000
G0 X-34.966 Y-0.553 Z11.000
G1 X-34.966 Y-0.553 Z6.000 F600.000
G3 X-34.414 Y-0.337 Z6.000 I-0.001 J0.817 K0.000 F600.000
G3 X-34.333 Y-0.156 Z6.000 I-0.244 J0.218 K0.000 F600.000
G2 X-34.966 Y-0.553 Z6.000 I-1.101 J1.051 K0.000 F600.000
G0 Z13.000
G0 Z13.000
G0 X-34.966 Y-0.553
G0 X-33.732 Y11.562
G0 X-33.732 Y11.562 Z11.000
G1 X-33.732 Y11.562 Z6.000 F600.000
G3 X-32.849 Y11.663 Z6.000 I0.211 J2.076 K0.000 F600.000
G3 X-31.308 Y12.767 Z6.000 I-1.473 J3.683 K0.000 F600.000
G3 X-29.709 Y15.195 Z6.000 I-5.991 J5.683 K0.000 F600.000
G3 X-29.469 Y16.915 Z6.000 I-2.661 J1.249 K0.000 F600.000
G3 X-30.382 Y18.281 Z6.000 I-2.204 J-0.485 K0.000 F600.000
G3 X-32.704 Y18.479 Z6.000 I-1.301 J-1.545 K0.000 F600.000
G3 X-35.008 Y16.903 Z6.000 I11.117 J-18.727 K0.000 F600.000
G2 X-36.547 Y16.469 Z6.000 I-1.275 J1.575 K0.000 F600.000
G2 X-37.689 Y18.482 Z6.000 I0.355 J1.532 K0.000 F600.000
G2 X-36.056 Y20.570 Z6.000 I3.409 J-0.984 K0.000 F600.000
G2 X-34.595 Y20.765 Z6.000 I1.005 J-1.968 K0.000 F600.000
G1 X-34.131 Y21.792 Z6.000 F600.000
G3 X-35.452 Y21.702 Z6.000 I-0.529 J-1.969 K0.000 F600.000
G3 X-36.867 Y20.687 Z6.000 I1.720 J-3.889 K0.000 F600.000
G3 X-38.173 Y18.755 Z6.000 I4.670 J-4.564 K0.000 F600.000
G3 X-38.446 Y17.081 Z6.000 I2.997 J-1.349 K0.000 F600.000
G3 X-35.645 Y15.576 Z6.000 I1.976 J0.320 K0.000 F600.000
G3 X-33.643 Y16.888 Z6.000 I-4.561 J9.146 K0.000 F600.000
G2 X-32.612 Y17.524 Z6.000 I3.105 J-3.882 K0.000 F600.000
G2 X-30.290 Y15.441 Z6.000 I0.711 J-1.543 K0.000 F600.000
G2 X-32.076 Y12.946 Z6.000 I-4.918 J1.635 K0.000 F600.000
G2 X-33.843 Y12.712 Z6.000 I-1.115 J1.632 K0.000 F600.000
G1 X-34.361 Y11.728 Z6.000 F600.000
G3 X-33.732 Y11.562 Z6.000 I0.840 J1.910 K0.000 F600.000
G0 Z13.000
G0 X-33.702 Y11.816 Z13.000
G0 X-33.702 Y11.816 Z11.000
G1 X-33.702 Y11.816 Z6.000 F600.000
G3 X-32.930 Y11.900 Z6.000 I0.203 J1.706 K0.000 F600.000
G3 X-31.493 Y12.935 Z6.000 I-1.390 J3.447 K0.000 F600.000
G3 X-29.943 Y15.284 Z6.000 I-5.808 J5.516 K0.000 F600.000
G3 X-29.714 Y16.863 Z6.000 I-2.437 J1.160 K0.000 F600.000
G3 X-30.535 Y18.082 Z6.000 I-1.959 J-0.433 K0.000 F600.000
G3 X-32.596 Y18.253 Z6.000 I-1.149 J-1.352 K0.000 F600.000
G3 X-34.872 Y16.693 Z6.000 I11.169 J-18.742 K0.000 F600.000
G2 X-36.613 Y16.228 Z6.000 I-1.405 J1.766 K0.000 F600.000
G2 X-37.928 Y18.554 Z6.000 I0.420 J1.772 K0.000 F600.000
G2 X-37.633 Y19.266 Z6.000 I2.587 J-0.654 K0.000 F600.000
G3 X-38.197 Y17.113 Z6.000 I2.809 J-1.886 K0.000 F600.000
G3 X-35.738 Y15.809 Z6.000 I1.727 J0.287 K0.000 F600.000
G3 X-33.782 Y17.095 Z6.000 I-4.531 J9.018 K0.000 F600.000
G2 X-32.428 Y17.859 Z6.000 I2.864 J-3.496 K0.000 F600.000
G2 X-30.052 Y15.363 Z6.000 I0.525 J-1.879 K0.000 F600.000
G2 X-31.946 Y12.733 Z6.000 I-5.142 J1.704 K0.000 F600.000
G2 X-33.718 Y12.414 Z6.000 I-1.245 J1.838 K0.000 F600.000
G1 X-34.000 Y11.878 Z6.000 F600.000
G3 X-33.702 Y11.816 Z6.000 I0.501 J1.643 K0.000 F600.000
G0 Z13.000
G0 X-33.617 Y12.068 Z13.000
G0 X-33.617 Y12.068 Z11.000
G1 X-33.617 Y12.068 Z6.000 F600.000
G3 X-33.158 Y12.102 Z6.000 I0.161 J0.946 K0.000 F600.000
G2 X-33.580 Y12.139 Z6.000 I-0.034 J2.053 K0.000 F600.000
G1 X-33.617 Y12.068 Z6.000 F600.000
G0 Z13.000
G0 X-36.121 Y15.952 Z13.000
G0 X-36.121 Y15.952 Z11.000
G1 X-36.121 Y15.952 Z6.000 F600.000
G2 X-37.820 Y16.724 Z6.000 I-0.154 J1.914 K0.000 F600.000
G3 X-36.187 Y15.931 Z6.000 I1.342 J0.685 K0.000 F600.000
G1 X-36.121 Y15.952 Z6.000 F600.000
G0 Z13.000
G0 X-36.924 Y20.233 Z13.000
G0 X-36.924 Y20.233 Z11.000
G1 X-36.924 Y20.233 Z6.000 F600.000
G2 X-34.744 Y21.043 Z6.000 I1.880 J-1.722 K0.000 F600.000
G1 X-34.493 Y21.600 Z6.000 F600.000
G3 X-35.828 Y21.231 Z6.000 I-0.149 J-2.063 K0.000 F600.000
G3 X-36.924 Y20.233 Z6.000 I2.335 J-3.666 K0.000 F600.000
G0 Z13.000
G0 X-35.023 Y21.313 Z13.000
G0 X-35.023 Y21.313 Z11.000
G1 X-35.023 Y21.313 Z6.000 F600.000
G1 X-34.898 Y21.309 Z6.000 F600.000
G1 X-34.886 Y21.336 Z6.000 F600.000
G1 X-35.023 Y21.313 Z6.000 F600.000
G0 Z13.000
G0 X-32.104 Y18.178 Z13.000
G0 X-32.104 Y18.178 Z11.000
G1 X-32.104 Y18.178 Z6.000 F600.000
G2 X-30.187 Y17.358 Z6.000 I0.203 J-2.177 K0.000 F600.000
G3 X-31.562 Y18.249 Z6.000 I-1.702 J-1.121 K0.000 F600.000
G3 X-32.104 Y18.178 Z6.000 I-0.091 J-1.414 K0.000 F600.000
G0 Z13.000
G0 Z13.000
G0 X-32.104 Y18.178
G0 X-30.042 Y20.009
G0 X-30.042 Y20.009 Z11.000
G1 X-30.042 Y20.009 Z6.000 F600.000
G1 X-29.498 Y19.395 Z6.000 F600.000
G3 X-28.559 Y18.511 Z6.000 I3.089 J2.338 K0.000 F600.000
G3 X-27.609 Y18.250 Z6.000 I0.813 J1.101 K0.000 F600.000
G1 X-27.314 Y18.338 Z6.000 F600.000
G3 X-25.977 Y20.851 Z6.000 I-1.225 J2.264 K0.000 F600.000
G2 X-27.152 Y19.438 Z6.000 I-2.069 J0.526 K0.000 F600.000
G2 X-28.467 Y19.703 Z6.000 I-0.432 J1.252 K0.000 F600.000
G2 X-29.328 Y20.604 Z6.000 I5.722 J6.333 K0.000 F600.000
G1 X-31.773 Y23.378 Z6.000 F600.000
G1 X-32.356 Y22.615 Z6.000 F600.000
G1 X-30.042 Y20.009 Z6.000 F600.000
G0 Z13.000
G0 X-29.855 Y20.175 Z13.000
G0 X-29.855 Y20.175 Z11.000
G1 X-29.855 Y20.175 Z6.000 F600.000
G1 X-29.313 Y19.564 Z6.000 F600.000
G3 X-28.427 Y18.724 Z6.000 I2.923 J2.196 K0.000 F600.000
G3 X-27.658 Y18.496 Z6.000 I0.691 J0.923 K0.000 F600.000
G1 X-27.415 Y18.569 Z6.000 F600.000
G3 X-26.459 Y19.590 Z6.000 I-1.214 J2.095 K0.000 F600.000
G2 X-28.633 Y19.516 Z6.000 I-1.125 J1.086 K0.000 F600.000
G2 X-29.516 Y20.439 Z6.000 I5.883 J6.513 K0.000 F600.000
G1 X-31.759 Y22.984 Z6.000 F600.000
G1 X-32.032 Y22.627 Z6.000 F600.000
G1 X-29.855 Y20.175 Z6.000 F600.000
G0 Z13.000
G0 X-28.591 Y19.184 Z13.000
G0 X-28.591 Y19.184 Z11.000
G1 X-28.591 Y19.184 Z6.000 F600.000
G3 X-27.702 Y18.744 Z6.000 I0.936 J0.773 K0.000 F600.000
G3 X-27.375 Y18.882 Z6.000 I-0.121 J0.744 K0.000 F600.000
G2 X-28.591 Y19.184 Z6.000 I-0.228 J1.684 K0.000 F600.000
G0 Z13.000
G0 X-25.960 Y22.108 Z13.000
G0 X-25.960 Y22.108 Z11.000
G1 X-25.960 Y22.108 Z6.000 F600.000
G2 X-25.276 Y22.079 Z6.000 I0.328 J-0.349 K0.000 F600.000
G3 X-24.747 Y21.542 Z6.000 I12.810 J12.093 K0.000 F600.000
G1 X-24.191 Y22.270 Z6.000 F600.000
G2 X-25.057 Y23.194 Z6.000 I16.118 J15.972 K0.000 F600.000
G1 X-28.740 Y27.346 Z6.000 F600.000
G1 X-29.337 Y26.565 Z6.000 F600.000
G1 X-26.686 Y23.577 Z6.000 F600.000
G2 X-25.960 Y22.108 Z6.000 I-2.033 J-1.919 K0.000 F600.000
G0 Z13.000
G0 X-25.783 Y22.465 Z13.000
G0 X-25.783 Y22.465 Z11.000
G1 X-25.783 Y22.465 Z6.000 F600.000
G2 X-24.960 Y22.109 Z6.000 I0.131 J-0.825 K0.000 F600.000
G1 X-24.772 Y21.921 Z6.000 F600.000
G1 X-24.520 Y22.251 Z6.000 F600.000
G2 X-25.244 Y23.028 Z6.000 I14.479 J14.219 K0.000 F600.000
G1 X-28.726 Y26.953 Z6.000 F600.000
G1 X-29.014 Y26.576 Z6.000 F600.000
G1 X-26.492 Y23.734 Z6.000 F600.000
G2 X-25.783 Y22.465 Z6.000 I-2.498 J-2.227 K0.000 F600.000
G0 Z13.000
G0 X-25.605 Y22.726 Z13.000
G0 X-25.605 Y22.726 Z11.000
G1 X-25.605 Y22.726 Z6.000 F600.000
G2 X-25.238 Y22.648 Z6.000 I0.043 J-0.693 K0.000 F600.000
G2 X-26.008 Y23.512 Z6.000 I66.814 J60.228 K0.000 F600.000
G2 X-25.605 Y22.726 Z6.000 I-2.882 J-1.974 K0.000 F600.000
G0 Z13.000
G0 Z13.000
G0 X-25.605 Y22.726
G0 X-23.669 Y24.444
G0 X-23.669 Y24.444 Z11.000
G1 X-23.669 Y24.444 Z6.000 F600.000
G1 X-23.057 Y23.754 Z6.000 F600.000
G1 X-22.459 Y24.536 Z6.000 F600.000
G1 X-25.122 Y27.539 Z6.000 F600.000
G2 X-25.837 Y29.010 Z6.000 I2.076 J1.917 K0.000 F600.000
G2 X-26.532 Y29.030 Z6.000 I-0.338 J0.341 K0.000 F600.000
G3 X-27.050 Y29.557 Z6.000 I-13.360 J-12.618 K0.000 F600.000
G1 X-27.604 Y28.832 Z6.000 F600.000
G2 X-26.747 Y27.912 Z6.000 I-17.540 J-17.202 K0.000 F600.000
G1 X-23.669 Y24.444 Z6.000 F600.000
G0 Z13.000
G0 X-23.482 Y24.610 Z13.000
G0 X-23.482 Y24.610 Z11.000
G1 X-23.482 Y24.610 Z6.000 F600.000
G1 X-23.071 Y24.147 Z6.000 F600.000
G1 X-22.783 Y24.524 Z6.000 F600.000
G1 X-25.322 Y27.389 Z6.000 F600.000
G2 X-26.013 Y28.646 Z6.000 I2.412 J2.144 K0.000 F600.000
G2 X-26.845 Y28.998 Z6.000 I-0.143 J0.821 K0.000 F600.000
G1 X-27.025 Y29.179 Z6.000 F600.000
G1 X-27.276 Y28.851 Z6.000 F600.000
G2 X-26.560 Y28.078 Z6.000 I-16.225 J-15.744 K0.000 F600.000
G1 X-23.482 Y24.610 Z6.000 F600.000
G0 Z13.000
G0 X-25.742 Y27.533 Z13.000
G0 X-25.742 Y27.533 Z11.000
G1 X-25.742 Y27.533 Z6.000 F600.000
G2 X-26.192 Y28.382 Z6.000 I2.299 J1.762 K0.000 F600.000
G2 X-26.567 Y28.460 Z6.000 I-0.048 J0.708 K0.000 F600.000
G2 X-25.742 Y27.533 Z6.000 I-92.388 J-83.023 K0.000 F600.000
G0 Z13.000
G0 X-25.822 Y30.249 Z13.000
G0 X-25.822 Y30.249 Z11.000
G1 X-25.822 Y30.249 Z6.000 F600.000
G2 X-24.769 Y31.613 Z6.000 I2.147 J-0.570 K0.000 F600.000
G2 X-23.329 Y31.397 Z6.000 I0.556 J-1.202 K0.000 F600.000
G2 X-22.468 Y30.497 Z6.000 I-5.916 J-6.516 K0.000 F600.000
G1 X-20.024 Y27.723 Z6.000 F600.000
G1 X-19.440 Y28.486 Z6.000 F600.000
G1 X-22.298 Y31.705 Z6.000 F600.000
G3 X-23.238 Y32.590 Z6.000 I-3.091 J-2.339 K0.000 F600.000
G3 X-24.188 Y32.851 Z6.000 I-0.813 J-1.101 K0.000 F600.000
G3 X-24.955 Y32.435 Z6.000 I0.324 J-1.516 K0.000 F600.000
G3 X-25.822 Y30.249 Z6.000 I1.662 J-1.923 K0.000 F600.000
G0 Z13.000
G0 X-25.337 Y31.511 Z13.000
G0 X-25.337 Y31.511 Z11.000
G1 X-25.337 Y31.511 Z6.000 F600.000
G2 X-23.162 Y31.583 Z6.000 I1.125 J-1.087 K0.000 F600.000
G2 X-22.281 Y30.662 Z6.000 I-6.079 J-6.697 K0.000 F600.000
G1 X-20.037 Y28.117 Z6.000 F600.000
G1 X-19.764 Y28.474 Z6.000 F600.000
G1 X-22.483 Y31.536 Z6.000 F600.000
G3 X-23.370 Y32.377 Z6.000 I-2.925 J-2.197 K0.000 F600.000
G3 X-24.138 Y32.604 Z6.000 I-0.691 J-0.923 K0.000 F600.000
G3 X-24.781 Y32.256 Z6.000 I0.275 J-1.273 K0.000 F600.000
G3 X-25.337 Y31.511 Z6.000 I1.665 J-1.825 K0.000 F600.000
G0 Z13.000
G0 X-24.421 Y32.218 Z13.000
G0 X-24.421 Y32.218 Z11.000
G1 X-24.421 Y32.218 Z6.000 F600.000
G2 X-23.206 Y31.917 Z6.000 I0.228 J-1.683 K0.000 F600.000
G3 X-24.094 Y32.357 Z6.000 I-0.934 J-0.771 K0.000 F600.000
G3 X-24.421 Y32.218 Z6.000 I0.121 J-0.744 K0.000 F600.000
G0 Z13.000
G0 Z13.000
G0 X-24.421 Y32.218
G0 X20.258 Y27.133
G0 X20.258 Y27.133 Z11.000
G1 X20.258 Y27.133 Z6.000 F600.000
G1 X20.938 Y26.300 Z6.000 F600.000
G1 X28.100 Y30.141 Z6.000 F600.000
G2 X28.723 Y30.016 Z6.000 I0.236 J-0.441 K0.000 F600.000
G1 X30.511 Y27.828 Z6.000 F600.000
G1 X31.066 Y28.127 Z6.000 F600.000
G1 X26.292 Y33.972 Z6.000 F600.000
G1 X25.737 Y33.673 Z6.000 F600.000
G1 X27.398 Y31.639 Z6.000 F600.000
G2 X27.247 Y30.882 Z6.000 I-0.387 J-0.316 K0.000 F600.000
G1 X20.258 Y27.133 Z6.000 F600.000
G0 Z13.000
G0 X20.643 Y27.056 Z13.000
G0 X20.643 Y27.056 Z11.000
G1 X20.643 Y27.056 Z6.000 F600.000
G1 X21.002 Y26.617 Z6.000 F600.000
G1 X27.982 Y30.361 Z6.000 F600.000
G2 X28.917 Y30.175 Z6.000 I0.355 J-0.661 K0.000 F600.000
G1 X30.574 Y28.146 Z6.000 F600.000
G1 X30.681 Y28.203 Z6.000 F600.000
G1 X26.229 Y33.654 Z6.000 F600.000
G1 X26.122 Y33.597 Z6.000 F600.000
G1 X27.592 Y31.797 Z6.000 F600.000
G2 X27.365 Y30.662 Z6.000 I-0.581 J-0.474 K0.000 F600.000
G1 X20.643 Y27.056 Z6.000 F600.000
G0 Z13.000
G0 X21.029 Y26.980 Z13.000
G0 X21.029 Y26.980 Z11.000
G1 X21.029 Y26.980 Z6.000 F600.000
G1 X21.065 Y26.935 Z6.000 F600.000
G1 X27.863 Y30.581 Z6.000 F600.000
G2 X28.325 Y30.693 Z6.000 I0.430 J-0.767 K0.000 F600.000
G1 X27.981 Y31.114 Z6.000 F600.000
G2 X27.483 Y30.442 Z6.000 I-0.946 J0.180 K0.000 F600.000
G1 X21.029 Y26.980 Z6.000 F600.000
G0 Z13.000
G0 Z13.000
G0 X21.029 Y26.980
G0 X24.474 Y23.634
G0 X24.474 Y23.634 Z11.000
G1 X24.474 Y23.634 Z6.000 F600.000
G3 X24.100 Y22.863 Z6.000 I0.982 J-0.953 K0.000 F600.000
G3 X24.326 Y22.020 Z6.000 I1.550 J-0.036 K0.000 F600.000
G3 X26.253 Y20.674 Z6.000 I2.248 J1.166 K0.000 F600.000
G2 X25.150 Y22.144 Z6.000 I0.990 J1.892 K0.000 F600.000
G2 X25.711 Y23.361 Z6.000 I1.318 J0.131 K0.000 F600.000
G2 X26.788 Y23.991 Z6.000 I4.837 J-7.032 K0.000 F600.000
G1 X30.052 Y25.728 Z6.000 F600.000
G1 X29.444 Y26.472 Z6.000 F600.000
G1 X25.651 Y24.435 Z6.000 F600.000
G3 X24.573 Y23.727 Z6.000 I1.560 J-3.546 K0.000 F600.000
G3 X24.474 Y23.634 Z6.000 I0.883 J-1.045 K0.000 F600.000
G0 Z13.000
G0 X24.655 Y23.461 Z13.000
G0 X24.655 Y23.461 Z11.000
G1 X24.655 Y23.461 Z6.000 F600.000
G3 X24.351 Y22.854 Z6.000 I0.832 J-0.797 K0.000 F600.000
G3 X24.542 Y22.148 Z6.000 I1.302 J-0.027 K0.000 F600.000
G3 X25.137 Y21.434 Z6.000 I2.181 J1.214 K0.000 F600.000
G2 X25.568 Y23.566 Z6.000 I1.317 J0.843 K0.000 F600.000
G2 X26.671 Y24.212 Z6.000 I4.976 J-7.230 K0.000 F600.000
G1 X29.666 Y25.806 Z6.000 F600.000
G1 X29.381 Y26.154 Z6.000 F600.000
G1 X25.772 Y24.217 Z6.000 F600.000
G3 X24.750 Y23.549 Z6.000 I1.460 J-3.352 K0.000 F600.000
G3 X24.655 Y23.461 Z6.000 I0.738 J-0.886 K0.000 F600.000
G0 Z13.000
G0 X24.846 Y23.299 Z13.000
G0 X24.846 Y23.299 Z11.000
G1 X24.846 Y23.299 Z6.000 F600.000
G3 X24.602 Y22.840 Z6.000 I0.925 J-0.786 K0.000 F600.000
G3 X24.661 Y22.489 Z6.000 I0.751 J-0.054 K0.000 F600.000
G2 X25.236 Y23.603 Z6.000 I1.691 J-0.168 K0.000 F600.000
G3 X24.846 Y23.299 Z6.000 I0.535 J-1.089 K0.000 F600.000
G0 Z13.000
G0 X27.472 Y20.366 Z13.000
G0 X27.472 Y20.366 Z11.000
G1 X27.472 Y20.366 Z6.000 F600.000
G2 X27.286 Y19.707 Z6.000 I-0.416 J-0.238 K0.000 F600.000
G3 X26.641 Y19.317 Z6.000 I8.801 J-15.259 K0.000 F600.000
G1 X27.220 Y18.608 Z6.000 F600.000
G2 X28.320 Y19.237 Z6.000 I11.811 J-19.375 K0.000 F600.000
G1 X33.211 Y21.859 Z6.000 F600.000
G1 X32.589 Y22.621 Z6.000 F600.000
G1 X29.069 Y20.733 Z6.000 F600.000
G2 X27.472 Y20.366 Z6.000 I-1.397 J2.422 K0.000 F600.000
G0 Z13.000
G0 X27.778 Y20.111 Z13.000
G0 X27.778 Y20.111 Z11.000
G1 X27.778 Y20.111 Z6.000 F600.000
G2 X27.242 Y19.393 Z6.000 I-0.833 J0.063 K0.000 F600.000
G1 X27.015 Y19.254 Z6.000 F600.000
G1 X27.278 Y18.932 Z6.000 F600.000
G2 X28.202 Y19.457 Z6.000 I10.484 J-17.375 K0.000 F600.000
G1 X32.826 Y21.936 Z6.000 F600.000
G1 X32.525 Y22.304 Z6.000 F600.000
G1 X29.176 Y20.507 Z6.000 F600.000
G2 X27.778 Y20.111 Z6.000 I-1.589 J2.945 K0.000 F600.000
G0 Z13.000
G0 X27.991 Y19.878 Z13.000
G0 X27.991 Y19.878 Z11.000
G1 X27.991 Y19.878 Z6.000 F600.000
G2 X27.830 Y19.539 Z6.000 I-0.684 J0.118 K0.000 F600.000
G2 X28.849 Y20.088 Z6.000 I43.132 J-78.918 K0.000 F600.000
G2 X27.991 Y19.878 Z6.000 I-1.254 J3.261 K0.000 F600.000
G0 Z13.000
G0 Z13.000
G0 X27.991 Y19.878
G0 X29.885 Y18.174
G0 X29.885 Y18.174 Z11.000
G1 X29.885 Y18.174 Z6.000 F600.000
G3 X29.795 Y18.071 Z6.000 I4.006 J-3.602 K0.000 F600.000
G3 X29.566 Y15.649 Z6.000 I1.700 J-1.383 K0.000 F600.000
G3 X31.502 Y13.719 Z6.000 I3.814 J1.891 K0.000 F600.000
G3 X32.676 Y13.601 Z6.000 I0.830 J2.355 K0.000 F600.000
G1 X32.381 Y14.314 Z6.000 F600.000
G2 X29.988 Y16.368 Z6.000 I-0.447 J1.900 K0.000 F600.000
G2 X30.868 Y17.706 Z6.000 I2.166 J-0.466 K0.000 F600.000
G2 X31.608 Y18.162 Z6.000 I1.291 J-1.266 K0.000 F600.000
G2 X32.078 Y17.985 Z6.000 I0.083 J-0.493 K0.000 F600.000
G1 X34.952 Y14.466 Z6.000 F600.000
G3 X36.408 Y15.663 Z6.000 I-1.798 J3.672 K0.000 F600.000
G3 X36.575 Y17.751 Z6.000 I-1.604 J1.179 K0.000 F600.000
G3 X34.024 Y19.847 Z6.000 I-3.369 J-1.500 K0.000 F600.000
G3 X31.529 Y19.414 Z6.000 I-0.627 J-3.790 K0.000 F600.000
G3 X29.885 Y18.174 Z6.000 I2.362 J-4.842 K0.000 F600.000
G0 Z13.000
G0 X30.075 Y18.006 Z13.000
G0 X30.075 Y18.006 Z11.000
G1 X30.075 Y18.006 Z6.000 F600.000
G3 X29.936 Y17.842 Z6.000 I3.805 J-3.380 K0.000 F600.000
G3 X29.740 Y15.890 Z6.000 I1.508 J-1.138 K0.000 F600.000
G2 X30.358 Y17.574 Z6.000 I1.992 J0.225 K0.000 F600.000
G2 X31.508 Y18.396 Z6.000 I2.529 J-2.325 K0.000 F600.000
G2 X32.121 Y18.274 Z6.000 I0.187 J-0.662 K0.000 F600.000
G2 X32.569 Y19.015 Z6.000 I0.744 J0.056 K0.000 F600.000
G2 X34.356 Y19.438 Z6.000 I1.635 J-2.920 K0.000 F600.000
G2 X34.585 Y19.411 Z6.000 I-0.047 J-1.374 K0.000 F600.000
G3 X32.162 Y19.417 Z6.000 I-1.218 J-2.971 K0.000 F600.000
G3 X30.075 Y18.006 Z6.000 I1.718 J-4.791 K0.000 F600.000
G0 Z13.000
G0 X30.260 Y17.840 Z13.000
G0 X30.260 Y17.840 Z11.000
G1 X30.260 Y17.840 Z6.000 F600.000
G3 X30.170 Y17.737 Z6.000 I3.632 J-3.255 K0.000 F600.000
G2 X31.408 Y18.628 Z6.000 I2.760 J-2.531 K0.000 F600.000
G2 X31.926 Y18.638 Z6.000 I0.277 J-0.919 K0.000 F600.000
G2 X32.516 Y19.264 Z6.000 I0.937 J-0.291 K0.000 F600.000
G3 X30.260 Y17.840 Z6.000 I1.377 J-4.679 K0.000 F600.000
G0 Z13.000
G0 X32.376 Y18.235 Z13.000
G0 X32.376 Y18.235 Z11.000
G1 X32.376 Y18.235 Z6.000 F600.000
G3 X32.481 Y18.011 Z6.000 I0.492 J0.092 K0.000 F600.000
G1 X34.417 Y15.640 Z6.000 F600.000
G3 X34.922 Y15.470 Z6.000 I0.387 J0.316 K0.000 F600.000
G3 X35.421 Y15.788 Z6.000 I-0.549 J1.414 K0.000 F600.000
G3 X36.252 Y17.061 Z6.000 I-1.113 J1.633 K0.000 F600.000
G3 X34.441 Y19.181 Z6.000 I-1.997 J0.128 K0.000 F600.000
G3 X32.669 Y18.786 Z6.000 I-0.242 J-3.082 K0.000 F600.000
G3 X32.376 Y18.235 Z6.000 I0.199 J-0.459 K0.000 F600.000
G0 Z13.000
G0 X34.650 Y15.231 Z13.000
G0 X34.650 Y15.231 Z11.000
G1 X34.650 Y15.231 Z6.000 F600.000
G1 X35.010 Y14.790 Z6.000 F600.000
G3 X36.380 Y16.104 Z6.000 I-1.521 J2.956 K0.000 F600.000
G3 X36.508 Y17.131 Z6.000 I-1.422 J0.700 K0.000 F600.000
G2 X35.569 Y15.587 Z6.000 I-2.169 J0.261 K0.000 F600.000
G2 X35.038 Y15.244 Z6.000 I-1.348 J1.505 K0.000 F600.000
G2 X34.650 Y15.231 Z6.000 I-0.214 J0.590 K0.000 F600.000
G0 Z13.000
G0 X32.221 Y14.046 Z13.000
G0 X32.221 Y14.046 Z11.000
G1 X32.221 Y14.046 Z6.000 F600.000
G2 X31.239 Y14.137 Z6.000 I-0.326 J1.819 K0.000 F600.000
G3 X32.310 Y13.832 Z6.000 I1.013 J1.522 K0.000 F600.000
G1 X32.221 Y14.046 Z6.000 F600.000
G0 Z13.000
G0 Z13.000
G0 X32.221 Y14.046
G0 X33.570 Y6.522
G0 X33.570 Y6.522 Z11.000
G1 X33.570 Y6.522 Z6.000 F600.000
G1 X33.212 Y4.837 Z6.000 F600.000
G3 X38.686 Y1.002 Z6.000 I112.192 J154.295 K0.000 F600.000
G3 X39.985 Y0.162 Z6.000 I66.753 J101.886 K0.000 F600.000
G2 X39.617 Y-0.749 Z6.000 I-0.270 J-0.421 K0.000 F600.000
G3 X32.309 Y0.589 Z6.000 I-43.444 J-216.708 K0.000 F600.000
G1 X31.960 Y-1.054 Z6.000 F600.000
G1 X39.915 Y-6.914 Z6.000 F600.000
G1 X40.114 Y-5.979 Z6.000 F600.000
G3 X33.036 Y-1.206 Z6.000 I-133.685 J-190.572 K0.000 F600.000
G2 X33.391 Y-0.291 Z6.000 I0.269 J0.422 K0.000 F600.000
G1 X41.038 Y-1.630 Z6.000 F600.000
G1 X41.336 Y-0.229 Z6.000 F600.000
G3 X35.191 Y4.070 Z6.000 I-162.163 J-225.257 K0.000 F600.000
G1 X34.278 Y4.677 Z6.000 F600.000
G2 X34.648 Y5.584 Z6.000 I0.277 J0.416 K0.000 F600.000
G3 X42.288 Y4.251 Z6.000 I31.683 J158.945 K0.000 F600.000
G1 X42.491 Y5.207 Z6.000 F600.000
G1 X33.570 Y6.522 Z6.000 F600.000
G0 Z13.000
G0 X33.766 Y6.240 Z13.000
G0 X33.766 Y6.240 Z11.000
G1 X33.766 Y6.240 Z6.000 F600.000
G1 X33.491 Y4.946 Z6.000 F600.000
G1 X34.043 Y4.557 Z6.000 F600.000
G2 X34.695 Y5.830 Z6.000 I0.508 J0.543 K0.000 F600.000
G3 X42.093 Y4.537 Z6.000 I30.718 J153.913 K0.000 F600.000
G1 X42.192 Y4.998 Z6.000 F600.000
G1 X33.766 Y6.240 Z6.000 F600.000
G0 Z13.000
G0 X33.964 Y5.961 Z13.000
G0 X33.964 Y5.961 Z11.000
G1 X33.964 Y5.961 Z6.000 F600.000
G3 X33.946 Y5.884 Z6.000 I0.035 J-0.049 K0.000 F600.000
G2 X34.049 Y5.946 Z6.000 I0.161 J-0.153 K0.000 F600.000
G3 X33.964 Y5.961 Z6.000 I-0.050 J-0.034 K0.000 F600.000
G0 Z13.000
G0 X34.646 Y4.132 Z13.000
G0 X34.646 Y4.132 Z11.000
G1 X34.646 Y4.132 Z6.000 F600.000
G3 X39.258 Y0.927 Z6.000 I62.004 J84.303 K0.000 F600.000
G3 X34.646 Y4.132 Z6.000 I-72.653 J-99.628 K0.000 F600.000
G0 Z13.000
G0 X33.941 Y0.057 Z13.000
G0 X33.941 Y0.057 Z11.000
G1 X33.941 Y0.057 Z6.000 F600.000
G3 X32.503 Y0.300 Z6.000 I-36.405 J-210.537 K0.000 F600.000
G1 X32.238 Y-0.949 Z6.000 F600.000
G1 X39.751 Y-6.483 Z6.000 F600.000
G1 X39.834 Y-6.091 Z6.000 F600.000
G3 X32.902 Y-1.416 Z6.000 I-131.178 J-187.057 K0.000 F600.000
G2 X33.434 Y-0.045 Z6.000 I0.403 J0.632 K0.000 F600.000
G1 X40.844 Y-1.342 Z6.000 F600.000
G1 X41.057 Y-0.339 Z6.000 F600.000
G1 X40.314 Y0.184 Z6.000 F600.000
G2 X39.568 Y-0.994 Z6.000 I-0.597 J-0.447 K0.000 F600.000
G3 X33.941 Y0.057 Z6.000 I-42.031 J-209.486 K0.000 F600.000
G0 Z13.000
G0 X32.701 Y0.011 Z13.000
G0 X32.701 Y0.011 Z11.000
G1 X32.701 Y0.011 Z6.000 F600.000
G3 X32.697 Y0.008 Z6.000 I-0.002 J-0.001 K0.000 F600.000
G1 X32.701 Y0.011 Z6.000 F600.000
G0 Z13.000
G0 X40.370 Y-1.005 Z13.000
G0 X40.370 Y-1.005 Z11.000
G1 X40.370 Y-1.005 Z6.000 F600.000
G1 X40.649 Y-1.054 Z6.000 F600.000
G1 X40.778 Y-0.448 Z6.000 F600.000
G1 X40.701 Y-0.394 Z6.000 F600.000
G2 X40.370 Y-1.005 Z6.000 I-0.893 J0.087 K0.000 F600.000
G0 Z13.000
G0 Z13.000
G0 X40.370 Y-1.005
G0 X35.877 Y-6.437
G0 X35.877 Y-6.437 Z11.000
G1 X35.877 Y-6.437 Z6.000 F600.000
G3 X34.876 Y-5.839 Z6.000 I-2.448 J-2.960 K0.000 F600.000
G3 X32.743 Y-5.327 Z6.000 I-2.297 J-4.873 K0.000 F600.000
G3 X30.711 Y-6.666 Z6.000 I-0.013 J-2.192 K0.000 F600.000
G3 X30.419 Y-9.383 Z6.000 I3.862 J-1.790 K0.000 F600.000
G3 X31.061 Y-10.372 Z6.000 I2.356 J0.827 K0.000 F600.000
G1 X31.433 Y-9.696 Z6.000 F600.000
G2 X31.536 Y-6.544 Z6.000 I1.201 J1.538 K0.000 F600.000
G2 X33.130 Y-6.392 Z6.000 I0.993 J-1.981 K0.000 F600.000
G2 X33.949 Y-6.684 Z6.000 I-0.179 J-1.799 K0.000 F600.000
G2 X34.105 Y-7.162 Z6.000 I-0.332 J-0.374 K0.000 F600.000
G1 X33.161 Y-11.606 Z6.000 F600.000
G3 X35.005 Y-11.992 Z6.000 I1.737 J3.701 K0.000 F600.000
G1 X35.380 Y-11.939 Z6.000 F600.000
G3 X36.739 Y-10.814 Z6.000 I-0.459 J1.936 K0.000 F600.000
G3 X36.776 Y-7.513 Z6.000 I-3.279 J1.687 K0.000 F600.000
G3 X35.877 Y-6.437 Z6.000 I-3.348 J-1.883 K0.000 F600.000
G0 Z13.000
G0 X35.720 Y-6.632 Z13.000
G0 X35.720 Y-6.632 Z11.000
G1 X35.720 Y-6.632 Z6.000 F600.000
G3 X35.274 Y-6.331 Z6.000 I-2.013 J-2.502 K0.000 F600.000
G3 X32.653 Y-5.581 Z6.000 I-2.660 J-4.339 K0.000 F600.000
G3 X31.008 Y-6.650 Z6.000 I0.057 J-1.888 K0.000 F600.000
G2 X32.709 Y-6.078 Z6.000 I1.423 J-1.413 K0.000 F600.000
G2 X34.069 Y-6.460 Z6.000 I-0.229 J-3.428 K0.000 F600.000
G2 X34.358 Y-7.014 Z6.000 I-0.399 J-0.560 K0.000 F600.000
G2 X35.216 Y-6.899 Z6.000 I0.509 J-0.545 K0.000 F600.000
G2 X36.665 Y-8.028 Z6.000 I-1.253 J-3.103 K0.000 F600.000
G2 X36.787 Y-8.224 Z6.000 I-1.101 J-0.823 K0.000 F600.000
G3 X35.720 Y-6.632 Z6.000 I-3.080 J-0.910 K0.000 F600.000
G0 Z13.000
G0 X35.377 Y-6.701 Z13.000
G0 X35.377 Y-6.701 Z11.000
G1 X35.377 Y-6.701 Z6.000 F600.000
G3 X32.718 Y-5.829 Z6.000 I-2.787 J-4.003 K0.000 F600.000
G2 X34.187 Y-6.237 Z6.000 I-0.245 J-3.736 K0.000 F600.000
G2 X34.519 Y-6.634 Z6.000 I-0.543 J-0.791 K0.000 F600.000
G2 X35.377 Y-6.701 Z6.000 I0.360 J-0.912 K0.000 F600.000
G0 Z13.000
G0 X35.182 Y-7.155 Z13.000
G0 X35.182 Y-7.155 Z11.000
G1 X35.182 Y-7.155 Z6.000 F600.000
G3 X35.100 Y-7.121 Z6.000 I-1.219 J-2.841 K0.000 F600.000
G3 X34.378 Y-7.459 Z6.000 I-0.233 J-0.442 K0.000 F600.000
G1 X33.741 Y-10.453 Z6.000 F600.000
G3 X33.926 Y-10.953 Z6.000 I0.489 J-0.104 K0.000 F600.000
G3 X34.486 Y-11.144 Z6.000 I0.758 J1.314 K0.000 F600.000
G3 X35.998 Y-10.994 Z6.000 I0.577 J1.891 K0.000 F600.000
G3 X36.518 Y-8.255 Z6.000 I-1.150 J1.637 K0.000 F600.000
G3 X35.182 Y-7.155 Z6.000 I-2.555 J-1.740 K0.000 F600.000
G0 Z13.000
G0 X33.568 Y-10.892 Z13.000
G0 X33.568 Y-10.892 Z11.000
G1 X33.568 Y-10.892 Z6.000 F600.000
G1 X33.450 Y-11.448 Z6.000 F600.000
G3 X35.332 Y-11.694 Z6.000 I1.353 J3.037 K0.000 F600.000
G3 X36.214 Y-11.150 Z6.000 I-0.345 J1.547 K0.000 F600.000
G2 X34.421 Y-11.385 Z6.000 I-1.154 J1.855 K0.000 F600.000
G2 X33.821 Y-11.186 Z6.000 I0.330 J1.993 K0.000 F600.000
G2 X33.568 Y-10.892 Z6.000 I0.326 J0.536 K0.000 F600.000
G0 Z13.000
G0 X31.124 Y-9.739 Z13.000
G0 X31.124 Y-9.739 Z11.000
G1 X31.124 Y-9.739 Z6.000 F600.000
G2 X30.580 Y-8.916 Z6.000 I1.214 J1.393 K0.000 F600.000
G3 X31.012 Y-9.943 Z6.000 I1.821 J0.163 K0.000 F600.000
G1 X31.124 Y-9.739 Z6.000 F600.000
G0 Z13.000
G0 Z13.000
G0 X31.124 Y-9.739
G0 X30.977 Y-12.570
G0 X30.977 Y-12.570 Z11.000
G1 X30.977 Y-12.570 Z6.000 F600.000
G3 X29.739 Y-12.906 Z6.000 I-0.107 J-2.059 K0.000 F600.000
G3 X29.003 Y-14.275 Z6.000 I1.202 J-1.529 K0.000 F600.000
G3 X29.170 Y-15.601 Z6.000 I2.038 J-0.416 K0.000 F600.000
G2 X29.481 Y-14.358 Z6.000 I2.122 J0.131 K0.000 F600.000
G2 X31.098 Y-13.722 Z6.000 I1.332 J-1.015 K0.000 F600.000
G2 X34.329 Y-15.057 Z6.000 I-0.822 J-6.566 K0.000 F600.000
G2 X35.167 Y-16.892 Z6.000 I-1.321 J-1.712 K0.000 F600.000
G2 X34.814 Y-17.979 Z6.000 I-2.141 J0.096 K0.000 F600.000
G2 X34.626 Y-18.188 Z6.000 I-1.133 J0.824 K0.000 F600.000
G3 X35.475 Y-17.191 Z6.000 I-0.589 J1.362 K0.000 F600.000
G3 X35.378 Y-15.050 Z6.000 I-2.444 J0.962 K0.000 F600.000
G3 X33.894 Y-13.588 Z6.000 I-3.332 J-1.898 K0.000 F600.000
G3 X31.249 Y-12.602 Z6.000 I-3.817 J-6.200 K0.000 F600.000
G3 X30.977 Y-12.570 Z6.000 I-0.378 J-2.027 K0.000 F600.000
G0 Z13.000
G0 X30.951 Y-12.838 Z13.000
G0 X30.951 Y-12.838 Z11.000
G1 X30.951 Y-12.838 Z6.000 F600.000
G3 X30.852 Y-12.829 Z6.000 I-0.625 J-6.378 K0.000 F600.000
G3 X29.287 Y-14.107 Z6.000 I-0.095 J-1.481 K0.000 F600.000
G1 X29.264 Y-14.235 Z6.000 F600.000
G2 X31.135 Y-13.475 Z6.000 I1.540 J-1.109 K0.000 F600.000
G2 X34.498 Y-14.873 Z6.000 I-0.853 J-6.796 K0.000 F600.000
G2 X35.391 Y-16.365 Z6.000 I-1.526 J-1.926 K0.000 F600.000
G3 X34.652 Y-14.487 Z6.000 I-2.259 J0.196 K0.000 F600.000
G3 X30.951 Y-12.838 Z6.000 I-4.326 J-4.729 K0.000 F600.000
G0 Z13.000
G0 X30.941 Y-13.068 Z13.000
G0 X30.941 Y-13.068 Z11.000
G1 X30.941 Y-13.068 Z6.000 F600.000
G3 X30.036 Y-13.309 Z6.000 I-0.067 J-1.572 K0.000 F600.000
G1 X29.959 Y-13.375 Z6.000 F600.000
G2 X31.766 Y-13.325 Z6.000 I0.983 J-2.834 K0.000 F600.000
G2 X33.594 Y-13.995 Z6.000 I-1.824 J-7.806 K0.000 F600.000
G3 X31.192 Y-13.099 Z6.000 I-3.508 J-5.743 K0.000 F600.000
G3 X30.941 Y-13.068 Z6.000 I-0.317 J-1.541 K0.000 F600.000
G0 Z13.000
G0 X29.697 Y-16.977 Z13.000
G0 X29.697 Y-16.977 Z11.000
G1 X29.697 Y-16.977 Z6.000 F600.000
G2 X29.114 Y-17.177 Z6.000 I-0.416 J0.263 K0.000 F600.000
G1 X28.573 Y-16.987 Z6.000 F600.000
G1 X28.363 Y-17.977 Z6.000 F600.000
G2 X29.535 Y-18.400 Z6.000 I-3.665 J-11.998 K0.000 F600.000
G1 X37.336 Y-21.671 Z6.000 F600.000
G1 X37.534 Y-20.738 Z6.000 F600.000
G3 X34.457 Y-19.430 Z6.000 I-29.303 J-64.647 K0.000 F600.000
G2 X33.894 Y-19.189 Z6.000 I0.324 J1.537 K0.000 F600.000
G2 X33.769 Y-18.629 Z6.000 I0.312 J0.364 K0.000 F600.000
G2 X32.024 Y-18.401 Z6.000 I-0.455 J3.309 K0.000 F600.000
G2 X29.988 Y-17.286 Z6.000 I1.647 J5.425 K0.000 F600.000
G2 X29.697 Y-16.977 Z6.000 I1.248 J1.466 K0.000 F600.000
G0 Z13.000
G0 X29.679 Y-17.329 Z13.000
G0 X29.679 Y-17.329 Z11.000
G1 X29.679 Y-17.329 Z6.000 F600.000
G2 X29.031 Y-17.413 Z6.000 I-0.404 J0.581 K0.000 F600.000
G1 X28.758 Y-17.317 Z6.000 F600.000
G1 X28.654 Y-17.809 Z6.000 F600.000
G1 X29.632 Y-18.169 Z6.000 F600.000
G1 X37.154 Y-21.323 Z6.000 F600.000
G1 X37.247 Y-20.886 Z6.000 F600.000
G3 X34.369 Y-19.663 Z6.000 I-27.393 J-60.478 K0.000 F600.000
G2 X33.771 Y-19.412 Z6.000 I0.495 J2.011 K0.000 F600.000
G2 X33.493 Y-18.904 Z6.000 I0.359 J0.527 K0.000 F600.000
G2 X31.931 Y-18.633 Z6.000 I-0.183 J3.587 K0.000 F600.000
G2 X29.812 Y-17.464 Z6.000 I1.729 J5.639 K0.000 F600.000
G1 X29.679 Y-17.329 Z6.000 F600.000
G0 Z13.000
G0 X29.628 Y-17.634 Z13.000
G0 X29.628 Y-17.634 Z11.000
G1 X29.628 Y-17.634 Z6.000 F600.000
G2 X28.944 Y-17.647 Z6.000 I-0.359 J0.867 K0.000 F600.000
G1 X28.943 Y-17.649 Z6.000 F600.000
G2 X30.576 Y-18.294 Z6.000 I-6.567 J-19.011 K0.000 F600.000
G2 X29.628 Y-17.634 Z6.000 I2.176 J4.137 K0.000 F600.000
G0 Z13.000
G0 X32.163 Y-18.959 Z13.000
G0 X32.163 Y-18.959 Z11.000
G1 X32.163 Y-18.959 Z6.000 F600.000
G1 X33.553 Y-19.542 Z6.000 F600.000
G2 X33.297 Y-19.163 Z6.000 I0.369 J0.526 K0.000 F600.000
G2 X32.163 Y-18.959 Z6.000 I0.114 J3.892 K0.000 F600.000
G0 Z13.000
G0 Z13.000
G0 X32.163 Y-18.959
G0 X23.777 Y-25.664
G0 X23.777 Y-25.664 Z11.000
G1 X23.777 Y-25.664 Z6.000 F600.000
G1 X22.786 Y-26.085 Z6.000 F600.000
G1 X24.471 Y-34.035 Z6.000 F600.000
G2 X24.178 Y-34.599 Z6.000 I-0.489 J-0.104 K0.000 F600.000
G1 X21.576 Y-35.703 Z6.000 F600.000
G1 X21.708 Y-36.320 Z6.000 F600.000
G1 X28.655 Y-33.371 Z6.000 F600.000
G1 X28.523 Y-32.754 Z6.000 F600.000
G1 X26.106 Y-33.780 Z6.000 F600.000
G2 X25.422 Y-33.424 Z6.000 I-0.195 J0.460 K0.000 F600.000
G1 X23.777 Y-25.664 Z6.000 F600.000
G0 Z13.000
G0 X23.595 Y-26.013 Z13.000
G0 X23.595 Y-26.013 Z11.000
G1 X23.595 Y-26.013 Z6.000 F600.000
G1 X23.073 Y-26.235 Z6.000 F600.000
G1 X24.716 Y-33.983 Z6.000 F600.000
G2 X24.275 Y-34.829 Z6.000 I-0.734 J-0.156 K0.000 F600.000
G1 X21.864 Y-35.852 Z6.000 F600.000
G1 X21.889 Y-35.971 Z6.000 F600.000
G1 X28.368 Y-33.221 Z6.000 F600.000
G1 X28.342 Y-33.103 Z6.000 F600.000
G1 X26.204 Y-34.010 Z6.000 F600.000
G2 X25.177 Y-33.475 Z6.000 I-0.293 J0.690 K0.000 F600.000
G1 X23.595 Y-26.013 Z6.000 F600.000
G0 Z13.000
G0 X23.413 Y-26.362 Z13.000
G0 X23.413 Y-26.362 Z11.000
G1 X23.413 Y-26.362 Z6.000 F600.000
G1 X23.360 Y-26.384 Z6.000 F600.000
G1 X24.961 Y-33.931 Z6.000 F600.000
G2 X24.939 Y-34.405 Z6.000 I-0.857 J-0.199 K0.000 F600.000
G1 X25.439 Y-34.193 Z6.000 F600.000
G2 X24.933 Y-33.527 Z6.000 I0.437 J0.858 K0.000 F600.000
G1 X23.413 Y-26.362 Z6.000 F600.000
G0 Z13.000
G0 Z13.000
G0 X23.413 Y-26.362
G0 X18.308 Y-27.986
G0 X18.308 Y-27.986 Z11.000
G1 X18.308 Y-27.986 Z6.000 F600.000
G1 X17.401 Y-28.371 Z6.000 F600.000
G1 X18.233 Y-32.297 Z6.000 F600.000
G2 X18.132 Y-33.915 Z6.000 I-2.748 J-0.641 K0.000 F600.000
G2 X18.721 Y-34.301 Z6.000 I0.111 J-0.474 K0.000 F600.000
G3 X19.454 Y-37.869 Z6.000 I97.014 J18.050 K0.000 F600.000
G1 X20.346 Y-37.491 Z6.000 F600.000
G1 X18.308 Y-27.986 Z6.000 F600.000
G0 Z13.000
G0 X18.127 Y-28.334 Z13.000
G0 X18.127 Y-28.334 Z11.000
G1 X18.127 Y-28.334 Z6.000 F600.000
G1 X17.688 Y-28.520 Z6.000 F600.000
G1 X18.481 Y-32.266 Z6.000 F600.000
G2 X18.462 Y-33.690 Z6.000 I-3.150 J-0.672 K0.000 F600.000
G2 X18.967 Y-34.253 Z6.000 I-0.207 J-0.693 K0.000 F600.000
G3 X19.635 Y-37.521 Z6.000 I88.822 J16.470 K0.000 F600.000
G1 X20.058 Y-37.341 Z6.000 F600.000
G1 X18.127 Y-28.334 Z6.000 F600.000
G0 Z13.000
G0 X18.759 Y-32.474 Z13.000
G0 X18.759 Y-32.474 Z11.000
G1 X18.759 Y-32.474 Z6.000 F600.000
G2 X18.748 Y-33.551 Z6.000 I-3.000 J-0.508 K0.000 F600.000
G2 X19.048 Y-33.821 Z6.000 I-0.332 J-0.670 K0.000 F600.000
G1 X18.759 Y-32.474 Z6.000 F600.000
G0 Z13.000
G0 X17.480 Y-35.021 Z13.000
G0 X17.480 Y-35.021 Z11.000
G1 X17.480 Y-35.021 Z6.000 F600.000
G2 X15.913 Y-35.665 Z6.000 I-1.564 J1.577 K0.000 F600.000
G2 X14.767 Y-34.766 Z6.000 I0.111 J1.320 K0.000 F600.000
G2 X14.464 Y-33.558 Z6.000 I8.364 J2.742 K0.000 F600.000
G1 X13.709 Y-29.938 Z6.000 F600.000
G1 X12.825 Y-30.313 Z6.000 F600.000
G1 X13.719 Y-34.524 Z6.000 F600.000
G3 X14.099 Y-35.757 Z6.000 I3.843 J0.507 K0.000 F600.000
G3 X14.796 Y-36.454 Z6.000 I1.251 J0.555 K0.000 F600.000
G3 X15.668 Y-36.472 Z6.000 I0.468 J1.478 K0.000 F600.000
G3 X17.480 Y-35.021 Z6.000 I-0.488 J2.466 K0.000 F600.000
G0 Z13.000
G0 X16.455 Y-35.858 Z13.000
G0 X16.455 Y-35.858 Z11.000
G1 X16.455 Y-35.858 Z6.000 F600.000
G2 X14.530 Y-34.845 Z6.000 I-0.439 J1.501 K0.000 F600.000
G2 X14.219 Y-33.608 Z6.000 I8.594 J2.819 K0.000 F600.000
G1 X13.527 Y-30.287 Z6.000 F600.000
G1 X13.112 Y-30.463 Z6.000 F600.000
G1 X13.963 Y-34.469 Z6.000 F600.000
G3 X14.319 Y-35.638 Z6.000 I3.629 J0.465 K0.000 F600.000
G3 X14.874 Y-36.215 Z6.000 I1.057 J0.461 K0.000 F600.000
G3 X15.605 Y-36.229 Z6.000 I0.390 J1.243 K0.000 F600.000
G3 X16.455 Y-35.858 Z6.000 I-0.549 J2.413 K0.000 F600.000
G0 Z13.000
G0 X15.311 Y-36.019 Z13.000
G0 X15.311 Y-36.019 Z11.000
G1 X15.311 Y-36.019 Z6.000 F600.000
G2 X14.404 Y-35.157 Z6.000 I0.634 J1.576 K0.000 F600.000
G3 X14.958 Y-35.978 Z6.000 I1.193 J0.209 K0.000 F600.000
G3 X15.311 Y-36.019 Z6.000 I0.262 J0.706 K0.000 F600.000
G0 Z13.000
G0 Z13.000
G0 X15.311 Y-36.019
G0 X11.908 Y-36.742
G0 X11.908 Y-36.742 Z11.000
G1 X11.908 Y-36.742 Z6.000 F600.000
G1 X11.254 Y-33.664 Z6.000 F600.000
G3 X10.875 Y-32.431 Z6.000 I-3.841 J-0.506 K0.000 F600.000
G3 X10.178 Y-31.735 Z6.000 I-1.251 J-0.555 K0.000 F600.000
G3 X9.305 Y-31.717 Z6.000 I-0.468 J-1.478 K0.000 F600.000
G3 X7.475 Y-33.190 Z6.000 I0.491 J-2.484 K0.000 F600.000
G2 X9.194 Y-32.542 Z6.000 I1.539 J-1.480 K0.000 F600.000
G2 X10.206 Y-33.422 Z6.000 I-0.243 J-1.302 K0.000 F600.000
G2 X10.510 Y-34.631 Z6.000 I-8.104 J-2.678 K0.000 F600.000
G1 X11.265 Y-38.251 Z6.000 F600.000
G1 X12.149 Y-37.876 Z6.000 F600.000
G1 X11.908 Y-36.742 Z6.000 F600.000
G0 Z13.000
G0 X11.664 Y-36.794 Z13.000
G0 X11.664 Y-36.794 Z11.000
G1 X11.664 Y-36.794 Z6.000 F600.000
G1 X11.010 Y-33.719 Z6.000 F600.000
G3 X10.655 Y-32.551 Z6.000 I-3.626 J-0.464 K0.000 F600.000
G3 X10.099 Y-31.974 Z6.000 I-1.057 J-0.461 K0.000 F600.000
G3 X9.369 Y-31.959 Z6.000 I-0.390 J-1.243 K0.000 F600.000
G3 X8.516 Y-32.332 Z6.000 I0.556 J-2.434 K0.000 F600.000
G2 X10.443 Y-33.342 Z6.000 I0.441 J-1.501 K0.000 F600.000
G2 X10.755 Y-34.581 Z6.000 I-8.333 J-2.756 K0.000 F600.000
G1 X11.447 Y-37.902 Z6.000 F600.000
G1 X11.861 Y-37.726 Z6.000 F600.000
G1 X11.664 Y-36.794 Z6.000 F600.000
G0 Z13.000
G0 X10.571 Y-33.033 Z13.000
G0 X10.571 Y-33.033 Z11.000
G1 X10.571 Y-33.033 Z6.000 F600.000
G3 X10.015 Y-32.211 Z6.000 I-1.195 J-0.209 K0.000 F600.000
G3 X9.663 Y-32.169 Z6.000 I-0.262 J-0.706 K0.000 F600.000
G2 X10.571 Y-33.033 Z6.000 I-0.634 J-1.577 K0.000 F600.000
G0 Z13.000
G0 X6.839 Y-34.274 Z13.000
G0 X6.839 Y-34.274 Z11.000
G1 X6.839 Y-34.274 Z6.000 F600.000
G2 X6.258 Y-33.912 Z6.000 I-0.113 J0.466 K0.000 F600.000
G3 X6.063 Y-33.183 Z6.000 I-17.112 J-4.184 K0.000 F600.000
G1 X5.220 Y-33.541 Z6.000 F600.000
G2 X5.517 Y-34.773 Z6.000 I-21.905 J-5.922 K0.000 F600.000
G1 X6.667 Y-40.202 Z6.000 F600.000
G1 X7.573 Y-39.818 Z6.000 F600.000
G1 X6.744 Y-35.910 Z6.000 F600.000
G2 X6.839 Y-34.274 Z6.000 I2.716 J0.664 K0.000 F600.000
G0 Z13.000
G0 X6.508 Y-34.497 Z13.000
G0 X6.508 Y-34.497 Z11.000
G1 X6.508 Y-34.497 Z6.000 F600.000
G2 X5.969 Y-33.781 Z6.000 I0.293 J0.782 K0.000 F600.000
G1 X5.898 Y-33.525 Z6.000 F600.000
G1 X5.516 Y-33.687 Z6.000 F600.000
G2 X5.761 Y-34.721 Z6.000 I-19.614 J-5.207 K0.000 F600.000
G1 X6.849 Y-39.854 Z6.000 F600.000
G1 X7.285 Y-39.668 Z6.000 F600.000
G1 X6.497 Y-35.951 Z6.000 F600.000
G2 X6.508 Y-34.497 Z6.000 I3.272 J0.702 K0.000 F600.000
G0 Z13.000
G0 X6.224 Y-34.637 Z13.000
G0 X6.224 Y-34.637 Z11.000
G1 X6.224 Y-34.637 Z6.000 F600.000
G2 X5.944 Y-34.388 Z6.000 I0.305 J0.624 K0.000 F600.000
G2 X6.186 Y-35.519 Z6.000 I-87.843 J-19.347 K0.000 F600.000
G2 X6.224 Y-34.637 Z6.000 I3.481 J0.292 K0.000 F600.000
G0 Z13.000
G0 Z13.000
G0 X6.224 Y-34.637
G0 X-6.616 Y-33.788
G0 X-6.616 Y-33.788 Z11.000
G1 X-6.616 Y-33.788 Z6.000 F600.000
G1 X-7.568 Y-33.301 Z6.000 F600.000
G1 X-9.617 Y-35.903 Z6.000 F600.000
G2 X-10.238 Y-36.039 Z6.000 I-0.393 J0.309 K0.000 F600.000
G1 X-14.094 Y-34.066 Z6.000 F600.000
G1 X-14.482 Y-34.562 Z6.000 F600.000
G1 X-10.798 Y-36.448 Z6.000 F600.000
G2 X-10.632 Y-37.201 Z6.000 I-0.228 J-0.445 K0.000 F600.000
G1 X-12.585 Y-39.693 Z6.000 F600.000
G2 X-13.207 Y-39.830 Z6.000 I-0.394 J0.308 K0.000 F600.000
G1 X-17.208 Y-37.782 Z6.000 F600.000
G1 X-17.597 Y-38.279 Z6.000 F600.000
G1 X-12.269 Y-41.005 Z6.000 F600.000
G1 X-6.616 Y-33.788 Z6.000 F600.000
G0 Z13.000
G0 X-6.999 Y-33.873 Z13.000
G0 X-6.999 Y-33.873 Z11.000
G1 X-6.999 Y-33.873 Z6.000 F600.000
G1 X-7.499 Y-33.617 Z6.000 F600.000
G1 X-9.421 Y-36.058 Z6.000 F600.000
G2 X-10.351 Y-36.261 Z6.000 I-0.589 J0.464 K0.000 F600.000
G1 X-14.024 Y-34.382 Z6.000 F600.000
G1 X-14.099 Y-34.478 Z6.000 F600.000
G1 X-10.684 Y-36.225 Z6.000 F600.000
G2 X-10.435 Y-37.356 Z6.000 I-0.342 J-0.668 K0.000 F600.000
G1 X-12.389 Y-39.847 Z6.000 F600.000
G2 X-13.321 Y-40.052 Z6.000 I-0.590 J0.463 K0.000 F600.000
G1 X-17.138 Y-38.099 Z6.000 F600.000
G1 X-17.213 Y-38.194 Z6.000 F600.000
G1 X-12.339 Y-40.689 Z6.000 F600.000
G1 X-6.999 Y-33.873 Z6.000 F600.000
G0 Z13.000
G0 X-7.383 Y-33.957 Z13.000
G0 X-7.383 Y-33.957 Z11.000
G1 X-7.383 Y-33.957 Z6.000 F600.000
G1 X-7.430 Y-33.933 Z6.000 F600.000
G1 X-9.224 Y-36.212 Z6.000 F600.000
G2 X-10.080 Y-36.582 Z6.000 I-0.760 J0.583 K0.000 F600.000
G2 X-10.239 Y-37.510 Z6.000 I-0.917 J-0.321 K0.000 F600.000
G1 X-12.192 Y-40.002 Z6.000 F600.000
G2 X-12.570 Y-40.290 Z6.000 I-0.703 J0.530 K0.000 F600.000
G1 X-12.408 Y-40.372 Z6.000 F600.000
G1 X-7.383 Y-33.957 Z6.000 F600.000
G0 Z13.000
G0 Z13.000
G0 X-7.383 Y-33.957
G0 X-14.017 Y-30.001
G0 X-14.017 Y-30.001 Z11.000
G1 X-14.017 Y-30.001 Z6.000 F600.000
G1 X-14.888 Y-29.555 Z6.000 F600.000
G2 X-17.233 Y-32.510 Z6.000 I-50.439 J37.632 K0.000 F600.000
G2 X-18.460 Y-33.502 Z6.000 I-2.935 J2.374 K0.000 F600.000
G2 X-18.417 Y-34.138 Z6.000 I-0.345 J-0.343 K0.000 F600.000
G3 X-19.001 Y-34.973 Z6.000 I11.908 J-8.952 K0.000 F600.000
G1 X-18.194 Y-35.386 Z6.000 F600.000
G2 X-17.351 Y-34.259 Z6.000 I18.837 J-13.222 K0.000 F600.000
G1 X-14.017 Y-30.001 Z6.000 F600.000
G0 Z13.000
G0 X-14.400 Y-30.085 Z13.000
G0 X-14.400 Y-30.085 Z11.000
G1 X-14.400 Y-30.085 Z6.000 F600.000
G1 X-14.819 Y-29.871 Z6.000 F600.000
G2 X-17.056 Y-32.686 Z6.000 I-45.354 J33.753 K0.000 F600.000
G2 X-18.120 Y-33.601 Z6.000 I-3.130 J2.564 K0.000 F600.000
G2 X-18.216 Y-34.286 Z6.000 I-0.665 J-0.257 K0.000 F600.000
G3 X-18.635 Y-34.880 Z6.000 I8.464 J-6.423 K0.000 F600.000
G1 X-18.272 Y-35.065 Z6.000 F600.000
G2 X-14.400 Y-30.085 Z6.000 I138.661 J-103.804 K0.000 F600.000
G0 Z13.000
G0 X-16.940 Y-32.923 Z13.000
G0 X-16.940 Y-32.923 Z11.000
G1 X-16.940 Y-32.923 Z6.000 F600.000
G2 X-17.838 Y-33.717 Z6.000 I-2.728 J2.180 K0.000 F600.000
G2 X-17.854 Y-34.094 Z6.000 I-0.681 J-0.159 K0.000 F600.000
G2 X-16.940 Y-32.923 Z6.000 I54.093 J-41.297 K0.000 F600.000
G0 Z13.000
G0 X-19.725 Y-33.778 Z13.000
G0 X-19.725 Y-33.778 Z11.000
G1 X-19.725 Y-33.778 Z6.000 F600.000
G2 X-21.028 Y-33.291 Z6.000 I0.189 J2.492 K0.000 F600.000
G1 X-21.457 Y-33.837 Z6.000 F600.000
G3 X-20.158 Y-33.975 Z6.000 I0.779 J1.146 K0.000 F600.000
G3 X-19.725 Y-33.778 Z6.000 I-0.718 J2.148 K0.000 F600.000
G0 Z13.000
G0 X-20.592 Y-33.813 Z13.000
G0 X-20.592 Y-33.813 Z11.000
G1 X-20.592 Y-33.813 Z6.000 F600.000
G2 X-20.970 Y-33.622 Z6.000 I0.485 J1.425 K0.000 F600.000
G1 X-21.071 Y-33.750 Z6.000 F600.000
G3 X-20.592 Y-33.813 Z6.000 I0.343 J0.764 K0.000 F600.000
G0 Z13.000
G0 Z13.000
G0 X-20.592 Y-33.813
G0 X-22.316 Y-32.463
G0 X-22.316 Y-32.463 Z11.000
G1 X-22.316 Y-32.463 Z6.000 F600.000
G1 X-18.565 Y-27.673 Z6.000 F600.000
G1 X-19.429 Y-27.231 Z6.000 F600.000
G1 X-23.640 Y-32.599 Z6.000 F600.000
G1 X-22.771 Y-33.044 Z6.000 F600.000
G1 X-22.316 Y-32.463 Z6.000 F600.000
G0 Z13.000
G0 X-22.513 Y-32.309 Z13.000
G0 X-22.513 Y-32.309 Z11.000
G1 X-22.513 Y-32.309 Z6.000 F600.000
G1 X-18.949 Y-27.758 Z6.000 F600.000
G1 X-19.359 Y-27.548 Z6.000 F600.000
G1 X-23.256 Y-32.515 Z6.000 F600.000
G1 X-22.841 Y-32.727 Z6.000 F600.000
G1 X-22.513 Y-32.309 Z6.000 F600.000
G0 Z13.000
G0 Z13.000
G0 X-22.513 Y-32.309
G0 X-24.263 Y-34.952
G0 X-24.263 Y-34.952 Z11.000
G1 X-24.263 Y-34.952 Z6.000 F600.000
G1 X-25.132 Y-34.507 Z6.000 F600.000
G1 X-25.429 Y-34.883 Z6.000 F600.000
G1 X-24.560 Y-35.328 Z6.000 F600.000
G1 X-24.263 Y-34.952 Z6.000 F600.000
G0 Z13.000
G0 Z13.000
(Finish operation: Pocket_Shape007)
(Begin operation: Pocket_Shape008)
(Path: Pocket_Shape008)
(Pocket_Shape008)
G0 Z13.000
G0 X-30.193 Y-42.084
G0 Z11.000
G1 X-30.193 Y-42.084 Z6.000 F600.000
G3 X-31.094 Y-41.531 Z6.000 I-2.535 J-3.122 K0.000 F600.000
G3 X-32.958 Y-40.928 Z6.000 I-2.370 J-4.139 K0.000 F600.000
G3 X-34.549 Y-41.433 Z6.000 I-0.268 J-1.916 K0.000 F600.000
G3 X-35.102 Y-42.418 Z6.000 I1.305 J-1.380 K0.000 F600.000
G3 X-34.752 Y-43.277 Z6.000 I1.191 J-0.014 K0.000 F600.000
G3 X-33.241 Y-44.527 Z6.000 I10.921 J11.657 K0.000 F600.000
G2 X-32.927 Y-45.537 Z6.000 I-0.504 J-0.710 K0.000 F600.000
G2 X-33.782 Y-45.985 Z6.000 I-0.720 J0.334 K0.000 F600.000
G2 X-34.292 Y-45.727 Z6.000 I0.061 J0.752 K0.000 F600.000
G3 X-36.540 Y-45.128 Z6.000 I-1.771 J-2.128 K0.000 F600.000
G3 X-38.008 Y-46.590 Z6.000 I0.585 J-2.055 K0.000 F600.000
G2 X-38.577 Y-46.900 Z6.000 I-0.467 J0.179 K0.000 F600.000
G1 X-39.304 Y-46.749 Z6.000 F600.000
G1 X-39.565 Y-47.049 Z6.000 F600.000
G1 X-37.897 Y-48.010 Z6.000 F600.000
G3 X-36.224 Y-49.014 Z6.000 I3.383 J3.740 K0.000 F600.000
G3 X-34.833 Y-49.093 Z6.000 I0.822 J2.220 K0.000 F600.000
G3 X-33.408 Y-47.182 Z6.000 I-0.613 J1.944 K0.000 F600.000
G3 X-33.537 Y-46.631 Z6.000 I-1.805 J-0.133 K0.000 F600.000
G2 X-33.033 Y-45.975 Z6.000 I0.475 J0.157 K0.000 F600.000
G3 X-31.841 Y-45.780 Z6.000 I0.341 J1.658 K0.000 F600.000
G3 X-31.770 Y-45.073 Z6.000 I-0.381 J0.396 K0.000 F600.000
G2 X-31.218 Y-44.391 Z6.000 I0.462 J0.190 K0.000 F600.000
G3 X-29.794 Y-44.358 Z6.000 I0.662 J2.177 K0.000 F600.000
G3 X-29.404 Y-42.943 Z6.000 I-0.412 J0.875 K0.000 F600.000
G3 X-30.193 Y-42.084 Z6.000 I-3.324 J-2.264 K0.000 F600.000
G0 Z13.000
G0 X-30.351 Y-42.278 Z13.000
G0 X-30.351 Y-42.278 Z11.000
G1 X-30.351 Y-42.278 Z6.000 F600.000
G3 X-31.208 Y-41.754 Z6.000 I-2.386 J-2.939 K0.000 F600.000
G3 X-32.976 Y-41.178 Z6.000 I-2.254 J-3.914 K0.000 F600.000
G3 X-34.378 Y-41.616 Z6.000 I-0.247 J-1.670 K0.000 F600.000
G3 X-34.853 Y-42.447 Z6.000 I1.144 J-1.204 K0.000 F600.000
G3 X-34.570 Y-43.104 Z6.000 I0.949 J0.018 K0.000 F600.000
G3 X-33.325 Y-44.125 Z6.000 I7.190 J7.499 K0.000 F600.000
G2 X-32.625 Y-45.153 Z6.000 I-0.802 J-1.299 K0.000 F600.000
G2 X-32.755 Y-45.741 Z6.000 I-0.862 J-0.117 K0.000 F600.000
G3 X-32.397 Y-45.729 Z6.000 I0.108 J2.157 K0.000 F600.000
G3 X-31.938 Y-45.500 Z6.000 I0.032 J0.510 K0.000 F600.000
G3 X-32.001 Y-45.168 Z6.000 I-0.443 J0.088 K0.000 F600.000
G2 X-31.922 Y-44.462 Z6.000 I0.666 J0.283 K0.000 F600.000
G2 X-32.538 Y-44.236 Z6.000 I0.353 J1.918 K0.000 F600.000
G2 X-33.611 Y-43.411 Z6.000 I3.071 J5.108 K0.000 F600.000
G2 X-32.770 Y-41.329 Z6.000 I0.795 J0.890 K0.000 F600.000
G2 X-31.798 Y-41.537 Z6.000 I-0.010 J-2.417 K0.000 F600.000
G2 X-30.761 Y-42.107 Z6.000 I-1.735 J-4.385 K0.000 F600.000
G2 X-30.058 Y-43.352 Z6.000 I-0.732 J-1.235 K0.000 F600.000
G2 X-30.531 Y-44.225 Z6.000 I-1.209 J0.092 K0.000 F600.000
G3 X-29.528 Y-43.714 Z6.000 I0.193 J0.861 K0.000 F600.000
G3 X-29.625 Y-43.062 Z6.000 I-0.688 J0.232 K0.000 F600.000
G3 X-30.351 Y-42.278 Z6.000 I-3.112 J-2.155 K0.000 F600.000
G0 Z13.000
G0 X-30.634 Y-42.539 Z13.000
G0 X-30.634 Y-42.539 Z11.000
G1 X-30.634 Y-42.539 Z6.000 F600.000
G3 X-30.925 Y-42.296 Z6.000 I-1.059 J-0.974 K0.000 F600.000
G3 X-31.907 Y-41.762 Z6.000 I-2.666 J-3.736 K0.000 F600.000
G3 X-32.744 Y-41.577 Z6.000 I-0.875 J-1.976 K0.000 F600.000
G3 X-33.425 Y-43.245 Z6.000 I-0.070 J-0.944 K0.000 F600.000
G3 X-32.392 Y-44.033 Z6.000 I6.848 J7.903 K0.000 F600.000
G3 X-31.352 Y-44.274 Z6.000 I0.987 J1.896 K0.000 F600.000
G3 X-30.401 Y-42.878 Z6.000 I0.038 J0.996 K0.000 F600.000
G3 X-30.634 Y-42.539 Z6.000 I-1.291 J-0.635 K0.000 F600.000
G0 Z13.000
G0 X-29.815 Y-43.250 Z13.000
G0 X-29.815 Y-43.250 Z11.000
G1 X-29.815 Y-43.250 Z6.000 F600.000
G2 X-29.931 Y-43.854 Z6.000 I-1.315 J-0.060 K0.000 F600.000
G3 X-29.815 Y-43.250 Z6.000 I-0.255 J0.362 K0.000 F600.000
G0 Z13.000
G0 X-32.263 Y-44.622 Z13.000
G0 X-32.263 Y-44.622 Z11.000
G1 X-32.263 Y-44.622 Z6.000 F600.000
G2 X-32.649 Y-44.456 Z6.000 I0.293 J1.213 K0.000 F600.000
G2 X-32.390 Y-45.472 Z6.000 I-0.993 J-0.794 K0.000 F600.000
G3 X-32.179 Y-45.402 Z6.000 I0.039 J0.235 K0.000 F600.000
G2 X-32.263 Y-44.622 Z6.000 I0.902 J0.492 K0.000 F600.000
G0 Z13.000
G0 X-33.771 Y-46.235 Z13.000
G0 X-33.771 Y-46.235 Z11.000
G1 X-33.771 Y-46.235 Z6.000 F600.000
G2 X-34.444 Y-45.927 Z6.000 I0.042 J0.979 K0.000 F600.000
G1 X-34.631 Y-45.804 Z6.000 F600.000
G2 X-34.375 Y-47.364 Z6.000 I-0.722 J-0.920 K0.000 F600.000
G2 X-35.805 Y-48.671 Z6.000 I-2.348 J1.135 K0.000 F600.000
G2 X-36.334 Y-48.703 Z6.000 I-0.324 J0.950 K0.000 F600.000
G3 X-34.893 Y-48.849 Z6.000 I0.936 J2.046 K0.000 F600.000
G3 X-33.658 Y-47.206 Z6.000 I-0.559 J1.707 K0.000 F600.000
G3 X-33.775 Y-46.710 Z6.000 I-1.626 J-0.122 K0.000 F600.000
G2 X-33.771 Y-46.235 Z6.000 I0.468 J0.235 K0.000 F600.000
G0 Z13.000
G0 X-33.962 Y-46.939 Z13.000
G0 X-33.962 Y-46.939 Z11.000
G1 X-33.962 Y-46.939 Z6.000 F600.000
G2 X-35.200 Y-48.649 Z6.000 I-2.876 J0.778 K0.000 F600.000
G3 X-33.907 Y-47.230 Z6.000 I-0.212 J1.493 K0.000 F600.000
G3 X-33.962 Y-46.939 Z6.000 I-0.948 J-0.029 K0.000 F600.000
G0 Z13.000
G0 X-34.457 Y-46.857 Z13.000
G0 X-34.457 Y-46.857 Z11.000
G1 X-34.457 Y-46.857 Z6.000 F600.000
G3 X-35.670 Y-45.854 Z6.000 I-0.899 J0.148 K0.000 F600.000
G3 X-37.043 Y-47.287 Z6.000 I0.911 J-2.247 K0.000 F600.000
G3 X-36.593 Y-48.381 Z6.000 I0.780 J-0.319 K0.000 F600.000
G3 X-35.887 Y-48.434 Z6.000 I0.426 J0.929 K0.000 F600.000
G3 X-34.493 Y-47.003 Z6.000 I-0.809 J2.183 K0.000 F600.000
G3 X-34.457 Y-46.857 Z6.000 I-0.862 J0.294 K0.000 F600.000
G0 Z13.000
G0 X-34.747 Y-45.728 Z13.000
G0 X-34.747 Y-45.728 Z11.000
G1 X-34.747 Y-45.728 Z6.000 F600.000
G3 X-36.825 Y-45.497 Z6.000 I-1.249 J-1.777 K0.000 F600.000
G3 X-37.774 Y-46.679 Z6.000 I0.996 J-1.772 K0.000 F600.000
G2 X-38.628 Y-47.145 Z6.000 I-0.700 J0.268 K0.000 F600.000
G1 X-39.055 Y-47.056 Z6.000 F600.000
G1 X-37.741 Y-47.815 Z6.000 F600.000
G3 X-37.132 Y-48.272 Z6.000 I2.597 J2.827 K0.000 F600.000
G2 X-37.154 Y-46.915 Z6.000 I1.010 J0.695 K0.000 F600.000
G2 X-35.854 Y-45.653 Z6.000 I2.444 J-1.216 K0.000 F600.000
G2 X-34.747 Y-45.728 Z6.000 I0.478 J-1.165 K0.000 F600.000
G0 Z13.000
G0 X-36.282 Y-45.593 Z13.000
G0 X-36.282 Y-45.593 Z11.000
G1 X-36.282 Y-45.593 Z6.000 F600.000
G3 X-37.438 Y-46.501 Z6.000 I0.237 J-1.491 K0.000 F600.000
G2 X-38.076 Y-47.324 Z6.000 I-1.124 J0.211 K0.000 F600.000
G2 X-37.589 Y-47.616 Z6.000 I-1.635 J-3.276 K0.000 F600.000
G2 X-37.282 Y-46.636 Z6.000 I1.819 J-0.032 K0.000 F600.000
G2 X-36.282 Y-45.593 Z6.000 I2.652 J-1.541 K0.000 F600.000
G0 Z13.000
G0 X-34.081 Y-43.217 Z13.000
G0 X-34.081 Y-43.217 Z11.000
G1 X-34.081 Y-43.217 Z6.000 F600.000
G1 X-34.053 Y-43.243 Z6.000 F600.000
G2 X-33.900 Y-41.580 Z6.000 I1.141 J0.734 K0.000 F600.000
G3 X-34.603 Y-42.556 Z6.000 I0.632 J-1.197 K0.000 F600.000
G3 X-34.389 Y-42.931 Z6.000 I0.808 J0.213 K0.000 F600.000
G1 X-34.081 Y-43.217 Z6.000 F600.000
G0 Z13.000
G0 Z13.000
G0 X-34.081 Y-43.217
G0 X-29.487 Y-47.311
G0 X-29.487 Y-47.311 Z11.000
G1 X-29.487 Y-47.311 Z6.000 F600.000
G1 X-32.737 Y-50.958 Z6.000 F600.000
G1 X-31.557 Y-51.634 Z6.000 F600.000
G1 X-29.507 Y-49.333 Z6.000 F600.000
G2 X-28.187 Y-48.273 Z6.000 I3.108 J-2.519 K0.000 F600.000
G2 X-27.104 Y-48.208 Z6.000 I0.610 J-1.096 K0.000 F600.000
G2 X-26.709 Y-49.658 Z6.000 I-0.390 J-0.885 K0.000 F600.000
G2 X-27.279 Y-50.400 Z6.000 I-4.106 J2.562 K0.000 F600.000
G1 X-29.447 Y-52.842 Z6.000 F600.000
G1 X-28.266 Y-53.518 Z6.000 F600.000
G1 X-26.021 Y-50.997 Z6.000 F600.000
G3 X-25.072 Y-49.562 Z6.000 I-3.092 J3.074 K0.000 F600.000
G3 X-24.998 Y-48.777 Z6.000 I-1.224 J0.511 K0.000 F600.000
G3 X-25.677 Y-47.975 Z6.000 I-1.232 J-0.354 K0.000 F600.000
G3 X-27.415 Y-47.992 Z6.000 I-0.857 J-1.254 K0.000 F600.000
G2 X-28.170 Y-47.453 Z6.000 I-0.215 J0.497 K0.000 F600.000
G2 X-27.841 Y-46.876 Z6.000 I1.356 J-0.392 K0.000 F600.000
G1 X-28.674 Y-46.399 Z6.000 F600.000
G1 X-29.487 Y-47.311 Z6.000 F600.000
G0 Z13.000
G0 X-29.114 Y-47.644 Z13.000
G0 X-29.114 Y-47.644 Z11.000
G1 X-29.114 Y-47.644 Z6.000 F600.000
G1 X-31.954 Y-50.830 Z6.000 F600.000
G1 X-31.660 Y-50.998 Z6.000 F600.000
G1 X-29.866 Y-48.985 Z6.000 F600.000
G2 X-28.583 Y-47.914 Z6.000 I3.504 J-2.895 K0.000 F600.000
G2 X-28.547 Y-47.048 Z6.000 I0.826 J0.399 K0.000 F600.000
G1 X-28.571 Y-47.035 Z6.000 F600.000
G1 X-29.114 Y-47.644 Z6.000 F600.000
G0 Z13.000
G0 X-28.927 Y-47.810 Z13.000
G0 X-28.927 Y-47.810 Z11.000
G1 X-28.927 Y-47.810 Z6.000 F600.000
G1 X-28.953 Y-47.840 Z6.000 F600.000
G3 X-28.890 Y-47.768 Z6.000 I0.019 J0.048 K0.000 F600.000
G1 X-28.927 Y-47.810 Z6.000 F600.000
G0 Z13.000
G0 X-29.300 Y-47.477 Z13.000
G0 X-29.300 Y-47.477 Z11.000
G1 X-29.300 Y-47.477 Z6.000 F600.000
G1 X-32.345 Y-50.894 Z6.000 F600.000
G1 X-31.608 Y-51.316 Z6.000 F600.000
G1 X-29.686 Y-49.159 Z6.000 F600.000
G2 X-28.269 Y-48.037 Z6.000 I3.029 J-2.371 K0.000 F600.000
G1 X-28.227 Y-48.023 Z6.000 F600.000
G2 X-28.201 Y-46.958 Z6.000 I0.577 J0.518 K0.000 F600.000
G1 X-28.623 Y-46.717 Z6.000 F600.000
G1 X-29.300 Y-47.477 Z6.000 F600.000
G0 Z13.000
G0 X-26.917 Y-48.031 Z13.000
G0 X-26.917 Y-48.031 Z11.000
G1 X-26.917 Y-48.031 Z6.000 F600.000
G2 X-26.504 Y-49.800 Z6.000 I-0.565 J-1.065 K0.000 F600.000
G2 X-27.092 Y-50.566 Z6.000 I-4.323 J2.712 K0.000 F600.000
G1 X-29.056 Y-52.778 Z6.000 F600.000
G1 X-28.318 Y-53.200 Z6.000 F600.000
G1 X-26.212 Y-50.836 Z6.000 F600.000
G3 X-25.312 Y-49.487 Z6.000 I-2.917 J2.921 K0.000 F600.000
G3 X-25.239 Y-48.847 Z6.000 I-1.012 J0.438 K0.000 F600.000
G3 X-25.806 Y-48.190 Z6.000 I-0.997 J-0.287 K0.000 F600.000
G3 X-26.917 Y-48.031 Z6.000 I-0.707 J-0.977 K0.000 F600.000
G0 Z13.000
G0 X-26.314 Y-48.244 Z13.000
G0 X-26.314 Y-48.244 Z11.000
G1 X-26.314 Y-48.244 Z6.000 F600.000
G2 X-26.298 Y-49.943 Z6.000 I-1.163 J-0.860 K0.000 F600.000
G2 X-26.905 Y-50.732 Z6.000 I-4.540 J2.862 K0.000 F600.000
G1 X-28.665 Y-52.714 Z6.000 F600.000
G1 X-28.370 Y-52.883 Z6.000 F600.000
G1 X-26.402 Y-50.674 Z6.000 F600.000
G3 X-25.551 Y-49.411 Z6.000 I-2.747 J2.772 K0.000 F600.000
G3 X-25.543 Y-48.747 Z6.000 I-0.671 J0.340 K0.000 F600.000
G3 X-26.314 Y-48.244 Z6.000 I-1.153 J-0.923 K0.000 F600.000
G0 Z13.000
G0 X-25.800 Y-48.816 Z13.000
G0 X-25.800 Y-48.816 Z11.000
G1 X-25.800 Y-48.816 Z6.000 F600.000
G2 X-25.831 Y-49.436 Z6.000 I-1.343 J-0.243 K0.000 F600.000
G3 X-25.727 Y-48.969 Z6.000 I-0.687 J0.398 K0.000 F600.000
G3 X-25.800 Y-48.816 Z6.000 I-0.254 J-0.027 K0.000 F600.000
G0 Z13.000
G0 Z13.000
G0 X-25.800 Y-48.816
G0 X-22.593 Y-50.310
G0 X-22.593 Y-50.310 Z11.000
G1 X-22.593 Y-50.310 Z6.000 F600.000
G1 X-25.827 Y-57.249 Z6.000 F600.000
G1 X-23.805 Y-58.407 Z6.000 F600.000
G1 X-16.296 Y-53.487 Z6.000 F600.000
G1 X-17.479 Y-52.810 Z6.000 F600.000
G1 X-18.724 Y-53.704 Z6.000 F600.000
G2 X-19.264 Y-53.732 Z6.000 I-0.292 J0.406 K0.000 F600.000
G1 X-21.657 Y-52.362 Z6.000 F600.000
G2 X-21.851 Y-51.695 Z6.000 I0.248 J0.434 K0.000 F600.000
G1 X-21.290 Y-50.628 Z6.000 F600.000
G1 X-22.435 Y-49.972 Z6.000 F600.000
G1 X-22.593 Y-50.310 Z6.000 F600.000
G0 Z13.000
G0 X-22.367 Y-50.416 Z13.000
G0 X-22.367 Y-50.416 Z11.000
G1 X-22.367 Y-50.416 Z6.000 F600.000
G1 X-25.503 Y-57.146 Z6.000 F600.000
G1 X-23.814 Y-58.114 Z6.000 F600.000
G1 X-16.775 Y-53.502 Z6.000 F600.000
G1 X-17.463 Y-53.107 Z6.000 F600.000
G1 X-18.578 Y-53.907 Z6.000 F600.000
G2 X-19.388 Y-53.949 Z6.000 I-0.437 J0.609 K0.000 F600.000
G1 X-21.781 Y-52.579 Z6.000 F600.000
G2 X-22.072 Y-51.579 Z6.000 I0.373 J0.651 K0.000 F600.000
G1 X-21.624 Y-50.725 Z6.000 F600.000
G1 X-22.324 Y-50.324 Z6.000 F600.000
G1 X-22.367 Y-50.416 Z6.000 F600.000
G0 Z13.000
G0 X-22.212 Y-50.676 Z13.000
G0 X-22.212 Y-50.676 Z11.000
G1 X-22.212 Y-50.676 Z6.000 F600.000
G1 X-24.721 Y-56.059 Z6.000 F600.000
G3 X-23.184 Y-53.165 Z6.000 I-77.213 J42.872 K0.000 F600.000
G2 X-22.079 Y-52.662 Z6.000 I0.872 J-0.450 K0.000 F600.000
G2 X-22.294 Y-51.463 Z6.000 I0.654 J0.736 K0.000 F600.000
G1 X-21.957 Y-50.822 Z6.000 F600.000
G1 X-22.212 Y-50.676 Z6.000 F600.000
G0 Z13.000
G0 X-22.627 Y-52.158 Z13.000
G0 X-22.627 Y-52.158 Z11.000
G1 X-22.627 Y-52.158 Z6.000 F600.000
G1 X-22.779 Y-52.485 Z6.000 F600.000
G2 X-22.548 Y-52.416 Z6.000 I0.250 J-0.415 K0.000 F600.000
G2 X-22.627 Y-52.158 Z6.000 I0.463 J0.282 K0.000 F600.000
G0 Z13.000
G0 X-22.462 Y-52.899 Z13.000
G0 X-22.462 Y-52.899 Z11.000
G1 X-22.462 Y-52.899 Z6.000 F600.000
G3 X-22.962 Y-53.282 Z6.000 I0.163 J-0.732 K0.000 F600.000
G2 X-24.719 Y-56.558 Z6.000 I-66.117 J33.331 K0.000 F600.000
G3 X-24.409 Y-57.600 Z6.000 I0.653 J-0.373 K0.000 F600.000
G3 X-23.750 Y-57.643 Z6.000 I0.373 J0.651 K0.000 F600.000
G3 X-23.114 Y-57.150 Z6.000 I-1.237 J2.255 K0.000 F600.000
G2 X-20.301 Y-55.140 Z6.000 I34.621 J-45.475 K0.000 F600.000
G3 X-20.361 Y-53.877 Z6.000 I-0.433 J0.612 K0.000 F600.000
G1 X-21.926 Y-52.980 Z6.000 F600.000
G3 X-22.462 Y-52.899 Z6.000 I-0.373 J-0.651 K0.000 F600.000
G0 Z13.000
G0 X-22.408 Y-53.143 Z13.000
G0 X-22.408 Y-53.143 Z11.000
G1 X-22.408 Y-53.143 Z6.000 F600.000
G3 X-22.741 Y-53.398 Z6.000 I0.109 J-0.488 K0.000 F600.000
G2 X-24.502 Y-56.683 Z6.000 I-66.315 J33.433 K0.000 F600.000
G3 X-24.316 Y-57.365 Z6.000 I0.434 J-0.248 K0.000 F600.000
G3 X-23.882 Y-57.425 Z6.000 I0.285 J0.461 K0.000 F600.000
G3 X-23.271 Y-56.955 Z6.000 I-0.876 J1.773 K0.000 F600.000
G2 X-20.445 Y-54.936 Z6.000 I34.774 J-45.668 K0.000 F600.000
G3 X-20.485 Y-54.094 Z6.000 I-0.289 J0.408 K0.000 F600.000
G1 X-22.050 Y-53.197 Z6.000 F600.000
G3 X-22.408 Y-53.143 Z6.000 I-0.248 J-0.434 K0.000 F600.000
G0 Z13.000
G0 X-19.957 Y-53.911 Z13.000
G0 X-19.957 Y-53.911 Z11.000
G1 X-19.957 Y-53.911 Z6.000 F600.000
G2 X-20.156 Y-55.344 Z6.000 I-0.761 J-0.625 K0.000 F600.000
G1 X-21.590 Y-56.358 Z6.000 F600.000
G1 X-17.253 Y-53.516 Z6.000 F600.000
G1 X-17.448 Y-53.404 Z6.000 F600.000
G1 X-18.432 Y-54.110 Z6.000 F600.000
G2 X-19.512 Y-54.166 Z6.000 I-0.583 J0.812 K0.000 F600.000
G1 X-19.957 Y-53.911 Z6.000 F600.000
G0 Z13.000
G0 X-19.488 Y-54.455 Z13.000
G0 X-19.488 Y-54.455 Z11.000
G1 X-19.488 Y-54.455 Z6.000 F600.000
G2 X-19.503 Y-54.691 Z6.000 I-0.468 J-0.089 K0.000 F600.000
G1 X-19.242 Y-54.521 Z6.000 F600.000
G2 X-19.488 Y-54.455 Z6.000 I0.044 J0.656 K0.000 F600.000
G0 Z13.000
G0 X-25.041 Y-56.747 Z13.000
G0 X-25.041 Y-56.747 Z11.000
G1 X-25.041 Y-56.747 Z6.000 F600.000
G1 X-25.180 Y-57.043 Z6.000 F600.000
G1 X-25.045 Y-57.120 Z6.000 F600.000
G2 X-25.041 Y-56.747 Z6.000 I0.669 J0.180 K0.000 F600.000
G0 Z13.000
G0 Z13.000
G0 X-25.041 Y-56.747
G0 X-7.245 Y-60.510
G0 X-7.245 Y-60.510 Z11.000
G1 X-7.245 Y-60.510 Z6.000 F600.000
G1 X-7.741 Y-62.859 Z6.000 F600.000
G1 X-6.381 Y-62.859 Z6.000 F600.000
G1 X-4.567 Y-54.280 Z6.000 F600.000
G1 X-5.928 Y-54.280 Z6.000 F600.000
G1 X-7.245 Y-60.510 Z6.000 F600.000
G0 Z13.000
G0 X-7.000 Y-60.561 Z13.000
G0 X-7.000 Y-60.561 Z11.000
G1 X-7.000 Y-60.561 Z6.000 F600.000
G1 X-7.433 Y-62.609 Z6.000 F600.000
G1 X-6.584 Y-62.609 Z6.000 F600.000
G1 X-4.876 Y-54.530 Z6.000 F600.000
G1 X-5.725 Y-54.530 Z6.000 F600.000
G1 X-7.000 Y-60.561 Z6.000 F600.000
G0 Z13.000
G0 X-6.755 Y-60.613 Z13.000
G0 X-6.755 Y-60.613 Z11.000
G1 X-6.755 Y-60.613 Z6.000 F600.000
G1 X-7.125 Y-62.359 Z6.000 F600.000
G1 X-6.787 Y-62.359 Z6.000 F600.000
G1 X-5.184 Y-54.780 Z6.000 F600.000
G1 X-5.522 Y-54.780 Z6.000 F600.000
G1 X-6.755 Y-60.613 Z6.000 F600.000
G0 Z13.000
G0 Z13.000
G0 X-6.755 Y-60.613
G0 X-3.040 Y-60.255
G0 X-3.040 Y-60.255 Z11.000
G1 X-3.040 Y-60.255 Z6.000 F600.000
G1 X-1.680 Y-60.255 Z6.000 F600.000
G1 X-1.045 Y-57.240 Z6.000 F600.000
G2 X-0.426 Y-55.664 Z6.000 I3.949 J-0.642 K0.000 F600.000
G2 X0.482 Y-55.069 Z6.000 I1.074 J-0.648 K0.000 F600.000
G2 X1.545 Y-56.132 Z6.000 I0.101 J-0.962 K0.000 F600.000
G2 X1.419 Y-57.059 Z6.000 I-4.836 J0.183 K0.000 F600.000
G1 X0.751 Y-60.255 Z6.000 F600.000
G1 X2.112 Y-60.255 Z6.000 F600.000
G1 X2.808 Y-56.952 Z6.000 F600.000
G3 X2.914 Y-55.223 Z6.000 I-4.197 J1.125 K0.000 F600.000
G3 X2.385 Y-54.345 Z6.000 I-1.183 J-0.114 K0.000 F600.000
G3 X0.567 Y-54.463 Z6.000 I-0.806 J-1.632 K0.000 F600.000
G3 X0.104 Y-55.037 Z6.000 I1.254 J-1.488 K0.000 F600.000
G2 X-0.819 Y-54.944 Z6.000 I-0.434 J0.325 K0.000 F600.000
G2 X-0.820 Y-54.280 Z6.000 I1.372 J0.334 K0.000 F600.000
G1 X-1.780 Y-54.280 Z6.000 F600.000
G1 X-3.040 Y-60.255 Z6.000 F600.000
G0 Z13.000
G0 X-2.732 Y-60.005 Z13.000
G0 X-2.732 Y-60.005 Z11.000
G1 X-2.732 Y-60.005 Z6.000 F600.000
G1 X-1.883 Y-60.005 Z6.000 F600.000
G1 X-1.287 Y-57.178 Z6.000 F600.000
G2 X-0.614 Y-55.500 Z6.000 I3.806 J-0.552 K0.000 F600.000
G1 X-0.585 Y-55.467 Z6.000 F600.000
G2 X-1.091 Y-54.530 Z6.000 I0.243 J0.736 K0.000 F600.000
G1 X-1.577 Y-54.530 Z6.000 F600.000
G1 X-2.732 Y-60.005 Z6.000 F600.000
G0 Z13.000
G0 X-2.424 Y-59.755 Z13.000
G0 X-2.424 Y-59.755 Z11.000
G1 X-2.424 Y-59.755 Z6.000 F600.000
G1 X-2.086 Y-59.755 Z6.000 F600.000
G1 X-1.529 Y-57.116 Z6.000 F600.000
G2 X-0.948 Y-55.549 Z6.000 I4.479 J-0.771 K0.000 F600.000
G2 X-1.347 Y-54.780 Z6.000 I0.518 J0.757 K0.000 F600.000
G1 X-1.374 Y-54.780 Z6.000 F600.000
G1 X-2.424 Y-59.755 Z6.000 F600.000
G0 Z13.000
G0 X1.058 Y-60.005 Z13.000
G0 X1.058 Y-60.005 Z11.000
G1 X1.058 Y-60.005 Z6.000 F600.000
G1 X1.909 Y-60.005 Z6.000 F600.000
G1 X2.562 Y-56.906 Z6.000 F600.000
G3 X2.667 Y-55.271 Z6.000 I-3.957 J1.076 K0.000 F600.000
G3 X2.417 Y-54.697 Z6.000 I-1.071 J-0.125 K0.000 F600.000
G3 X1.599 Y-54.409 Z6.000 I-0.722 J-0.744 K0.000 F600.000
G3 X0.555 Y-54.823 Z6.000 I-0.128 J-1.199 K0.000 F600.000
G2 X1.794 Y-56.153 Z6.000 I0.039 J-1.205 K0.000 F600.000
G2 X1.664 Y-57.110 Z6.000 I-5.099 J0.206 K0.000 F600.000
G1 X1.058 Y-60.005 Z6.000 F600.000
G0 Z13.000
G0 X1.366 Y-59.755 Z13.000
G0 X1.366 Y-59.755 Z11.000
G1 X1.366 Y-59.755 Z6.000 F600.000
G1 X1.706 Y-59.755 Z6.000 F600.000
G1 X2.316 Y-56.861 Z6.000 F600.000
G3 X2.421 Y-55.319 Z6.000 I-3.717 J1.027 K0.000 F600.000
G3 X2.104 Y-54.762 Z6.000 I-0.728 J-0.045 K0.000 F600.000
G3 X1.185 Y-54.708 Z6.000 I-0.542 J-1.374 K0.000 F600.000
G2 X2.043 Y-56.175 Z6.000 I-0.582 J-1.324 K0.000 F600.000
G2 X1.908 Y-57.161 Z6.000 I-5.362 J0.228 K0.000 F600.000
G1 X1.366 Y-59.755 Z6.000 F600.000
G0 Z13.000
G0 X2.182 Y-55.455 Z13.000
G0 X2.182 Y-55.455 Z11.000
G1 X2.182 Y-55.455 Z6.000 F600.000
G3 X2.054 Y-55.046 Z6.000 I-0.696 J0.007 K0.000 F600.000
G3 X1.915 Y-54.949 Z6.000 I-0.207 J-0.150 K0.000 F600.000
G2 X2.182 Y-55.455 Z6.000 I-1.004 J-0.852 K0.000 F600.000
G0 Z13.000
G0 X-1.263 Y-55.616 Z13.000
G0 X-1.263 Y-55.616 Z11.000
G1 X-1.263 Y-55.616 Z6.000 F600.000
G3 X-1.287 Y-55.575 Z6.000 I-0.051 J-0.002 K0.000 F600.000
G1 X-1.306 Y-55.669 Z6.000 F600.000
G3 X-1.263 Y-55.616 Z6.000 I-0.007 J0.051 K0.000 F600.000
G0 Z13.000
G0 Z13.000
G0 X-1.263 Y-55.616
G0 X5.720 Y-57.114
G0 X5.720 Y-57.114 Z11.000
G1 X5.720 Y-57.114 Z6.000 F600.000
G1 X4.612 Y-62.280 Z6.000 F600.000
G1 X5.997 Y-62.280 Z6.000 F600.000
G1 X7.692 Y-54.388 Z6.000 F600.000
G2 X8.297 Y-52.992 Z6.000 I2.829 J-0.397 K0.000 F600.000
G2 X9.733 Y-52.439 Z6.000 I1.332 J-1.315 K0.000 F600.000
G1 X10.265 Y-52.484 Z6.000 F600.000
G1 X10.265 Y-51.530 Z6.000 F600.000
G3 X7.867 Y-51.718 Z6.000 I-0.876 J-4.231 K0.000 F600.000
G3 X6.593 Y-53.329 Z6.000 I1.273 J-2.317 K0.000 F600.000
G3 X6.321 Y-54.314 Z6.000 I7.058 J-2.476 K0.000 F600.000
G1 X5.720 Y-57.114 Z6.000 F600.000
G0 Z13.000
G0 X5.965 Y-57.166 Z13.000
G0 X5.965 Y-57.166 Z11.000
G1 X5.965 Y-57.166 Z6.000 F600.000
G1 X4.921 Y-62.030 Z6.000 F600.000
G1 X5.795 Y-62.030 Z6.000 F600.000
G1 X7.449 Y-54.331 Z6.000 F600.000
G2 X8.121 Y-52.815 Z6.000 I3.044 J-0.441 K0.000 F600.000
G2 X10.015 Y-52.212 Z6.000 I1.529 J-1.529 K0.000 F600.000
G1 X10.015 Y-51.736 Z6.000 F600.000
G3 X7.972 Y-51.946 Z6.000 I-0.652 J-3.702 K0.000 F600.000
G3 X6.827 Y-53.416 Z6.000 I1.176 J-2.097 K0.000 F600.000
G3 X6.564 Y-54.372 Z6.000 I6.848 J-2.397 K0.000 F600.000
G1 X5.965 Y-57.166 Z6.000 F600.000
G0 Z13.000
G0 X6.209 Y-57.219 Z13.000
G0 X6.209 Y-57.219 Z11.000
G1 X6.209 Y-57.219 Z6.000 F600.000
G1 X5.231 Y-61.780 Z6.000 F600.000
G1 X5.593 Y-61.780 Z6.000 F600.000
G1 X7.205 Y-54.275 Z6.000 F600.000
G2 X7.944 Y-52.638 Z6.000 I3.264 J-0.488 K0.000 F600.000
G2 X9.516 Y-51.950 Z6.000 I1.626 J-1.575 K0.000 F600.000
G3 X7.853 Y-52.301 Z6.000 I-0.264 J-2.861 K0.000 F600.000
G3 X7.003 Y-53.678 Z6.000 I1.807 J-2.066 K0.000 F600.000
G1 X6.807 Y-54.430 Z6.000 F600.000
G1 X6.209 Y-57.219 Z6.000 F600.000
G0 Z13.000
G0 Z13.000
G0 X6.209 Y-57.219
G0 X19.462 Y-53.196
G0 X19.462 Y-53.196 Z11.000
G1 X19.462 Y-53.196 Z6.000 F600.000
G1 X19.801 Y-54.311 Z6.000 F600.000
G3 X20.534 Y-55.873 Z6.000 I4.265 J1.049 K0.000 F600.000
G3 X21.165 Y-56.347 Z6.000 I1.084 J0.786 K0.000 F600.000
G3 X21.854 Y-56.342 Z6.000 I0.337 J0.991 K0.000 F600.000
G3 X22.963 Y-55.420 Z6.000 I-0.491 J1.718 K0.000 F600.000
G3 X23.096 Y-54.689 Z6.000 I-1.870 J0.720 K0.000 F600.000
G2 X23.949 Y-54.329 Z6.000 I0.536 J-0.079 K0.000 F600.000
G2 X24.272 Y-54.909 Z6.000 I-1.054 J-0.967 K0.000 F600.000
G1 X25.111 Y-54.448 Z6.000 F600.000
G1 X23.338 Y-48.605 Z6.000 F600.000
G1 X22.146 Y-49.260 Z6.000 F600.000
G1 X23.047 Y-52.217 Z6.000 F600.000
G2 X23.243 Y-54.108 Z6.000 I-3.441 J-1.314 K0.000 F600.000
G2 X21.838 Y-54.950 Z6.000 I-1.032 J0.129 K0.000 F600.000
G2 X21.319 Y-54.438 Z6.000 I0.467 J0.993 K0.000 F600.000
G2 X20.972 Y-53.559 Z6.000 I4.437 J2.256 K0.000 F600.000
G1 X20.016 Y-50.431 Z6.000 F600.000
G1 X18.822 Y-51.087 Z6.000 F600.000
G1 X19.462 Y-53.196 Z6.000 F600.000
G0 Z13.000
G0 X19.702 Y-53.123 Z13.000
G0 X19.702 Y-53.123 Z11.000
G1 X19.702 Y-53.123 Z6.000 F600.000
G1 X20.038 Y-54.232 Z6.000 F600.000
G3 X20.723 Y-55.708 Z6.000 I4.043 J0.980 K0.000 F600.000
G3 X21.231 Y-56.105 Z6.000 I0.916 J0.648 K0.000 F600.000
G3 X21.766 Y-56.108 Z6.000 I0.271 J0.757 K0.000 F600.000
G3 X22.731 Y-55.323 Z6.000 I-0.405 J1.484 K0.000 F600.000
G3 X22.794 Y-55.127 Z6.000 I-0.986 J0.425 K0.000 F600.000
G2 X21.091 Y-54.541 Z6.000 I-0.581 J1.080 K0.000 F600.000
G2 X20.733 Y-53.632 Z6.000 I4.682 J2.367 K0.000 F600.000
G1 X19.867 Y-50.798 Z6.000 F600.000
G1 X19.120 Y-51.208 Z6.000 F600.000
G1 X19.702 Y-53.123 Z6.000 F600.000
G0 Z13.000
G0 X19.941 Y-53.051 Z13.000
G0 X19.941 Y-53.051 Z11.000
G1 X19.941 Y-53.051 Z6.000 F600.000
G1 X20.276 Y-54.154 Z6.000 F600.000
G3 X20.912 Y-55.543 Z6.000 I3.827 J0.912 K0.000 F600.000
G3 X21.491 Y-55.902 Z6.000 I0.651 J0.406 K0.000 F600.000
G3 X22.295 Y-55.513 Z6.000 I-0.249 J1.540 K0.000 F600.000
G2 X20.863 Y-54.643 Z6.000 I-0.102 J1.448 K0.000 F600.000
G2 X20.494 Y-53.706 Z6.000 I4.928 J2.478 K0.000 F600.000
G1 X19.717 Y-51.166 Z6.000 F600.000
G1 X19.419 Y-51.330 Z6.000 F600.000
G1 X19.941 Y-53.051 Z6.000 F600.000
G0 Z13.000
G0 X21.069 Y-55.335 Z13.000
G0 X21.069 Y-55.335 Z11.000
G1 X21.069 Y-55.335 Z6.000 F600.000
G3 X21.386 Y-55.626 Z6.000 I0.649 J0.389 K0.000 F600.000
G3 X21.548 Y-55.639 Z6.000 I0.099 J0.214 K0.000 F600.000
G2 X21.069 Y-55.335 Z6.000 I0.751 J1.712 K0.000 F600.000
G0 Z13.000
G0 X23.518 Y-53.982 Z13.000
G0 X23.518 Y-53.982 Z11.000
G1 X23.518 Y-53.982 Z6.000 F600.000
G2 X24.388 Y-54.560 Z6.000 I0.110 J-0.778 K0.000 F600.000
G1 X24.813 Y-54.327 Z6.000 F600.000
G1 X23.188 Y-48.973 Z6.000 F600.000
G1 X22.444 Y-49.382 Z6.000 F600.000
G1 X23.288 Y-52.153 Z6.000 F600.000
G2 X23.518 Y-53.982 Z6.000 I-3.782 J-1.404 K0.000 F600.000
G0 Z13.000
G0 X23.795 Y-53.741 Z13.000
G0 X23.795 Y-53.741 Z11.000
G1 X23.795 Y-53.741 Z6.000 F600.000
G2 X24.491 Y-54.218 Z6.000 I-0.109 J-0.906 K0.000 F600.000
G1 X24.515 Y-54.205 Z6.000 F600.000
G1 X23.038 Y-49.340 Z6.000 F600.000
G1 X22.742 Y-49.503 Z6.000 F600.000
G2 X23.700 Y-52.741 Z6.000 I-40.006 J-13.597 K0.000 F600.000
G2 X23.795 Y-53.741 Z6.000 I-3.951 J-0.878 K0.000 F600.000
G0 Z13.000
G0 X24.037 Y-53.541 Z13.000
G0 X24.037 Y-53.541 Z11.000
G1 X24.037 Y-53.541 Z6.000 F600.000
G3 X24.055 Y-53.551 Z6.000 I0.021 J0.018 K0.000 F600.000
G1 X24.040 Y-53.502 Z6.000 F600.000
G3 X24.037 Y-53.541 Z6.000 I0.018 J-0.021 K0.000 F600.000
G0 Z13.000
G0 Z13.000
G0 X24.037 Y-53.541
G0 X27.378 Y-52.527
G0 X27.378 Y-52.527 Z11.000
G1 X27.378 Y-52.527 Z6.000 F600.000
G1 X27.554 Y-53.106 Z6.000 F600.000
G1 X28.746 Y-52.450 Z6.000 F600.000
G1 X27.850 Y-49.502 Z6.000 F600.000
G2 X27.633 Y-47.823 Z6.000 I3.770 J1.339 K0.000 F600.000
G2 X28.142 Y-46.864 Z6.000 I1.254 J-0.051 K0.000 F600.000
G2 X29.585 Y-47.284 Z6.000 I0.552 J-0.794 K0.000 F600.000
G2 X29.922 Y-48.157 Z6.000 I-4.326 J-2.169 K0.000 F600.000
G1 X30.876 Y-51.280 Z6.000 F600.000
G1 X32.069 Y-50.624 Z6.000 F600.000
G1 X31.087 Y-47.394 Z6.000 F600.000
G3 X30.348 Y-45.828 Z6.000 I-4.220 J-1.035 K0.000 F600.000
G3 X29.461 Y-45.313 Z6.000 I-0.981 J-0.670 K0.000 F600.000
G3 X27.925 Y-46.292 Z6.000 I0.080 J-1.818 K0.000 F600.000
G3 X27.795 Y-47.018 Z6.000 I1.815 J-0.700 K0.000 F600.000
G2 X26.942 Y-47.382 Z6.000 I-0.536 J0.076 K0.000 F600.000
G2 X26.621 Y-46.800 Z6.000 I1.041 J0.953 K0.000 F600.000
G1 X25.780 Y-47.263 Z6.000 F600.000
G1 X27.378 Y-52.527 Z6.000 F600.000
G0 Z13.000
G0 X27.617 Y-52.455 Z13.000
G0 X27.617 Y-52.455 Z11.000
G1 X27.617 Y-52.455 Z6.000 F600.000
G1 X27.703 Y-52.738 Z6.000 F600.000
G1 X28.447 Y-52.329 Z6.000 F600.000
G1 X27.608 Y-49.564 Z6.000 F600.000
G2 X27.389 Y-47.770 Z6.000 I3.602 J1.350 K0.000 F600.000
G1 X27.398 Y-47.727 Z6.000 F600.000
G2 X26.504 Y-47.150 Z6.000 I-0.141 J0.763 K0.000 F600.000
G1 X26.078 Y-47.384 Z6.000 F600.000
G1 X27.617 Y-52.455 Z6.000 F600.000
G0 Z13.000
G0 X27.853 Y-52.370 Z13.000
G0 X27.853 Y-52.370 Z11.000
G1 X27.853 Y-52.370 Z6.000 F600.000
G1 X28.149 Y-52.208 Z6.000 F600.000
G1 X27.366 Y-49.627 Z6.000 F600.000
G2 X27.120 Y-47.974 Z6.000 I4.296 J1.482 K0.000 F600.000
G2 X26.400 Y-47.492 Z6.000 I0.090 J0.913 K0.000 F600.000
G1 X26.376 Y-47.505 Z6.000 F600.000
G1 X27.853 Y-52.370 Z6.000 F600.000
G0 Z13.000
G0 X31.025 Y-50.912 Z13.000
G0 X31.025 Y-50.912 Z11.000
G1 X31.025 Y-50.912 Z6.000 F600.000
G1 X31.771 Y-50.502 Z6.000 F600.000
G1 X30.850 Y-47.473 Z6.000 F600.000
G3 X30.155 Y-45.989 Z6.000 I-3.986 J-0.963 K0.000 F600.000
G3 X29.659 Y-45.606 Z6.000 I-0.879 J-0.626 K0.000 F600.000
G3 X28.803 Y-45.747 Z6.000 I-0.275 J-1.000 K0.000 F600.000
G3 X28.088 Y-46.613 Z6.000 I0.465 J-1.113 K0.000 F600.000
G2 X29.814 Y-47.183 Z6.000 I0.615 J-1.037 K0.000 F600.000
G2 X30.161 Y-48.084 Z6.000 I-4.567 J-2.276 K0.000 F600.000
G1 X31.025 Y-50.912 Z6.000 F600.000
G0 Z13.000
G0 X31.174 Y-50.545 Z13.000
G0 X31.174 Y-50.545 Z11.000
G1 X31.174 Y-50.545 Z6.000 F600.000
G1 X31.472 Y-50.381 Z6.000 F600.000
G1 X30.612 Y-47.551 Z6.000 F600.000
G3 X29.961 Y-46.150 Z6.000 I-3.752 J-0.891 K0.000 F600.000
G3 X29.415 Y-45.814 Z6.000 I-0.616 J-0.390 K0.000 F600.000
G3 X28.584 Y-46.209 Z6.000 I0.187 J-1.465 K0.000 F600.000
G2 X30.043 Y-47.081 Z6.000 I0.128 J-1.441 K0.000 F600.000
G2 X30.400 Y-48.011 Z6.000 I-4.809 J-2.383 K0.000 F600.000
G1 X31.174 Y-50.545 Z6.000 F600.000
G0 Z13.000
G0 X29.818 Y-46.384 Z13.000
G0 X29.818 Y-46.384 Z11.000
G1 X29.818 Y-46.384 Z6.000 F600.000
G3 X29.509 Y-46.086 Z6.000 I-0.614 J-0.329 K0.000 F600.000
G3 X29.340 Y-46.069 Z6.000 I-0.109 J-0.231 K0.000 F600.000
G2 X29.818 Y-46.384 Z6.000 I-0.470 J-1.231 K0.000 F600.000
G0 Z13.000
G0 X26.877 Y-48.184 Z13.000
G0 X26.877 Y-48.184 Z11.000
G1 X26.877 Y-48.184 Z6.000 F600.000
G3 X26.836 Y-48.160 Z6.000 I-0.044 J-0.027 K0.000 F600.000
G1 X26.864 Y-48.251 Z6.000 F600.000
G3 X26.877 Y-48.184 Z6.000 I-0.031 J0.041 K0.000 F600.000
G0 Z13.000
G0 Z13.000
G0 X26.877 Y-48.184
G0 X33.718 Y-46.133
G0 X33.718 Y-46.133 Z11.000
G1 X33.718 Y-46.133 Z6.000 F600.000
G1 X35.235 Y-51.194 Z6.000 F600.000
G1 X36.448 Y-50.527 Z6.000 F600.000
G1 X34.133 Y-42.794 Z6.000 F600.000
G2 X33.990 Y-41.280 Z6.000 I2.671 J1.015 K0.000 F600.000
G2 X34.982 Y-40.103 Z6.000 I1.801 J-0.511 K0.000 F600.000
G1 X35.470 Y-39.886 Z6.000 F600.000
G1 X35.011 Y-39.051 Z6.000 F600.000
G3 X32.999 Y-40.371 Z6.000 I1.271 J-4.129 K0.000 F600.000
G3 X32.659 Y-42.396 Z6.000 I2.232 J-1.417 K0.000 F600.000
G3 X32.895 Y-43.390 Z6.000 I7.378 J1.230 K0.000 F600.000
G1 X33.718 Y-46.133 Z6.000 F600.000
G0 Z13.000
G0 X33.957 Y-46.061 Z13.000
G0 X33.957 Y-46.061 Z11.000
G1 X33.957 Y-46.061 Z6.000 F600.000
G1 X35.386 Y-50.826 Z6.000 F600.000
G1 X36.151 Y-50.406 Z6.000 F600.000
G1 X33.892 Y-42.862 Z6.000 F600.000
G2 X33.750 Y-41.210 Z6.000 I2.880 J1.079 K0.000 F600.000
G2 X35.120 Y-39.769 Z6.000 I2.077 J-0.603 K0.000 F600.000
G1 X34.891 Y-39.351 Z6.000 F600.000
G3 X33.201 Y-40.519 Z6.000 I1.212 J-3.558 K0.000 F600.000
G3 X32.906 Y-42.359 Z6.000 I2.040 J-1.271 K0.000 F600.000
G3 X33.136 Y-43.324 Z6.000 I7.156 J1.198 K0.000 F600.000
G1 X33.957 Y-46.061 Z6.000 F600.000
G0 Z13.000
G0 X34.197 Y-45.989 Z13.000
G0 X34.197 Y-45.989 Z11.000
G1 X34.197 Y-45.989 Z6.000 F600.000
G1 X35.536 Y-50.458 Z6.000 F600.000
G1 X35.854 Y-50.284 Z6.000 F600.000
G1 X33.652 Y-42.930 Z6.000 F600.000
G2 X33.511 Y-41.139 Z6.000 I3.095 J1.145 K0.000 F600.000
G2 X34.556 Y-39.779 Z6.000 I2.183 J-0.597 K0.000 F600.000
G3 X33.268 Y-40.888 Z6.000 I1.147 J-2.635 K0.000 F600.000
G3 X33.187 Y-42.504 Z6.000 I2.579 J-0.940 K0.000 F600.000
G1 X33.377 Y-43.257 Z6.000 F600.000
G1 X34.197 Y-45.989 Z6.000 F600.000
G0 Z13.000
G0 Z13.000
G0 X34.197 Y-45.989
G0 X45.199 Y-39.230
G0 X45.199 Y-39.230 Z11.000
G1 X45.199 Y-39.230 Z6.000 F600.000
G1 X46.069 Y-40.645 Z6.000 F600.000
G1 X46.787 Y-39.438 Z6.000 F600.000
G1 X44.951 Y-36.905 Z6.000 F600.000
G3 X44.165 Y-35.950 Z6.000 I-10.397 J-7.750 K0.000 F600.000
G2 X44.836 Y-35.159 Z6.000 I0.413 J0.330 K0.000 F600.000
G3 X45.810 Y-35.724 Z6.000 I4.397 J6.451 K0.000 F600.000
G1 X48.268 Y-36.947 Z6.000 F600.000
G1 X48.959 Y-35.784 Z6.000 F600.000
G1 X43.052 Y-33.335 Z6.000 F600.000
G2 X42.644 Y-32.831 Z6.000 I0.523 J0.840 K0.000 F600.000
G2 X42.370 Y-31.206 Z6.000 I1.738 J1.128 K0.000 F600.000
G2 X42.725 Y-30.475 Z6.000 I2.102 J-0.568 K0.000 F600.000
G1 X41.947 Y-30.013 Z6.000 F600.000
G3 X41.225 Y-31.700 Z6.000 I2.696 J-2.152 K0.000 F600.000
G3 X41.864 Y-33.801 Z6.000 I3.484 J-0.087 K0.000 F600.000
G1 X45.199 Y-39.230 Z6.000 F600.000
G0 Z13.000
G0 X45.412 Y-39.100 Z13.000
G0 X45.412 Y-39.100 Z11.000
G1 X45.412 Y-39.100 Z6.000 F600.000
G1 X46.065 Y-40.162 Z6.000 F600.000
G1 X46.488 Y-39.452 Z6.000 F600.000
G3 X44.394 Y-36.599 Z6.000 I-40.442 J-27.482 K0.000 F600.000
G2 X43.852 Y-35.913 Z6.000 I1.892 J2.053 K0.000 F600.000
G2 X44.970 Y-34.947 Z6.000 I0.720 J0.297 K0.000 F600.000
G3 X45.925 Y-35.502 Z6.000 I4.313 J6.326 K0.000 F600.000
G1 X48.171 Y-36.620 Z6.000 F600.000
G1 X48.597 Y-35.904 Z6.000 F600.000
G1 X42.956 Y-33.566 Z6.000 F600.000
G2 X42.416 Y-32.935 Z6.000 I0.633 J1.087 K0.000 F600.000
G2 X42.126 Y-31.153 Z6.000 I1.887 J1.222 K0.000 F600.000
G2 X42.377 Y-30.559 Z6.000 I2.710 J-0.793 K0.000 F600.000
G1 X42.022 Y-30.348 Z6.000 F600.000
G3 X41.470 Y-32.037 Z6.000 I2.097 J-1.619 K0.000 F600.000
G3 X42.081 Y-33.676 Z6.000 I3.511 J0.375 K0.000 F600.000
G1 X45.412 Y-39.100 Z6.000 F600.000
G0 Z13.000
G0 X45.625 Y-38.969 Z13.000
G0 X45.625 Y-38.969 Z11.000
G1 X45.625 Y-38.969 Z6.000 F600.000
G1 X46.062 Y-39.679 Z6.000 F600.000
G1 X46.189 Y-39.465 Z6.000 F600.000
G1 X44.551 Y-37.206 Z6.000 F600.000
G1 X44.510 Y-37.153 Z6.000 F600.000
G1 X45.625 Y-38.969 Z6.000 F600.000
G0 Z13.000
G0 X47.179 Y-35.847 Z13.000
G0 X47.179 Y-35.847 Z11.000
G1 X47.179 Y-35.847 Z6.000 F600.000
G1 X48.075 Y-36.293 Z6.000 F600.000
G1 X48.234 Y-36.025 Z6.000 F600.000
G1 X44.966 Y-34.670 Z6.000 F600.000
G3 X46.040 Y-35.280 Z6.000 I7.159 J11.355 K0.000 F600.000
G1 X47.179 Y-35.847 Z6.000 F600.000
G0 Z13.000
G0 X44.873 Y-34.631 Z13.000
G0 X44.873 Y-34.631 Z11.000
G1 X44.873 Y-34.631 Z6.000 F600.000
G1 X42.860 Y-33.797 Z6.000 F600.000
G2 X42.189 Y-33.039 Z6.000 I0.740 J1.331 K0.000 F600.000
G2 X41.862 Y-31.193 Z6.000 I2.085 J1.322 K0.000 F600.000
G3 X41.822 Y-32.547 Z6.000 I1.780 J-0.730 K0.000 F600.000
G3 X42.297 Y-33.550 Z6.000 I4.159 J1.354 K0.000 F600.000
G1 X43.552 Y-35.594 Z6.000 F600.000
G2 X44.873 Y-34.631 Z6.000 I1.020 J-0.012 K0.000 F600.000
G0 Z13.000
G0 X43.927 Y-34.510 Z13.000
G0 X43.927 Y-34.510 Z11.000
G1 X43.927 Y-34.510 Z6.000 F600.000
G1 X42.925 Y-34.094 Z6.000 F600.000
G1 X43.471 Y-34.983 Z6.000 F600.000
G2 X43.927 Y-34.510 Z6.000 I1.090 J-0.596 K0.000 F600.000
G0 Z13.000
G0 Z13.000
G0 X43.927 Y-34.510
G0 X46.818 Y-31.377
G0 X46.818 Y-31.377 Z11.000
G1 X46.818 Y-31.377 Z6.000 F600.000
G1 X49.893 Y-34.214 Z6.000 F600.000
G1 X50.376 Y-33.401 Z6.000 F600.000
G2 X49.928 Y-32.777 Z6.000 I1.345 J1.439 K0.000 F600.000
G2 X50.396 Y-32.098 Z6.000 I0.536 J0.131 K0.000 F600.000
G3 X51.303 Y-31.883 Z6.000 I0.148 J1.397 K0.000 F600.000
G3 X51.859 Y-30.064 Z6.000 I-1.111 J1.334 K0.000 F600.000
G3 X49.940 Y-27.435 Z6.000 I-4.975 J-1.617 K0.000 F600.000
G3 X48.217 Y-26.642 Z6.000 I-2.430 J-3.010 K0.000 F600.000
G3 X46.895 Y-27.326 Z6.000 I-0.178 J-1.275 K0.000 F600.000
G3 X46.725 Y-28.379 Z6.000 I1.013 J-0.704 K0.000 F600.000
G2 X46.883 Y-28.960 Z6.000 I-1.380 J-0.688 K0.000 F600.000
G2 X46.069 Y-29.378 Z6.000 I-0.525 J0.020 K0.000 F600.000
G1 X45.892 Y-29.252 Z6.000 F600.000
G1 X45.404 Y-30.073 Z6.000 F600.000
G1 X46.818 Y-31.377 Z6.000 F600.000
G0 Z13.000
G0 X46.987 Y-31.194 Z13.000
G0 X46.987 Y-31.194 Z11.000
G1 X46.987 Y-31.194 Z6.000 F600.000
G1 X49.835 Y-33.821 Z6.000 F600.000
G1 X50.073 Y-33.422 Z6.000 F600.000
G2 X49.706 Y-32.902 Z6.000 I1.458 J1.419 K0.000 F600.000
G2 X49.837 Y-32.155 Z6.000 I0.685 J0.265 K0.000 F600.000
G2 X48.402 Y-31.592 Z6.000 I0.096 J2.352 K0.000 F600.000
G2 X46.882 Y-29.724 Z6.000 I2.195 J3.338 K0.000 F600.000
G2 X46.833 Y-29.547 Z6.000 I0.693 J0.288 K0.000 F600.000
G2 X45.974 Y-29.604 Z6.000 I-0.468 J0.546 K0.000 F600.000
G1 X45.722 Y-30.026 Z6.000 F600.000
G1 X46.987 Y-31.194 Z6.000 F600.000
G0 Z13.000
G0 X47.157 Y-31.010 Z13.000
G0 X47.157 Y-31.010 Z11.000
G1 X47.157 Y-31.010 Z6.000 F600.000
G1 X49.704 Y-33.360 Z6.000 F600.000
G2 X49.463 Y-32.369 Z6.000 I0.656 J0.685 K0.000 F600.000
G2 X47.854 Y-31.471 Z6.000 I0.892 J3.487 K0.000 F600.000
G2 X46.687 Y-29.905 Z6.000 I2.504 J3.085 K0.000 F600.000
G2 X46.074 Y-29.924 Z6.000 I-0.332 J0.810 K0.000 F600.000
G1 X46.041 Y-29.980 Z6.000 F600.000
G1 X47.157 Y-31.010 Z6.000 F600.000
G0 Z13.000
G0 X47.691 Y-30.579 Z13.000
G0 X47.691 Y-30.579 Z11.000
G1 X47.691 Y-30.579 Z6.000 F600.000
G3 X49.396 Y-31.845 Z6.000 I3.287 J2.648 K0.000 F600.000
G3 X50.712 Y-30.579 Z6.000 I0.372 J0.930 K0.000 F600.000
G3 X48.549 Y-28.270 Z6.000 I-3.812 J-1.403 K0.000 F600.000
G3 X47.633 Y-28.229 Z6.000 I-0.506 J-1.039 K0.000 F600.000
G3 X47.113 Y-29.628 Z6.000 I0.472 J-0.971 K0.000 F600.000
G3 X47.691 Y-30.579 Z6.000 I3.864 J1.696 K0.000 F600.000
G0 Z13.000
G0 X47.009 Y-28.439 Z13.000
G0 X47.009 Y-28.439 Z11.000
G1 X47.009 Y-28.439 Z6.000 F600.000
G2 X48.661 Y-28.046 Z6.000 I1.047 J-0.737 K0.000 F600.000
G2 X50.868 Y-30.249 Z6.000 I-1.864 J-4.076 K0.000 F600.000
G2 X50.622 Y-31.830 Z6.000 I-1.264 J-0.613 K0.000 F600.000
G3 X51.453 Y-31.334 Z6.000 I0.040 J0.877 K0.000 F600.000
G3 X51.478 Y-29.708 Z6.000 I-1.475 J0.836 K0.000 F600.000
G3 X48.472 Y-26.944 Z6.000 I-4.733 J-2.131 K0.000 F600.000
G3 X47.026 Y-27.613 Z6.000 I-0.397 J-1.041 K0.000 F600.000
G3 X47.009 Y-28.439 Z6.000 I0.885 J-0.430 K0.000 F600.000
G0 Z13.000
G0 X47.186 Y-27.914 Z13.000
G0 X47.186 Y-27.914 Z11.000
G1 X47.186 Y-27.914 Z6.000 F600.000
G2 X48.772 Y-27.822 Z6.000 I0.873 J-1.344 K0.000 F600.000
G2 X51.165 Y-30.340 Z6.000 I-1.911 J-4.213 K0.000 F600.000
G2 X51.214 Y-31.238 Z6.000 I-1.599 J-0.539 K0.000 F600.000
G3 X51.373 Y-30.187 Z6.000 I-1.031 J0.693 K0.000 F600.000
G3 X49.640 Y-27.836 Z6.000 I-4.493 J-1.497 K0.000 F600.000
G3 X48.156 Y-27.139 Z6.000 I-2.134 J-2.616 K0.000 F600.000
G3 X47.320 Y-27.592 Z6.000 I-0.113 J-0.789 K0.000 F600.000
G3 X47.186 Y-27.914 Z6.000 I0.684 J-0.473 K0.000 F600.000
G0 Z13.000
G0 X47.869 Y-27.408 Z13.000
G0 X47.869 Y-27.408 Z11.000
G1 X47.869 Y-27.408 Z6.000 F600.000
G2 X48.391 Y-27.442 Z6.000 I0.128 J-2.001 K0.000 F600.000
G3 X47.869 Y-27.408 Z6.000 I-0.319 J-0.847 K0.000 F600.000
G0 Z13.000
G0 Z13.000
G0 X47.869 Y-27.408
G0 X50.647 Y-24.410
G0 X50.647 Y-24.410 Z11.000
G1 X50.647 Y-24.410 Z6.000 F600.000
G1 X55.439 Y-28.849 Z6.000 F600.000
G1 X56.614 Y-26.873 Z6.000 F600.000
G1 X52.807 Y-21.342 Z6.000 F600.000
G2 X53.499 Y-20.586 Z6.000 I0.447 J0.285 K0.000 F600.000
G1 X58.562 Y-23.596 Z6.000 F600.000
G1 X59.729 Y-21.634 Z6.000 F600.000
G1 X53.717 Y-16.092 Z6.000 F600.000
G1 X53.145 Y-17.054 Z6.000 F600.000
G3 X57.752 Y-21.117 Z6.000 I54.877 J57.596 K0.000 F600.000
G2 X57.151 Y-21.973 Z6.000 I-0.355 J-0.390 K0.000 F600.000
G1 X52.030 Y-18.928 Z6.000 F600.000
G1 X51.286 Y-20.181 Z6.000 F600.000
G1 X55.138 Y-25.768 Z6.000 F600.000
G2 X54.347 Y-26.447 Z6.000 I-0.434 J-0.294 K0.000 F600.000
G3 X50.020 Y-22.310 Z6.000 I-54.805 J-52.999 K0.000 F600.000
G1 X49.438 Y-23.289 Z6.000 F600.000
G1 X50.647 Y-24.410 Z6.000 F600.000
G0 Z13.000
G0 X50.817 Y-24.226 Z13.000
G0 X50.817 Y-24.226 Z11.000
G1 X50.817 Y-24.226 Z6.000 F600.000
G1 X55.382 Y-28.456 Z6.000 F600.000
G1 X56.317 Y-26.883 Z6.000 F600.000
G1 X52.601 Y-21.484 Z6.000 F600.000
G2 X53.627 Y-20.371 Z6.000 I0.653 J0.427 K0.000 F600.000
G1 X58.475 Y-23.254 Z6.000 F600.000
G1 X59.411 Y-21.680 Z6.000 F600.000
G1 X53.774 Y-16.485 Z6.000 F600.000
G1 X53.463 Y-17.008 Z6.000 F600.000
G3 X57.912 Y-20.925 Z6.000 I53.543 J56.329 K0.000 F600.000
G2 X58.051 Y-21.926 Z6.000 I-0.485 J-0.578 K0.000 F600.000
G2 X57.023 Y-22.188 Z6.000 I-0.645 J0.383 K0.000 F600.000
G1 X52.118 Y-19.271 Z6.000 F600.000
G1 X51.582 Y-20.171 Z6.000 F600.000
G1 X55.344 Y-25.626 Z6.000 F600.000
G2 X54.171 Y-26.624 Z6.000 I-0.642 J-0.435 K0.000 F600.000
G3 X50.077 Y-22.703 Z6.000 I-52.498 J-50.722 K0.000 F600.000
G1 X49.756 Y-23.243 Z6.000 F600.000
G1 X50.817 Y-24.226 Z6.000 F600.000
G0 Z13.000
G0 X50.987 Y-24.043 Z13.000
G0 X50.987 Y-24.043 Z11.000
G1 X50.987 Y-24.043 Z6.000 F600.000
G1 X55.325 Y-28.062 Z6.000 F600.000
G1 X56.020 Y-26.893 Z6.000 F600.000
G1 X55.661 Y-26.371 Z6.000 F600.000
G2 X53.994 Y-26.801 Z6.000 I-0.960 J0.277 K0.000 F600.000
G3 X50.134 Y-23.097 Z6.000 I-50.234 J-48.487 K0.000 F600.000
G1 X50.074 Y-23.197 Z6.000 F600.000
G1 X50.987 Y-24.043 Z6.000 F600.000
G0 Z13.000
G0 X52.281 Y-20.744 Z13.000
G0 X52.281 Y-20.744 Z11.000
G1 X52.281 Y-20.744 Z6.000 F600.000
G2 X52.962 Y-20.064 Z6.000 I0.936 J-0.257 K0.000 F600.000
G1 X52.205 Y-19.613 Z6.000 F600.000
G1 X51.879 Y-20.161 Z6.000 F600.000
G1 X52.281 Y-20.744 Z6.000 F600.000
G0 Z13.000
G0 X52.256 Y-20.266 Z13.000
G0 X52.256 Y-20.266 Z11.000
G1 X52.256 Y-20.266 Z6.000 F600.000
G2 X52.459 Y-20.055 Z6.000 I0.512 J-0.290 K0.000 F600.000
G1 X52.292 Y-19.956 Z6.000 F600.000
G1 X52.176 Y-20.151 Z6.000 F600.000
G1 X52.256 Y-20.266 Z6.000 F600.000
G0 Z13.000
G0 X54.599 Y-17.730 Z13.000
G0 X54.599 Y-17.730 Z11.000
G1 X54.599 Y-17.730 Z6.000 F600.000
G3 X57.459 Y-20.222 Z6.000 I44.328 J47.987 K0.000 F600.000
G1 X53.831 Y-16.878 Z6.000 F600.000
G1 X53.782 Y-16.961 Z6.000 F600.000
G3 X54.599 Y-17.730 Z6.000 I45.146 J47.218 K0.000 F600.000
G0 Z13.000
G0 X58.276 Y-20.975 Z13.000
G0 X58.276 Y-20.975 Z11.000
G1 X58.276 Y-20.975 Z6.000 F600.000
G2 X57.688 Y-22.495 Z6.000 I-0.885 J-0.532 K0.000 F600.000
G1 X58.388 Y-22.911 Z6.000 F600.000
G1 X59.092 Y-21.727 Z6.000 F600.000
G1 X58.276 Y-20.975 Z6.000 F600.000
G0 Z13.000
G0 X58.668 Y-21.676 Z13.000
G0 X58.668 Y-21.676 Z11.000
G1 X58.668 Y-21.676 Z6.000 F600.000
G2 X58.192 Y-22.504 Z6.000 I-1.278 J0.184 K0.000 F600.000
G1 X58.301 Y-22.569 Z6.000 F600.000
G1 X58.774 Y-21.773 Z6.000 F600.000
G1 X58.668 Y-21.676 Z6.000 F600.000
G0 Z13.000
G0 X55.686 Y-26.848 Z13.000
G0 X55.686 Y-26.848 Z11.000
G1 X55.686 Y-26.848 Z6.000 F600.000
G2 X54.891 Y-27.319 Z6.000 I-0.922 J0.648 K0.000 F600.000
G1 X55.268 Y-27.669 Z6.000 F600.000
G1 X55.724 Y-26.903 Z6.000 F600.000
G1 X55.686 Y-26.848 Z6.000 F600.000
G0 Z13.000
G0 Z13.000
G0 X55.686 Y-26.848
G0 X59.777 Y-9.354
G0 X59.777 Y-9.354 Z11.000
G1 X59.777 Y-9.354 Z6.000 F600.000
G1 X61.084 Y-9.640 Z6.000 F600.000
G3 X60.517 Y-8.423 Z6.000 I-1.443 J0.068 K0.000 F600.000
G2 X59.881 Y-7.938 Z6.000 I0.903 J1.840 K0.000 F600.000
G2 X59.948 Y-7.264 Z6.000 I0.489 J0.292 K0.000 F600.000
G2 X60.349 Y-7.119 Z6.000 I0.354 J-0.354 K0.000 F600.000
G1 X60.965 Y-7.178 Z6.000 F600.000
G1 X60.965 Y-6.231 Z6.000 F600.000
G1 X54.990 Y-4.971 Z6.000 F600.000
G1 X54.990 Y-6.332 Z6.000 F600.000
G1 X57.691 Y-6.908 Z6.000 F600.000
G2 X58.990 Y-7.409 Z6.000 I-0.582 J-3.442 K0.000 F600.000
G2 X59.777 Y-9.354 Z6.000 I-1.048 J-1.556 K0.000 F600.000
G0 Z13.000
G0 X60.053 Y-9.158 Z13.000
G0 X60.053 Y-9.158 Z11.000
G1 X60.053 Y-9.158 Z6.000 F600.000
G1 X60.793 Y-9.321 Z6.000 F600.000
G3 X60.360 Y-8.619 Z6.000 I-1.071 J-0.177 K0.000 F600.000
G1 X59.975 Y-8.352 Z6.000 F600.000
G2 X60.053 Y-9.158 Z6.000 I-2.016 J-0.602 K0.000 F600.000
G0 Z13.000
G0 X60.312 Y-8.960 Z13.000
G0 X60.312 Y-8.960 Z11.000
G1 X60.312 Y-8.960 Z6.000 F600.000
G3 X60.365 Y-8.971 Z6.000 I0.032 J0.025 K0.000 F600.000
G3 X60.310 Y-8.913 Z6.000 I-0.282 J-0.214 K0.000 F600.000
G3 X60.312 Y-8.960 Z6.000 I0.034 J-0.023 K0.000 F600.000
G0 Z13.000
G0 X59.557 Y-7.584 Z13.000
G0 X59.557 Y-7.584 Z11.000
G1 X59.557 Y-7.584 Z6.000 F600.000
G2 X60.372 Y-6.871 Z6.000 I0.743 J-0.027 K0.000 F600.000
G1 X60.715 Y-6.903 Z6.000 F600.000
G1 X60.715 Y-6.434 Z6.000 F600.000
G1 X55.240 Y-5.279 Z6.000 F600.000
G1 X55.240 Y-6.130 Z6.000 F600.000
G1 X57.758 Y-6.667 Z6.000 F600.000
G2 X59.047 Y-7.146 Z6.000 I-0.691 J-3.833 K0.000 F600.000
G2 X59.557 Y-7.584 Z6.000 I-1.168 J-1.877 K0.000 F600.000
G0 Z13.000
G0 X59.434 Y-7.126 Z13.000
G0 X59.434 Y-7.126 Z11.000
G1 X59.434 Y-7.126 Z6.000 F600.000
G2 X60.393 Y-6.622 Z6.000 I0.864 J-0.478 K0.000 F600.000
G1 X55.490 Y-5.587 Z6.000 F600.000
G1 X55.490 Y-5.928 Z6.000 F600.000
G1 X57.826 Y-6.427 Z6.000 F600.000
G2 X59.171 Y-6.929 Z6.000 I-0.747 J-4.052 K0.000 F600.000
G2 X59.434 Y-7.126 Z6.000 I-1.072 J-1.707 K0.000 F600.000
G0 Z13.000
G0 X59.390 Y-6.761 Z13.000
G0 X59.390 Y-6.761 Z11.000
G1 X59.390 Y-6.761 Z6.000 F600.000
G1 X59.482 Y-6.685 Z6.000 F600.000
G1 X59.102 Y-6.605 Z6.000 F600.000
G3 X59.390 Y-6.761 Z6.000 I2.940 J5.069 K0.000 F600.000
G0 Z13.000
G0 Z13.000
G0 X59.390 Y-6.761
G0 X59.189 Y-3.185
G0 X59.189 Y-3.185 Z11.000
G1 X59.189 Y-3.185 Z6.000 F600.000
G3 X59.940 Y-3.090 Z6.000 I-0.304 J5.425 K0.000 F600.000
G3 X61.064 Y-1.939 Z6.000 I-0.289 J1.406 K0.000 F600.000
G3 X60.709 Y-0.721 Z6.000 I-1.263 J0.292 K0.000 F600.000
G2 X60.245 Y-0.301 Z6.000 I0.825 J1.376 K0.000 F600.000
G2 X60.730 Y0.487 Z6.000 I0.454 J0.264 K0.000 F600.000
G1 X60.965 Y0.465 Z6.000 F600.000
G1 X60.965 Y1.412 Z6.000 F600.000
G1 X51.961 Y3.318 Z6.000 F600.000
G1 X51.961 Y1.960 Z6.000 F600.000
G3 X55.314 Y1.391 Z6.000 I5.837 J24.250 K0.000 F600.000
G2 X55.538 Y0.430 Z6.000 I-0.089 J-0.527 K0.000 F600.000
G3 X54.869 Y-0.584 Z6.000 I0.481 J-1.045 K0.000 F600.000
G3 X55.682 Y-2.149 Z6.000 I2.047 J0.070 K0.000 F600.000
