(Exported by FreeCAD)
(Post Processor: script_module)
(Output Time:2025-04-16 16:08:23.544834)
(Begin preamble)
G17 G90
G21
(Begin operation: Fixture)
(Path: Fixture)
G54
(Finish operation: Fixture)
(Begin operation: 3mm_Endmill005)
(Path: 3mm_Endmill005)
(3mm_Endmill005)
(Begin toolchange)
( M6 T2 )
M3 S10000
(Finish operation: 3mm_Endmill005)
(Begin operation: Pocket_Shape004)
(Path: Pocket_Shape004)
(Pocket_Shape004)
G0 Z5.000
G0 X0.000 Y0.000
G0 X16.817 Y26.633
G0 X16.817 Y26.633 Z3.000
G1 X16.817 Y26.633 Z-3.000 F600.000
G1 X23.703 Y36.468 Z-3.000 F600.000
G3 X22.909 Y36.968 Z-3.000 I-6.394 J-9.268 K0.000 F600.000
G1 X14.104 Y28.163 Z-3.000 F600.000
G3 X11.155 Y29.457 Z-3.000 I-13.540 J-26.853 K0.000 F600.000
G1 X20.214 Y38.515 Z-3.000 F600.000
G3 X17.343 Y39.887 Z-3.000 I-17.875 J-33.731 K0.000 F600.000
G1 X7.938 Y30.482 Z-3.000 F600.000
G3 X4.397 Y31.184 Z-3.000 I-6.576 J-23.889 K0.000 F600.000
G1 X14.290 Y41.076 Z-3.000 F600.000
G3 X11.038 Y42.067 Z-3.000 I-11.128 J-30.685 K0.000 F600.000
G1 X0.459 Y31.489 Z-3.000 F600.000
G3 X-4.042 Y31.229 Z-3.000 I-0.627 J-28.339 K0.000 F600.000
G1 X7.558 Y42.830 Z-3.000 F600.000
G3 X3.812 Y43.326 Z-3.000 I-6.721 J-36.306 K0.000 F600.000
G1 X-9.475 Y30.039 Z-3.000 F600.000
G3 X-16.816 Y26.634 Z-3.000 I9.412 J-29.904 K0.000 F600.000
G1 X-16.943 Y26.815 Z-3.000 F600.000
G1 X-0.262 Y43.495 Z-3.000 F600.000
G3 X-4.768 Y43.231 Z-3.000 I0.017 J-38.991 K0.000 F600.000
G1 X-18.690 Y29.310 Z-3.000 F600.000
G1 X-20.437 Y31.805 Z-3.000 F600.000
G1 X-9.887 Y42.355 Z-3.000 F600.000
G3 X-16.074 Y40.411 Z-3.000 I9.078 J-39.706 K0.000 F600.000
G1 X-22.184 Y34.301 Z-3.000 F600.000
G1 X-23.702 Y36.469 Z-3.000 F600.000
G2 X-16.074 Y40.411 Z-3.000 I23.034 J-35.218 K0.000 F600.000
G3 X-23.702 Y36.469 Z-3.000 I15.406 J-39.160 K0.000 F600.000
G1 X-16.816 Y26.634 Z-3.000 F600.000
G2 X16.817 Y26.633 Z-3.000 I16.816 J-26.624 K0.000 F600.000
G1 X23.703 Y36.468 Z-3.000 F600.000
G3 X-16.074 Y40.411 Z-3.000 I-23.693 J-36.402 K0.000 F600.000
G1 X-16.074 Y40.411 Z-4.050 F600.000
G2 X23.703 Y36.468 Z-4.050 I16.085 J-40.345 K0.000 F600.000
G1 X16.817 Y26.633 Z-4.050 F600.000
G3 X-16.816 Y26.634 Z-4.050 I-16.817 J-26.623 K0.000 F600.000
G1 X-23.702 Y36.469 Z-4.050 F600.000
G2 X-16.074 Y40.411 Z-4.050 I23.034 J-35.218 K0.000 F600.000
G3 X-23.702 Y36.469 Z-4.050 I15.406 J-39.160 K0.000 F600.000
G1 X-22.184 Y34.301 Z-4.050 F600.000
G1 X-16.074 Y40.411 Z-4.050 F600.000
G2 X-9.887 Y42.355 Z-4.050 I15.265 J-37.762 K0.000 F600.000
G1 X-20.437 Y31.805 Z-4.050 F600.000
G1 X-18.690 Y29.310 Z-4.050 F600.000
G1 X-4.768 Y43.231 Z-4.050 F600.000
G2 X-0.262 Y43.495 Z-4.050 I4.523 J-38.727 K0.000 F600.000
G1 X-16.943 Y26.815 Z-4.050 F600.000
G1 X-16.816 Y26.634 Z-4.050 F600.000
G2 X-9.475 Y30.039 Z-4.050 I16.753 J-26.499 K0.000 F600.000
G1 X3.812 Y43.326 Z-4.050 F600.000
G2 X7.558 Y42.830 Z-4.050 I-2.975 J-36.803 K0.000 F600.000
G1 X-4.042 Y31.229 Z-4.050 F600.000
G2 X0.459 Y31.489 Z-4.050 I3.875 J-28.080 K0.000 F600.000
G1 X11.038 Y42.067 Z-4.050 F600.000
G2 X14.290 Y41.076 Z-4.050 I-7.876 J-31.676 K0.000 F600.000
G1 X4.397 Y31.184 Z-4.050 F600.000
G2 X7.938 Y30.482 Z-4.050 I-3.036 J-24.591 K0.000 F600.000
G1 X17.343 Y39.887 Z-4.050 F600.000
G2 X20.214 Y38.515 Z-4.050 I-15.003 J-35.103 K0.000 F600.000
G1 X11.155 Y29.457 Z-4.050 F600.000
G2 X14.104 Y28.163 Z-4.050 I-10.591 J-28.147 K0.000 F600.000
G1 X22.909 Y36.968 Z-4.050 F600.000
G2 X23.703 Y36.468 Z-4.050 I-5.600 J-9.768 K0.000 F600.000
G1 X16.817 Y26.633 Z-4.050 F600.000
G0 Z5.000
G0 Z5.000
G0 X16.817 Y26.633
G0 X28.294 Y43.024
G0 X28.294 Y43.024 Z3.000
G1 X28.294 Y43.024 Z-3.000 F600.000
G1 X35.178 Y52.855 Z-3.000 F600.000
G3 X34.399 Y53.371 Z-3.000 I-7.840 J-10.997 K0.000 F600.000
G1 X25.667 Y44.639 Z-3.000 F600.000
G3 X22.907 Y46.122 Z-3.000 I-20.980 J-35.721 K0.000 F600.000
G1 X31.760 Y54.975 Z-3.000 F600.000
G3 X29.020 Y56.478 Z-3.000 I-23.070 J-38.821 K0.000 F600.000
G1 X19.993 Y47.451 Z-3.000 F600.000
G3 X16.931 Y48.631 Z-3.000 I-13.882 J-31.469 K0.000 F600.000
G1 X26.154 Y57.854 Z-3.000 F600.000
G3 X23.173 Y59.116 Z-3.000 I-19.712 J-42.419 K0.000 F600.000
G1 X13.700 Y49.643 Z-3.000 F600.000
G3 X10.272 Y50.458 Z-3.000 I-12.060 J-43.089 K0.000 F600.000
G1 X20.055 Y60.240 Z-3.000 F600.000
G3 X16.804 Y61.233 Z-3.000 I-15.956 J-46.445 K0.000 F600.000
G1 X6.634 Y51.062 Z-3.000 F600.000
G3 X2.747 Y51.418 Z-3.000 I-5.645 J-40.269 K0.000 F600.000
G1 X13.391 Y62.062 Z-3.000 F600.000
G3 X9.818 Y62.731 Z-3.000 I-9.256 J-39.539 K0.000 F600.000
G1 X-1.441 Y51.473 Z-3.000 F600.000
G3 X-6.010 Y51.146 Z-3.000 I1.097 J-47.500 K0.000 F600.000
G1 X6.053 Y63.210 Z-3.000 F600.000
G3 X2.067 Y63.466 Z-3.000 I-5.969 J-61.739 K0.000 F600.000
G1 X-11.122 Y50.277 Z-3.000 F600.000
G3 X-17.051 Y48.590 Z-3.000 I10.151 J-46.950 K0.000 F600.000
G1 X-2.181 Y63.460 Z-3.000 F600.000
G3 X-6.751 Y63.133 Z-3.000 I1.140 J-47.959 K0.000 F600.000
G1 X-24.694 Y45.190 Z-3.000 F600.000
G3 X-28.293 Y43.024 Z-3.000 I18.167 J-34.263 K0.000 F600.000
G1 X-29.450 Y44.677 Z-3.000 F600.000
G1 X-11.727 Y62.400 Z-3.000 F600.000
G3 X-17.272 Y61.097 Z-3.000 I10.128 J-55.575 K0.000 F600.000
G1 X-31.197 Y47.172 Z-3.000 F600.000
G1 X-32.944 Y49.668 Z-3.000 F600.000
G1 X-23.718 Y58.894 Z-3.000 F600.000
G3 X-32.042 Y54.812 Z-3.000 I22.240 J-55.886 K0.000 F600.000
G1 X-34.692 Y52.163 Z-3.000 F600.000
G1 X-35.177 Y52.856 Z-3.000 F600.000
G2 X-32.042 Y54.812 Z-3.000 I24.344 J-35.517 K0.000 F600.000
G3 X-35.177 Y52.856 Z-3.000 I20.723 J-36.695 K0.000 F600.000
G1 X-28.293 Y43.024 Z-3.000 F600.000
G2 X28.294 Y43.024 Z-3.000 I28.293 J-42.985 K0.000 F600.000
G1 X35.178 Y52.855 Z-3.000 F600.000
G3 X-32.042 Y54.812 Z-3.000 I-35.176 J-52.799 K0.000 F600.000
G1 X-32.042 Y54.812 Z-4.050 F600.000
G2 X35.178 Y52.855 Z-4.050 I32.044 J-54.756 K0.000 F600.000
G1 X28.294 Y43.024 Z-4.050 F600.000
G3 X-28.293 Y43.024 Z-4.050 I-28.294 J-42.984 K0.000 F600.000
G1 X-35.177 Y52.856 Z-4.050 F600.000
G2 X-32.042 Y54.812 Z-4.050 I23.858 J-34.739 K0.000 F600.000
G3 X-35.177 Y52.856 Z-4.050 I21.209 J-37.473 K0.000 F600.000
G1 X-34.692 Y52.163 Z-4.050 F600.000
G1 X-32.042 Y54.812 Z-4.050 F600.000
G2 X-23.718 Y58.894 Z-4.050 I30.564 J-51.805 K0.000 F600.000
G1 X-32.944 Y49.668 Z-4.050 F600.000
G1 X-31.197 Y47.172 Z-4.050 F600.000
G1 X-17.272 Y61.097 Z-4.050 F600.000
G2 X-11.727 Y62.400 Z-4.050 I15.673 J-54.273 K0.000 F600.000
G1 X-29.450 Y44.677 Z-4.050 F600.000
G1 X-28.293 Y43.024 Z-4.050 F600.000
G2 X-24.694 Y45.190 Z-4.050 I21.766 J-32.097 K0.000 F600.000
G1 X-6.751 Y63.133 Z-4.050 F600.000
G2 X-2.181 Y63.460 Z-4.050 I5.710 J-47.631 K0.000 F600.000
G1 X-17.051 Y48.590 Z-4.050 F600.000
G2 X-11.122 Y50.277 Z-4.050 I16.080 J-45.263 K0.000 F600.000
G1 X2.067 Y63.466 Z-4.050 F600.000
G2 X6.053 Y63.210 Z-4.050 I-1.983 J-61.995 K0.000 F600.000
G1 X-6.010 Y51.146 Z-4.050 F600.000
G2 X-1.441 Y51.473 Z-4.050 I5.666 J-47.174 K0.000 F600.000
G1 X9.818 Y62.731 Z-4.050 F600.000
G2 X13.391 Y62.062 Z-4.050 I-5.683 J-40.208 K0.000 F600.000
G1 X2.747 Y51.418 Z-4.050 F600.000
G2 X6.634 Y51.062 Z-4.050 I-1.758 J-40.625 K0.000 F600.000
G1 X16.804 Y61.233 Z-4.050 F600.000
G2 X20.055 Y60.240 Z-4.050 I-12.705 J-47.438 K0.000 F600.000
G1 X10.272 Y50.458 Z-4.050 F600.000
G2 X13.700 Y49.643 Z-4.050 I-8.633 J-43.904 K0.000 F600.000
G1 X23.173 Y59.116 Z-4.050 F600.000
G2 X26.154 Y57.854 Z-4.050 I-16.731 J-43.681 K0.000 F600.000
G1 X16.931 Y48.631 Z-4.050 F600.000
G2 X19.993 Y47.451 Z-4.050 I-10.819 J-32.649 K0.000 F600.000
G1 X29.020 Y56.478 Z-4.050 F600.000
G2 X31.760 Y54.975 Z-4.050 I-20.329 J-40.324 K0.000 F600.000
G1 X22.907 Y46.122 Z-4.050 F600.000
G2 X25.667 Y44.639 Z-4.050 I-18.221 J-37.204 K0.000 F600.000
G1 X34.399 Y53.371 Z-4.050 F600.000
G2 X35.178 Y52.855 Z-4.050 I-7.061 J-11.513 K0.000 F600.000
G1 X28.294 Y43.024 Z-4.050 F600.000
G0 Z5.000
G0 Z5.000
G0 X28.294 Y43.024
G0 X39.768 Y59.410
G0 X39.768 Y59.410 Z3.000
G1 X39.768 Y59.410 Z-3.000 F600.000
G1 X46.652 Y69.241 Z-3.000 F600.000
G1 X45.880 Y69.764 Z-3.000 F600.000
G1 X37.185 Y61.070 Z-3.000 F600.000
G3 X34.493 Y62.621 Z-3.000 I-25.820 J-41.702 K0.000 F600.000
G1 X43.276 Y71.403 Z-3.000 F600.000
G3 X40.590 Y72.960 Z-3.000 I-27.143 J-43.747 K0.000 F600.000
G1 X31.707 Y64.077 Z-3.000 F600.000
G3 X28.819 Y65.432 Z-3.000 I-20.144 J-39.180 K0.000 F600.000
G1 X37.821 Y74.434 Z-3.000 F600.000
G3 X34.967 Y75.823 Z-3.000 I-24.450 J-46.608 K0.000 F600.000
G1 X25.813 Y66.668 Z-3.000 F600.000
G3 X22.701 Y67.799 Z-3.000 I-19.249 J-48.146 K0.000 F600.000
G1 X32.014 Y77.112 Z-3.000 F600.000
G3 X28.964 Y78.305 Z-3.000 I-21.301 J-49.953 K0.000 F600.000
G1 X19.453 Y68.794 Z-3.000 F600.000
G3 X16.082 Y69.666 Z-3.000 I-15.321 J-52.283 K0.000 F600.000
G1 X25.819 Y79.402 Z-3.000 F600.000
G3 X22.562 Y80.388 Z-3.000 I-15.911 J-46.697 K0.000 F600.000
G1 X12.554 Y70.380 Z-3.000 F600.000
G3 X8.875 Y70.944 Z-3.000 I-8.830 J-45.350 K0.000 F600.000
G1 X19.187 Y81.256 Z-3.000 F600.000
G3 X15.699 Y82.010 Z-3.000 I-14.248 J-57.445 K0.000 F600.000
G1 X5.007 Y71.319 Z-3.000 F600.000
G3 X0.931 Y71.485 Z-3.000 I-4.306 J-55.353 K0.000 F600.000
G1 X12.061 Y82.615 Z-3.000 F600.000
G3 X8.289 Y83.086 Z-3.000 I-9.696 J-62.280 K0.000 F600.000
G1 X-3.386 Y71.411 Z-3.000 F600.000
G3 X-7.997 Y71.042 Z-3.000 I2.044 J-54.586 K0.000 F600.000
G1 X4.340 Y83.379 Z-3.000 F600.000
G3 X0.210 Y83.492 Z-3.000 I-3.665 J-58.615 K0.000 F600.000
G1 X-12.977 Y70.305 Z-3.000 F600.000
G3 X-18.450 Y69.074 Z-3.000 I11.447 J-63.709 K0.000 F600.000
G1 X-4.134 Y83.391 Z-3.000 F600.000
G3 X-8.732 Y83.036 Z-3.000 I2.018 J-56.068 K0.000 F600.000
G1 X-24.653 Y67.114 Z-3.000 F600.000
G3 X-32.162 Y63.848 Z-3.000 I23.412 J-64.089 K0.000 F600.000
G1 X-13.637 Y82.373 Z-3.000 F600.000
G3 X-18.937 Y81.316 Z-3.000 I9.434 J-61.094 K0.000 F600.000
G1 X-40.209 Y60.043 Z-3.000 F600.000
G1 X-41.957 Y62.538 Z-3.000 F600.000
G1 X-24.758 Y79.737 Z-3.000 F600.000
G3 X-31.361 Y77.376 Z-3.000 I21.869 J-71.588 K0.000 F600.000
G1 X-43.704 Y65.034 Z-3.000 F600.000
G1 X-45.451 Y67.529 Z-3.000 F600.000
G1 X-39.316 Y73.665 Z-3.000 F600.000
G3 X-46.650 Y69.242 Z-3.000 I37.322 J-70.187 K0.000 F600.000
G1 X-39.767 Y59.411 Z-3.000 F600.000
G2 X39.768 Y59.410 Z-3.000 I39.767 J-59.363 K0.000 F600.000
G1 X46.652 Y69.241 Z-3.000 F600.000
G3 X-46.650 Y69.242 Z-3.000 I-46.652 J-69.187 K0.000 F600.000
G1 X-45.451 Y67.529 Z-3.000 F600.000
G1 X-45.451 Y67.529 Z-4.050 F600.000
G1 X-46.650 Y69.242 Z-4.050 F600.000
G2 X46.652 Y69.241 Z-4.050 I46.650 J-69.188 K0.000 F600.000
G1 X39.768 Y59.410 Z-4.050 F600.000
G3 X-39.767 Y59.411 Z-4.050 I-39.768 J-59.362 K0.000 F600.000
G1 X-46.650 Y69.242 Z-4.050 F600.000
G2 X-39.316 Y73.665 Z-4.050 I44.657 J-65.764 K0.000 F600.000
G1 X-45.451 Y67.529 Z-4.050 F600.000
G1 X-43.704 Y65.034 Z-4.050 F600.000
G1 X-31.361 Y77.376 Z-4.050 F600.000
G2 X-24.758 Y79.737 Z-4.050 I28.472 J-69.227 K0.000 F600.000
G1 X-41.957 Y62.538 Z-4.050 F600.000
G1 X-40.209 Y60.043 Z-4.050 F600.000
G1 X-18.937 Y81.316 Z-4.050 F600.000
G2 X-13.637 Y82.373 Z-4.050 I14.734 J-60.036 K0.000 F600.000
G1 X-32.162 Y63.848 Z-4.050 F600.000
G2 X-24.653 Y67.114 Z-4.050 I30.920 J-60.823 K0.000 F600.000
G1 X-8.732 Y83.036 Z-4.050 F600.000
G2 X-4.134 Y83.391 Z-4.050 I6.616 J-55.713 K0.000 F600.000
G1 X-18.450 Y69.074 Z-4.050 F600.000
G2 X-12.977 Y70.305 Z-4.050 I16.920 J-62.478 K0.000 F600.000
G1 X0.210 Y83.492 Z-4.050 F600.000
G2 X4.340 Y83.379 Z-4.050 I0.465 J-58.728 K0.000 F600.000
G1 X-7.997 Y71.042 Z-4.050 F600.000
G2 X-3.386 Y71.411 Z-4.050 I6.655 J-54.217 K0.000 F600.000
G1 X8.289 Y83.086 Z-4.050 F600.000
G2 X12.061 Y82.615 Z-4.050 I-5.924 J-62.752 K0.000 F600.000
G1 X0.931 Y71.485 Z-4.050 F600.000
G2 X5.007 Y71.319 Z-4.050 I-0.230 J-55.519 K0.000 F600.000
G1 X15.699 Y82.010 Z-4.050 F600.000
G2 X19.187 Y81.256 Z-4.050 I-10.760 J-58.199 K0.000 F600.000
G1 X8.875 Y70.944 Z-4.050 F600.000
G2 X12.554 Y70.380 Z-4.050 I-5.151 J-45.914 K0.000 F600.000
G1 X22.562 Y80.388 Z-4.050 F600.000
G2 X25.819 Y79.402 Z-4.050 I-12.654 J-47.682 K0.000 F600.000
G1 X16.082 Y69.666 Z-4.050 F600.000
G2 X19.453 Y68.794 Z-4.050 I-11.950 J-53.155 K0.000 F600.000
G1 X28.964 Y78.305 Z-4.050 F600.000
G2 X32.014 Y77.112 Z-4.050 I-18.251 J-51.146 K0.000 F600.000
G1 X22.701 Y67.799 Z-4.050 F600.000
G2 X25.813 Y66.668 Z-4.050 I-16.137 J-49.276 K0.000 F600.000
G1 X34.967 Y75.823 Z-4.050 F600.000
G2 X37.821 Y74.434 Z-4.050 I-21.596 J-47.997 K0.000 F600.000
G1 X28.819 Y65.432 Z-4.050 F600.000
G2 X31.707 Y64.077 Z-4.050 I-17.257 J-40.535 K0.000 F600.000
G1 X40.590 Y72.960 Z-4.050 F600.000
G2 X43.276 Y71.403 Z-4.050 I-24.457 J-45.304 K0.000 F600.000
G1 X34.493 Y62.621 Z-4.050 F600.000
G2 X37.185 Y61.070 Z-4.050 I-23.128 J-43.253 K0.000 F600.000
G1 X45.880 Y69.764 Z-4.050 F600.000
G1 X46.652 Y69.241 Z-4.050 F600.000
G1 X39.768 Y59.410 Z-4.050 F600.000
G0 Z5.000
G0 Z5.000
(Finish operation: Pocket_Shape004)
(Begin operation: Profile006)
(Path: Profile006)
(Profile006)
(Compensated Tool Path. Diameter: 3.0)
G0 Z5.000
G0 X7.039 Y82.137
G0 Z3.000
G1 X7.039 Y82.137 Z-3.000 F600.000
G2 X7.063 Y81.594 Z-3.000 I-1.474 J-0.338 K0.000 F600.000
G1 X6.135 Y72.753 Z-3.000 F600.000
G2 X4.771 Y71.363 Z-3.000 I-1.504 J0.111 K0.000 F600.000
G3 X-4.479 Y71.359 Z-3.000 I-4.587 J-82.826 K0.000 F600.000
G2 X-6.142 Y72.752 Z-3.000 I-0.151 J1.508 K0.000 F600.000
G1 X-7.072 Y81.593 Z-3.000 F600.000
G2 X-5.926 Y83.266 Z-3.000 I1.493 J0.206 K0.000 F600.000
G2 X5.629 Y83.309 Z-3.000 I6.071 J-77.602 K0.000 F600.000
G2 X7.039 Y82.137 Z-3.000 I-0.064 J-1.510 K0.000 F600.000
G0 Z5.000
G0 X5.416 Y63.273 Z5.000
G0 X5.416 Y63.273 Z3.000
G1 X5.416 Y63.273 Z-3.000 F600.000
G2 X10.129 Y62.686 Z-3.000 I-5.348 J-62.159 K0.000 F600.000
G2 X11.391 Y60.827 Z-3.000 I-0.205 J-1.497 K0.000 F600.000
G1 X9.542 Y52.127 Z-3.000 F600.000
G2 X7.764 Y50.910 Z-3.000 I-1.492 J0.273 K0.000 F600.000
G3 X-7.772 Y50.909 Z-3.000 I-7.764 J-50.842 K0.000 F600.000
G2 X-9.551 Y52.125 Z-3.000 I-0.287 J1.489 K0.000 F600.000
G1 X-11.400 Y60.826 Z-3.000 F600.000
G2 X-10.420 Y62.615 Z-3.000 I1.464 J0.361 K0.000 F600.000
G2 X5.416 Y63.273 Z-3.000 I10.487 J-61.501 K0.000 F600.000
G0 Z5.000
G0 X3.712 Y43.344 Z5.000
G0 X3.712 Y43.344 Z3.000
G1 X3.712 Y43.344 Z-3.000 F600.000
G2 X11.871 Y41.848 Z-3.000 I-3.679 J-43.041 K0.000 F600.000
G2 X12.891 Y39.830 Z-3.000 I-0.382 J-1.460 K0.000 F600.000
G1 X9.846 Y31.449 Z-3.000 F600.000
G2 X7.962 Y30.476 Z-3.000 I-1.440 J0.479 K0.000 F600.000
G3 X-7.968 Y30.474 Z-3.000 I-7.962 J-30.448 K0.000 F600.000
G2 X-9.853 Y31.445 Z-3.000 I-0.445 J1.451 K0.000 F600.000
G1 X-12.908 Y39.823 Z-3.000 F600.000
G2 X-12.138 Y41.751 Z-3.000 I1.397 J0.560 K0.000 F600.000
G2 X3.712 Y43.344 Z-3.000 I12.171 J-41.448 K0.000 F600.000
G1 X3.712 Y43.344 Z-6.000 F600.000
G2 X11.871 Y41.848 Z-6.000 I-3.679 J-43.041 K0.000 F600.000
G2 X12.891 Y39.830 Z-6.000 I-0.382 J-1.460 K0.000 F600.000
G1 X9.846 Y31.449 Z-6.000 F600.000
G2 X7.962 Y30.476 Z-6.000 I-1.440 J0.479 K0.000 F600.000
G3 X-7.968 Y30.474 Z-6.000 I-7.962 J-30.448 K0.000 F600.000
G2 X-9.853 Y31.445 Z-6.000 I-0.445 J1.451 K0.000 F600.000
G1 X-12.908 Y39.823 Z-6.000 F600.000
G2 X-12.138 Y41.751 Z-6.000 I1.397 J0.560 K0.000 F600.000
G2 X3.712 Y43.344 Z-6.000 I12.171 J-41.448 K0.000 F600.000
G0 Z5.000
G0 X4.396 Y51.312 Z5.000
G0 X4.396 Y51.312 Z3.000
G1 X4.396 Y51.312 Z-6.000 F600.000
G3 X-7.772 Y50.909 Z-6.000 I-4.396 J-51.243 K0.000 F600.000
G2 X-9.551 Y52.125 Z-6.000 I-0.287 J1.489 K0.000 F600.000
G1 X-11.400 Y60.826 Z-6.000 F600.000
G2 X-10.420 Y62.615 Z-6.000 I1.464 J0.361 K0.000 F600.000
G2 X10.129 Y62.686 Z-6.000 I10.487 J-61.501 K0.000 F600.000
G2 X11.391 Y60.827 Z-6.000 I-0.205 J-1.497 K0.000 F600.000
G1 X9.542 Y52.127 Z-6.000 F600.000
G2 X7.764 Y50.910 Z-6.000 I-1.492 J0.273 K0.000 F600.000
G3 X4.396 Y51.312 Z-6.000 I-7.764 J-50.842 K0.000 F600.000
G0 Z5.000
G0 X4.771 Y71.363 Z5.000
G0 X4.771 Y71.363 Z3.000
G1 X4.771 Y71.363 Z-6.000 F600.000
G3 X-4.479 Y71.359 Z-6.000 I-4.587 J-82.826 K0.000 F600.000
G2 X-6.142 Y72.752 Z-6.000 I-0.151 J1.508 K0.000 F600.000
G1 X-7.072 Y81.593 Z-6.000 F600.000
G2 X-5.926 Y83.266 Z-6.000 I1.493 J0.206 K0.000 F600.000
G2 X5.629 Y83.309 Z-6.000 I6.071 J-77.602 K0.000 F600.000
G2 X7.063 Y81.594 Z-6.000 I-0.064 J-1.510 K0.000 F600.000
G1 X6.135 Y72.753 Z-6.000 F600.000
G2 X4.771 Y71.363 Z-6.000 I-1.504 J0.111 K0.000 F600.000
G1 X4.771 Y71.363 Z-8.000 F600.000
G3 X-4.479 Y71.359 Z-8.000 I-4.587 J-82.826 K0.000 F600.000
G2 X-6.142 Y72.752 Z-8.000 I-0.151 J1.508 K0.000 F600.000
G1 X-7.072 Y81.593 Z-8.000 F600.000
G2 X-5.926 Y83.266 Z-8.000 I1.493 J0.206 K0.000 F600.000
G2 X5.629 Y83.309 Z-8.000 I6.071 J-77.602 K0.000 F600.000
G2 X7.063 Y81.594 Z-8.000 I-0.064 J-1.510 K0.000 F600.000
G1 X6.135 Y72.753 Z-8.000 F600.000
G2 X4.771 Y71.363 Z-8.000 I-1.504 J0.111 K0.000 F600.000
G0 Z5.000
G0 X4.235 Y63.363 Z5.000
G0 X4.235 Y63.363 Z3.000
G1 X4.235 Y63.363 Z-8.000 F600.000
G2 X10.129 Y62.686 Z-8.000 I-4.168 J-62.250 K0.000 F600.000
G2 X11.391 Y60.827 Z-8.000 I-0.205 J-1.497 K0.000 F600.000
G1 X9.542 Y52.127 Z-8.000 F600.000
G2 X7.764 Y50.910 Z-8.000 I-1.492 J0.273 K0.000 F600.000
G3 X-7.772 Y50.909 Z-8.000 I-7.764 J-50.842 K0.000 F600.000
G2 X-9.551 Y52.125 Z-8.000 I-0.287 J1.489 K0.000 F600.000
G1 X-11.400 Y60.826 Z-8.000 F600.000
G2 X-10.420 Y62.615 Z-8.000 I1.464 J0.361 K0.000 F600.000
G2 X4.235 Y63.363 Z-8.000 I10.487 J-61.501 K0.000 F600.000
G0 Z5.000
G0 X2.905 Y43.406 Z5.000
G0 X2.905 Y43.406 Z3.000
G1 X2.905 Y43.406 Z-8.000 F600.000
G2 X11.871 Y41.848 Z-8.000 I-2.872 J-43.102 K0.000 F600.000
G2 X12.891 Y39.830 Z-8.000 I-0.382 J-1.460 K0.000 F600.000
G1 X9.846 Y31.449 Z-8.000 F600.000
G2 X7.962 Y30.476 Z-8.000 I-1.440 J0.479 K0.000 F600.000
G3 X-7.968 Y30.474 Z-8.000 I-7.962 J-30.448 K0.000 F600.000
G2 X-9.853 Y31.445 Z-8.000 I-0.445 J1.451 K0.000 F600.000
G1 X-12.908 Y39.823 Z-8.000 F600.000
G2 X-12.138 Y41.751 Z-8.000 I1.397 J0.560 K0.000 F600.000
G2 X2.905 Y43.406 Z-8.000 I12.171 J-41.448 K0.000 F600.000
G0 Z5.000
G0 Z5.000
(Finish operation: Profile006)
(Begin operation: Profile007)
(Path: Profile007)
(Profile007)
(Compensated Tool Path. Diameter: 3.0)
G0 Z5.000
G0 X0.000 Y0.000
G0 X0.000 Y2.221
G0 X0.000 Y2.221 Z3.000
G1 X0.000 Y2.221 Z-3.000 F600.000
G2 X-5.270 Y4.919 Z-3.000 I0.001 J6.498 K0.000 F600.000
G1 X-67.127 Y93.255 Z-3.000 F600.000
G2 X-65.372 Y102.412 Z-3.000 I5.328 J3.726 K0.000 F600.000
G2 X65.281 Y102.475 Z-3.000 I65.376 J-102.402 K0.000 F600.000
G2 X67.179 Y93.333 Z-3.000 I-3.481 J-5.491 K0.000 F600.000
G1 X5.325 Y4.991 Z-3.000 F600.000
G2 X0.868 Y2.279 Z-3.000 I-5.329 J3.741 K0.000 F600.000
G2 X0.000 Y2.221 Z-3.000 I-0.867 J6.440 K0.000 F600.000
G1 X0.000 Y2.221 Z-6.000 F600.000
G2 X-5.270 Y4.919 Z-6.000 I0.001 J6.498 K0.000 F600.000
G1 X-67.127 Y93.255 Z-6.000 F600.000
G2 X-65.372 Y102.412 Z-6.000 I5.328 J3.726 K0.000 F600.000
G2 X65.281 Y102.475 Z-6.000 I65.376 J-102.402 K0.000 F600.000
G2 X67.179 Y93.333 Z-6.000 I-3.481 J-5.491 K0.000 F600.000
G1 X5.325 Y4.991 Z-6.000 F600.000
G2 X0.868 Y2.279 Z-6.000 I-5.329 J3.741 K0.000 F600.000
G2 X0.000 Y2.221 Z-6.000 I-0.867 J6.440 K0.000 F600.000
G1 X0.000 Y2.221 Z-8.000 F600.000
G2 X-5.270 Y4.919 Z-8.000 I0.001 J6.498 K0.000 F600.000
G1 X-67.127 Y93.255 Z-8.000 F600.000
G2 X-65.372 Y102.412 Z-8.000 I5.328 J3.726 K0.000 F600.000
G2 X65.281 Y102.475 Z-8.000 I65.376 J-102.402 K0.000 F600.000
G2 X67.179 Y93.333 Z-8.000 I-3.481 J-5.491 K0.000 F600.000
G1 X5.325 Y4.991 Z-8.000 F600.000
G2 X0.868 Y2.279 Z-8.000 I-5.329 J3.741 K0.000 F600.000
G2 X0.000 Y2.221 Z-8.000 I-0.867 J6.440 K0.000 F600.000
G0 Z5.000
G0 Z5.000
(Finish operation: Profile007)
(Begin postamble)
M5
G17 G90
M2
