(Exported by FreeCAD)
(Post Processor: script_module)
(Output Time:2025-04-16 15:29:13.436250)
(Begin preamble)
G17 G90
G21
(Begin operation: Fixture)
(Path: Fixture)
G54
(Finish operation: Fixture)
(Begin operation: 1.5mm_Endmill001)
(Path: 1.5mm_Endmill001)
(1.5mm_Endmill001)
(Begin toolchange)
( M6 T4 )
M3 S10000
(Finish operation: 1.5mm_Endmill001)
(Begin operation: Pocket_Shape)
(Path: Pocket_Shape)
(Pocket_Shape)
G0 Z5.000
G0 X0.000 Y0.000
G0 X-3.351 Y34.468
G0 X-3.351 Y34.468 Z3.000
G1 X-3.351 Y34.468 Z-1.500 F600.000
G1 X-3.351 Y36.435 Z-1.500 F600.000
G3 X-3.624 Y36.316 Z-1.500 I-0.077 J-0.196 K0.000 F600.000
G3 X-3.832 Y36.392 Z-1.500 I-0.196 J-0.213 K0.000 F600.000
G1 X-5.669 Y36.392 Z-1.500 F600.000
G1 X-5.626 Y36.435 Z-1.500 F600.000
G1 X-5.626 Y36.392 Z-1.500 F600.000
G1 X-6.412 Y36.392 Z-1.500 F600.000
G3 X-6.762 Y36.042 Z-1.500 I0.000 J-0.350 K0.000 F600.000
G1 X-6.762 Y34.861 Z-1.500 F600.000
G3 X-6.412 Y34.511 Z-1.500 I0.350 J0.000 K0.000 F600.000
G1 X-3.832 Y34.511 Z-1.500 F600.000
G3 X-3.482 Y34.861 Z-1.500 I-0.000 J0.350 K0.000 F600.000
G1 X-3.482 Y36.042 Z-1.500 F600.000
G3 X-3.832 Y36.392 Z-1.500 I-0.350 J-0.000 K0.000 F600.000
G1 X-5.626 Y36.392 Z-1.500 F600.000
G1 X-5.626 Y36.392 Z-2.000 F600.000
G1 X-6.412 Y36.392 Z-2.000 F600.000
G3 X-6.762 Y36.042 Z-2.000 I0.000 J-0.350 K0.000 F600.000
G1 X-6.762 Y34.861 Z-2.000 F600.000
G3 X-6.412 Y34.511 Z-2.000 I0.350 J0.000 K0.000 F600.000
G1 X-3.832 Y34.511 Z-2.000 F600.000
G3 X-3.482 Y34.861 Z-2.000 I-0.000 J0.350 K0.000 F600.000
G1 X-3.482 Y36.042 Z-2.000 F600.000
G3 X-3.832 Y36.392 Z-2.000 I-0.350 J-0.000 K0.000 F600.000
G1 X-5.626 Y36.392 Z-2.000 F600.000
G1 X-5.626 Y36.435 Z-2.000 F600.000
G1 X-5.669 Y36.392 Z-2.000 F600.000
G1 X-3.832 Y36.392 Z-2.000 F600.000
G2 X-3.624 Y36.316 Z-2.000 I0.012 J-0.289 K0.000 F600.000
G2 X-3.351 Y36.435 Z-2.000 I0.196 J-0.077 K0.000 F600.000
G1 X-3.351 Y34.468 Z-2.000 F600.000
G0 Z5.000
G0 X-5.429 Y34.511 Z5.000
G0 X-5.429 Y34.511 Z3.000
G1 X-5.429 Y34.511 Z-1.500 F600.000
G1 X-5.472 Y34.468 Z-1.500 F600.000
G1 X-6.893 Y34.468 Z-1.500 F600.000
G1 X-6.893 Y35.168 Z-1.500 F600.000
G1 X-6.762 Y35.299 Z-1.500 F600.000
G1 X-6.762 Y36.042 Z-1.500 F600.000
G2 X-6.412 Y36.392 Z-1.500 I0.350 J-0.000 K0.000 F600.000
G1 X-5.669 Y36.392 Z-1.500 F600.000
G1 X-5.626 Y36.435 Z-1.500 F600.000
G1 X-6.893 Y36.435 Z-1.500 F600.000
G1 X-6.893 Y34.468 Z-1.500 F600.000
G1 X-6.893 Y34.468 Z-1.500 F600.000
G1 X-3.351 Y34.468 Z-1.500 F600.000
G1 X-3.351 Y36.435 Z-1.500 F600.000
G1 X-6.893 Y36.435 Z-1.500 F600.000
G1 X-6.893 Y35.168 Z-1.500 F600.000
G1 X-6.893 Y35.168 Z-2.000 F600.000
G1 X-6.893 Y36.435 Z-2.000 F600.000
G1 X-3.351 Y36.435 Z-2.000 F600.000
G1 X-3.351 Y34.468 Z-2.000 F600.000
G1 X-6.893 Y34.468 Z-2.000 F600.000
G1 X-6.893 Y34.468 Z-2.000 F600.000
G1 X-6.893 Y36.435 Z-2.000 F600.000
G1 X-5.626 Y36.435 Z-2.000 F600.000
G1 X-5.669 Y36.392 Z-2.000 F600.000
G1 X-6.412 Y36.392 Z-2.000 F600.000
G3 X-6.762 Y36.042 Z-2.000 I0.000 J-0.350 K0.000 F600.000
G1 X-6.762 Y35.299 Z-2.000 F600.000
G1 X-6.893 Y35.168 Z-2.000 F600.000
G1 X-6.893 Y34.468 Z-2.000 F600.000
G1 X-5.472 Y34.468 Z-2.000 F600.000
G1 X-5.429 Y34.511 Z-2.000 F600.000
G0 Z5.000
G0 Z5.000
G0 X-5.429 Y34.511
G0 X-4.816 Y37.791
G0 X-4.816 Y37.791 Z3.000
G1 X-4.816 Y37.791 Z-1.500 F600.000
G1 X-4.729 Y37.878 Z-1.500 F600.000
G1 X-2.695 Y37.878 Z-1.500 F600.000
G1 X-2.695 Y37.791 Z-1.500 F600.000
G1 X-2.695 Y37.791 Z-2.000 F600.000
G1 X-2.695 Y37.878 Z-2.000 F600.000
G1 X-4.729 Y37.878 Z-2.000 F600.000
G1 X-4.816 Y37.791 Z-2.000 F600.000
G0 Z5.000
G0 X-5.343 Y39.386 Z5.000
G0 X-5.343 Y39.386 Z3.000
G1 X-5.343 Y39.386 Z-1.500 F600.000
G1 X-4.998 Y39.731 Z-1.500 F600.000
G2 X-5.100 Y39.978 Z-1.500 I0.247 J0.247 K0.000 F600.000
G1 X-5.100 Y40.459 Z-1.500 F600.000
G1 X-5.275 Y40.459 Z-1.500 F600.000
G2 X-5.301 Y39.844 Z-1.500 I-1.559 J-0.240 K0.000 F600.000
G2 X-5.625 Y39.628 Z-1.500 I-0.323 J0.134 K0.000 F600.000
G1 X-7.222 Y39.628 Z-1.500 F600.000
G2 X-7.330 Y39.541 Z-1.500 I-0.097 J0.010 K0.000 F600.000
G1 X-7.330 Y39.628 Z-1.500 F600.000
G1 X-7.222 Y39.628 Z-1.500 F600.000
G1 X-7.330 Y39.628 Z-1.500 F600.000
G1 X-7.330 Y39.541 Z-1.500 F600.000
G1 X-5.625 Y39.541 Z-1.500 F600.000
G2 X-5.275 Y39.191 Z-1.500 I-0.000 J-0.350 K0.000 F600.000
G1 X-5.275 Y38.228 Z-1.500 F600.000
G2 X-5.625 Y37.878 Z-1.500 I-0.350 J0.000 K0.000 F600.000
G1 X-7.505 Y37.878 Z-1.500 F600.000
G1 X-7.505 Y37.791 Z-1.500 F600.000
G1 X-2.695 Y37.791 Z-1.500 F600.000
G1 X-2.695 Y37.878 Z-1.500 F600.000
G1 X-4.750 Y37.878 Z-1.500 F600.000
G2 X-5.100 Y38.228 Z-1.500 I0.000 J0.350 K0.000 F600.000
G1 X-5.100 Y39.191 Z-1.500 F600.000
G2 X-4.750 Y39.541 Z-1.500 I0.350 J0.000 K0.000 F600.000
G1 X-3.001 Y39.541 Z-1.500 F600.000
G1 X-3.001 Y39.628 Z-1.500 F600.000
G1 X-4.750 Y39.628 Z-1.500 F600.000
G2 X-5.100 Y39.978 Z-1.500 I-0.000 J0.350 K0.000 F600.000
G1 X-5.100 Y40.459 Z-1.500 F600.000
G1 X-5.275 Y40.459 Z-1.500 F600.000
G2 X-5.301 Y39.844 Z-1.500 I-1.559 J-0.240 K0.000 F600.000
G2 X-5.625 Y39.628 Z-1.500 I-0.323 J0.134 K0.000 F600.000
G1 X-7.222 Y39.628 Z-1.500 F600.000
G1 X-7.222 Y39.628 Z-2.000 F600.000
G1 X-5.625 Y39.628 Z-2.000 F600.000
G3 X-5.301 Y39.844 Z-2.000 I0.000 J0.350 K0.000 F600.000
G3 X-5.275 Y40.459 Z-2.000 I-1.532 J0.374 K0.000 F600.000
G1 X-5.100 Y40.459 Z-2.000 F600.000
G1 X-5.100 Y39.978 Z-2.000 F600.000
G3 X-4.750 Y39.628 Z-2.000 I0.350 J-0.000 K0.000 F600.000
G1 X-3.001 Y39.628 Z-2.000 F600.000
G1 X-3.001 Y39.541 Z-2.000 F600.000
G1 X-4.750 Y39.541 Z-2.000 F600.000
G3 X-5.100 Y39.191 Z-2.000 I0.000 J-0.350 K0.000 F600.000
G1 X-5.100 Y38.228 Z-2.000 F600.000
G3 X-4.750 Y37.878 Z-2.000 I0.350 J-0.000 K0.000 F600.000
G1 X-2.695 Y37.878 Z-2.000 F600.000
G1 X-2.695 Y37.791 Z-2.000 F600.000
G1 X-7.505 Y37.791 Z-2.000 F600.000
G1 X-7.505 Y37.878 Z-2.000 F600.000
G1 X-5.625 Y37.878 Z-2.000 F600.000
G3 X-5.275 Y38.228 Z-2.000 I-0.000 J0.350 K0.000 F600.000
G1 X-5.275 Y39.191 Z-2.000 F600.000
G3 X-5.625 Y39.541 Z-2.000 I-0.350 J-0.000 K0.000 F600.000
G1 X-7.330 Y39.541 Z-2.000 F600.000
G1 X-7.330 Y39.628 Z-2.000 F600.000
G1 X-7.222 Y39.628 Z-2.000 F600.000
G1 X-7.330 Y39.628 Z-2.000 F600.000
G1 X-7.330 Y39.541 Z-2.000 F600.000
G3 X-7.222 Y39.628 Z-2.000 I0.010 J0.097 K0.000 F600.000
G1 X-5.625 Y39.628 Z-2.000 F600.000
G3 X-5.301 Y39.844 Z-2.000 I0.000 J0.350 K0.000 F600.000
G3 X-5.275 Y40.459 Z-2.000 I-1.532 J0.374 K0.000 F600.000
G1 X-5.100 Y40.459 Z-2.000 F600.000
G1 X-5.100 Y39.978 Z-2.000 F600.000
G3 X-4.998 Y39.731 Z-2.000 I0.349 J-0.000 K0.000 F600.000
G1 X-5.343 Y39.386 Z-2.000 F600.000
G0 Z5.000
G0 X-6.938 Y37.791 Z5.000
G0 X-6.938 Y37.791 Z3.000
G1 X-6.938 Y37.791 Z-1.500 F600.000
G1 X-6.850 Y37.878 Z-1.500 F600.000
G1 X-7.505 Y37.878 Z-1.500 F600.000
G1 X-7.505 Y37.791 Z-1.500 F600.000
G1 X-6.938 Y37.791 Z-1.500 F600.000
G1 X-4.816 Y37.791 Z-1.500 F600.000
G1 X-4.729 Y37.878 Z-1.500 F600.000
G2 X-5.100 Y38.228 Z-1.500 I-0.019 J0.351 K0.000 F600.000
G1 X-5.100 Y39.191 Z-1.500 F600.000
G2 X-4.750 Y39.541 Z-1.500 I0.350 J-0.000 K0.000 F600.000
G1 X-3.067 Y39.541 Z-1.500 F600.000
G1 X-3.001 Y39.607 Z-1.500 F600.000
G2 X-3.067 Y39.541 Z-1.500 I-0.033 J-0.033 K0.000 F600.000
G1 X-3.067 Y39.541 Z-2.000 F600.000
G3 X-3.001 Y39.607 Z-2.000 I0.033 J0.033 K0.000 F600.000
G1 X-3.067 Y39.541 Z-2.000 F600.000
G1 X-4.750 Y39.541 Z-2.000 F600.000
G3 X-5.100 Y39.191 Z-2.000 I0.000 J-0.350 K0.000 F600.000
G1 X-5.100 Y38.228 Z-2.000 F600.000
G3 X-4.729 Y37.878 Z-2.000 I0.352 J0.001 K0.000 F600.000
G1 X-4.816 Y37.791 Z-2.000 F600.000
G1 X-6.938 Y37.791 Z-2.000 F600.000
G1 X-7.505 Y37.791 Z-2.000 F600.000
G1 X-7.505 Y37.878 Z-2.000 F600.000
G1 X-6.850 Y37.878 Z-2.000 F600.000
G1 X-6.938 Y37.791 Z-2.000 F600.000
G0 Z5.000
G0 Z5.000
G0 X-6.938 Y37.791
G0 X-8.992 Y40.190
G0 X-8.992 Y40.190 Z3.000
G1 X-8.992 Y40.190 Z-1.500 F600.000
G1 X-8.992 Y41.727 Z-1.500 F600.000
G1 X-1.295 Y41.727 Z-1.500 F600.000
G1 X-1.295 Y33.483 Z-1.500 F600.000
G1 X-1.343 Y33.099 Z-1.500 F600.000
G2 X-1.807 Y32.727 Z-1.500 I-0.455 J0.092 K0.000 F600.000
G2 X-3.254 Y32.785 Z-1.500 I-0.442 J6.966 K0.000 F600.000
G1 X-3.274 Y32.857 Z-1.500 F600.000
G3 X-2.138 Y32.806 Z-1.500 I1.211 J14.176 K0.000 F600.000
G3 X-1.923 Y32.844 Z-1.500 I0.003 J0.605 K0.000 F600.000
G3 X-1.470 Y33.719 Z-1.500 I-0.379 J0.751 K0.000 F600.000
G3 X-1.470 Y41.246 Z-1.500 I-531.662 J3.766 K0.000 F600.000
G3 X-1.820 Y41.596 Z-1.500 I-0.350 J-0.000 K0.000 F600.000
G1 X-8.467 Y41.596 Z-1.500 F600.000
G3 X-8.817 Y41.246 Z-1.500 I0.000 J-0.350 K0.000 F600.000
G1 X-8.817 Y37.622 Z-1.500 F600.000
G2 X-9.755 Y32.834 Z-1.500 I-11.633 J-0.209 K0.000 F600.000
G1 X-10.001 Y32.989 Z-1.500 F600.000
G3 X-9.004 Y37.232 Z-1.500 I-9.221 J4.404 K0.000 F600.000
G3 X-8.992 Y40.190 Z-1.500 I-82.741 J1.823 K0.000 F600.000
G1 X-8.817 Y40.364 Z-1.500 F600.000
G1 X-8.817 Y38.243 Z-1.500 F600.000
G1 X-8.992 Y38.068 Z-1.500 F600.000
G2 X-9.131 Y35.808 Z-1.500 I-15.353 J-0.193 K0.000 F600.000
G1 X-8.914 Y36.025 Z-1.500 F600.000
G2 X-9.604 Y33.214 Z-1.500 I-10.250 J1.026 K0.000 F600.000
G1 X-9.895 Y32.922 Z-1.500 F600.000
G1 X-9.755 Y32.834 Z-1.500 F600.000
G3 X-9.604 Y33.214 Z-1.500 I-2.812 J1.336 K0.000 F600.000
G1 X-9.604 Y33.214 Z-2.000 F600.000
G2 X-9.755 Y32.834 Z-2.000 I-2.963 J0.956 K0.000 F600.000
G1 X-9.895 Y32.922 Z-2.000 F600.000
G1 X-9.604 Y33.214 Z-2.000 F600.000
G3 X-8.914 Y36.025 Z-2.000 I-9.559 J3.837 K0.000 F600.000
G1 X-9.131 Y35.808 Z-2.000 F600.000
G3 X-8.992 Y38.068 Z-2.000 I-15.215 J2.067 K0.000 F600.000
G1 X-8.817 Y38.243 Z-2.000 F600.000
G1 X-8.817 Y40.364 Z-2.000 F600.000
G1 X-8.992 Y40.190 Z-2.000 F600.000
G2 X-9.004 Y37.232 Z-2.000 I-82.753 J-1.135 K0.000 F600.000
G2 X-10.001 Y32.989 Z-2.000 I-10.217 J0.161 K0.000 F600.000
G1 X-9.755 Y32.834 Z-2.000 F600.000
G3 X-8.817 Y37.622 Z-2.000 I-10.695 J4.580 K0.000 F600.000
G1 X-8.817 Y41.246 Z-2.000 F600.000
G2 X-8.467 Y41.596 Z-2.000 I0.350 J-0.000 K0.000 F600.000
G1 X-1.820 Y41.596 Z-2.000 F600.000
G2 X-1.470 Y41.246 Z-2.000 I-0.000 J-0.350 K0.000 F600.000
G2 X-1.470 Y33.719 Z-2.000 I-531.662 J-3.761 K0.000 F600.000
G2 X-1.923 Y32.844 Z-2.000 I-0.832 J-0.124 K0.000 F600.000
G2 X-2.138 Y32.806 Z-2.000 I-0.212 J0.567 K0.000 F600.000
G2 X-3.274 Y32.857 Z-2.000 I0.075 J14.227 K0.000 F600.000
G1 X-3.254 Y32.785 Z-2.000 F600.000
G3 X-1.807 Y32.727 Z-2.000 I1.005 J6.908 K0.000 F600.000
G3 X-1.343 Y33.099 Z-2.000 I0.009 J0.464 K0.000 F600.000
G1 X-1.295 Y33.483 Z-2.000 F600.000
G1 X-1.295 Y41.727 Z-2.000 F600.000
G1 X-8.992 Y41.727 Z-2.000 F600.000
G1 X-8.992 Y40.190 Z-2.000 F600.000
G0 Z5.000
G0 X-7.455 Y41.727 Z5.000
G0 X-7.455 Y41.727 Z3.000
G1 X-7.455 Y41.727 Z-1.500 F600.000
G1 X-8.992 Y41.727 Z-1.500 F600.000
G1 X-8.992 Y40.190 Z-1.500 F600.000
G1 X-8.817 Y40.364 Z-1.500 F600.000
G1 X-8.817 Y41.246 Z-1.500 F600.000
G2 X-8.467 Y41.596 Z-1.500 I0.350 J-0.000 K0.000 F600.000
G1 X-7.586 Y41.596 Z-1.500 F600.000
G1 X-7.455 Y41.727 Z-1.500 F600.000
G1 X-5.333 Y41.727 Z-1.500 F600.000
G1 X-5.464 Y41.596 Z-1.500 F600.000
G1 X-3.343 Y41.596 Z-1.500 F600.000
G1 X-3.212 Y41.727 Z-1.500 F600.000
G1 X-1.295 Y41.727 Z-1.500 F600.000
G1 X-1.295 Y41.522 Z-1.500 F600.000
G1 X-1.487 Y41.331 Z-1.500 F600.000
G1 X-1.470 Y41.246 Z-1.500 F600.000
G1 X-1.470 Y39.226 Z-1.500 F600.000
G1 X-1.295 Y39.401 Z-1.500 F600.000
G1 X-1.295 Y37.280 Z-1.500 F600.000
G1 X-1.470 Y37.105 Z-1.500 F600.000
G1 X-1.470 Y34.984 Z-1.500 F600.000
G1 X-1.295 Y35.158 Z-1.500 F600.000
G1 X-1.295 Y33.483 Z-1.500 F600.000
G2 X-1.461 Y32.871 Z-1.500 I-0.907 J-0.083 K0.000 F600.000
G1 X-1.461 Y32.871 Z-2.000 F600.000
G3 X-1.295 Y33.483 Z-2.000 I-0.741 J0.529 K0.000 F600.000
G1 X-1.295 Y35.158 Z-2.000 F600.000
G1 X-1.470 Y34.984 Z-2.000 F600.000
G1 X-1.470 Y37.105 Z-2.000 F600.000
G1 X-1.295 Y37.280 Z-2.000 F600.000
G1 X-1.295 Y39.401 Z-2.000 F600.000
G1 X-1.470 Y39.226 Z-2.000 F600.000
G1 X-1.470 Y41.246 Z-2.000 F600.000
G1 X-1.487 Y41.331 Z-2.000 F600.000
G1 X-1.295 Y41.522 Z-2.000 F600.000
G1 X-1.295 Y41.727 Z-2.000 F600.000
G1 X-3.212 Y41.727 Z-2.000 F600.000
G1 X-3.343 Y41.596 Z-2.000 F600.000
G1 X-5.464 Y41.596 Z-2.000 F600.000
G1 X-5.333 Y41.727 Z-2.000 F600.000
G1 X-7.455 Y41.727 Z-2.000 F600.000
G1 X-7.586 Y41.596 Z-2.000 F600.000
G1 X-8.467 Y41.596 Z-2.000 F600.000
G3 X-8.817 Y41.246 Z-2.000 I0.000 J-0.350 K0.000 F600.000
G1 X-8.817 Y40.364 Z-2.000 F600.000
G1 X-8.992 Y40.190 Z-2.000 F600.000
G1 X-8.992 Y41.727 Z-2.000 F600.000
G1 X-7.455 Y41.727 Z-2.000 F600.000
G0 Z5.000
G0 Z5.000
G0 X-7.455 Y41.727
G0 X1.677 Y37.748
G0 X1.677 Y37.748 Z3.000
G1 X1.677 Y37.748 Z-1.500 F600.000
G1 X1.547 Y37.748 Z-1.500 F600.000
G1 X1.547 Y37.878 Z-1.500 F600.000
G1 X10.162 Y37.878 Z-1.500 F600.000
G1 X10.162 Y37.748 Z-1.500 F600.000
G1 X1.547 Y37.748 Z-1.500 F600.000
G1 X1.547 Y37.878 Z-1.500 F600.000
G1 X1.808 Y37.878 Z-1.500 F600.000
G1 X1.677 Y37.748 Z-1.500 F600.000
G1 X3.798 Y37.748 Z-1.500 F600.000
G1 X3.929 Y37.878 Z-1.500 F600.000
G1 X6.050 Y37.878 Z-1.500 F600.000
G1 X5.920 Y37.748 Z-1.500 F600.000
G1 X8.041 Y37.748 Z-1.500 F600.000
G1 X8.172 Y37.878 Z-1.500 F600.000
G1 X10.162 Y37.878 Z-1.500 F600.000
G1 X10.162 Y37.748 Z-1.500 F600.000
G1 X10.162 Y37.748 Z-2.000 F600.000
G1 X10.162 Y37.878 Z-2.000 F600.000
G1 X8.172 Y37.878 Z-2.000 F600.000
G1 X8.041 Y37.748 Z-2.000 F600.000
G1 X5.920 Y37.748 Z-2.000 F600.000
G1 X6.050 Y37.878 Z-2.000 F600.000
G1 X3.929 Y37.878 Z-2.000 F600.000
G1 X3.798 Y37.748 Z-2.000 F600.000
G1 X1.677 Y37.748 Z-2.000 F600.000
G1 X1.808 Y37.878 Z-2.000 F600.000
G1 X1.547 Y37.878 Z-2.000 F600.000
G1 X1.547 Y37.748 Z-2.000 F600.000
G1 X10.162 Y37.748 Z-2.000 F600.000
G1 X10.162 Y37.878 Z-2.000 F600.000
G1 X1.547 Y37.878 Z-2.000 F600.000
G1 X1.547 Y37.748 Z-2.000 F600.000
G1 X1.677 Y37.748 Z-2.000 F600.000
G0 Z5.000
G0 Z5.000
(Finish operation: Pocket_Shape)
(Begin operation: Pocket_Shape001)
(Path: Pocket_Shape001)
(Pocket_Shape001)
G0 Z5.000
G0 X-16.661 Y-28.957
G0 Z3.000
G1 X-16.661 Y-28.957 Z-1.500 F600.000
G1 X-14.962 Y-29.826 Z-1.500 F600.000
G1 X-15.067 Y-30.032 Z-1.500 F600.000
G1 X-16.863 Y-29.113 Z-1.500 F600.000
G3 X-17.232 Y-29.190 Z-1.500 I-0.137 J-0.267 K0.000 F600.000
G1 X-19.725 Y-32.237 Z-1.500 F600.000
G3 X-19.630 Y-32.694 Z-1.500 I0.232 J-0.190 K0.000 F600.000
G1 X-17.833 Y-33.613 Z-1.500 F600.000
G1 X-17.939 Y-33.819 Z-1.500 F600.000
G1 X-19.891 Y-32.820 Z-1.500 F600.000
G3 X-20.256 Y-32.893 Z-1.500 I-0.137 J-0.267 K0.000 F600.000
G1 X-21.997 Y-34.950 Z-1.500 F600.000
G3 X-21.904 Y-35.411 Z-1.500 I0.229 J-0.194 K0.000 F600.000
G1 X-19.057 Y-36.868 Z-1.500 F600.000
G1 X-19.162 Y-37.074 Z-1.500 F600.000
G1 X-26.570 Y-33.283 Z-1.500 F600.000
G1 X-26.465 Y-33.077 Z-1.500 F600.000
G1 X-22.683 Y-35.012 Z-1.500 F600.000
G3 X-22.317 Y-34.939 Z-1.500 I0.137 J0.267 K0.000 F600.000
G1 X-20.577 Y-32.882 Z-1.500 F600.000
G3 X-20.669 Y-32.421 Z-1.500 I-0.229 J0.194 K0.000 F600.000
G1 X-24.139 Y-30.646 Z-1.500 F600.000
G1 X-22.144 Y-26.747 Z-1.500 F600.000
G3 X-22.275 Y-26.343 Z-1.500 I-0.267 J0.137 K0.000 F600.000
G1 X-23.253 Y-25.842 Z-1.500 F600.000
G1 X-23.148 Y-25.637 Z-1.500 F600.000
G1 X-16.661 Y-28.957 Z-1.500 F600.000
G0 Z5.000
G0 X-17.479 Y-28.975 Z5.000
G0 X-17.479 Y-28.975 Z3.000
G1 X-17.479 Y-28.975 Z-1.500 F600.000
G3 X-17.642 Y-28.714 Z-1.500 I-0.300 J-0.007 K0.000 F600.000
G1 X-21.496 Y-26.742 Z-1.500 F600.000
G3 X-21.900 Y-26.872 Z-1.500 I-0.137 J-0.267 K0.000 F600.000
G1 X-23.653 Y-30.298 Z-1.500 F600.000
G3 X-23.523 Y-30.702 Z-1.500 I0.267 J-0.137 K0.000 F600.000
G1 X-20.408 Y-32.296 Z-1.500 F600.000
G1 X-20.311 Y-32.326 Z-1.500 F600.000
G3 X-20.039 Y-32.218 Z-1.500 I0.040 J0.297 K0.000 F600.000
G1 X-17.546 Y-29.171 Z-1.500 F600.000
G3 X-17.479 Y-28.975 Z-1.500 I-0.232 J0.190 K0.000 F600.000
G0 Z5.000
G0 X-15.924 Y-29.593 Z5.000
G0 X-15.924 Y-29.593 Z3.000
G1 X-15.924 Y-29.593 Z-1.500 F600.000
G1 X-15.067 Y-30.032 Z-1.500 F600.000
G1 X-14.962 Y-29.826 Z-1.500 F600.000
G1 X-15.753 Y-29.422 Z-1.500 F600.000
G1 X-15.924 Y-29.593 Z-1.500 F600.000
G0 Z5.000
G0 X-19.230 Y-32.899 Z5.000
G0 X-19.230 Y-32.899 Z3.000
G1 X-19.230 Y-32.899 Z-1.500 F600.000
G1 X-19.401 Y-33.070 Z-1.500 F600.000
G1 X-17.998 Y-33.788 Z-1.500 F600.000
G1 X-17.844 Y-33.634 Z-1.500 F600.000
G1 X-17.939 Y-33.819 Z-1.500 F600.000
G1 X-17.998 Y-33.788 Z-1.500 F600.000
G0 Z5.000
G0 X-20.633 Y-32.181 Z5.000
G0 X-20.633 Y-32.181 Z3.000
G1 X-20.633 Y-32.181 Z-1.500 F600.000
G1 X-20.805 Y-32.352 Z-1.500 F600.000
G1 X-22.208 Y-31.634 Z-1.500 F600.000
G1 X-22.036 Y-31.462 Z-1.500 F600.000
G1 X-23.439 Y-30.744 Z-1.500 F600.000
G1 X-23.611 Y-30.916 Z-1.500 F600.000
G1 X-24.139 Y-30.646 Z-1.500 F600.000
G1 X-22.753 Y-27.937 Z-1.500 F600.000
G1 X-22.121 Y-27.305 Z-1.500 F600.000
G2 X-21.827 Y-26.780 Z-1.500 I1.465 J-0.477 K0.000 F600.000
G2 X-21.544 Y-26.728 Z-1.500 I0.181 J-0.185 K0.000 F600.000
G1 X-21.366 Y-26.549 Z-1.500 F600.000
G1 X-22.769 Y-25.831 Z-1.500 F600.000
G1 X-22.940 Y-26.003 Z-1.500 F600.000
G1 X-23.253 Y-25.842 Z-1.500 F600.000
G1 X-23.148 Y-25.637 Z-1.500 F600.000
G1 X-22.769 Y-25.831 Z-1.500 F600.000
G0 Z5.000
G0 X-21.366 Y-26.549 Z5.000
G0 X-21.366 Y-26.549 Z3.000
G1 X-21.366 Y-26.549 Z-1.500 F600.000
G1 X-21.544 Y-26.728 Z-1.500 F600.000
G1 X-21.496 Y-26.742 Z-1.500 F600.000
G1 X-20.134 Y-27.439 Z-1.500 F600.000
G1 X-19.962 Y-27.267 Z-1.500 F600.000
G1 X-18.559 Y-27.985 Z-1.500 F600.000
G1 X-18.731 Y-28.157 Z-1.500 F600.000
G1 X-17.642 Y-28.714 Z-1.500 F600.000
G2 X-17.487 Y-29.035 Z-1.500 I-0.132 J-0.262 K0.000 F600.000
G1 X-17.156 Y-28.703 Z-1.500 F600.000
G1 X-15.753 Y-29.422 Z-1.500 F600.000
G1 X-15.924 Y-29.593 Z-1.500 F600.000
G1 X-16.863 Y-29.113 Z-1.500 F600.000
G3 X-17.232 Y-29.190 Z-1.500 I-0.137 J-0.267 K0.000 F600.000
G1 X-19.725 Y-32.237 Z-1.500 F600.000
G3 X-19.731 Y-32.609 Z-1.500 I0.232 J-0.190 K0.000 F600.000
G3 X-19.230 Y-32.899 Z-1.500 I0.890 J0.962 K0.000 F600.000
G1 X-19.401 Y-33.070 Z-1.500 F600.000
G1 X-19.891 Y-32.820 Z-1.500 F600.000
G3 X-20.256 Y-32.893 Z-1.500 I-0.137 J-0.267 K0.000 F600.000
G1 X-21.997 Y-34.950 Z-1.500 F600.000
G3 X-21.797 Y-35.466 Z-1.500 I0.251 J-0.199 K0.000 F600.000
G1 X-21.969 Y-35.637 Z-1.500 F600.000
G1 X-20.565 Y-36.355 Z-1.500 F600.000
G1 X-20.394 Y-36.184 Z-1.500 F600.000
G1 X-19.057 Y-36.868 Z-1.500 F600.000
G1 X-19.162 Y-37.074 Z-1.500 F600.000
G0 Z5.000
G0 X-23.200 Y-34.748 Z5.000
G0 X-23.200 Y-34.748 Z3.000
G1 X-23.200 Y-34.748 Z-1.500 F600.000
G1 X-23.372 Y-34.919 Z-1.500 F600.000
G1 X-24.775 Y-34.201 Z-1.500 F600.000
G1 X-24.603 Y-34.030 Z-1.500 F600.000
G1 X-26.007 Y-33.312 Z-1.500 F600.000
G1 X-26.178 Y-33.483 Z-1.500 F600.000
G1 X-26.570 Y-33.283 Z-1.500 F600.000
G1 X-26.465 Y-33.077 Z-1.500 F600.000
G1 X-26.007 Y-33.312 Z-1.500 F600.000
G1 X-26.007 Y-33.312 Z-2.000 F600.000
G1 X-26.465 Y-33.077 Z-2.000 F600.000
G1 X-26.570 Y-33.283 Z-2.000 F600.000
G1 X-26.178 Y-33.483 Z-2.000 F600.000
G1 X-26.007 Y-33.312 Z-2.000 F600.000
G1 X-24.603 Y-34.030 Z-2.000 F600.000
G1 X-24.775 Y-34.201 Z-2.000 F600.000
G1 X-23.372 Y-34.919 Z-2.000 F600.000
G1 X-23.200 Y-34.748 Z-2.000 F600.000
G1 X-23.200 Y-34.748 Z-2.000 F600.000
G1 X-22.683 Y-35.012 Z-2.000 F600.000
G3 X-22.317 Y-34.939 Z-2.000 I0.137 J0.267 K0.000 F600.000
G1 X-20.577 Y-32.882 Z-2.000 F600.000
G3 X-20.669 Y-32.421 Z-2.000 I-0.229 J0.194 K0.000 F600.000
G1 X-24.139 Y-30.646 Z-2.000 F600.000
G1 X-22.144 Y-26.747 Z-2.000 F600.000
G3 X-22.275 Y-26.343 Z-2.000 I-0.267 J0.137 K0.000 F600.000
G1 X-23.253 Y-25.842 Z-2.000 F600.000
G1 X-23.148 Y-25.637 Z-2.000 F600.000
G1 X-14.962 Y-29.826 Z-2.000 F600.000
G1 X-15.067 Y-30.032 Z-2.000 F600.000
G1 X-16.863 Y-29.113 Z-2.000 F600.000
G3 X-17.232 Y-29.190 Z-2.000 I-0.137 J-0.267 K0.000 F600.000
G1 X-19.725 Y-32.237 Z-2.000 F600.000
G3 X-19.630 Y-32.694 Z-2.000 I0.232 J-0.190 K0.000 F600.000
G1 X-17.833 Y-33.613 Z-2.000 F600.000
G1 X-17.939 Y-33.819 Z-2.000 F600.000
G1 X-19.891 Y-32.820 Z-2.000 F600.000
G3 X-20.256 Y-32.893 Z-2.000 I-0.137 J-0.267 K0.000 F600.000
G1 X-21.997 Y-34.950 Z-2.000 F600.000
G3 X-21.904 Y-35.411 Z-2.000 I0.229 J-0.194 K0.000 F600.000
G1 X-19.057 Y-36.868 Z-2.000 F600.000
G1 X-19.162 Y-37.074 Z-2.000 F600.000
G1 X-26.570 Y-33.283 Z-2.000 F600.000
G1 X-26.465 Y-33.077 Z-2.000 F600.000
G1 X-23.200 Y-34.748 Z-2.000 F600.000
G0 Z5.000
G0 X-21.626 Y-31.672 Z5.000
G0 X-21.626 Y-31.672 Z3.000
G1 X-21.626 Y-31.672 Z-2.000 F600.000
G1 X-20.408 Y-32.296 Z-2.000 F600.000
G1 X-20.311 Y-32.326 Z-2.000 F600.000
G3 X-20.039 Y-32.218 Z-2.000 I0.040 J0.297 K0.000 F600.000
G1 X-17.546 Y-29.171 Z-2.000 F600.000
G3 X-17.642 Y-28.714 Z-2.000 I-0.232 J0.190 K0.000 F600.000
G1 X-21.496 Y-26.742 Z-2.000 F600.000
G3 X-21.900 Y-26.872 Z-2.000 I-0.137 J-0.267 K0.000 F600.000
G1 X-23.653 Y-30.298 Z-2.000 F600.000
G3 X-23.523 Y-30.702 Z-2.000 I0.267 J-0.137 K0.000 F600.000
G1 X-21.626 Y-31.672 Z-2.000 F600.000
G0 Z5.000
G0 X-20.633 Y-32.181 Z5.000
G0 X-20.633 Y-32.181 Z3.000
G1 X-20.633 Y-32.181 Z-2.000 F600.000
G1 X-20.805 Y-32.352 Z-2.000 F600.000
G1 X-22.208 Y-31.634 Z-2.000 F600.000
G1 X-22.036 Y-31.462 Z-2.000 F600.000
G1 X-23.439 Y-30.744 Z-2.000 F600.000
G1 X-23.611 Y-30.916 Z-2.000 F600.000
G1 X-24.139 Y-30.646 Z-2.000 F600.000
G1 X-22.753 Y-27.937 Z-2.000 F600.000
G1 X-22.121 Y-27.305 Z-2.000 F600.000
G2 X-21.827 Y-26.780 Z-2.000 I1.465 J-0.477 K0.000 F600.000
G2 X-21.544 Y-26.728 Z-2.000 I0.181 J-0.185 K0.000 F600.000
G1 X-21.366 Y-26.549 Z-2.000 F600.000
G1 X-22.769 Y-25.831 Z-2.000 F600.000
G1 X-22.940 Y-26.003 Z-2.000 F600.000
G1 X-23.253 Y-25.842 Z-2.000 F600.000
G1 X-23.148 Y-25.637 Z-2.000 F600.000
G1 X-22.769 Y-25.831 Z-2.000 F600.000
G0 Z5.000
G0 X-21.366 Y-26.549 Z5.000
G0 X-21.366 Y-26.549 Z3.000
G1 X-21.366 Y-26.549 Z-2.000 F600.000
G1 X-21.544 Y-26.728 Z-2.000 F600.000
G1 X-21.496 Y-26.742 Z-2.000 F600.000
G1 X-20.134 Y-27.439 Z-2.000 F600.000
G1 X-19.962 Y-27.267 Z-2.000 F600.000
G1 X-18.559 Y-27.985 Z-2.000 F600.000
G1 X-18.731 Y-28.157 Z-2.000 F600.000
G1 X-17.642 Y-28.714 Z-2.000 F600.000
G2 X-17.487 Y-29.035 Z-2.000 I-0.132 J-0.262 K0.000 F600.000
G1 X-17.156 Y-28.703 Z-2.000 F600.000
G1 X-15.753 Y-29.422 Z-2.000 F600.000
G1 X-15.924 Y-29.593 Z-2.000 F600.000
G1 X-16.863 Y-29.113 Z-2.000 F600.000
G3 X-17.232 Y-29.190 Z-2.000 I-0.137 J-0.267 K0.000 F600.000
G1 X-19.725 Y-32.237 Z-2.000 F600.000
G3 X-19.731 Y-32.609 Z-2.000 I0.232 J-0.190 K0.000 F600.000
G3 X-19.230 Y-32.899 Z-2.000 I0.890 J0.962 K0.000 F600.000
G1 X-19.401 Y-33.070 Z-2.000 F600.000
G1 X-19.891 Y-32.820 Z-2.000 F600.000
G3 X-20.256 Y-32.893 Z-2.000 I-0.137 J-0.267 K0.000 F600.000
G1 X-21.997 Y-34.950 Z-2.000 F600.000
G3 X-21.797 Y-35.466 Z-2.000 I0.251 J-0.199 K0.000 F600.000
G1 X-21.969 Y-35.637 Z-2.000 F600.000
G1 X-20.565 Y-36.355 Z-2.000 F600.000
G1 X-20.394 Y-36.184 Z-2.000 F600.000
G1 X-19.057 Y-36.868 Z-2.000 F600.000
G1 X-19.162 Y-37.074 Z-2.000 F600.000
G0 Z5.000
G0 X-17.998 Y-33.788 Z5.000
G0 X-17.998 Y-33.788 Z3.000
G1 X-17.998 Y-33.788 Z-2.000 F600.000
G1 X-17.939 Y-33.819 Z-2.000 F600.000
G1 X-17.844 Y-33.634 Z-2.000 F600.000
G1 X-17.998 Y-33.788 Z-2.000 F600.000
G1 X-19.401 Y-33.070 Z-2.000 F600.000
G1 X-19.230 Y-32.899 Z-2.000 F600.000
G0 Z5.000
G0 X-15.924 Y-29.593 Z5.000
G0 X-15.924 Y-29.593 Z3.000
G1 X-15.924 Y-29.593 Z-2.000 F600.000
G1 X-15.067 Y-30.032 Z-2.000 F600.000
G1 X-14.962 Y-29.826 Z-2.000 F600.000
G1 X-15.753 Y-29.422 Z-2.000 F600.000
G1 X-15.924 Y-29.593 Z-2.000 F600.000
G0 Z5.000
G0 Z5.000
G0 X-15.924 Y-29.593
G0 X-11.438 Y-33.519
G0 X-11.438 Y-33.519 Z3.000
G1 X-11.438 Y-33.519 Z-1.500 F600.000
G3 X-11.479 Y-33.580 Z-1.500 I0.226 J-0.198 K0.000 F600.000
G1 X-12.017 Y-34.632 Z-1.500 F600.000
G3 X-11.887 Y-35.035 Z-1.500 I0.267 J-0.137 K0.000 F600.000
G1 X-9.590 Y-36.211 Z-1.500 F600.000
G1 X-9.477 Y-36.243 Z-1.500 F600.000
G3 X-9.186 Y-36.080 Z-1.500 I0.024 J0.299 K0.000 F600.000
G1 X-8.648 Y-35.029 Z-1.500 F600.000
G3 X-8.779 Y-34.625 Z-1.500 I-0.267 J0.137 K0.000 F600.000
G1 X-11.076 Y-33.450 Z-1.500 F600.000
G3 X-11.438 Y-33.519 Z-1.500 I-0.137 J-0.267 K0.000 F600.000
G0 Z5.000
G0 X-10.453 Y-33.608 Z5.000
G0 X-10.453 Y-33.608 Z3.000
G1 X-10.453 Y-33.608 Z-1.500 F600.000
G1 X-10.559 Y-33.714 Z-1.500 F600.000
G1 X-9.156 Y-34.432 Z-1.500 F600.000
G1 X-9.050 Y-34.326 Z-1.500 F600.000
G1 X-8.241 Y-34.740 Z-1.500 F600.000
G1 X-9.183 Y-36.580 Z-1.500 F600.000
G0 Z5.000
G0 X-10.479 Y-35.756 Z5.000
G0 X-10.479 Y-35.756 Z3.000
G1 X-10.479 Y-35.756 Z-1.500 F600.000
G1 X-10.586 Y-35.862 Z-1.500 F600.000
G1 X-11.989 Y-35.144 Z-1.500 F600.000
G1 X-11.883 Y-35.037 Z-1.500 F600.000
G2 X-12.017 Y-34.632 Z-1.500 I0.132 J0.269 K0.000 F600.000
G1 X-11.479 Y-33.580 Z-1.500 F600.000
G2 X-11.076 Y-33.450 Z-1.500 I0.267 J-0.137 K0.000 F600.000
G1 X-10.559 Y-33.714 Z-1.500 F600.000
G1 X-10.453 Y-33.608 Z-1.500 F600.000
G1 X-11.483 Y-33.080 Z-1.500 F600.000
G1 X-12.425 Y-34.921 Z-1.500 F600.000
G1 X-9.183 Y-36.580 Z-1.500 F600.000
G1 X-8.241 Y-34.740 Z-1.500 F600.000
G1 X-11.483 Y-33.080 Z-1.500 F600.000
G1 X-12.425 Y-34.921 Z-1.500 F600.000
G1 X-12.425 Y-34.921 Z-1.500 F600.000
G1 X-11.989 Y-35.144 Z-1.500 F600.000
G1 X-11.989 Y-35.144 Z-2.000 F600.000
G1 X-12.425 Y-34.921 Z-2.000 F600.000
G1 X-12.425 Y-34.921 Z-2.000 F600.000
G1 X-11.483 Y-33.080 Z-2.000 F600.000
G1 X-8.241 Y-34.740 Z-2.000 F600.000
G1 X-9.183 Y-36.580 Z-2.000 F600.000
G1 X-12.425 Y-34.921 Z-2.000 F600.000
G1 X-11.483 Y-33.080 Z-2.000 F600.000
G1 X-10.453 Y-33.608 Z-2.000 F600.000
G1 X-10.559 Y-33.714 Z-2.000 F600.000
G1 X-11.076 Y-33.450 Z-2.000 F600.000
G3 X-11.479 Y-33.580 Z-2.000 I-0.137 J-0.267 K0.000 F600.000
G1 X-12.017 Y-34.632 Z-2.000 F600.000
G3 X-11.883 Y-35.037 Z-2.000 I0.267 J-0.137 K0.000 F600.000
G1 X-11.989 Y-35.144 Z-2.000 F600.000
G1 X-10.586 Y-35.862 Z-2.000 F600.000
G1 X-10.479 Y-35.756 Z-2.000 F600.000
G0 Z5.000
G0 Z5.000
G0 Z3.000
G1 X-10.479 Y-35.756 Z-2.000 F600.000
G1 X-9.590 Y-36.211 Z-2.000 F600.000
G1 X-9.477 Y-36.243 Z-2.000 F600.000
G3 X-9.186 Y-36.080 Z-2.000 I0.024 J0.299 K0.000 F600.000
G1 X-8.648 Y-35.029 Z-2.000 F600.000
G3 X-8.779 Y-34.625 Z-2.000 I-0.267 J0.137 K0.000 F600.000
G1 X-11.076 Y-33.450 Z-2.000 F600.000
G3 X-11.479 Y-33.580 Z-2.000 I-0.137 J-0.267 K0.000 F600.000
G1 X-12.017 Y-34.632 Z-2.000 F600.000
G3 X-11.887 Y-35.035 Z-2.000 I0.267 J-0.137 K0.000 F600.000
G1 X-10.479 Y-35.756 Z-2.000 F600.000
G0 Z5.000
G0 X-9.183 Y-36.580 Z5.000
G0 X-9.183 Y-36.580 Z3.000
G1 X-9.183 Y-36.580 Z-2.000 F600.000
G1 X-8.241 Y-34.740 Z-2.000 F600.000
G1 X-9.050 Y-34.326 Z-2.000 F600.000
G1 X-9.156 Y-34.432 Z-2.000 F600.000
G1 X-10.559 Y-33.714 Z-2.000 F600.000
G1 X-10.453 Y-33.608 Z-2.000 F600.000
G0 Z5.000
G0 Z5.000
G0 X-10.453 Y-33.608
G0 X-13.019 Y-36.028
G0 X-13.019 Y-36.028 Z3.000
G1 X-13.019 Y-36.028 Z-1.500 F600.000
G1 X-9.210 Y-37.977 Z-1.500 F600.000
G1 X-9.295 Y-38.144 Z-1.500 F600.000
G1 X-11.014 Y-37.264 Z-1.500 F600.000
G3 X-11.417 Y-37.395 Z-1.500 I-0.137 J-0.267 K0.000 F600.000
G1 X-11.856 Y-38.251 Z-1.500 F600.000
G3 X-11.725 Y-38.655 Z-1.500 I0.267 J-0.137 K0.000 F600.000
G1 X-10.163 Y-39.455 Z-1.500 F600.000
G1 X-10.248 Y-39.621 Z-1.500 F600.000
G1 X-11.810 Y-38.822 Z-1.500 F600.000
G3 X-12.142 Y-38.860 Z-1.500 I-0.137 J-0.267 K0.000 F600.000
G3 X-12.456 Y-39.425 Z-1.500 I1.261 J-1.073 K0.000 F600.000
G1 X-12.701 Y-39.300 Z-1.500 F600.000
G1 X-12.459 Y-38.827 Z-1.500 F600.000
G3 X-12.589 Y-38.423 Z-1.500 I-0.267 J0.137 K0.000 F600.000
G1 X-14.191 Y-37.604 Z-1.500 F600.000
G1 X-14.105 Y-37.437 Z-1.500 F600.000
G1 X-12.504 Y-38.257 Z-1.500 F600.000
G3 X-12.100 Y-38.126 Z-1.500 I0.137 J0.267 K0.000 F600.000
G1 X-11.662 Y-37.270 Z-1.500 F600.000
G3 X-11.792 Y-36.866 Z-1.500 I-0.267 J0.137 K0.000 F600.000
G1 X-13.666 Y-35.907 Z-1.500 F600.000
G1 X-13.581 Y-35.740 Z-1.500 F600.000
G1 X-13.019 Y-36.028 Z-1.500 F600.000
G1 X-13.158 Y-36.167 Z-1.500 F600.000
G1 X-13.666 Y-35.907 Z-1.500 F600.000
G1 X-13.581 Y-35.740 Z-1.500 F600.000
G1 X-13.019 Y-36.028 Z-1.500 F600.000
G1 X-11.615 Y-36.746 Z-1.500 F600.000
G1 X-11.760 Y-36.891 Z-1.500 F600.000
G0 Z5.000
G0 X-10.351 Y-37.603 Z5.000
G0 X-10.351 Y-37.603 Z3.000
G1 X-10.351 Y-37.603 Z-1.500 F600.000
G1 X-9.295 Y-38.144 Z-1.500 F600.000
G1 X-9.210 Y-37.977 Z-1.500 F600.000
G1 X-10.212 Y-37.464 Z-1.500 F600.000
G1 X-10.351 Y-37.603 Z-1.500 F600.000
G1 X-11.014 Y-37.264 Z-1.500 F600.000
G3 X-11.417 Y-37.395 Z-1.500 I-0.137 J-0.267 K0.000 F600.000
G1 X-11.856 Y-38.251 Z-1.500 F600.000
G3 X-11.725 Y-38.655 Z-1.500 I0.267 J-0.137 K0.000 F600.000
G1 X-11.512 Y-38.764 Z-1.500 F600.000
G1 X-11.651 Y-38.903 Z-1.500 F600.000
G3 X-12.142 Y-38.860 Z-1.500 I-0.270 J-0.265 K0.000 F600.000
G3 X-12.456 Y-39.425 Z-1.500 I1.261 J-1.073 K0.000 F600.000
G1 X-12.701 Y-39.300 Z-1.500 F600.000
G3 X-12.427 Y-38.714 Z-1.500 I-1.334 J0.981 K0.000 F600.000
G3 X-12.589 Y-38.423 Z-1.500 I-0.299 J0.024 K0.000 F600.000
G1 X-13.054 Y-38.185 Z-1.500 F600.000
G1 X-14.191 Y-37.604 Z-1.500 F600.000
G1 X-14.105 Y-37.437 Z-1.500 F600.000
G1 X-12.915 Y-38.046 Z-1.500 F600.000
G1 X-13.054 Y-38.185 Z-1.500 F600.000
G0 Z5.000
G0 X-11.651 Y-38.903 Z5.000
G0 X-11.651 Y-38.903 Z3.000
G1 X-11.651 Y-38.903 Z-1.500 F600.000
G1 X-11.512 Y-38.764 Z-1.500 F600.000
G1 X-10.163 Y-39.455 Z-1.500 F600.000
G1 X-10.248 Y-39.621 Z-1.500 F600.000
G1 X-10.248 Y-39.621 Z-2.000 F600.000
G1 X-10.163 Y-39.455 Z-2.000 F600.000
G1 X-11.512 Y-38.764 Z-2.000 F600.000
G1 X-11.651 Y-38.903 Z-2.000 F600.000
G0 Z5.000
G0 X-13.054 Y-38.185 Z5.000
G0 X-13.054 Y-38.185 Z3.000
G1 X-13.054 Y-38.185 Z-2.000 F600.000
G1 X-12.915 Y-38.046 Z-2.000 F600.000
G1 X-14.105 Y-37.437 Z-2.000 F600.000
G1 X-14.191 Y-37.604 Z-2.000 F600.000
G1 X-13.054 Y-38.185 Z-2.000 F600.000
G1 X-12.589 Y-38.423 Z-2.000 F600.000
G2 X-12.427 Y-38.714 Z-2.000 I-0.137 J-0.267 K0.000 F600.000
G2 X-12.701 Y-39.300 Z-2.000 I-1.608 J0.396 K0.000 F600.000
G1 X-12.456 Y-39.425 Z-2.000 F600.000
G2 X-12.142 Y-38.860 Z-2.000 I1.576 J-0.508 K0.000 F600.000
G2 X-11.651 Y-38.903 Z-2.000 I0.220 J-0.308 K0.000 F600.000
G1 X-11.512 Y-38.764 Z-2.000 F600.000
G1 X-11.725 Y-38.655 Z-2.000 F600.000
G2 X-11.856 Y-38.251 Z-2.000 I0.137 J0.267 K0.000 F600.000
G1 X-11.417 Y-37.395 Z-2.000 F600.000
G2 X-11.014 Y-37.264 Z-2.000 I0.267 J-0.137 K0.000 F600.000
G1 X-10.351 Y-37.603 Z-2.000 F600.000
G1 X-10.212 Y-37.464 Z-2.000 F600.000
G1 X-9.210 Y-37.977 Z-2.000 F600.000
G1 X-9.295 Y-38.144 Z-2.000 F600.000
G1 X-10.351 Y-37.603 Z-2.000 F600.000
G0 Z5.000
G0 X-11.760 Y-36.891 Z5.000
G0 X-11.760 Y-36.891 Z3.000
G1 X-11.760 Y-36.891 Z-2.000 F600.000
G1 X-11.615 Y-36.746 Z-2.000 F600.000
G1 X-13.019 Y-36.028 Z-2.000 F600.000
G1 X-13.581 Y-35.740 Z-2.000 F600.000
G1 X-13.666 Y-35.907 Z-2.000 F600.000
G1 X-13.158 Y-36.167 Z-2.000 F600.000
G1 X-13.019 Y-36.028 Z-2.000 F600.000
G1 X-13.581 Y-35.740 Z-2.000 F600.000
G1 X-13.666 Y-35.907 Z-2.000 F600.000
G1 X-11.792 Y-36.866 Z-2.000 F600.000
G2 X-11.662 Y-37.270 Z-2.000 I-0.137 J-0.267 K0.000 F600.000
G1 X-12.100 Y-38.126 Z-2.000 F600.000
G2 X-12.504 Y-38.257 Z-2.000 I-0.267 J0.137 K0.000 F600.000
G1 X-14.105 Y-37.437 Z-2.000 F600.000
G1 X-14.191 Y-37.604 Z-2.000 F600.000
G1 X-12.589 Y-38.423 Z-2.000 F600.000
G2 X-12.459 Y-38.827 Z-2.000 I-0.137 J-0.267 K0.000 F600.000
G1 X-12.701 Y-39.300 Z-2.000 F600.000
G1 X-12.456 Y-39.425 Z-2.000 F600.000
G2 X-12.142 Y-38.860 Z-2.000 I1.576 J-0.508 K0.000 F600.000
G2 X-11.810 Y-38.822 Z-2.000 I0.194 J-0.228 K0.000 F600.000
G1 X-10.248 Y-39.621 Z-2.000 F600.000
G1 X-10.163 Y-39.455 Z-2.000 F600.000
G1 X-11.725 Y-38.655 Z-2.000 F600.000
G2 X-11.856 Y-38.251 Z-2.000 I0.137 J0.267 K0.000 F600.000
G1 X-11.417 Y-37.395 Z-2.000 F600.000
G2 X-11.014 Y-37.264 Z-2.000 I0.267 J-0.137 K0.000 F600.000
G1 X-9.295 Y-38.144 Z-2.000 F600.000
G1 X-9.210 Y-37.977 Z-2.000 F600.000
G1 X-13.019 Y-36.028 Z-2.000 F600.000
G0 Z5.000
G0 Z5.000
G0 X-13.019 Y-36.028
G0 X-14.594 Y-35.223
G0 X-14.594 Y-35.223 Z3.000
G1 X-14.594 Y-35.223 Z-1.500 F600.000
G3 X-16.179 Y-38.348 Z-1.500 I473.752 J-242.154 K0.000 F600.000
G3 X-16.048 Y-38.751 Z-1.500 I0.267 J-0.137 K0.000 F600.000
G1 X-10.131 Y-41.780 Z-1.500 F600.000
G3 X-9.727 Y-41.649 Z-1.500 I0.137 J0.267 K0.000 F600.000
G1 X-8.076 Y-38.423 Z-1.500 F600.000
G2 X-5.002 Y-34.536 Z-1.500 I10.464 J-5.117 K0.000 F600.000
G1 X-4.804 Y-34.871 Z-1.500 F600.000
G3 X-7.645 Y-38.209 Z-1.500 I6.183 J-8.140 K0.000 F600.000
G3 X-9.725 Y-42.247 Z-1.500 I112.220 J-60.365 K0.000 F600.000
G1 X-16.665 Y-38.695 Z-1.500 F600.000
G1 X-12.886 Y-31.310 Z-1.500 F600.000
G1 X-12.663 Y-30.981 Z-1.500 F600.000
G2 X-12.025 Y-30.847 Z-1.500 I0.400 J-0.320 K0.000 F600.000
G2 X-11.391 Y-31.185 Z-1.500 I-1.604 J-3.778 K0.000 F600.000
G1 X-11.523 Y-31.318 Z-1.500 F600.000
G2 X-10.761 Y-31.759 Z-1.500 I-5.131 J-9.740 K0.000 F600.000
G1 X-10.725 Y-31.582 Z-1.500 F600.000
G3 X-11.391 Y-31.185 Z-1.500 I-4.718 J-7.163 K0.000 F600.000
G2 X-10.725 Y-31.582 Z-1.500 I-4.052 J-7.559 K0.000 F600.000
G1 X-10.761 Y-31.759 Z-1.500 F600.000
G3 X-11.808 Y-31.159 Z-1.500 I-8.001 J-12.762 K0.000 F600.000
G3 X-12.005 Y-31.100 Z-1.500 I-0.257 J-0.500 K0.000 F600.000
G3 X-12.750 Y-31.648 Z-1.500 I0.011 J-0.796 K0.000 F600.000
G3 X-14.594 Y-35.223 Z-1.500 I471.908 J-245.729 K0.000 F600.000
G0 Z5.000
G0 X-14.322 Y-34.116 Z5.000
G0 X-14.322 Y-34.116 Z3.000
G1 X-14.322 Y-34.116 Z-1.500 F600.000
G1 X-13.690 Y-33.484 Z-1.500 F600.000
G2 X-12.744 Y-31.637 Z-1.500 I22.285 J-10.245 K0.000 F600.000
G2 X-12.005 Y-31.100 Z-1.500 I0.746 J-0.250 K0.000 F600.000
G2 X-11.523 Y-31.318 Z-1.500 I-0.198 J-1.080 K0.000 F600.000
G1 X-11.391 Y-31.185 Z-1.500 F600.000
G3 X-12.025 Y-30.847 Z-1.500 I-2.239 J-3.441 K0.000 F600.000
G3 X-12.663 Y-30.981 Z-1.500 I-0.238 J-0.454 K0.000 F600.000
G1 X-12.886 Y-31.310 Z-1.500 F600.000
G1 X-14.322 Y-34.116 Z-1.500 F600.000
G1 X-16.545 Y-38.461 Z-1.500 F600.000
G1 X-15.913 Y-37.829 Z-1.500 F600.000
G1 X-16.179 Y-38.348 Z-1.500 F600.000
G3 X-16.048 Y-38.751 Z-1.500 I0.267 J-0.137 K0.000 F600.000
G1 X-15.166 Y-39.203 Z-1.500 F600.000
G1 X-15.338 Y-39.375 Z-1.500 F600.000
G1 X-13.934 Y-40.093 Z-1.500 F600.000
G1 X-13.763 Y-39.921 Z-1.500 F600.000
G1 X-12.360 Y-40.639 Z-1.500 F600.000
G1 X-12.531 Y-40.811 Z-1.500 F600.000
G1 X-11.128 Y-41.529 Z-1.500 F600.000
G1 X-10.956 Y-41.357 Z-1.500 F600.000
G0 Z5.000
G0 X-9.725 Y-42.247 Z5.000
G0 X-9.725 Y-42.247 Z3.000
G1 X-9.725 Y-42.247 Z-1.500 F600.000
G2 X-7.645 Y-38.209 Z-1.500 I114.301 J-56.328 K0.000 F600.000
G1 X-7.412 Y-37.813 Z-1.500 F600.000
G1 X-8.133 Y-38.534 Z-1.500 F600.000
G2 X-5.002 Y-34.536 Z-1.500 I10.561 J-5.046 K0.000 F600.000
G1 X-4.804 Y-34.871 Z-1.500 F600.000
G3 X-7.412 Y-37.813 Z-1.500 I5.978 J-7.928 K0.000 F600.000
G1 X-7.412 Y-37.813 Z-2.000 F600.000
G2 X-4.804 Y-34.871 Z-2.000 I8.587 J-4.986 K0.000 F600.000
G1 X-5.002 Y-34.536 Z-2.000 F600.000
G3 X-8.133 Y-38.534 Z-2.000 I7.430 J-9.044 K0.000 F600.000
G1 X-7.412 Y-37.813 Z-2.000 F600.000
G1 X-7.645 Y-38.209 Z-2.000 F600.000
G3 X-9.725 Y-42.247 Z-2.000 I112.221 J-60.366 K0.000 F600.000
G0 Z5.000
G0 Y-42.247 Z5.000
G0 Y-42.247 Z3.000
G1 X-9.725 Y-42.247 Z-2.000 F600.000
G1 X-16.665 Y-38.695 Z-2.000 F600.000
G1 X-12.886 Y-31.310 Z-2.000 F600.000
G1 X-12.663 Y-30.981 Z-2.000 F600.000
G2 X-12.025 Y-30.847 Z-2.000 I0.400 J-0.320 K0.000 F600.000
G2 X-11.391 Y-31.185 Z-2.000 I-1.604 J-3.778 K0.000 F600.000
G1 X-11.523 Y-31.318 Z-2.000 F600.000
G2 X-10.761 Y-31.759 Z-2.000 I-5.131 J-9.740 K0.000 F600.000
G1 X-10.725 Y-31.582 Z-2.000 F600.000
G3 X-11.391 Y-31.185 Z-2.000 I-4.718 J-7.163 K0.000 F600.000
G2 X-10.725 Y-31.582 Z-2.000 I-4.052 J-7.559 K0.000 F600.000
G1 X-10.761 Y-31.759 Z-2.000 F600.000
G3 X-11.808 Y-31.159 Z-2.000 I-8.001 J-12.762 K0.000 F600.000
G3 X-12.005 Y-31.100 Z-2.000 I-0.257 J-0.500 K0.000 F600.000
G3 X-12.750 Y-31.648 Z-2.000 I0.011 J-0.796 K0.000 F600.000
G3 X-16.179 Y-38.348 Z-2.000 I471.908 J-245.729 K0.000 F600.000
G3 X-16.048 Y-38.751 Z-2.000 I0.267 J-0.137 K0.000 F600.000
G1 X-10.131 Y-41.780 Z-2.000 F600.000
G3 X-9.727 Y-41.649 Z-2.000 I0.137 J0.267 K0.000 F600.000
G1 X-8.076 Y-38.423 Z-2.000 F600.000
G2 X-5.002 Y-34.536 Z-2.000 I10.464 J-5.117 K0.000 F600.000
G1 X-4.804 Y-34.871 Z-2.000 F600.000
G3 X-7.645 Y-38.209 Z-2.000 I6.183 J-8.140 K0.000 F600.000
G3 X-9.725 Y-42.247 Z-2.000 I112.220 J-60.365 K0.000 F600.000
G0 Z5.000
G0 X-10.956 Y-41.357 Z5.000
G0 X-10.956 Y-41.357 Z3.000
G1 X-10.956 Y-41.357 Z-2.000 F600.000
G1 X-11.128 Y-41.529 Z-2.000 F600.000
G1 X-12.531 Y-40.811 Z-2.000 F600.000
G1 X-12.360 Y-40.639 Z-2.000 F600.000
G1 X-13.763 Y-39.921 Z-2.000 F600.000
G1 X-13.934 Y-40.093 Z-2.000 F600.000
G1 X-15.338 Y-39.375 Z-2.000 F600.000
G1 X-15.166 Y-39.203 Z-2.000 F600.000
G1 X-16.048 Y-38.751 Z-2.000 F600.000
G2 X-16.179 Y-38.348 Z-2.000 I0.137 J0.267 K0.000 F600.000
G1 X-15.913 Y-37.829 Z-2.000 F600.000
G1 X-16.545 Y-38.461 Z-2.000 F600.000
G1 X-14.322 Y-34.116 Z-2.000 F600.000
G1 X-12.886 Y-31.310 Z-2.000 F600.000
G1 X-12.663 Y-30.981 Z-2.000 F600.000
G2 X-12.025 Y-30.847 Z-2.000 I0.400 J-0.320 K0.000 F600.000
G2 X-11.391 Y-31.185 Z-2.000 I-1.604 J-3.778 K0.000 F600.000
G1 X-11.523 Y-31.318 Z-2.000 F600.000
G3 X-12.005 Y-31.100 Z-2.000 I-0.679 J-0.863 K0.000 F600.000
G3 X-12.744 Y-31.637 Z-2.000 I0.006 J-0.787 K0.000 F600.000
G3 X-13.690 Y-33.484 Z-2.000 I21.339 J-12.092 K0.000 F600.000
G1 X-14.322 Y-34.116 Z-2.000 F600.000
G0 Z5.000
G0 Z5.000
G0 X-14.322 Y-34.116
G0 X4.640 Y-33.146
G0 X4.640 Y-33.146 Z3.000
G1 X4.640 Y-33.146 Z-1.500 F600.000
G1 X5.273 Y-34.637 Z-1.500 F600.000
G0 Z5.000
G0 X5.488 Y-34.575 Z5.000
G0 X5.488 Y-34.575 Z3.000
G1 X5.488 Y-34.575 Z-1.500 F600.000
G3 X5.500 Y-34.609 Z-1.500 I0.288 J0.083 K0.000 F600.000
G1 X6.155 Y-36.151 Z-1.500 F600.000
G3 X6.548 Y-36.310 Z-1.500 I0.276 J0.117 K0.000 F600.000
G1 X8.472 Y-35.494 Z-1.500 F600.000
G2 X9.689 Y-35.990 Z-1.500 I0.371 J-0.831 K0.000 F600.000
G1 X11.469 Y-40.185 Z-1.500 F600.000
G3 X11.863 Y-40.344 Z-1.500 I0.276 J0.117 K0.000 F600.000
G1 X13.122 Y-39.809 Z-1.500 F600.000
G3 X13.280 Y-39.416 Z-1.500 I-0.117 J0.276 K0.000 F600.000
G1 X11.958 Y-36.300 Z-1.500 F600.000
G1 X11.811 Y-35.864 Z-1.500 F600.000
G2 X12.718 Y-32.907 Z-1.500 I3.156 J0.650 K0.000 F600.000
G3 X12.938 Y-33.063 Z-1.500 I1.036 J1.225 K0.000 F600.000
G3 X12.153 Y-36.194 Z-1.500 I1.795 J-2.114 K0.000 F600.000
G3 X13.483 Y-39.330 Z-1.500 I63.504 J25.102 K0.000 F600.000
G3 X13.877 Y-39.489 Z-1.500 I0.276 J0.117 K0.000 F600.000
G1 X15.681 Y-38.723 Z-1.500 F600.000
G3 X15.840 Y-38.329 Z-1.500 I-0.117 J0.276 K0.000 F600.000
G1 X13.576 Y-33.025 Z-1.500 F600.000
G3 X13.482 Y-32.907 Z-1.500 I-0.163 J-0.033 K0.000 F600.000
G3 X13.461 Y-32.753 Z-1.500 I-0.146 J0.059 K0.000 F600.000
G1 X12.913 Y-31.463 Z-1.500 F600.000
G3 X12.520 Y-31.304 Z-1.500 I-0.276 J-0.117 K0.000 F600.000
G1 X5.659 Y-34.216 Z-1.500 F600.000
G3 X5.488 Y-34.575 Z-1.500 I0.117 J-0.276 K0.000 F600.000
G0 Z5.000
G0 X4.640 Y-33.148 Z5.000
G0 X4.640 Y-33.148 Z3.000
G1 X4.640 Y-33.148 Z-1.500 F600.000
G2 X4.640 Y-33.144 Z-1.500 I0.002 J0.002 K0.000 F600.000
G2 X4.644 Y-33.144 Z-1.500 I0.002 J-0.002 K0.000 F600.000
G1 X4.640 Y-33.148 Z-1.500 F600.000
G1 X5.273 Y-34.637 Z-1.500 F600.000
G1 X5.491 Y-34.419 Z-1.500 F600.000
G1 X5.498 Y-34.380 Z-1.500 F600.000
G2 X5.814 Y-34.097 Z-1.500 I1.193 J-1.012 K0.000 F600.000
G1 X9.499 Y-32.532 Z-1.500 F600.000
G1 X9.406 Y-32.626 Z-1.500 F600.000
G1 X12.520 Y-31.304 Z-1.500 F600.000
G2 X12.811 Y-31.342 Z-1.500 I0.114 J-0.260 K0.000 F600.000
G1 X13.015 Y-31.138 Z-1.500 F600.000
G1 X13.649 Y-32.625 Z-1.500 F600.000
G1 X13.468 Y-32.806 Z-1.500 F600.000
G2 X13.482 Y-32.907 Z-1.500 I-0.082 J-0.062 K0.000 F600.000
G2 X13.576 Y-33.025 Z-1.500 I-0.068 J-0.151 K0.000 F600.000
G1 X14.113 Y-34.283 Z-1.500 F600.000
G1 X14.282 Y-34.113 Z-1.500 F600.000
G1 X14.916 Y-35.601 Z-1.500 F600.000
G1 X14.747 Y-35.769 Z-1.500 F600.000
G1 X15.382 Y-37.256 Z-1.500 F600.000
G1 X15.550 Y-37.088 Z-1.500 F600.000
G1 X16.184 Y-38.576 Z-1.500 F600.000
G0 Z5.000
G0 X13.431 Y-39.207 Z5.000
G0 X13.431 Y-39.207 Z3.000
G1 X13.431 Y-39.207 Z-1.500 F600.000
G1 X13.263 Y-39.375 Z-1.500 F600.000
G1 X12.631 Y-37.886 Z-1.500 F600.000
G1 X12.799 Y-37.718 Z-1.500 F600.000
G1 X12.167 Y-36.228 Z-1.500 F600.000
G1 X11.999 Y-36.396 Z-1.500 F600.000
G2 X11.843 Y-34.431 Z-1.500 I2.489 J1.187 K0.000 F600.000
G2 X12.718 Y-32.907 Z-1.500 I3.254 J-0.854 K0.000 F600.000
G3 X12.938 Y-33.063 Z-1.500 I1.036 J1.225 K0.000 F600.000
G3 X12.203 Y-34.071 Z-1.500 I1.591 J-1.933 K0.000 F600.000
G1 X11.843 Y-34.431 Z-1.500 F600.000
G0 Z5.000
G0 X9.403 Y-35.889 Z5.000
G0 X9.403 Y-35.889 Z3.000
G1 X9.403 Y-35.889 Z-1.500 F600.000
G3 X8.511 Y-35.531 Z-1.500 I-0.681 J-0.407 K0.000 F600.000
G3 X6.567 Y-36.356 Z-1.500 I15.944 J-40.283 K0.000 F600.000
G3 X6.409 Y-36.749 Z-1.500 I0.117 J-0.276 K0.000 F600.000
G1 X8.417 Y-41.480 Z-1.500 F600.000
G3 X8.810 Y-41.639 Z-1.500 I0.276 J0.117 K0.000 F600.000
G1 X11.107 Y-40.664 Z-1.500 F600.000
G3 X11.266 Y-40.271 Z-1.500 I-0.117 J0.276 K0.000 F600.000
G1 X9.481 Y-36.064 Z-1.500 F600.000
G3 X9.403 Y-35.889 Z-1.500 I-0.759 J-0.232 K0.000 F600.000
G0 Z5.000
G0 X6.537 Y-37.616 Z5.000
G0 X6.537 Y-37.616 Z3.000
G1 X6.537 Y-37.616 Z-1.500 F600.000
G1 X6.705 Y-37.448 Z-1.500 F600.000
G1 X7.337 Y-38.937 Z-1.500 F600.000
G1 X7.169 Y-39.105 Z-1.500 F600.000
G1 X7.801 Y-40.594 Z-1.500 F600.000
G1 X7.969 Y-40.426 Z-1.500 F600.000
G1 X8.417 Y-41.480 Z-1.500 F600.000
G3 X8.927 Y-41.590 Z-1.500 I0.296 J0.138 K0.000 F600.000
G1 X8.812 Y-41.705 Z-1.500 F600.000
G1 X12.498 Y-40.140 Z-1.500 F600.000
G1 X12.613 Y-40.025 Z-1.500 F600.000
G0 Z5.000
G0 X10.962 Y-39.554 Z5.000
G0 X10.962 Y-39.554 Z3.000
G1 X10.962 Y-39.554 Z-1.500 F600.000
G1 X11.130 Y-39.386 Z-1.500 F600.000
G1 X10.498 Y-37.897 Z-1.500 F600.000
G1 X10.330 Y-38.065 Z-1.500 F600.000
G1 X9.698 Y-36.576 Z-1.500 F600.000
G1 X9.866 Y-36.408 Z-1.500 F600.000
G3 X9.599 Y-35.820 Z-1.500 I-3.572 J-1.270 K0.000 F600.000
G3 X8.733 Y-35.419 Z-1.500 I-0.761 J-0.508 K0.000 F600.000
G2 X8.525 Y-35.527 Z-1.500 I-0.313 J0.352 K0.000 F600.000
G3 X8.498 Y-35.537 Z-1.500 I0.090 J-0.286 K0.000 F600.000
G1 X6.567 Y-36.356 Z-1.500 F600.000
G3 X6.409 Y-36.749 Z-1.500 I0.117 J-0.276 K0.000 F600.000
G1 X6.705 Y-37.448 Z-1.500 F600.000
G1 X6.537 Y-37.616 Z-1.500 F600.000
G1 X5.905 Y-36.127 Z-1.500 F600.000
G1 X6.073 Y-35.959 Z-1.500 F600.000
G1 X5.500 Y-34.609 Z-1.500 F600.000
G2 X5.491 Y-34.419 Z-1.500 I0.224 J0.106 K0.000 F600.000
G1 X5.273 Y-34.637 Z-1.500 F600.000
G1 X8.355 Y-41.899 Z-1.500 F600.000
G1 X16.184 Y-38.576 Z-1.500 F600.000
G2 X12.981 Y-31.058 Z-1.500 I341.360 J149.880 K0.000 F600.000
G2 X12.483 Y-29.815 Z-1.500 I226.904 J91.582 K0.000 F600.000
G2 X12.216 Y-29.918 Z-1.500 I-1.123 J2.509 K0.000 F600.000
G1 X12.646 Y-30.862 Z-1.500 F600.000
G2 X12.490 Y-31.263 Z-1.500 I-0.273 J-0.124 K0.000 F600.000
G1 X5.640 Y-34.170 Z-1.500 F600.000
G2 X5.246 Y-34.011 Z-1.500 I-0.117 J0.276 K0.000 F600.000
G1 X4.843 Y-33.060 Z-1.500 F600.000
G1 X4.640 Y-33.146 Z-1.500 F600.000
G1 X4.640 Y-33.146 Z-2.000 F600.000
G1 X4.843 Y-33.060 Z-2.000 F600.000
G1 X5.246 Y-34.011 Z-2.000 F600.000
G3 X5.640 Y-34.170 Z-2.000 I0.276 J0.117 K0.000 F600.000
G1 X12.490 Y-31.263 Z-2.000 F600.000
G3 X12.646 Y-30.862 Z-2.000 I-0.117 J0.276 K0.000 F600.000
G1 X12.216 Y-29.918 Z-2.000 F600.000
G3 X12.483 Y-29.815 Z-2.000 I-0.856 J2.612 K0.000 F600.000
G3 X12.981 Y-31.058 Z-2.000 I227.401 J90.339 K0.000 F600.000
G3 X16.184 Y-38.576 Z-2.000 I344.563 J142.363 K0.000 F600.000
G1 X8.355 Y-41.899 Z-2.000 F600.000
G1 X5.273 Y-34.637 Z-2.000 F600.000
G1 X5.491 Y-34.419 Z-2.000 F600.000
G3 X5.500 Y-34.609 Z-2.000 I0.234 J-0.083 K0.000 F600.000
G1 X6.073 Y-35.959 Z-2.000 F600.000
G1 X5.905 Y-36.127 Z-2.000 F600.000
G1 X6.537 Y-37.616 Z-2.000 F600.000
G1 X6.705 Y-37.448 Z-2.000 F600.000
G1 X6.409 Y-36.749 Z-2.000 F600.000
G2 X6.567 Y-36.356 Z-2.000 I0.276 J0.117 K0.000 F600.000
G1 X8.498 Y-35.537 Z-2.000 F600.000
G2 X8.525 Y-35.527 Z-2.000 I0.117 J-0.276 K0.000 F600.000
G3 X8.733 Y-35.419 Z-2.000 I-0.105 J0.460 K0.000 F600.000
G2 X9.599 Y-35.820 Z-2.000 I0.105 J-0.909 K0.000 F600.000
G2 X9.866 Y-36.408 Z-2.000 I-3.305 J-1.857 K0.000 F600.000
G1 X9.698 Y-36.576 Z-2.000 F600.000
G1 X10.330 Y-38.065 Z-2.000 F600.000
G1 X10.498 Y-37.897 Z-2.000 F600.000
G1 X11.130 Y-39.386 Z-2.000 F600.000
G1 X10.962 Y-39.554 Z-2.000 F600.000
G1 X10.962 Y-39.554 Z-2.000 F600.000
G1 X9.481 Y-36.064 Z-2.000 F600.000
G3 X8.511 Y-35.531 Z-2.000 I-0.759 J-0.232 K0.000 F600.000
G3 X6.567 Y-36.356 Z-2.000 I15.944 J-40.283 K0.000 F600.000
G3 X6.409 Y-36.749 Z-2.000 I0.117 J-0.276 K0.000 F600.000
G1 X8.417 Y-41.480 Z-2.000 F600.000
G3 X8.810 Y-41.639 Z-2.000 I0.276 J0.117 K0.000 F600.000
G1 X11.107 Y-40.664 Z-2.000 F600.000
G3 X11.266 Y-40.271 Z-2.000 I-0.117 J0.276 K0.000 F600.000
G1 X10.962 Y-39.554 Z-2.000 F600.000
G0 Z5.000
G0 X11.165 Y-39.468 Z5.000
G0 X11.165 Y-39.468 Z3.000
G1 X11.165 Y-39.468 Z-2.000 F600.000
G1 X11.469 Y-40.185 Z-2.000 F600.000
G3 X11.863 Y-40.344 Z-2.000 I0.276 J0.117 K0.000 F600.000
G1 X13.122 Y-39.809 Z-2.000 F600.000
G3 X13.280 Y-39.416 Z-2.000 I-0.117 J0.276 K0.000 F600.000
G1 X11.958 Y-36.300 Z-2.000 F600.000
G1 X11.811 Y-35.864 Z-2.000 F600.000
G2 X12.718 Y-32.907 Z-2.000 I3.156 J0.650 K0.000 F600.000
G3 X12.938 Y-33.063 Z-2.000 I1.036 J1.225 K0.000 F600.000
G3 X12.153 Y-36.194 Z-2.000 I1.795 J-2.114 K0.000 F600.000
G3 X13.483 Y-39.330 Z-2.000 I63.504 J25.102 K0.000 F600.000
G3 X13.877 Y-39.489 Z-2.000 I0.276 J0.117 K0.000 F600.000
G1 X15.681 Y-38.723 Z-2.000 F600.000
G3 X15.840 Y-38.329 Z-2.000 I-0.117 J0.276 K0.000 F600.000
G1 X13.576 Y-33.025 Z-2.000 F600.000
G3 X13.482 Y-32.907 Z-2.000 I-0.163 J-0.033 K0.000 F600.000
G3 X13.461 Y-32.753 Z-2.000 I-0.146 J0.059 K0.000 F600.000
G1 X12.913 Y-31.463 Z-2.000 F600.000
G3 X12.520 Y-31.304 Z-2.000 I-0.276 J-0.117 K0.000 F600.000
G1 X5.659 Y-34.216 Z-2.000 F600.000
G3 X5.500 Y-34.609 Z-2.000 I0.117 J-0.276 K0.000 F600.000
G1 X6.155 Y-36.151 Z-2.000 F600.000
G3 X6.548 Y-36.310 Z-2.000 I0.276 J0.117 K0.000 F600.000
G1 X8.472 Y-35.494 Z-2.000 F600.000
G2 X9.689 Y-35.990 Z-2.000 I0.371 J-0.831 K0.000 F600.000
G1 X11.165 Y-39.468 Z-2.000 F600.000
G0 Z5.000
G0 X12.613 Y-40.025 Z5.000
G0 X12.613 Y-40.025 Z3.000
G1 X12.613 Y-40.025 Z-2.000 F600.000
G1 X12.498 Y-40.140 Z-2.000 F600.000
G1 X8.812 Y-41.705 Z-2.000 F600.000
G1 X8.927 Y-41.590 Z-2.000 F600.000
G2 X8.417 Y-41.480 Z-2.000 I-0.214 J0.247 K0.000 F600.000
G1 X7.969 Y-40.426 Z-2.000 F600.000
G1 X7.801 Y-40.594 Z-2.000 F600.000
G1 X7.169 Y-39.105 Z-2.000 F600.000
G1 X7.337 Y-38.937 Z-2.000 F600.000
G1 X6.705 Y-37.448 Z-2.000 F600.000
G1 X6.537 Y-37.616 Z-2.000 F600.000
G0 Z5.000
G0 X5.273 Y-34.637 Z5.000
G0 X5.273 Y-34.637 Z3.000
G1 X5.273 Y-34.637 Z-2.000 F600.000
G1 X4.640 Y-33.146 Z-2.000 F600.000
G0 Z5.000
G0 X4.640 Y-33.148 Z5.000
G0 X4.640 Y-33.148 Z3.000
G1 X4.640 Y-33.148 Z-2.000 F600.000
G2 X4.640 Y-33.144 Z-2.000 I0.002 J0.002 K0.000 F600.000
G2 X4.644 Y-33.144 Z-2.000 I0.002 J-0.002 K0.000 F600.000
G1 X4.640 Y-33.148 Z-2.000 F600.000
G1 X5.273 Y-34.637 Z-2.000 F600.000
G1 X5.491 Y-34.419 Z-2.000 F600.000
G1 X5.498 Y-34.380 Z-2.000 F600.000
G2 X5.814 Y-34.097 Z-2.000 I1.193 J-1.012 K0.000 F600.000
G1 X9.499 Y-32.532 Z-2.000 F600.000
G1 X9.406 Y-32.626 Z-2.000 F600.000
G1 X12.520 Y-31.304 Z-2.000 F600.000
G2 X12.811 Y-31.342 Z-2.000 I0.114 J-0.260 K0.000 F600.000
G1 X13.015 Y-31.138 Z-2.000 F600.000
G1 X13.649 Y-32.625 Z-2.000 F600.000
G1 X13.468 Y-32.806 Z-2.000 F600.000
G2 X13.482 Y-32.907 Z-2.000 I-0.082 J-0.062 K0.000 F600.000
G2 X13.576 Y-33.025 Z-2.000 I-0.068 J-0.151 K0.000 F600.000
G1 X14.113 Y-34.283 Z-2.000 F600.000
G1 X14.282 Y-34.113 Z-2.000 F600.000
G1 X14.916 Y-35.601 Z-2.000 F600.000
G1 X14.747 Y-35.769 Z-2.000 F600.000
G1 X15.382 Y-37.256 Z-2.000 F600.000
G1 X15.550 Y-37.088 Z-2.000 F600.000
G1 X16.184 Y-38.576 Z-2.000 F600.000
G0 Z5.000
G0 X13.431 Y-39.207 Z5.000
G0 X13.431 Y-39.207 Z3.000
G1 X13.431 Y-39.207 Z-2.000 F600.000
G1 X13.263 Y-39.375 Z-2.000 F600.000
G1 X12.631 Y-37.886 Z-2.000 F600.000
G1 X12.799 Y-37.718 Z-2.000 F600.000
G1 X12.167 Y-36.228 Z-2.000 F600.000
G1 X11.999 Y-36.396 Z-2.000 F600.000
G2 X11.843 Y-34.431 Z-2.000 I2.489 J1.187 K0.000 F600.000
G2 X12.718 Y-32.907 Z-2.000 I3.254 J-0.854 K0.000 F600.000
G3 X12.938 Y-33.063 Z-2.000 I1.036 J1.225 K0.000 F600.000
G3 X12.203 Y-34.071 Z-2.000 I1.591 J-1.933 K0.000 F600.000
G1 X11.843 Y-34.431 Z-2.000 F600.000
G0 Z5.000
G0 Z5.000
G0 X11.843 Y-34.431
G0 X18.910 Y-30.249
G0 X18.910 Y-30.249 Z3.000
G1 X18.910 Y-30.249 Z-1.500 F600.000
G1 X18.526 Y-29.344 Z-1.500 F600.000
G1 X18.526 Y-29.344 Z-1.500 F600.000
G1 X18.708 Y-29.267 Z-1.500 F600.000
G1 X18.876 Y-29.662 Z-1.500 F600.000
G3 X19.269 Y-29.821 Z-1.500 I0.276 J0.117 K0.000 F600.000
G1 X21.377 Y-28.926 Z-1.500 F600.000
G3 X21.560 Y-28.647 Z-1.500 I-0.117 J0.276 K0.000 F600.000
G3 X21.369 Y-28.138 Z-1.500 I-1.377 J-0.227 K0.000 F600.000
G1 X21.561 Y-28.056 Z-1.500 F600.000
G1 X22.689 Y-30.713 Z-1.500 F600.000
G1 X19.650 Y-31.992 Z-1.500 F600.000
G1 X18.526 Y-29.344 Z-1.500 F600.000
G1 X18.708 Y-29.267 Z-1.500 F600.000
G1 X18.876 Y-29.662 Z-1.500 F600.000
G3 X19.389 Y-29.770 Z-1.500 I0.297 J0.139 K0.000 F600.000
G3 X19.095 Y-30.064 Z-1.500 I0.118 J-0.411 K0.000 F600.000
G1 X18.910 Y-30.249 Z-1.500 F600.000
G1 X19.542 Y-31.738 Z-1.500 F600.000
G1 X19.693 Y-31.588 Z-1.500 F600.000
G1 X19.693 Y-31.588 Z-1.500 F600.000
G1 X19.713 Y-31.634 Z-1.500 F600.000
G3 X20.106 Y-31.793 Z-1.500 I0.276 J0.117 K0.000 F600.000
G1 X22.215 Y-30.898 Z-1.500 F600.000
G3 X22.373 Y-30.505 Z-1.500 I-0.117 J0.276 K0.000 F600.000
G1 X21.772 Y-29.089 Z-1.500 F600.000
G3 X21.379 Y-28.930 Z-1.500 I-0.276 J-0.117 K0.000 F600.000
G1 X19.270 Y-29.825 Z-1.500 F600.000
G3 X19.112 Y-30.218 Z-1.500 I0.117 J-0.276 K0.000 F600.000
G1 X19.693 Y-31.588 Z-1.500 F600.000
G0 Z5.000
G0 X19.389 Y-29.770 Z5.000
G0 X19.389 Y-29.770 Z3.000
G1 X19.389 Y-29.770 Z-1.500 F600.000
G1 X19.381 Y-29.778 Z-1.500 F600.000
G1 X21.379 Y-28.930 Z-1.500 F600.000
G2 X21.706 Y-28.992 Z-1.500 I0.117 J-0.276 K0.000 F600.000
G2 X21.897 Y-29.383 Z-1.500 I-0.887 J-0.675 K0.000 F600.000
G1 X22.057 Y-29.224 Z-1.500 F600.000
G1 X22.689 Y-30.713 Z-1.500 F600.000
G1 X22.689 Y-30.713 Z-2.000 F600.000
G1 X22.057 Y-29.224 Z-2.000 F600.000
G1 X21.897 Y-29.383 Z-2.000 F600.000
G3 X21.706 Y-28.992 Z-2.000 I-1.078 J-0.284 K0.000 F600.000
G3 X21.379 Y-28.930 Z-2.000 I-0.210 J-0.214 K0.000 F600.000
G1 X19.381 Y-29.778 Z-2.000 F600.000
G1 X19.389 Y-29.770 Z-2.000 F600.000
G0 Z5.000
G0 X19.390 Y-29.774 Z5.000
G0 X19.390 Y-29.774 Z3.000
G1 X19.390 Y-29.774 Z-2.000 F600.000
G1 X19.270 Y-29.825 Z-2.000 F600.000
G3 X19.112 Y-30.218 Z-2.000 I0.117 J-0.276 K0.000 F600.000
G1 X19.713 Y-31.634 Z-2.000 F600.000
G3 X20.106 Y-31.793 Z-2.000 I0.276 J0.117 K0.000 F600.000
G1 X22.215 Y-30.898 Z-2.000 F600.000
G3 X22.373 Y-30.505 Z-2.000 I-0.117 J0.276 K0.000 F600.000
G1 X21.772 Y-29.089 Z-2.000 F600.000
G3 X21.379 Y-28.930 Z-2.000 I-0.276 J-0.117 K0.000 F600.000
G1 X19.390 Y-29.774 Z-2.000 F600.000
G0 Z5.000
G0 X18.910 Y-30.249 Z5.000
G0 X18.910 Y-30.249 Z3.000
G1 X18.910 Y-30.249 Z-2.000 F600.000
G1 X18.526 Y-29.344 Z-2.000 F600.000
G1 X18.526 Y-29.344 Z-2.000 F600.000
G1 X18.708 Y-29.267 Z-2.000 F600.000
G1 X18.876 Y-29.662 Z-2.000 F600.000
G3 X19.269 Y-29.821 Z-2.000 I0.276 J0.117 K0.000 F600.000
G1 X21.377 Y-28.926 Z-2.000 F600.000
G3 X21.560 Y-28.647 Z-2.000 I-0.117 J0.276 K0.000 F600.000
G3 X21.369 Y-28.138 Z-2.000 I-1.377 J-0.227 K0.000 F600.000
G1 X21.561 Y-28.056 Z-2.000 F600.000
G1 X22.689 Y-30.713 Z-2.000 F600.000
G1 X19.650 Y-31.992 Z-2.000 F600.000
G1 X18.526 Y-29.344 Z-2.000 F600.000
G1 X18.708 Y-29.267 Z-2.000 F600.000
G1 X18.876 Y-29.662 Z-2.000 F600.000
G3 X19.389 Y-29.770 Z-2.000 I0.297 J0.139 K0.000 F600.000
G3 X19.095 Y-30.064 Z-2.000 I0.118 J-0.411 K0.000 F600.000
G1 X18.910 Y-30.249 Z-2.000 F600.000
G1 X19.542 Y-31.738 Z-2.000 F600.000
G1 X19.693 Y-31.588 Z-2.000 F600.000
G0 Z5.000
G0 Z5.000
G0 X19.693 Y-31.588
G0 X20.363 Y-33.186
G0 X20.363 Y-33.186 Z3.000
G1 X20.363 Y-33.186 Z-1.500 F600.000
G3 X19.119 Y-33.733 Z-1.500 I15.113 J-36.062 K0.000 F600.000
G3 X19.101 Y-33.691 Z-1.500 I-0.318 J-0.109 K0.000 F600.000
G3 X24.120 Y-31.560 Z-1.500 I-29.336 J76.090 K0.000 F600.000
G3 X24.138 Y-31.602 Z-1.500 I0.318 J0.111 K0.000 F600.000
G3 X22.083 Y-32.456 Z-1.500 I21.845 J-55.464 K0.000 F600.000
G3 X21.925 Y-32.850 Z-1.500 I0.117 J-0.276 K0.000 F600.000
G1 X22.379 Y-33.920 Z-1.500 F600.000
G3 X22.658 Y-34.102 Z-1.500 I0.276 J0.117 K0.000 F600.000
G3 X24.436 Y-33.354 Z-1.500 I-8.246 J22.082 K0.000 F600.000
G3 X24.454 Y-33.396 Z-1.500 I0.319 J0.109 K0.000 F600.000
G3 X22.774 Y-34.082 Z-1.500 I11.532 J-30.658 K0.000 F600.000
G3 X22.618 Y-34.484 Z-1.500 I0.117 J-0.276 K0.000 F600.000
G1 X22.956 Y-35.217 Z-1.500 F600.000
G3 X22.715 Y-35.310 Z-1.500 I0.486 J-1.615 K0.000 F600.000
G1 X22.426 Y-34.566 Z-1.500 F600.000
G3 X22.146 Y-34.375 Z-1.500 I-0.280 J-0.109 K0.000 F600.000
G3 X20.169 Y-35.215 Z-1.500 I7.972 J-21.488 K0.000 F600.000
G3 X20.151 Y-35.173 Z-1.500 I-0.318 J-0.111 K0.000 F600.000
G3 X21.384 Y-34.668 Z-1.500 I-13.057 J33.635 K0.000 F600.000
G2 X20.151 Y-35.173 Z-1.500 I-14.290 J33.130 K0.000 F600.000
G2 X20.169 Y-35.215 Z-1.500 I-0.300 J-0.154 K0.000 F600.000
G2 X21.377 Y-34.675 Z-1.500 I10.362 J-21.549 K0.000 F600.000
G1 X21.384 Y-34.668 Z-1.500 F600.000
G1 X22.038 Y-34.390 Z-1.500 F600.000
G3 X22.197 Y-33.997 Z-1.500 I-0.117 J0.276 K0.000 F600.000
G1 X21.743 Y-32.927 Z-1.500 F600.000
G3 X21.464 Y-32.744 Z-1.500 I-0.276 J-0.117 K0.000 F600.000
G3 X20.363 Y-33.186 Z-1.500 I14.012 J-36.503 K0.000 F600.000
G0 Z5.000
G0 X21.025 Y-32.906 Z5.000
G0 X21.025 Y-32.906 Z3.000
G1 X21.025 Y-32.906 Z-1.500 F600.000
G1 X21.033 Y-32.898 Z-1.500 F600.000
G2 X19.101 Y-33.691 Z-1.500 I-15.129 J34.123 K0.000 F600.000
G2 X19.119 Y-33.733 Z-1.500 I-0.301 J-0.151 K0.000 F600.000
G2 X21.025 Y-32.906 Z-1.500 I23.119 J-50.651 K0.000 F600.000
G1 X21.349 Y-32.768 Z-1.500 F600.000
G2 X21.743 Y-32.927 Z-1.500 I0.117 J-0.276 K0.000 F600.000
G1 X22.155 Y-33.897 Z-1.500 F600.000
G1 X22.305 Y-33.747 Z-1.500 F600.000
G3 X22.658 Y-34.102 Z-1.500 I0.383 J0.027 K0.000 F600.000
G3 X24.436 Y-33.354 Z-1.500 I-8.246 J22.082 K0.000 F600.000
G3 X24.454 Y-33.396 Z-1.500 I0.319 J0.109 K0.000 F600.000
G3 X22.774 Y-34.082 Z-1.500 I11.532 J-30.658 K0.000 F600.000
G3 X22.618 Y-34.484 Z-1.500 I0.117 J-0.276 K0.000 F600.000
G1 X22.956 Y-35.217 Z-1.500 F600.000
G1 X22.956 Y-35.217 Z-2.000 F600.000
G1 X22.618 Y-34.484 Z-2.000 F600.000
G2 X22.774 Y-34.082 Z-2.000 I0.272 J0.126 K0.000 F600.000
G2 X24.454 Y-33.396 Z-2.000 I13.212 J-29.972 K0.000 F600.000
G2 X24.436 Y-33.354 Z-2.000 I0.301 J0.152 K0.000 F600.000
G2 X22.658 Y-34.102 Z-2.000 I-10.025 J21.333 K0.000 F600.000
G2 X22.305 Y-33.747 Z-2.000 I0.031 J0.383 K0.000 F600.000
G1 X22.155 Y-33.897 Z-2.000 F600.000
G1 X21.743 Y-32.927 Z-2.000 F600.000
G3 X21.349 Y-32.768 Z-2.000 I-0.276 J-0.117 K0.000 F600.000
G1 X21.025 Y-32.906 Z-2.000 F600.000
G3 X19.119 Y-33.733 Z-2.000 I21.212 J-51.478 K0.000 F600.000
G3 X19.101 Y-33.691 Z-2.000 I-0.318 J-0.109 K0.000 F600.000
G3 X21.033 Y-32.898 Z-2.000 I-13.198 J34.916 K0.000 F600.000
G1 X21.025 Y-32.906 Z-2.000 F600.000
G0 Z5.000
G0 X21.029 Y-32.914 Z5.000
G0 X21.029 Y-32.914 Z3.000
G1 X21.029 Y-32.914 Z-2.000 F600.000
G3 X19.119 Y-33.733 Z-2.000 I14.447 J-36.333 K0.000 F600.000
G3 X19.101 Y-33.691 Z-2.000 I-0.318 J-0.109 K0.000 F600.000
G3 X24.120 Y-31.560 Z-2.000 I-29.336 J76.090 K0.000 F600.000
G3 X24.138 Y-31.602 Z-2.000 I0.318 J0.111 K0.000 F600.000
G3 X22.083 Y-32.456 Z-2.000 I21.845 J-55.464 K0.000 F600.000
G3 X21.925 Y-32.850 Z-2.000 I0.117 J-0.276 K0.000 F600.000
G1 X22.379 Y-33.920 Z-2.000 F600.000
G3 X22.658 Y-34.102 Z-2.000 I0.276 J0.117 K0.000 F600.000
G3 X24.436 Y-33.354 Z-2.000 I-8.246 J22.082 K0.000 F600.000
G3 X24.454 Y-33.396 Z-2.000 I0.319 J0.109 K0.000 F600.000
G3 X22.774 Y-34.082 Z-2.000 I11.532 J-30.658 K0.000 F600.000
G3 X22.618 Y-34.484 Z-2.000 I0.117 J-0.276 K0.000 F600.000
G1 X22.956 Y-35.217 Z-2.000 F600.000
G3 X22.715 Y-35.310 Z-2.000 I0.486 J-1.615 K0.000 F600.000
G1 X22.426 Y-34.566 Z-2.000 F600.000
G3 X22.146 Y-34.375 Z-2.000 I-0.280 J-0.109 K0.000 F600.000
G3 X20.169 Y-35.215 Z-2.000 I7.972 J-21.488 K0.000 F600.000
G3 X20.151 Y-35.173 Z-2.000 I-0.318 J-0.111 K0.000 F600.000
G3 X21.384 Y-34.668 Z-2.000 I-13.057 J33.635 K0.000 F600.000
G2 X20.151 Y-35.173 Z-2.000 I-14.290 J33.130 K0.000 F600.000
G2 X20.169 Y-35.215 Z-2.000 I-0.300 J-0.154 K0.000 F600.000
G2 X21.377 Y-34.675 Z-2.000 I10.362 J-21.549 K0.000 F600.000
G1 X21.384 Y-34.668 Z-2.000 F600.000
G1 X22.038 Y-34.390 Z-2.000 F600.000
G3 X22.197 Y-33.997 Z-2.000 I-0.117 J0.276 K0.000 F600.000
G1 X21.743 Y-32.927 Z-2.000 F600.000
G3 X21.464 Y-32.744 Z-2.000 I-0.276 J-0.117 K0.000 F600.000
G3 X21.029 Y-32.914 Z-2.000 I14.012 J-36.503 K0.000 F600.000
G0 Z5.000
G0 Z5.000
G0 X21.029 Y-32.914
G0 X23.067 Y-36.083
G0 X23.067 Y-36.083 Z3.000
G1 X23.067 Y-36.083 Z-1.500 F600.000
G1 X23.060 Y-36.090 Z-1.500 F600.000
G1 X19.374 Y-37.655 Z-1.500 F600.000
G1 X19.529 Y-37.500 Z-1.500 F600.000
G2 X19.347 Y-37.336 Z-1.500 I0.082 J0.273 K0.000 F600.000
G1 X18.818 Y-36.089 Z-1.500 F600.000
G1 X18.659 Y-36.249 Z-1.500 F600.000
G1 X18.026 Y-34.760 Z-1.500 F600.000
G1 X18.186 Y-34.600 Z-1.500 F600.000
G1 X17.554 Y-33.111 Z-1.500 F600.000
G1 X17.394 Y-33.270 Z-1.500 F600.000
G1 X16.762 Y-31.781 Z-1.500 F600.000
G1 X16.922 Y-31.622 Z-1.500 F600.000
G1 X16.290 Y-30.132 Z-1.500 F600.000
G1 X16.130 Y-30.292 Z-1.500 F600.000
G2 X15.680 Y-29.149 Z-1.500 I6.263 J3.126 K0.000 F600.000
G2 X15.912 Y-28.414 Z-1.500 I0.660 J0.196 K0.000 F600.000
G2 X16.706 Y-27.919 Z-1.500 I2.072 J-2.439 K0.000 F600.000
G3 X16.882 Y-28.210 Z-1.500 I0.695 J0.222 K0.000 F600.000
G3 X15.950 Y-28.795 Z-1.500 I0.283 J-1.486 K0.000 F600.000
G3 X15.957 Y-29.284 Z-1.500 I0.767 J-0.235 K0.000 F600.000
G3 X16.290 Y-30.132 Z-1.500 I7.464 J2.437 K0.000 F600.000
G2 X15.919 Y-29.101 Z-1.500 I2.676 J1.545 K0.000 F600.000
G2 X16.226 Y-28.508 Z-1.500 I0.546 J0.093 K0.000 F600.000
G2 X16.882 Y-28.210 Z-1.500 I1.598 J-2.648 K0.000 F600.000
G2 X16.706 Y-27.919 Z-1.500 I0.631 J0.581 K0.000 F600.000
G3 X15.768 Y-28.572 Z-1.500 I0.962 J-2.381 K0.000 F600.000
G3 X15.794 Y-29.499 Z-1.500 I0.873 J-0.440 K0.000 F600.000
G1 X19.273 Y-37.697 Z-1.500 F600.000
G1 X26.746 Y-34.526 Z-1.500 F600.000
G2 X24.157 Y-28.455 Z-1.500 I217.679 J96.410 K0.000 F600.000
G2 X23.810 Y-26.093 Z-1.500 I3.409 J1.707 K0.000 F600.000
G2 X24.105 Y-25.351 Z-1.500 I2.447 J-0.541 K0.000 F600.000
G2 X23.888 Y-25.264 Z-1.500 I0.219 J0.863 K0.000 F600.000
G3 X23.590 Y-27.267 Z-1.500 I2.799 J-1.439 K0.000 F600.000
G3 X23.974 Y-28.559 Z-1.500 I5.412 J0.904 K0.000 F600.000
G1 X26.435 Y-34.327 Z-1.500 F600.000
G2 X26.276 Y-34.721 Z-1.500 I-0.276 J-0.118 K0.000 F600.000
G1 X19.741 Y-37.495 Z-1.500 F600.000
G2 X19.347 Y-37.336 Z-1.500 I-0.117 J0.276 K0.000 F600.000
G1 X16.290 Y-30.132 Z-1.500 F600.000
G0 Z5.000
G0 X23.761 Y-26.904 Z5.000
G0 X23.761 Y-26.904 Z3.000
G1 X23.761 Y-26.904 Z-1.500 F600.000
G2 X24.105 Y-25.351 Z-1.500 I2.554 J0.249 K0.000 F600.000
G2 X23.888 Y-25.264 Z-1.500 I0.217 J0.858 K0.000 F600.000
G3 X23.575 Y-27.089 Z-1.500 I2.611 J-1.386 K0.000 F600.000
G1 X23.761 Y-26.904 Z-1.500 F600.000
G3 X24.209 Y-28.577 Z-1.500 I4.364 J0.273 K0.000 F600.000
G1 X24.050 Y-28.736 Z-1.500 F600.000
G1 X24.684 Y-30.223 Z-1.500 F600.000
G1 X24.843 Y-30.064 Z-1.500 F600.000
G1 X25.477 Y-31.551 Z-1.500 F600.000
G1 X25.318 Y-31.710 Z-1.500 F600.000
G1 X25.953 Y-33.197 Z-1.500 F600.000
G1 X26.111 Y-33.038 Z-1.500 F600.000
G1 X26.746 Y-34.526 Z-1.500 F600.000
G1 X26.746 Y-34.526 Z-2.000 F600.000
G1 X26.111 Y-33.038 Z-2.000 F600.000
G1 X25.953 Y-33.197 Z-2.000 F600.000
G1 X25.318 Y-31.710 Z-2.000 F600.000
G1 X25.477 Y-31.551 Z-2.000 F600.000
G1 X24.843 Y-30.064 Z-2.000 F600.000
G1 X24.684 Y-30.223 Z-2.000 F600.000
G1 X24.050 Y-28.736 Z-2.000 F600.000
G1 X24.209 Y-28.577 Z-2.000 F600.000
G2 X23.761 Y-26.904 Z-2.000 I3.916 J1.946 K0.000 F600.000
G1 X23.575 Y-27.089 Z-2.000 F600.000
G2 X23.888 Y-25.264 Z-2.000 I2.923 J0.439 K0.000 F600.000
G3 X24.105 Y-25.351 Z-2.000 I0.434 J0.772 K0.000 F600.000
G3 X23.761 Y-26.904 Z-2.000 I2.210 J-1.304 K0.000 F600.000
G0 Z5.000
G0 X16.290 Y-30.132 Z5.000
G0 X16.290 Y-30.132 Z3.000
G1 X16.290 Y-30.132 Z-2.000 F600.000
G1 X19.347 Y-37.336 Z-2.000 F600.000
G3 X19.741 Y-37.495 Z-2.000 I0.276 J0.117 K0.000 F600.000
G1 X26.276 Y-34.721 Z-2.000 F600.000
G3 X26.435 Y-34.327 Z-2.000 I-0.117 J0.276 K0.000 F600.000
G1 X23.974 Y-28.559 Z-2.000 F600.000
G2 X23.590 Y-27.267 Z-2.000 I5.029 J2.196 K0.000 F600.000
G2 X23.888 Y-25.264 Z-2.000 I3.097 J0.564 K0.000 F600.000
G3 X24.105 Y-25.351 Z-2.000 I0.436 J0.777 K0.000 F600.000
G3 X23.810 Y-26.093 Z-2.000 I2.153 J-1.283 K0.000 F600.000
G3 X24.157 Y-28.455 Z-2.000 I3.756 J-0.655 K0.000 F600.000
G3 X26.746 Y-34.526 Z-2.000 I220.268 J90.339 K0.000 F600.000
G1 X19.273 Y-37.697 Z-2.000 F600.000
G1 X15.794 Y-29.499 Z-2.000 F600.000
G2 X15.768 Y-28.572 Z-2.000 I0.848 J0.487 K0.000 F600.000
G2 X16.706 Y-27.919 Z-2.000 I1.899 J-1.728 K0.000 F600.000
G3 X16.882 Y-28.210 Z-2.000 I0.807 J0.290 K0.000 F600.000
G3 X16.226 Y-28.508 Z-2.000 I0.942 J-2.946 K0.000 F600.000
G3 X15.919 Y-29.101 Z-2.000 I0.239 J-0.500 K0.000 F600.000
G3 X16.290 Y-30.132 Z-2.000 I3.047 J0.513 K0.000 F600.000
G2 X15.957 Y-29.284 Z-2.000 I7.131 J3.285 K0.000 F600.000
G2 X15.950 Y-28.795 Z-2.000 I0.760 J0.255 K0.000 F600.000
G2 X16.882 Y-28.210 Z-2.000 I1.215 J-0.901 K0.000 F600.000
G2 X16.706 Y-27.919 Z-2.000 I0.518 J0.513 K0.000 F600.000
G3 X15.912 Y-28.414 Z-2.000 I1.279 J-2.934 K0.000 F600.000
G3 X15.680 Y-29.149 Z-2.000 I0.428 J-0.540 K0.000 F600.000
G3 X16.130 Y-30.292 Z-2.000 I6.713 J1.983 K0.000 F600.000
G1 X16.290 Y-30.132 Z-2.000 F600.000
G1 X16.922 Y-31.622 Z-2.000 F600.000
G1 X16.762 Y-31.781 Z-2.000 F600.000
G1 X17.394 Y-33.270 Z-2.000 F600.000
G1 X17.554 Y-33.111 Z-2.000 F600.000
G1 X18.186 Y-34.600 Z-2.000 F600.000
G1 X18.026 Y-34.760 Z-2.000 F600.000
G1 X18.659 Y-36.249 Z-2.000 F600.000
G1 X18.818 Y-36.089 Z-2.000 F600.000
G1 X19.347 Y-37.336 Z-2.000 F600.000
G3 X19.529 Y-37.500 Z-2.000 I0.263 J0.109 K0.000 F600.000
G1 X19.374 Y-37.655 Z-2.000 F600.000
G1 X23.060 Y-36.090 Z-2.000 F600.000
G1 X23.067 Y-36.083 Z-2.000 F600.000
G0 Z5.000
G0 Z5.000
G0 X23.067 Y-36.083
G0 X31.110 Y-17.037
G0 X31.110 Y-17.037 Z3.000
G1 X31.110 Y-17.037 Z-1.500 F600.000
G1 X31.683 Y-14.343 Z-1.500 F600.000
G1 X31.383 Y-14.642 Z-1.500 F600.000
G1 X31.956 Y-11.948 Z-1.500 F600.000
G1 X32.255 Y-11.649 Z-1.500 F600.000
G1 X32.828 Y-8.955 Z-1.500 F600.000
G1 X32.949 Y-8.384 Z-1.500 F600.000
G1 X32.724 Y-8.336 Z-1.500 F600.000
G1 X30.884 Y-16.989 Z-1.500 F600.000
G1 X31.110 Y-17.037 Z-1.500 F600.000
G1 X32.828 Y-8.955 Z-1.500 F600.000
G1 X32.528 Y-9.254 Z-1.500 F600.000
G1 X32.724 Y-8.336 Z-1.500 F600.000
G1 X32.949 Y-8.384 Z-1.500 F600.000
G1 X32.828 Y-8.955 Z-1.500 F600.000
G1 X32.828 Y-8.955 Z-2.000 F600.000
G1 X32.949 Y-8.384 Z-2.000 F600.000
G1 X32.724 Y-8.336 Z-2.000 F600.000
G1 X32.528 Y-9.254 Z-2.000 F600.000
G1 X32.828 Y-8.955 Z-2.000 F600.000
G1 X31.110 Y-17.037 Z-2.000 F600.000
G1 X30.884 Y-16.989 Z-2.000 F600.000
G1 X32.724 Y-8.336 Z-2.000 F600.000
G1 X32.949 Y-8.384 Z-2.000 F600.000
G1 X32.828 Y-8.955 Z-2.000 F600.000
G1 X32.255 Y-11.649 Z-2.000 F600.000
G1 X31.956 Y-11.948 Z-2.000 F600.000
G1 X31.383 Y-14.642 Z-2.000 F600.000
G1 X31.683 Y-14.343 Z-2.000 F600.000
G1 X31.110 Y-17.037 Z-2.000 F600.000
G0 Z5.000
G0 Z5.000
G0 X31.110 Y-17.037
G0 X35.084 Y-16.853
G0 X35.084 Y-16.853 Z3.000
G1 X35.084 Y-16.853 Z-1.500 F600.000
G1 X35.656 Y-14.159 Z-1.500 F600.000
G1 X35.356 Y-14.459 Z-1.500 F600.000
G1 X35.929 Y-11.765 Z-1.500 F600.000
G1 X36.229 Y-11.465 Z-1.500 F600.000
G1 X36.505 Y-10.168 Z-1.500 F600.000
G1 X36.279 Y-10.120 Z-1.500 F600.000
G1 X34.858 Y-16.805 Z-1.500 F600.000
G1 X35.084 Y-16.853 Z-1.500 F600.000
G1 X36.505 Y-10.168 Z-1.500 F600.000
G1 X36.279 Y-10.120 Z-1.500 F600.000
G1 X35.929 Y-11.765 Z-1.500 F600.000
G1 X35.929 Y-11.765 Z-2.000 F600.000
G1 X36.279 Y-10.120 Z-2.000 F600.000
G1 X36.505 Y-10.168 Z-2.000 F600.000
G1 X35.084 Y-16.853 Z-2.000 F600.000
G1 X34.858 Y-16.805 Z-2.000 F600.000
G1 X36.279 Y-10.120 Z-2.000 F600.000
G1 X36.505 Y-10.168 Z-2.000 F600.000
G1 X36.229 Y-11.465 Z-2.000 F600.000
G1 X35.929 Y-11.765 Z-2.000 F600.000
G1 X35.356 Y-14.459 Z-2.000 F600.000
G1 X35.656 Y-14.159 Z-2.000 F600.000
G1 X35.084 Y-16.853 Z-2.000 F600.000
G0 Z5.000
G0 Z5.000
G0 X35.084 Y-16.853
G0 X38.662 Y-18.105
G0 X38.662 Y-18.105 Z3.000
G1 X38.662 Y-18.105 Z-1.500 F600.000
G1 X39.235 Y-15.411 Z-1.500 F600.000
G1 X38.935 Y-15.711 Z-1.500 F600.000
G1 X39.508 Y-13.017 Z-1.500 F600.000
G1 X39.808 Y-12.717 Z-1.500 F600.000
G1 X40.283 Y-10.479 Z-1.500 F600.000
G1 X40.057 Y-10.431 Z-1.500 F600.000
G1 X38.437 Y-18.057 Z-1.500 F600.000
G1 X38.662 Y-18.105 Z-1.500 F600.000
G1 X40.283 Y-10.479 Z-1.500 F600.000
G1 X40.057 Y-10.431 Z-1.500 F600.000
G1 X39.508 Y-13.017 Z-1.500 F600.000
G1 X39.508 Y-13.017 Z-2.000 F600.000
G1 X40.057 Y-10.431 Z-2.000 F600.000
G1 X40.283 Y-10.479 Z-2.000 F600.000
G1 X38.662 Y-18.105 Z-2.000 F600.000
G1 X38.437 Y-18.057 Z-2.000 F600.000
G1 X40.057 Y-10.431 Z-2.000 F600.000
G1 X40.283 Y-10.479 Z-2.000 F600.000
G1 X39.808 Y-12.717 Z-2.000 F600.000
G1 X39.508 Y-13.017 Z-2.000 F600.000
G1 X38.935 Y-15.711 Z-2.000 F600.000
G1 X39.235 Y-15.411 Z-2.000 F600.000
G1 X38.662 Y-18.105 Z-2.000 F600.000
G0 Z5.000
G0 Z5.000
G0 X38.662 Y-18.105
G0 X39.768 Y-5.330
G0 X39.768 Y-5.330 Z3.000
G1 X39.768 Y-5.330 Z-1.500 F600.000
G1 X40.142 Y-3.570 Z-1.500 F600.000
G2 X40.498 Y-3.339 Z-1.500 I0.293 J-0.062 K0.000 F600.000
G1 X41.017 Y-3.450 Z-1.500 F600.000
G1 X41.075 Y-3.181 Z-1.500 F600.000
G2 X40.448 Y-3.024 Z-1.500 I0.080 J1.654 K0.000 F600.000
G2 X40.341 Y-2.636 Z-1.500 I0.192 J0.262 K0.000 F600.000
G1 X39.779 Y-3.198 Z-1.500 F600.000
G1 X39.728 Y-3.176 Z-1.500 F600.000
G1 X38.787 Y-2.976 Z-1.500 F600.000
G3 X38.431 Y-3.207 Z-1.500 I-0.062 J-0.293 K0.000 F600.000
G1 X38.070 Y-4.907 Z-1.500 F600.000
G1 X37.827 Y-5.150 Z-1.500 F600.000
G1 X38.399 Y-2.456 Z-1.500 F600.000
G1 X38.642 Y-2.213 Z-1.500 F600.000
G1 X39.014 Y-0.463 Z-1.500 F600.000
G1 X38.831 Y-0.424 Z-1.500 F600.000
G1 X37.811 Y-5.227 Z-1.500 F600.000
G1 X37.994 Y-5.266 Z-1.500 F600.000
G1 X38.431 Y-3.207 Z-1.500 F600.000
G2 X38.787 Y-2.976 Z-1.500 I0.293 J-0.062 K0.000 F600.000
G1 X39.728 Y-3.176 Z-1.500 F600.000
G2 X39.959 Y-3.531 Z-1.500 I-0.062 J-0.293 K0.000 F600.000
G1 X39.585 Y-5.291 Z-1.500 F600.000
G1 X39.768 Y-5.330 Z-1.500 F600.000
G1 X40.142 Y-3.570 Z-1.500 F600.000
G2 X40.498 Y-3.339 Z-1.500 I0.293 J-0.062 K0.000 F600.000
G1 X41.017 Y-3.450 Z-1.500 F600.000
G1 X41.075 Y-3.181 Z-1.500 F600.000
G2 X40.448 Y-3.024 Z-1.500 I0.080 J1.654 K0.000 F600.000
G2 X40.324 Y-2.715 Z-1.500 I0.170 J0.247 K0.000 F600.000
G1 X40.689 Y-0.998 Z-1.500 F600.000
G1 X40.506 Y-0.959 Z-1.500 F600.000
G1 X40.141 Y-2.676 Z-1.500 F600.000
G2 X39.785 Y-2.907 Z-1.500 I-0.293 J0.062 K0.000 F600.000
G1 X38.844 Y-2.707 Z-1.500 F600.000
G2 X38.613 Y-2.351 Z-1.500 I0.062 J0.293 K0.000 F600.000
G1 X39.014 Y-0.463 Z-1.500 F600.000
G1 X38.831 Y-0.424 Z-1.500 F600.000
G1 X38.399 Y-2.456 Z-1.500 F600.000
G0 Z5.000
G0 X38.070 Y-4.907 Z5.000
G0 X38.070 Y-4.907 Z3.000
G1 X38.070 Y-4.907 Z-1.500 F600.000
G1 X37.994 Y-5.266 Z-1.500 F600.000
G1 X37.811 Y-5.227 Z-1.500 F600.000
G1 X37.827 Y-5.150 Z-1.500 F600.000
G1 X38.070 Y-4.907 Z-1.500 F600.000
G1 X38.070 Y-4.907 Z-2.000 F600.000
G1 X37.994 Y-5.266 Z-2.000 F600.000
G1 X37.811 Y-5.227 Z-2.000 F600.000
G1 X37.827 Y-5.150 Z-2.000 F600.000
G1 X38.070 Y-4.907 Z-2.000 F600.000
G0 Z5.000
G0 X39.768 Y-5.330 Z5.000
G0 X39.768 Y-5.330 Z3.000
G1 X39.768 Y-5.330 Z-2.000 F600.000
G1 X40.142 Y-3.570 Z-2.000 F600.000
G2 X40.498 Y-3.339 Z-2.000 I0.293 J-0.062 K0.000 F600.000
G1 X41.017 Y-3.450 Z-2.000 F600.000
G1 X41.075 Y-3.181 Z-2.000 F600.000
G2 X40.448 Y-3.024 Z-2.000 I0.080 J1.654 K0.000 F600.000
G2 X40.341 Y-2.636 Z-2.000 I0.192 J0.262 K0.000 F600.000
G1 X39.779 Y-3.198 Z-2.000 F600.000
G1 X39.728 Y-3.176 Z-2.000 F600.000
G1 X38.787 Y-2.976 Z-2.000 F600.000
G3 X38.431 Y-3.207 Z-2.000 I-0.062 J-0.293 K0.000 F600.000
G1 X38.070 Y-4.907 Z-2.000 F600.000
G1 X37.827 Y-5.150 Z-2.000 F600.000
G1 X38.399 Y-2.456 Z-2.000 F600.000
G1 X38.642 Y-2.213 Z-2.000 F600.000
G1 X39.014 Y-0.463 Z-2.000 F600.000
G1 X38.831 Y-0.424 Z-2.000 F600.000
G1 X37.811 Y-5.227 Z-2.000 F600.000
G1 X37.994 Y-5.266 Z-2.000 F600.000
G1 X38.431 Y-3.207 Z-2.000 F600.000
G2 X38.787 Y-2.976 Z-2.000 I0.293 J-0.062 K0.000 F600.000
G1 X39.728 Y-3.176 Z-2.000 F600.000
G2 X39.959 Y-3.531 Z-2.000 I-0.062 J-0.293 K0.000 F600.000
G1 X39.585 Y-5.291 Z-2.000 F600.000
G1 X39.768 Y-5.330 Z-2.000 F600.000
G1 X40.142 Y-3.570 Z-2.000 F600.000
G2 X40.498 Y-3.339 Z-2.000 I0.293 J-0.062 K0.000 F600.000
G1 X41.017 Y-3.450 Z-2.000 F600.000
G1 X41.075 Y-3.181 Z-2.000 F600.000
G2 X40.448 Y-3.024 Z-2.000 I0.080 J1.654 K0.000 F600.000
G2 X40.324 Y-2.715 Z-2.000 I0.170 J0.247 K0.000 F600.000
G1 X40.689 Y-0.998 Z-2.000 F600.000
G1 X40.506 Y-0.959 Z-2.000 F600.000
G1 X40.141 Y-2.676 Z-2.000 F600.000
G2 X39.785 Y-2.907 Z-2.000 I-0.293 J0.062 K0.000 F600.000
G1 X38.844 Y-2.707 Z-2.000 F600.000
G2 X38.613 Y-2.351 Z-2.000 I0.062 J0.293 K0.000 F600.000
G1 X39.014 Y-0.463 Z-2.000 F600.000
G1 X38.831 Y-0.424 Z-2.000 F600.000
G1 X38.399 Y-2.456 Z-2.000 F600.000
G0 Z5.000
G0 Z5.000
G0 X38.399 Y-2.456
G0 X37.031 Y-2.165
G0 X37.031 Y-2.165 Z3.000
G1 X37.031 Y-2.165 Z-1.500 F600.000
G1 X37.225 Y-1.251 Z-1.500 F600.000
G3 X36.994 Y-0.895 Z-1.500 I-0.293 J0.062 K0.000 F600.000
G1 X35.839 Y-0.650 Z-1.500 F600.000
G3 X35.483 Y-0.881 Z-1.500 I-0.062 J-0.293 K0.000 F600.000
G1 X34.947 Y-3.405 Z-1.500 F600.000
G3 X35.178 Y-3.761 Z-1.500 I0.293 J-0.062 K0.000 F600.000
G1 X36.333 Y-4.006 Z-1.500 F600.000
G1 X36.450 Y-4.008 Z-1.500 F600.000
G3 X36.688 Y-3.775 Z-1.500 I-0.055 J0.295 K0.000 F600.000
G1 X37.031 Y-2.165 Z-1.500 F600.000
G0 Z5.000
G0 X36.290 Y-0.510 Z5.000
G0 X36.290 Y-0.510 Z3.000
G1 X36.290 Y-0.510 Z-1.500 F600.000
G1 X36.095 Y-0.704 Z-1.500 F600.000
G1 X36.994 Y-0.895 Z-1.500 F600.000
G2 X37.225 Y-1.251 Z-1.500 I-0.062 J-0.293 K0.000 F600.000
G1 X37.105 Y-1.816 Z-1.500 F600.000
G1 X37.291 Y-1.630 Z-1.500 F600.000
G1 X36.718 Y-4.324 Z-1.500 F600.000
G0 Z5.000
G0 X35.166 Y-3.755 Z5.000
G0 X35.166 Y-3.755 Z3.000
G1 X35.166 Y-3.755 Z-1.500 F600.000
G1 X34.969 Y-3.952 Z-1.500 F600.000
G1 X34.696 Y-3.894 Z-1.500 F600.000
G1 X35.179 Y-1.621 Z-1.500 F600.000
G1 X35.365 Y-1.434 Z-1.500 F600.000
G1 X35.483 Y-0.881 Z-1.500 F600.000
G2 X35.839 Y-0.650 Z-1.500 I0.293 J-0.062 K0.000 F600.000
G1 X36.095 Y-0.704 Z-1.500 F600.000
G1 X36.290 Y-0.510 Z-1.500 F600.000
G1 X35.453 Y-0.332 Z-1.500 F600.000
G1 X34.696 Y-3.894 Z-1.500 F600.000
G1 X34.696 Y-3.894 Z-1.500 F600.000
G1 X36.718 Y-4.324 Z-1.500 F600.000
G1 X37.476 Y-0.762 Z-1.500 F600.000
G1 X35.453 Y-0.332 Z-1.500 F600.000
G1 X35.179 Y-1.621 Z-1.500 F600.000
G1 X35.179 Y-1.621 Z-2.000 F600.000
G1 X35.453 Y-0.332 Z-2.000 F600.000
G1 X37.476 Y-0.762 Z-2.000 F600.000
G1 X36.718 Y-4.324 Z-2.000 F600.000
G1 X34.696 Y-3.894 Z-2.000 F600.000
G1 X34.696 Y-3.894 Z-2.000 F600.000
G1 X35.453 Y-0.332 Z-2.000 F600.000
G1 X36.290 Y-0.510 Z-2.000 F600.000
G1 X36.095 Y-0.704 Z-2.000 F600.000
G1 X35.839 Y-0.650 Z-2.000 F600.000
G3 X35.483 Y-0.881 Z-2.000 I-0.062 J-0.293 K0.000 F600.000
G1 X35.365 Y-1.434 Z-2.000 F600.000
G1 X35.179 Y-1.621 Z-2.000 F600.000
G1 X34.696 Y-3.894 Z-2.000 F600.000
G1 X34.969 Y-3.952 Z-2.000 F600.000
G1 X35.166 Y-3.755 Z-2.000 F600.000
G0 Z5.000
G0 X35.165 Y-3.758 Z5.000
G0 X35.165 Y-3.758 Z3.000
G1 X35.165 Y-3.758 Z-2.000 F600.000
G3 X35.178 Y-3.761 Z-2.000 I0.075 J0.291 K0.000 F600.000
G1 X36.333 Y-4.006 Z-2.000 F600.000
G1 X36.450 Y-4.008 Z-2.000 F600.000
G3 X36.688 Y-3.775 Z-2.000 I-0.055 J0.295 K0.000 F600.000
G1 X37.225 Y-1.251 Z-2.000 F600.000
G3 X36.994 Y-0.895 Z-2.000 I-0.293 J0.062 K0.000 F600.000
G1 X35.839 Y-0.650 Z-2.000 F600.000
G3 X35.483 Y-0.881 Z-2.000 I-0.062 J-0.293 K0.000 F600.000
G1 X34.947 Y-3.405 Z-2.000 F600.000
G3 X35.165 Y-3.758 Z-2.000 I0.293 J-0.062 K0.000 F600.000
G0 Z5.000
G0 X36.718 Y-4.324 Z5.000
G0 X36.718 Y-4.324 Z3.000
G1 X36.718 Y-4.324 Z-2.000 F600.000
G1 X37.291 Y-1.630 Z-2.000 F600.000
G1 X37.105 Y-1.816 Z-2.000 F600.000
G1 X37.225 Y-1.251 Z-2.000 F600.000
G3 X36.994 Y-0.895 Z-2.000 I-0.293 J0.062 K0.000 F600.000
G1 X36.095 Y-0.704 Z-2.000 F600.000
G1 X36.290 Y-0.510 Z-2.000 F600.000
G0 Z5.000
G0 Z5.000
G0 X36.290 Y-0.510
G0 X34.565 Y2.633
G0 X34.565 Y2.633 Z3.000
G1 X34.565 Y2.633 Z-1.500 F600.000
G1 X34.844 Y2.913 Z-1.500 F600.000
G1 X34.685 Y3.021 Z-1.500 F600.000
G1 X34.413 Y2.742 Z-1.500 F600.000
G3 X34.565 Y2.633 Z-1.500 I0.901 J1.099 K0.000 F600.000
G3 X35.898 Y1.846 Z-1.500 I5.088 J7.091 K0.000 F600.000
G1 X36.141 Y2.089 Z-1.500 F600.000
G3 X37.623 Y1.450 Z-1.500 I3.995 J7.228 K0.000 F600.000
G1 X37.396 Y1.223 Z-1.500 F600.000
G3 X39.062 Y0.766 Z-1.500 I3.840 J10.749 K0.000 F600.000
G1 X39.293 Y0.998 Z-1.500 F600.000
G3 X41.043 Y0.626 Z-1.500 I11.852 J51.402 K0.000 F600.000
G1 X40.811 Y0.395 Z-1.500 F600.000
G1 X42.512 Y0.033 Z-1.500 F600.000
G1 X42.553 Y0.015 Z-1.500 F600.000
G1 X42.792 Y0.254 Z-1.500 F600.000
G1 X43.088 Y0.191 Z-1.500 F600.000
G1 X42.612 Y-2.047 Z-1.500 F600.000
G1 X42.312 Y-2.347 Z-1.500 F600.000
G1 X41.740 Y-5.041 Z-1.500 F600.000
G1 X42.040 Y-4.741 Z-1.500 F600.000
G1 X41.467 Y-7.435 Z-1.500 F600.000
G0 Z5.000
G0 X39.949 Y-6.831 Z5.000
G0 X39.949 Y-6.831 Z3.000
G1 X39.949 Y-6.831 Z-1.500 F600.000
G1 X39.717 Y-7.063 Z-1.500 F600.000
G1 X37.968 Y-6.691 Z-1.500 F600.000
G1 X38.200 Y-6.460 Z-1.500 F600.000
G1 X36.450 Y-6.088 Z-1.500 F600.000
G1 X36.219 Y-6.319 Z-1.500 F600.000
G1 X34.469 Y-5.947 Z-1.500 F600.000
G1 X34.701 Y-5.716 Z-1.500 F600.000
G2 X33.395 Y-5.420 Z-1.500 I1.383 J9.119 K0.000 F600.000
G2 X33.072 Y-5.224 Z-1.500 I0.262 J0.798 K0.000 F600.000
G2 X32.926 Y-4.709 Z-1.500 I0.387 J0.387 K0.000 F600.000
G2 X33.232 Y-3.542 Z-1.500 I14.712 J-3.233 K0.000 F600.000
G1 X33.051 Y-3.553 Z-1.500 F600.000
G3 X32.681 Y-4.999 Z-1.500 I6.699 J-2.485 K0.000 F600.000
G3 X32.977 Y-5.580 Z-1.500 I0.500 J-0.111 K0.000 F600.000
G1 X33.352 Y-5.710 Z-1.500 F600.000
G1 X41.467 Y-7.435 Z-1.500 F600.000
G1 X43.088 Y0.191 Z-1.500 F600.000
G2 X38.647 Y1.148 Z-1.500 I24.604 J125.029 K0.000 F600.000
G2 X34.685 Y3.021 Z-1.500 I2.286 J9.963 K0.000 F600.000
G1 X34.413 Y2.742 Z-1.500 F600.000
G3 X38.966 Y0.787 Z-1.500 I6.768 J9.481 K0.000 F600.000
G1 X42.512 Y0.033 Z-1.500 F600.000
G2 X42.743 Y-0.323 Z-1.500 I-0.062 J-0.293 K0.000 F600.000
G1 X41.361 Y-6.825 Z-1.500 F600.000
G2 X41.005 Y-7.056 Z-1.500 I-0.293 J0.062 K0.000 F600.000
G2 X33.643 Y-5.491 Z-1.500 I107.231 J522.572 K0.000 F600.000
G2 X33.072 Y-5.224 Z-1.500 I0.209 J1.192 K0.000 F600.000
G2 X32.917 Y-4.788 Z-1.500 I0.415 J0.392 K0.000 F600.000
G2 X33.232 Y-3.542 Z-1.500 I12.206 J-2.420 K0.000 F600.000
G1 X33.051 Y-3.553 Z-1.500 F600.000
G3 X32.705 Y-4.848 Z-1.500 I14.148 J-4.477 K0.000 F600.000
G3 X32.826 Y-5.469 Z-1.500 I0.542 J-0.217 K0.000 F600.000
G1 X33.072 Y-5.224 Z-1.500 F600.000
G1 X33.072 Y-5.224 Z-2.000 F600.000
G1 X32.826 Y-5.469 Z-2.000 F600.000
G2 X32.705 Y-4.848 Z-2.000 I0.421 J0.404 K0.000 F600.000
G2 X33.051 Y-3.553 Z-2.000 I14.494 J-3.182 K0.000 F600.000
G1 X33.232 Y-3.542 Z-2.000 F600.000
G3 X32.917 Y-4.788 Z-2.000 I11.892 J-3.666 K0.000 F600.000
G3 X33.072 Y-5.224 Z-2.000 I0.569 J-0.044 K0.000 F600.000
G3 X33.643 Y-5.491 Z-2.000 I0.781 J0.925 K0.000 F600.000
G3 X41.005 Y-7.056 Z-2.000 I114.593 J521.007 K0.000 F600.000
G3 X41.361 Y-6.825 Z-2.000 I0.062 J0.293 K0.000 F600.000
G1 X42.743 Y-0.323 Z-2.000 F600.000
G3 X42.512 Y0.033 Z-2.000 I-0.293 J0.062 K0.000 F600.000
G1 X38.966 Y0.787 Z-2.000 F600.000
G2 X34.413 Y2.742 Z-2.000 I2.215 J11.436 K0.000 F600.000
G1 X34.685 Y3.021 Z-2.000 F600.000
G3 X38.647 Y1.148 Z-2.000 I6.248 J8.090 K0.000 F600.000
G3 X43.088 Y0.191 Z-2.000 I29.045 J124.073 K0.000 F600.000
G1 X41.467 Y-7.435 Z-2.000 F600.000
G1 X33.352 Y-5.710 Z-2.000 F600.000
G1 X32.977 Y-5.580 Z-2.000 F600.000
G2 X32.681 Y-4.999 Z-2.000 I0.205 J0.470 K0.000 F600.000
G2 X33.051 Y-3.553 Z-2.000 I7.069 J-1.039 K0.000 F600.000
G1 X33.232 Y-3.542 Z-2.000 F600.000
G3 X32.926 Y-4.709 Z-2.000 I14.406 J-4.400 K0.000 F600.000
G3 X33.072 Y-5.224 Z-2.000 I0.532 J-0.128 K0.000 F600.000
G3 X33.395 Y-5.420 Z-2.000 I0.586 J0.602 K0.000 F600.000
G3 X34.701 Y-5.716 Z-2.000 I2.689 J8.823 K0.000 F600.000
G1 X34.469 Y-5.947 Z-2.000 F600.000
G1 X36.219 Y-6.319 Z-2.000 F600.000
G1 X36.450 Y-6.088 Z-2.000 F600.000
G1 X38.200 Y-6.460 Z-2.000 F600.000
G1 X37.968 Y-6.691 Z-2.000 F600.000
G1 X39.717 Y-7.063 Z-2.000 F600.000
G1 X39.949 Y-6.831 Z-2.000 F600.000
G0 Z5.000
G0 X41.467 Y-7.435 Z5.000
G0 X41.467 Y-7.435 Z3.000
G1 X41.467 Y-7.435 Z-2.000 F600.000
G1 X42.040 Y-4.741 Z-2.000 F600.000
G1 X41.740 Y-5.041 Z-2.000 F600.000
G1 X42.312 Y-2.347 Z-2.000 F600.000
G1 X42.612 Y-2.047 Z-2.000 F600.000
G1 X43.088 Y0.191 Z-2.000 F600.000
G1 X42.792 Y0.254 Z-2.000 F600.000
G1 X42.553 Y0.015 Z-2.000 F600.000
G1 X42.512 Y0.033 Z-2.000 F600.000
G1 X40.811 Y0.395 Z-2.000 F600.000
G1 X41.043 Y0.626 Z-2.000 F600.000
G2 X39.293 Y0.998 Z-2.000 I10.102 J51.774 K0.000 F600.000
G1 X39.062 Y0.766 Z-2.000 F600.000
G2 X37.396 Y1.223 Z-2.000 I2.175 J11.206 K0.000 F600.000
G1 X37.623 Y1.450 Z-2.000 F600.000
G2 X36.141 Y2.089 Z-2.000 I2.513 J7.867 K0.000 F600.000
G1 X35.898 Y1.846 Z-2.000 F600.000
G2 X34.565 Y2.633 Z-2.000 I3.755 J7.879 K0.000 F600.000
G2 X34.413 Y2.742 Z-2.000 I0.750 J1.208 K0.000 F600.000
G1 X34.685 Y3.021 Z-2.000 F600.000
G1 X34.844 Y2.913 Z-2.000 F600.000
G1 X34.565 Y2.633 Z-2.000 F600.000
G0 Z5.000
G0 Z5.000
G0 X34.565 Y2.633
G0 X33.123 Y13.010
G0 X33.123 Y13.010 Z3.000
G1 X33.123 Y13.010 Z-1.500 F600.000
G1 X32.169 Y14.177 Z-1.500 F600.000
G1 X32.005 Y14.013 Z-1.500 F600.000
G1 X31.051 Y15.181 Z-1.500 F600.000
G1 X31.215 Y15.345 Z-1.500 F600.000
G1 X30.262 Y16.513 Z-1.500 F600.000
G1 X30.098 Y16.349 Z-1.500 F600.000
G1 X29.144 Y17.516 Z-1.500 F600.000
G1 X29.308 Y17.681 Z-1.500 F600.000
G1 X28.355 Y18.848 Z-1.500 F600.000
G1 X28.190 Y18.684 Z-1.500 F600.000
G1 X27.237 Y19.852 Z-1.500 F600.000
G1 X27.401 Y20.016 Z-1.500 F600.000
G1 X27.223 Y20.234 Z-1.500 F600.000
G1 X27.044 Y20.088 Z-1.500 F600.000
G1 X32.944 Y12.864 Z-1.500 F600.000
G1 X33.123 Y13.010 Z-1.500 F600.000
G1 X27.223 Y20.234 Z-1.500 F600.000
G1 X27.044 Y20.088 Z-1.500 F600.000
G1 X27.237 Y19.852 Z-1.500 F600.000
G1 X27.237 Y19.852 Z-2.000 F600.000
G1 X27.044 Y20.088 Z-2.000 F600.000
G1 X27.223 Y20.234 Z-2.000 F600.000
G1 X33.123 Y13.010 Z-2.000 F600.000
G1 X32.944 Y12.864 Z-2.000 F600.000
G1 X27.044 Y20.088 Z-2.000 F600.000
G1 X27.223 Y20.234 Z-2.000 F600.000
G1 X27.401 Y20.016 Z-2.000 F600.000
G1 X27.237 Y19.852 Z-2.000 F600.000
G1 X28.190 Y18.684 Z-2.000 F600.000
G1 X28.355 Y18.848 Z-2.000 F600.000
G1 X29.308 Y17.681 Z-2.000 F600.000
G1 X29.144 Y17.516 Z-2.000 F600.000
G1 X30.098 Y16.349 Z-2.000 F600.000
G1 X30.262 Y16.513 Z-2.000 F600.000
G1 X31.215 Y15.345 Z-2.000 F600.000
G1 X31.051 Y15.181 Z-2.000 F600.000
G1 X32.005 Y14.013 Z-2.000 F600.000
G1 X32.169 Y14.177 Z-2.000 F600.000
G1 X33.123 Y13.010 Z-2.000 F600.000
G0 Z5.000
G0 Z5.000
G0 X33.123 Y13.010
G0 X37.900 Y18.153
G0 X37.900 Y18.153 Z3.000
G1 X37.900 Y18.153 Z-1.500 F600.000
G1 X36.946 Y19.321 Z-1.500 F600.000
G1 X36.782 Y19.157 Z-1.500 F600.000
G1 X35.828 Y20.324 Z-1.500 F600.000
G1 X35.992 Y20.489 Z-1.500 F600.000
G1 X35.039 Y21.656 Z-1.500 F600.000
G1 X34.875 Y21.492 Z-1.500 F600.000
G1 X33.921 Y22.660 Z-1.500 F600.000
G1 X34.085 Y22.824 Z-1.500 F600.000
G1 X33.217 Y23.887 Z-1.500 F600.000
G1 X33.038 Y23.741 Z-1.500 F600.000
G1 X37.721 Y18.007 Z-1.500 F600.000
G1 X37.900 Y18.153 Z-1.500 F600.000
G1 X33.217 Y23.887 Z-1.500 F600.000
G1 X33.038 Y23.741 Z-1.500 F600.000
G1 X33.921 Y22.660 Z-1.500 F600.000
G1 X33.921 Y22.660 Z-2.000 F600.000
G1 X33.038 Y23.741 Z-2.000 F600.000
G1 X33.217 Y23.887 Z-2.000 F600.000
G1 X37.900 Y18.153 Z-2.000 F600.000
G1 X37.721 Y18.007 Z-2.000 F600.000
G1 X33.038 Y23.741 Z-2.000 F600.000
G1 X33.217 Y23.887 Z-2.000 F600.000
G1 X34.085 Y22.824 Z-2.000 F600.000
G1 X33.921 Y22.660 Z-2.000 F600.000
G1 X34.875 Y21.492 Z-2.000 F600.000
G1 X35.039 Y21.656 Z-2.000 F600.000
G1 X35.992 Y20.489 Z-2.000 F600.000
G1 X35.828 Y20.324 Z-2.000 F600.000
G1 X36.782 Y19.157 Z-2.000 F600.000
G1 X36.946 Y19.321 Z-2.000 F600.000
G1 X37.900 Y18.153 Z-2.000 F600.000
G0 Z5.000
G0 Z5.000
G0 X37.900 Y18.153
G0 X27.947 Y25.778
G0 X27.947 Y25.778 Z3.000
G1 X27.947 Y25.778 Z-1.500 F600.000
G1 X27.802 Y25.659 Z-1.500 F600.000
G1 X24.696 Y29.462 Z-1.500 F600.000
G1 X24.841 Y29.581 Z-1.500 F600.000
G1 X26.062 Y28.086 Z-1.500 F600.000
G3 X26.484 Y28.043 Z-1.500 I0.232 J0.190 K0.000 F600.000
G1 X27.229 Y28.652 Z-1.500 F600.000
G3 X27.272 Y29.074 Z-1.500 I-0.190 J0.232 K0.000 F600.000
G1 X26.161 Y30.433 Z-1.500 F600.000
G1 X26.306 Y30.552 Z-1.500 F600.000
G1 X27.417 Y29.192 Z-1.500 F600.000
G3 X27.735 Y29.095 Z-1.500 I0.232 J0.190 K0.000 F600.000
G3 X28.250 Y29.485 Z-1.500 I-0.725 J1.489 K0.000 F600.000
G1 X28.424 Y29.273 Z-1.500 F600.000
G1 X28.012 Y28.937 Z-1.500 F600.000
G3 X27.970 Y28.515 Z-1.500 I0.190 J-0.232 K0.000 F600.000
G1 X29.108 Y27.121 Z-1.500 F600.000
G1 X28.963 Y27.003 Z-1.500 F600.000
G1 X27.825 Y28.396 Z-1.500 F600.000
G3 X27.403 Y28.439 Z-1.500 I-0.232 J-0.190 K0.000 F600.000
G1 X26.658 Y27.830 Z-1.500 F600.000
G3 X26.615 Y27.408 Z-1.500 I0.190 J-0.232 K0.000 F600.000
G1 X27.947 Y25.778 Z-1.500 F600.000
G1 X27.947 Y25.778 Z-1.500 F600.000
G1 X26.993 Y26.945 Z-1.500 F600.000
G1 X26.860 Y26.812 Z-1.500 F600.000
G0 Z5.000
G0 X28.103 Y28.056 Z5.000
G0 X28.103 Y28.056 Z3.000
G1 X28.103 Y28.056 Z-1.500 F600.000
G1 X28.963 Y27.003 Z-1.500 F600.000
G1 X29.108 Y27.121 Z-1.500 F600.000
G1 X28.236 Y28.189 Z-1.500 F600.000
G1 X28.103 Y28.056 Z-1.500 F600.000
G3 X27.734 Y28.471 Z-1.500 I-1.228 J-0.719 K0.000 F600.000
G3 X27.403 Y28.439 Z-1.500 I-0.142 J-0.264 K0.000 F600.000
G1 X26.658 Y27.830 Z-1.500 F600.000
G3 X26.615 Y27.408 Z-1.500 I0.190 J-0.232 K0.000 F600.000
G1 X26.993 Y26.945 Z-1.500 F600.000
G1 X26.860 Y26.812 Z-1.500 F600.000
G1 X25.906 Y27.980 Z-1.500 F600.000
G1 X26.039 Y28.113 Z-1.500 F600.000
G1 X25.086 Y29.281 Z-1.500 F600.000
G1 X24.953 Y29.148 Z-1.500 F600.000
G1 X24.696 Y29.462 Z-1.500 F600.000
G1 X24.841 Y29.581 Z-1.500 F600.000
G1 X25.086 Y29.281 Z-1.500 F600.000
G0 Z5.000
G0 X26.329 Y30.524 Z5.000
G0 X26.329 Y30.524 Z3.000
G1 X26.329 Y30.524 Z-1.500 F600.000
G1 X26.306 Y30.552 Z-1.500 F600.000
G1 X26.161 Y30.433 Z-1.500 F600.000
G1 X26.196 Y30.391 Z-1.500 F600.000
G1 X26.329 Y30.524 Z-1.500 F600.000
G1 X27.283 Y29.356 Z-1.500 F600.000
G1 X27.149 Y29.223 Z-1.500 F600.000
G1 X27.149 Y29.223 Z-2.000 F600.000
G1 X27.283 Y29.356 Z-2.000 F600.000
G1 X26.329 Y30.524 Z-2.000 F600.000
G1 X26.196 Y30.391 Z-2.000 F600.000
G1 X26.161 Y30.433 Z-2.000 F600.000
G1 X26.306 Y30.552 Z-2.000 F600.000
G1 X26.329 Y30.524 Z-2.000 F600.000
G0 Z5.000
G0 Z5.000
G0 Z3.000
G1 X26.329 Y30.524 Z-2.000 F600.000
G1 X27.417 Y29.192 Z-2.000 F600.000
G3 X27.735 Y29.095 Z-2.000 I0.232 J0.190 K0.000 F600.000
G3 X28.250 Y29.485 Z-2.000 I-0.725 J1.489 K0.000 F600.000
G1 X28.424 Y29.273 Z-2.000 F600.000
G1 X28.012 Y28.937 Z-2.000 F600.000
G3 X27.970 Y28.515 Z-2.000 I0.190 J-0.232 K0.000 F600.000
G1 X29.108 Y27.121 Z-2.000 F600.000
G1 X28.963 Y27.003 Z-2.000 F600.000
G1 X27.825 Y28.396 Z-2.000 F600.000
G3 X27.403 Y28.439 Z-2.000 I-0.232 J-0.190 K0.000 F600.000
G1 X26.658 Y27.830 Z-2.000 F600.000
G3 X26.615 Y27.408 Z-2.000 I0.190 J-0.232 K0.000 F600.000
G1 X27.947 Y25.778 Z-2.000 F600.000
G1 X27.802 Y25.659 Z-2.000 F600.000
G1 X24.696 Y29.462 Z-2.000 F600.000
G1 X24.841 Y29.581 Z-2.000 F600.000
G1 X26.062 Y28.086 Z-2.000 F600.000
G3 X26.484 Y28.043 Z-2.000 I0.232 J0.190 K0.000 F600.000
G1 X27.229 Y28.652 Z-2.000 F600.000
G3 X27.272 Y29.074 Z-2.000 I-0.190 J0.232 K0.000 F600.000
G1 X26.161 Y30.433 Z-2.000 F600.000
G1 X26.306 Y30.552 Z-2.000 F600.000
G1 X26.329 Y30.524 Z-2.000 F600.000
G0 Z5.000
G0 X25.086 Y29.281 Z5.000
G0 X25.086 Y29.281 Z3.000
G1 X25.086 Y29.281 Z-2.000 F600.000
G1 X24.841 Y29.581 Z-2.000 F600.000
G1 X24.696 Y29.462 Z-2.000 F600.000
G1 X24.953 Y29.148 Z-2.000 F600.000
G1 X25.086 Y29.281 Z-2.000 F600.000
G1 X26.039 Y28.113 Z-2.000 F600.000
G1 X25.906 Y27.980 Z-2.000 F600.000
G1 X26.860 Y26.812 Z-2.000 F600.000
G1 X26.993 Y26.945 Z-2.000 F600.000
G1 X26.615 Y27.408 Z-2.000 F600.000
G2 X26.658 Y27.830 Z-2.000 I0.232 J0.190 K0.000 F600.000
G1 X27.403 Y28.439 Z-2.000 F600.000
G2 X27.734 Y28.471 Z-2.000 I0.190 J-0.232 K0.000 F600.000
G2 X28.103 Y28.056 Z-2.000 I-0.860 J-1.134 K0.000 F600.000
G1 X28.236 Y28.189 Z-2.000 F600.000
G1 X29.108 Y27.121 Z-2.000 F600.000
G1 X28.963 Y27.003 Z-2.000 F600.000
G1 X28.103 Y28.056 Z-2.000 F600.000
G0 Z5.000
G0 X26.860 Y26.812 Z5.000
G0 X26.860 Y26.812 Z3.000
G1 X26.860 Y26.812 Z-2.000 F600.000
G1 X26.993 Y26.945 Z-2.000 F600.000
G1 X27.947 Y25.778 Z-2.000 F600.000
G0 Z5.000
G0 Z5.000
G0 X27.947 Y25.778
G0 X26.414 Y25.373
G0 X26.414 Y25.373 Z3.000
G1 X26.414 Y25.373 Z-1.500 F600.000
G1 X25.460 Y26.541 Z-1.500 F600.000
G1 X25.358 Y26.439 Z-1.500 F600.000
G1 X24.405 Y27.606 Z-1.500 F600.000
G1 X24.507 Y27.708 Z-1.500 F600.000
G0 Z5.000
G0 X24.396 Y27.618 Z5.000
G0 X24.396 Y27.618 Z3.000
G1 X24.396 Y27.618 Z-1.500 F600.000
G1 X24.335 Y27.692 Z-1.500 F600.000
G3 X23.913 Y27.734 Z-1.500 I-0.232 J-0.190 K0.000 F600.000
G1 X22.998 Y26.988 Z-1.500 F600.000
G3 X22.956 Y26.565 Z-1.500 I0.190 J-0.232 K0.000 F600.000
G1 X24.588 Y24.567 Z-1.500 F600.000
G3 X25.010 Y24.524 Z-1.500 I0.232 J0.190 K0.000 F600.000
G1 X25.924 Y25.271 Z-1.500 F600.000
G3 X25.967 Y25.693 Z-1.500 I-0.190 J0.232 K0.000 F600.000
G1 X24.396 Y27.618 Z-1.500 F600.000
G0 Z5.000
G0 X23.037 Y26.239 Z5.000
G0 X23.037 Y26.239 Z3.000
G1 X23.037 Y26.239 Z-1.500 F600.000
G1 X22.509 Y26.886 Z-1.500 F600.000
G1 X22.509 Y26.886 Z-1.500 F600.000
G1 X24.110 Y28.194 Z-1.500 F600.000
G1 X26.414 Y25.373 Z-1.500 F600.000
G1 X24.812 Y24.065 Z-1.500 F600.000
G1 X22.509 Y26.886 Z-1.500 F600.000
G1 X24.110 Y28.194 Z-1.500 F600.000
G1 X24.507 Y27.708 Z-1.500 F600.000
G1 X24.405 Y27.606 Z-1.500 F600.000
G3 X23.913 Y27.734 Z-1.500 I-0.299 J-0.139 K0.000 F600.000
G1 X22.998 Y26.988 Z-1.500 F600.000
G3 X22.901 Y26.669 Z-1.500 I0.190 J-0.232 K0.000 F600.000
G3 X23.139 Y26.341 Z-1.500 I0.944 J0.435 K0.000 F600.000
G1 X23.037 Y26.239 Z-1.500 F600.000
G1 X23.991 Y25.071 Z-1.500 F600.000
G1 X24.093 Y25.173 Z-1.500 F600.000
G1 X24.093 Y25.173 Z-2.000 F600.000
G1 X23.991 Y25.071 Z-2.000 F600.000
G1 X23.037 Y26.239 Z-2.000 F600.000
G1 X23.139 Y26.341 Z-2.000 F600.000
G2 X22.901 Y26.669 Z-2.000 I0.705 J0.763 K0.000 F600.000
G2 X22.998 Y26.988 Z-2.000 I0.287 J0.086 K0.000 F600.000
G1 X23.913 Y27.734 Z-2.000 F600.000
G2 X24.405 Y27.606 Z-2.000 I0.193 J-0.267 K0.000 F600.000
G1 X24.507 Y27.708 Z-2.000 F600.000
G1 X24.110 Y28.194 Z-2.000 F600.000
G1 X22.509 Y26.886 Z-2.000 F600.000
G1 X24.812 Y24.065 Z-2.000 F600.000
G1 X26.414 Y25.373 Z-2.000 F600.000
G1 X24.110 Y28.194 Z-2.000 F600.000
G1 X22.509 Y26.886 Z-2.000 F600.000
G1 X22.509 Y26.886 Z-2.000 F600.000
G1 X23.037 Y26.239 Z-2.000 F600.000
G0 Z5.000
G0 X23.148 Y26.330 Z5.000
G0 X23.148 Y26.330 Z3.000
G1 X23.148 Y26.330 Z-2.000 F600.000
G1 X24.588 Y24.567 Z-2.000 F600.000
G3 X25.010 Y24.524 Z-2.000 I0.232 J0.190 K0.000 F600.000
G1 X25.924 Y25.271 Z-2.000 F600.000
G3 X25.967 Y25.693 Z-2.000 I-0.190 J0.232 K0.000 F600.000
G1 X24.335 Y27.692 Z-2.000 F600.000
G3 X23.913 Y27.734 Z-2.000 I-0.232 J-0.190 K0.000 F600.000
G1 X22.998 Y26.988 Z-2.000 F600.000
G3 X22.956 Y26.565 Z-2.000 I0.190 J-0.232 K0.000 F600.000
G1 X23.148 Y26.330 Z-2.000 F600.000
G0 Z5.000
G0 X24.507 Y27.708 Z5.000
G0 X24.507 Y27.708 Z3.000
G1 X24.507 Y27.708 Z-2.000 F600.000
G1 X24.405 Y27.606 Z-2.000 F600.000
G1 X25.358 Y26.439 Z-2.000 F600.000
G1 X25.460 Y26.541 Z-2.000 F600.000
G1 X26.414 Y25.373 Z-2.000 F600.000
G0 Z5.000
G0 Z5.000
G0 X26.414 Y25.373
G0 X27.545 Y23.982
G0 X27.545 Y23.982 Z3.000
G1 X27.545 Y23.982 Z-1.500 F600.000
G3 X31.228 Y27.005 Z-1.500 I-336.576 J413.723 K0.000 F600.000
G3 X31.270 Y27.427 Z-1.500 I-0.190 J0.232 K0.000 F600.000
G1 X27.066 Y32.576 Z-1.500 F600.000
G3 X26.643 Y32.618 Z-1.500 I-0.232 J-0.190 K0.000 F600.000
G1 X23.836 Y30.326 Z-1.500 F600.000
G2 X19.460 Y27.999 Z-1.500 I-7.531 J8.887 K0.000 F600.000
G1 X19.413 Y28.386 Z-1.500 F600.000
G3 X23.355 Y30.303 Z-1.500 I-2.400 J9.945 K0.000 F600.000
G3 X26.881 Y33.167 Z-1.500 I-78.559 J100.328 K0.000 F600.000
G1 X31.812 Y27.128 Z-1.500 F600.000
G1 X25.386 Y21.880 Z-1.500 F600.000
G1 X25.051 Y21.669 Z-1.500 F600.000
G2 X24.413 Y21.802 Z-1.500 I-0.238 J0.454 K0.000 F600.000
G2 X23.517 Y22.996 Z-1.500 I5.236 J4.862 K0.000 F600.000
G1 X23.621 Y23.144 Z-1.500 F600.000
G3 X24.339 Y22.175 Z-1.500 I12.450 J8.478 K0.000 F600.000
G3 X24.565 Y22.002 Z-1.500 I0.516 J0.441 K0.000 F600.000
G2 X24.395 Y22.119 Z-1.500 I0.223 J0.508 K0.000 F600.000
G2 X23.621 Y23.144 Z-1.500 I9.529 J8.003 K0.000 F600.000
G1 X23.517 Y22.996 Z-1.500 F600.000
G3 X24.390 Y21.827 Z-1.500 I10.839 J7.185 K0.000 F600.000
G1 X24.565 Y22.002 Z-1.500 F600.000
G3 X25.398 Y22.244 Z-1.500 I0.212 J0.824 K0.000 F600.000
G3 X27.545 Y23.982 Z-1.500 I-334.429 J415.460 K0.000 F600.000
G0 Z5.000
G0 X31.812 Y27.128 Z5.000
G0 X31.812 Y27.128 Z3.000
G1 X31.812 Y27.128 Z-1.500 F600.000
G1 X30.859 Y28.296 Z-1.500 F600.000
G1 X30.695 Y28.132 Z-1.500 F600.000
G1 X29.741 Y29.299 Z-1.500 F600.000
G1 X29.905 Y29.463 Z-1.500 F600.000
G1 X28.952 Y30.631 Z-1.500 F600.000
G1 X28.787 Y30.467 Z-1.500 F600.000
G1 X27.834 Y31.635 Z-1.500 F600.000
G1 X27.998 Y31.799 Z-1.500 F600.000
G1 X27.044 Y32.967 Z-1.500 F600.000
G1 X26.751 Y32.674 Z-1.500 F600.000
G3 X26.643 Y32.618 Z-1.500 I0.013 J-0.158 K0.000 F600.000
G1 X23.836 Y30.326 Z-1.500 F600.000
G2 X20.186 Y28.229 Z-1.500 I-7.531 J8.887 K0.000 F600.000
G1 X20.795 Y28.838 Z-1.500 F600.000
G2 X19.413 Y28.386 Z-1.500 I-4.013 J9.921 K0.000 F600.000
G1 X19.460 Y27.999 Z-1.500 F600.000
G3 X20.186 Y28.229 Z-1.500 I-1.383 J5.624 K0.000 F600.000
G1 X20.186 Y28.229 Z-2.000 F600.000
G2 X19.460 Y27.999 Z-2.000 I-2.109 J5.394 K0.000 F600.000
G1 X19.413 Y28.386 Z-2.000 F600.000
G3 X20.795 Y28.838 Z-2.000 I-2.632 J10.373 K0.000 F600.000
G1 X20.186 Y28.229 Z-2.000 F600.000
G3 X23.836 Y30.326 Z-2.000 I-3.881 J10.984 K0.000 F600.000
G1 X26.643 Y32.618 Z-2.000 F600.000
G2 X26.751 Y32.674 Z-2.000 I0.121 J-0.103 K0.000 F600.000
G1 X27.044 Y32.967 Z-2.000 F600.000
G1 X27.998 Y31.799 Z-2.000 F600.000
G1 X27.834 Y31.635 Z-2.000 F600.000
G1 X28.787 Y30.467 Z-2.000 F600.000
G1 X28.952 Y30.631 Z-2.000 F600.000
G1 X29.905 Y29.463 Z-2.000 F600.000
G1 X29.741 Y29.299 Z-2.000 F600.000
G1 X30.695 Y28.132 Z-2.000 F600.000
G1 X30.859 Y28.296 Z-2.000 F600.000
G1 X31.812 Y27.128 Z-2.000 F600.000
G1 X31.812 Y27.128 Z-2.000 F600.000
G1 X25.386 Y21.880 Z-2.000 F600.000
G1 X25.051 Y21.669 Z-2.000 F600.000
G2 X24.413 Y21.802 Z-2.000 I-0.238 J0.454 K0.000 F600.000
G2 X23.517 Y22.996 Z-2.000 I5.236 J4.862 K0.000 F600.000
G1 X23.621 Y23.144 Z-2.000 F600.000
G3 X24.339 Y22.175 Z-2.000 I12.450 J8.478 K0.000 F600.000
G3 X24.565 Y22.002 Z-2.000 I0.516 J0.441 K0.000 F600.000
G2 X24.395 Y22.119 Z-2.000 I0.223 J0.508 K0.000 F600.000
G2 X23.621 Y23.144 Z-2.000 I9.529 J8.003 K0.000 F600.000
G1 X23.517 Y22.996 Z-2.000 F600.000
G3 X24.390 Y21.827 Z-2.000 I10.839 J7.185 K0.000 F600.000
G1 X24.565 Y22.002 Z-2.000 F600.000
G3 X25.398 Y22.244 Z-2.000 I0.212 J0.824 K0.000 F600.000
G3 X31.228 Y27.005 Z-2.000 I-334.429 J415.460 K0.000 F600.000
G3 X31.270 Y27.427 Z-2.000 I-0.190 J0.232 K0.000 F600.000
G1 X27.066 Y32.576 Z-2.000 F600.000
G3 X26.643 Y32.618 Z-2.000 I-0.232 J-0.190 K0.000 F600.000
G1 X23.836 Y30.326 Z-2.000 F600.000
G2 X19.460 Y27.999 Z-2.000 I-7.531 J8.887 K0.000 F600.000
G1 X19.413 Y28.386 Z-2.000 F600.000
G3 X23.355 Y30.303 Z-2.000 I-2.400 J9.945 K0.000 F600.000
G3 X26.881 Y33.167 Z-2.000 I-78.559 J100.328 K0.000 F600.000
G1 X31.812 Y27.128 Z-2.000 F600.000
G0 Z5.000
G0 Z5.000
G0 X31.812 Y27.128
G0 X-20.646 Y27.654
G0 X-20.646 Y27.654 Z3.000
G1 X-20.646 Y27.654 Z-1.500 F600.000
G2 X-20.525 Y27.601 Z-1.500 I-0.003 J-0.172 K0.000 F600.000
G1 X-20.104 Y27.279 Z-1.500 F600.000
G1 X-19.937 Y27.497 Z-1.500 F600.000
G1 X-20.427 Y27.872 Z-1.500 F600.000
G1 X-20.646 Y27.654 Z-1.500 F600.000
G3 X-20.946 Y27.545 Z-1.500 I-0.066 J-0.286 K0.000 F600.000
G1 X-21.566 Y26.733 Z-1.500 F600.000
G1 X-22.799 Y25.501 Z-1.500 F600.000
G1 X-21.129 Y27.685 Z-1.500 F600.000
G3 X-21.186 Y28.106 Z-1.500 I-0.238 J0.182 K0.000 F600.000
G1 X-21.826 Y28.595 Z-1.500 F600.000
G1 X-21.630 Y28.791 Z-1.500 F600.000
G1 X-22.832 Y29.710 Z-1.500 F600.000
G1 X-23.028 Y29.514 Z-1.500 F600.000
G1 X-23.722 Y30.044 Z-1.500 F600.000
G3 X-24.143 Y29.988 Z-1.500 I-0.182 J-0.238 K0.000 F600.000
G1 X-27.515 Y25.575 Z-1.500 F600.000
G3 X-27.418 Y25.124 Z-1.500 I0.249 J-0.183 K0.000 F600.000
G1 X-27.614 Y24.928 Z-1.500 F600.000
G1 X-28.817 Y25.847 Z-1.500 F600.000
G1 X-28.621 Y26.043 Z-1.500 F600.000
G1 X-29.823 Y26.962 Z-1.500 F600.000
G1 X-30.019 Y26.766 Z-1.500 F600.000
G1 X-31.140 Y27.622 Z-1.500 F600.000
G1 X-30.673 Y28.233 Z-1.500 F600.000
G1 X-27.070 Y32.948 Z-1.500 F600.000
G1 X-26.440 Y32.467 Z-1.500 F600.000
G1 X-26.635 Y32.271 Z-1.500 F600.000
G1 X-26.815 Y32.408 Z-1.500 F600.000
G3 X-27.235 Y32.352 Z-1.500 I-0.182 J-0.238 K0.000 F600.000
G1 X-29.440 Y29.466 Z-1.500 F600.000
G1 X-30.673 Y28.233 Z-1.500 F600.000
G0 Z5.000
G0 X-30.490 Y28.093 Z5.000
G0 X-30.490 Y28.093 Z3.000
G1 X-30.490 Y28.093 Z-1.500 F600.000
G1 X-30.607 Y27.939 Z-1.500 F600.000
G3 X-30.551 Y27.518 Z-1.500 I0.238 J-0.182 K0.000 F600.000
G1 X-28.119 Y25.659 Z-1.500 F600.000
G3 X-27.699 Y25.716 Z-1.500 I0.182 J0.238 K0.000 F600.000
G1 X-24.326 Y30.128 Z-1.500 F600.000
G3 X-24.382 Y30.549 Z-1.500 I-0.238 J0.182 K0.000 F600.000
G1 X-26.815 Y32.408 Z-1.500 F600.000
G3 X-27.235 Y32.352 Z-1.500 I-0.182 J-0.238 K0.000 F600.000
G1 X-30.490 Y28.093 Z-1.500 F600.000
G0 Z5.000
G0 X-31.140 Y27.622 Z5.000
G0 X-31.140 Y27.622 Z3.000
G1 X-31.140 Y27.622 Z-1.500 F600.000
G1 X-27.070 Y32.948 Z-1.500 F600.000
G1 X-26.440 Y32.467 Z-1.500 F600.000
G1 X-26.635 Y32.271 Z-1.500 F600.000
G1 X-25.433 Y31.352 Z-1.500 F600.000
G1 X-25.237 Y31.548 Z-1.500 F600.000
G1 X-24.035 Y30.629 Z-1.500 F600.000
G1 X-24.279 Y30.385 Z-1.500 F600.000
G0 Z5.000
G0 X-24.067 Y30.058 Z5.000
G0 X-24.067 Y30.058 Z3.000
G1 X-24.067 Y30.058 Z-1.500 F600.000
G3 X-24.143 Y29.988 Z-1.500 I0.163 J-0.252 K0.000 F600.000
G1 X-27.515 Y25.575 Z-1.500 F600.000
G3 X-27.459 Y25.155 Z-1.500 I0.238 J-0.182 K0.000 F600.000
G1 X-24.922 Y23.216 Z-1.500 F600.000
G3 X-24.502 Y23.273 Z-1.500 I0.182 J0.238 K0.000 F600.000
G1 X-21.129 Y27.685 Z-1.500 F600.000
G3 X-21.186 Y28.106 Z-1.500 I-0.238 J0.182 K0.000 F600.000
G1 X-23.722 Y30.044 Z-1.500 F600.000
G3 X-24.067 Y30.058 Z-1.500 I-0.182 J-0.238 K0.000 F600.000
G0 Z5.000
G0 X-26.440 Y32.467 Z5.000
G0 X-26.440 Y32.467 Z3.000
G1 X-26.440 Y32.467 Z-1.500 F600.000
G1 X-19.937 Y27.497 Z-1.500 F600.000
G1 X-20.104 Y27.279 Z-1.500 F600.000
G1 X-20.525 Y27.601 Z-1.500 F600.000
G3 X-20.946 Y27.545 Z-1.500 I-0.182 J-0.238 K0.000 F600.000
G1 X-24.318 Y23.132 Z-1.500 F600.000
G3 X-24.340 Y22.800 Z-1.500 I0.238 J-0.182 K0.000 F600.000
G3 X-23.840 Y22.390 Z-1.500 I1.281 J1.050 K0.000 F600.000
G1 X-24.007 Y22.171 Z-1.500 F600.000
G1 X-31.140 Y27.622 Z-1.500 F600.000
G0 Z5.000
G0 X-27.614 Y24.928 Z5.000
G0 X-27.614 Y24.928 Z3.000
G1 X-27.614 Y24.928 Z-1.500 F600.000
G1 X-27.418 Y25.124 Z-1.500 F600.000
G1 X-26.216 Y24.205 Z-1.500 F600.000
G1 X-26.412 Y24.009 Z-1.500 F600.000
G1 X-25.210 Y23.090 Z-1.500 F600.000
G1 X-25.014 Y23.286 Z-1.500 F600.000
G0 Z5.000
G0 X-25.210 Y23.090 Z5.000
G0 X-25.210 Y23.090 Z3.000
G1 X-25.210 Y23.090 Z-1.500 F600.000
G1 X-25.014 Y23.286 Z-1.500 F600.000
G3 X-24.502 Y23.273 Z-1.500 I0.261 J0.204 K0.000 F600.000
G1 X-22.799 Y25.501 Z-1.500 F600.000
G1 X-21.566 Y26.733 Z-1.500 F600.000
G1 X-24.318 Y23.132 Z-1.500 F600.000
G3 X-24.340 Y22.800 Z-1.500 I0.238 J-0.182 K0.000 F600.000
G3 X-23.840 Y22.390 Z-1.500 I1.281 J1.050 K0.000 F600.000
G1 X-24.007 Y22.171 Z-1.500 F600.000
G1 X-24.007 Y22.171 Z-2.000 F600.000
G1 X-23.840 Y22.390 Z-2.000 F600.000
G2 X-24.340 Y22.800 Z-2.000 I0.782 J1.460 K0.000 F600.000
G2 X-24.318 Y23.132 Z-2.000 I0.260 J0.151 K0.000 F600.000
G1 X-21.566 Y26.733 Z-2.000 F600.000
G1 X-22.799 Y25.501 Z-2.000 F600.000
G1 X-24.502 Y23.273 Z-2.000 F600.000
G2 X-25.014 Y23.286 Z-2.000 I-0.250 J0.217 K0.000 F600.000
G1 X-25.210 Y23.090 Z-2.000 F600.000
G0 Z5.000
G0 X-25.043 Y23.308 Z5.000
G0 X-25.043 Y23.308 Z3.000
G1 X-25.043 Y23.308 Z-2.000 F600.000
G1 X-24.922 Y23.216 Z-2.000 F600.000
G3 X-24.502 Y23.273 Z-2.000 I0.182 J0.238 K0.000 F600.000
G1 X-21.129 Y27.685 Z-2.000 F600.000
G3 X-21.186 Y28.106 Z-2.000 I-0.238 J0.182 K0.000 F600.000
G1 X-23.722 Y30.044 Z-2.000 F600.000
G3 X-24.143 Y29.988 Z-2.000 I-0.182 J-0.238 K0.000 F600.000
G1 X-27.515 Y25.575 Z-2.000 F600.000
G3 X-27.459 Y25.155 Z-2.000 I0.238 J-0.182 K0.000 F600.000
G1 X-25.043 Y23.308 Z-2.000 F600.000
G0 Z5.000
G0 X-25.014 Y23.286 Z5.000
G0 X-25.014 Y23.286 Z3.000
G1 X-25.014 Y23.286 Z-2.000 F600.000
G1 X-25.210 Y23.090 Z-2.000 F600.000
G1 X-26.412 Y24.009 Z-2.000 F600.000
G1 X-26.216 Y24.205 Z-2.000 F600.000
G1 X-27.418 Y25.124 Z-2.000 F600.000
G1 X-27.614 Y24.928 Z-2.000 F600.000
G0 Z5.000
G0 X-27.842 Y25.613 Z5.000
G0 X-27.842 Y25.613 Z3.000
G1 X-27.842 Y25.613 Z-2.000 F600.000
G3 X-27.699 Y25.716 Z-2.000 I-0.095 J0.285 K0.000 F600.000
G1 X-24.326 Y30.128 Z-2.000 F600.000
G3 X-24.382 Y30.549 Z-2.000 I-0.238 J0.182 K0.000 F600.000
G1 X-26.815 Y32.408 Z-2.000 F600.000
G3 X-27.235 Y32.352 Z-2.000 I-0.182 J-0.238 K0.000 F600.000
G1 X-30.607 Y27.939 Z-2.000 F600.000
G3 X-30.551 Y27.518 Z-2.000 I0.238 J-0.182 K0.000 F600.000
G1 X-28.119 Y25.659 Z-2.000 F600.000
G3 X-27.842 Y25.613 Z-2.000 I0.182 J0.238 K0.000 F600.000
G0 Z5.000
G0 X-30.673 Y28.233 Z5.000
G0 X-30.673 Y28.233 Z3.000
G1 X-30.673 Y28.233 Z-2.000 F600.000
G1 X-29.440 Y29.466 Z-2.000 F600.000
G1 X-27.235 Y32.352 Z-2.000 F600.000
G2 X-26.815 Y32.408 Z-2.000 I0.238 J-0.182 K0.000 F600.000
G1 X-26.635 Y32.271 Z-2.000 F600.000
G1 X-26.440 Y32.467 Z-2.000 F600.000
G1 X-27.070 Y32.948 Z-2.000 F600.000
G1 X-30.673 Y28.233 Z-2.000 F600.000
G1 X-31.140 Y27.622 Z-2.000 F600.000
G1 X-30.019 Y26.766 Z-2.000 F600.000
G1 X-29.823 Y26.962 Z-2.000 F600.000
G1 X-28.621 Y26.043 Z-2.000 F600.000
G1 X-28.817 Y25.847 Z-2.000 F600.000
G1 X-27.614 Y24.928 Z-2.000 F600.000
G1 X-27.418 Y25.124 Z-2.000 F600.000
G2 X-27.515 Y25.575 Z-2.000 I0.152 J0.269 K0.000 F600.000
G1 X-24.143 Y29.988 Z-2.000 F600.000
G2 X-23.722 Y30.044 Z-2.000 I0.238 J-0.182 K0.000 F600.000
G1 X-23.028 Y29.514 Z-2.000 F600.000
G1 X-22.832 Y29.710 Z-2.000 F600.000
G1 X-21.630 Y28.791 Z-2.000 F600.000
G1 X-21.826 Y28.595 Z-2.000 F600.000
G1 X-21.186 Y28.106 Z-2.000 F600.000
G2 X-21.129 Y27.685 Z-2.000 I-0.182 J-0.238 K0.000 F600.000
G1 X-22.799 Y25.501 Z-2.000 F600.000
G1 X-21.566 Y26.733 Z-2.000 F600.000
G1 X-20.946 Y27.545 Z-2.000 F600.000
G2 X-20.646 Y27.654 Z-2.000 I0.234 J-0.177 K0.000 F600.000
G1 X-20.427 Y27.872 Z-2.000 F600.000
G1 X-19.937 Y27.497 Z-2.000 F600.000
G1 X-20.104 Y27.279 Z-2.000 F600.000
G1 X-20.525 Y27.601 Z-2.000 F600.000
G3 X-20.646 Y27.654 Z-2.000 I-0.124 J-0.119 K0.000 F600.000
G0 Z5.000
G0 X-24.279 Y30.385 Z5.000
G0 X-24.279 Y30.385 Z3.000
G1 X-24.279 Y30.385 Z-2.000 F600.000
G1 X-24.035 Y30.629 Z-2.000 F600.000
G1 X-25.237 Y31.548 Z-2.000 F600.000
G1 X-25.433 Y31.352 Z-2.000 F600.000
G1 X-26.635 Y32.271 Z-2.000 F600.000
G1 X-26.440 Y32.467 Z-2.000 F600.000
G1 X-27.070 Y32.948 Z-2.000 F600.000
G1 X-31.140 Y27.622 Z-2.000 F600.000
G1 X-31.140 Y27.622 Z-2.000 F600.000
G1 X-24.007 Y22.171 Z-2.000 F600.000
G1 X-23.840 Y22.390 Z-2.000 F600.000
G2 X-24.340 Y22.800 Z-2.000 I0.782 J1.460 K0.000 F600.000
G2 X-24.318 Y23.132 Z-2.000 I0.260 J0.151 K0.000 F600.000
G1 X-20.946 Y27.545 Z-2.000 F600.000
G2 X-20.525 Y27.601 Z-2.000 I0.238 J-0.182 K0.000 F600.000
G1 X-20.104 Y27.279 Z-2.000 F600.000
G1 X-19.937 Y27.497 Z-2.000 F600.000
G1 X-26.440 Y32.467 Z-2.000 F600.000
G0 Z5.000
G0 Z5.000
G0 X-26.440 Y32.467
G0 X-32.705 Y24.100
G0 X-32.705 Y24.100 Z3.000
G1 X-32.705 Y24.100 Z-1.500 F600.000
G1 X-26.963 Y19.712 Z-1.500 F600.000
G1 X-26.680 Y19.435 Z-1.500 F600.000
G2 X-26.662 Y18.783 Z-1.500 I-0.387 J-0.337 K0.000 F600.000
G2 X-27.617 Y17.635 Z-1.500 I-5.941 J3.970 K0.000 F600.000
G1 X-27.784 Y17.702 Z-1.500 F600.000
G3 X-27.008 Y18.625 Z-1.500 I-11.128 J10.152 K0.000 F600.000
G3 X-26.915 Y18.808 Z-1.500 I-0.446 J0.343 K0.000 F600.000
G3 X-27.320 Y19.640 Z-1.500 I-0.786 J0.131 K0.000 F600.000
G3 X-33.300 Y24.210 Z-1.500 I-326.778 J-421.388 K0.000 F600.000
G3 X-33.721 Y24.153 Z-1.500 I-0.182 J-0.238 K0.000 F600.000
G1 X-37.757 Y18.872 Z-1.500 F600.000
G3 X-37.701 Y18.451 Z-1.500 I0.238 J-0.182 K0.000 F600.000
