(Exported by FreeCAD)
(Post Processor: script_module)
(Output Time:2025-04-17 10:35:56.417736)
(Begin preamble)
G17 G90
G21
(Begin operation: Fixture)
(Path: Fixture)
G54
(Finish operation: Fixture)
(Begin operation: 2mm_Endmill005)
(Path: 2mm_Endmill005)
(2mm_Endmill005)
(Begin toolchange)
( M6 T2 )
M3 S10000
(Finish operation: 2mm_Endmill005)
(Begin operation: Pocket_Shape010)
(Path: Pocket_Shape010)
(Pocket_Shape010)
G0 Z13.050
G0 X-17.996 Y79.856
G0 Z11.050
G1 X-17.996 Y79.856 Z6.050 F600.000
G2 X-14.907 Y77.971 Z6.050 I-21.461 J-38.636 K0.000 F600.000
G1 X-22.653 Y66.909 Z6.050 F600.000
G3 X-56.259 Y66.910 Z6.050 I-16.804 J-25.688 K0.000 F600.000
G1 X-64.005 Y77.972 Z6.050 F600.000
G2 X-17.996 Y79.856 Z6.050 I24.548 J-36.751 K0.000 F600.000
G0 Z13.050
G0 X-22.653 Y66.909 Z13.050
G0 X-22.653 Y66.909 Z11.050
G1 X-22.653 Y66.909 Z6.050 F600.000
G1 X-16.047 Y76.343 Z6.050 F600.000
G1 X-24.409 Y67.982 Z6.050 F600.000
G3 X-26.278 Y68.941 Z6.050 I-10.418 J-18.002 K0.000 F600.000
G1 X-16.335 Y78.884 Z6.050 F600.000
G3 X-18.123 Y79.925 Z6.050 I-13.660 J-21.422 K0.000 F600.000
G1 X-28.253 Y69.794 Z6.050 F600.000
G3 X-30.344 Y70.532 Z6.050 I-7.658 J-18.356 K0.000 F600.000
G1 X-19.982 Y80.894 Z6.050 F600.000
G3 X-21.914 Y81.790 Z6.050 I-11.963 J-23.264 K0.000 F600.000
G1 X-32.577 Y71.128 Z6.050 F600.000
G3 X-34.951 Y71.581 Z6.050 I-4.964 J-19.540 K0.000 F600.000
G1 X-23.934 Y82.598 Z6.050 F600.000
G3 X-26.038 Y83.323 Z6.050 I-9.948 J-25.450 K0.000 F600.000
G1 X-37.513 Y71.848 Z6.050 F600.000
G3 X-40.294 Y71.896 Z6.050 I-1.790 J-23.328 K0.000 F600.000
G1 X-28.229 Y83.960 Z6.050 F600.000
G3 X-30.515 Y84.503 Z6.050 I-6.553 J-22.502 K0.000 F600.000
G1 X-43.360 Y71.658 Z6.050 F600.000
G3 X-46.835 Y71.011 Z6.050 I3.086 J-26.236 K0.000 F600.000
G1 X-32.923 Y84.923 Z6.050 F600.000
G3 X-35.447 Y85.228 Z6.050 I-5.004 J-30.814 K0.000 F600.000
G1 X-51.029 Y69.646 Z6.050 F600.000
G3 X-56.259 Y66.910 Z6.050 I10.682 J-26.785 K0.000 F600.000
G1 X-56.397 Y67.106 Z6.050 F600.000
G1 X-38.114 Y85.389 Z6.050 F600.000
G3 X-40.945 Y85.386 Z6.050 I-1.379 J-34.746 K0.000 F600.000
G1 X-57.562 Y68.770 Z6.050 F600.000
G1 X-58.727 Y70.433 Z6.050 F600.000
G1 X-43.985 Y85.175 Z6.050 F600.000
G3 X-47.277 Y84.711 Z6.050 I2.646 J-30.705 K0.000 F600.000
G1 X-59.892 Y72.097 Z6.050 F600.000
G1 X-61.056 Y73.761 Z6.050 F600.000
G1 X-50.920 Y83.897 Z6.050 F600.000
G3 X-55.085 Y82.560 Z6.050 I9.966 J-38.220 K0.000 F600.000
G1 X-62.221 Y75.424 Z6.050 F600.000
G1 X-63.386 Y77.088 Z6.050 F600.000
G1 X-64.005 Y77.972 Z6.050 F600.000
G2 X-60.244 Y80.230 Z6.050 I20.366 J-29.667 K0.000 F600.000
G1 X-63.386 Y77.088 Z6.050 F600.000
G1 X-63.386 Y77.088 Z4.050 F600.000
G1 X-60.244 Y80.230 Z4.050 F600.000
G3 X-64.005 Y77.972 Z4.050 I16.605 J-31.924 K0.000 F600.000
G1 X-63.386 Y77.088 Z4.050 F600.000
G1 X-62.221 Y75.424 Z4.050 F600.000
G1 X-55.085 Y82.560 Z4.050 F600.000
G2 X-50.920 Y83.897 Z4.050 I14.131 J-36.884 K0.000 F600.000
G1 X-61.056 Y73.761 Z4.050 F600.000
G1 X-59.892 Y72.097 Z4.050 F600.000
G1 X-47.277 Y84.711 Z4.050 F600.000
G2 X-43.985 Y85.175 Z4.050 I5.938 J-30.241 K0.000 F600.000
G1 X-58.727 Y70.433 Z4.050 F600.000
G1 X-57.562 Y68.770 Z4.050 F600.000
G1 X-40.945 Y85.386 Z4.050 F600.000
G2 X-38.114 Y85.389 Z4.050 I1.452 J-34.743 K0.000 F600.000
G1 X-56.397 Y67.106 Z4.050 F600.000
G1 X-56.259 Y66.910 Z4.050 F600.000
G2 X-51.029 Y69.646 Z4.050 I15.913 J-24.049 K0.000 F600.000
G1 X-35.447 Y85.228 Z4.050 F600.000
G2 X-32.923 Y84.923 Z4.050 I-2.481 J-31.119 K0.000 F600.000
G1 X-46.835 Y71.011 Z4.050 F600.000
G2 X-43.360 Y71.658 Z4.050 I6.562 J-25.589 K0.000 F600.000
G1 X-30.515 Y84.503 Z4.050 F600.000
G2 X-28.229 Y83.960 Z4.050 I-4.268 J-23.045 K0.000 F600.000
G1 X-40.294 Y71.896 Z4.050 F600.000
G2 X-37.513 Y71.848 Z4.050 I0.991 J-23.376 K0.000 F600.000
G1 X-26.038 Y83.323 Z4.050 F600.000
G2 X-23.934 Y82.598 Z4.050 I-7.844 J-26.175 K0.000 F600.000
G1 X-34.951 Y71.581 Z4.050 F600.000
G2 X-32.577 Y71.128 Z4.050 I-2.590 J-19.993 K0.000 F600.000
G1 X-21.914 Y81.790 Z4.050 F600.000
G2 X-19.982 Y80.894 Z4.050 I-10.030 J-24.160 K0.000 F600.000
G1 X-30.344 Y70.532 Z4.050 F600.000
G2 X-28.253 Y69.794 Z4.050 I-5.568 J-19.094 K0.000 F600.000
G1 X-18.123 Y79.925 Z4.050 F600.000
G2 X-16.335 Y78.884 Z4.050 I-11.872 J-22.462 K0.000 F600.000
G1 X-26.278 Y68.941 Z4.050 F600.000
G2 X-24.409 Y67.982 Z4.050 I-8.548 J-18.961 K0.000 F600.000
G1 X-16.047 Y76.343 Z4.050 F600.000
G1 X-22.653 Y66.909 Z4.050 F600.000
G1 X-22.653 Y66.909 Z4.050 F600.000
G3 X-56.259 Y66.910 Z4.050 I-16.804 J-25.688 K0.000 F600.000
G1 X-64.005 Y77.972 Z4.050 F600.000
G2 X-14.907 Y77.971 Z4.050 I24.548 J-36.751 K0.000 F600.000
G1 X-22.653 Y66.909 Z4.050 F600.000
G1 X-22.653 Y66.909 Z4.000 F600.000
G3 X-56.259 Y66.910 Z4.000 I-16.804 J-25.688 K0.000 F600.000
G1 X-64.005 Y77.972 Z4.000 F600.000
G2 X-14.907 Y77.971 Z4.000 I24.548 J-36.751 K0.000 F600.000
G1 X-22.653 Y66.909 Z4.000 F600.000
G1 X-22.653 Y66.909 Z4.000 F600.000
G1 X-16.047 Y76.343 Z4.000 F600.000
G1 X-24.409 Y67.982 Z4.000 F600.000
G3 X-26.278 Y68.941 Z4.000 I-10.418 J-18.002 K0.000 F600.000
G1 X-16.335 Y78.884 Z4.000 F600.000
G3 X-18.123 Y79.925 Z4.000 I-13.660 J-21.422 K0.000 F600.000
G1 X-28.253 Y69.794 Z4.000 F600.000
G3 X-30.344 Y70.532 Z4.000 I-7.658 J-18.356 K0.000 F600.000
G1 X-19.982 Y80.894 Z4.000 F600.000
G3 X-21.914 Y81.790 Z4.000 I-11.963 J-23.264 K0.000 F600.000
G1 X-32.577 Y71.128 Z4.000 F600.000
G3 X-34.951 Y71.581 Z4.000 I-4.964 J-19.540 K0.000 F600.000
G1 X-23.934 Y82.598 Z4.000 F600.000
G3 X-26.038 Y83.323 Z4.000 I-9.948 J-25.450 K0.000 F600.000
G1 X-37.513 Y71.848 Z4.000 F600.000
G3 X-40.294 Y71.896 Z4.000 I-1.790 J-23.328 K0.000 F600.000
G1 X-28.229 Y83.960 Z4.000 F600.000
G3 X-30.515 Y84.503 Z4.000 I-6.553 J-22.502 K0.000 F600.000
G1 X-43.360 Y71.658 Z4.000 F600.000
G3 X-46.835 Y71.011 Z4.000 I3.086 J-26.236 K0.000 F600.000
G1 X-32.923 Y84.923 Z4.000 F600.000
G3 X-35.447 Y85.228 Z4.000 I-5.004 J-30.814 K0.000 F600.000
G1 X-51.029 Y69.646 Z4.000 F600.000
G3 X-56.259 Y66.910 Z4.000 I10.682 J-26.785 K0.000 F600.000
G1 X-56.397 Y67.106 Z4.000 F600.000
G1 X-38.114 Y85.389 Z4.000 F600.000
G3 X-40.945 Y85.386 Z4.000 I-1.379 J-34.746 K0.000 F600.000
G1 X-57.562 Y68.770 Z4.000 F600.000
G1 X-58.727 Y70.433 Z4.000 F600.000
G1 X-43.985 Y85.175 Z4.000 F600.000
G3 X-47.277 Y84.711 Z4.000 I2.646 J-30.705 K0.000 F600.000
G1 X-59.892 Y72.097 Z4.000 F600.000
G1 X-61.056 Y73.761 Z4.000 F600.000
G1 X-50.920 Y83.897 Z4.000 F600.000
G3 X-55.085 Y82.560 Z4.000 I9.966 J-38.220 K0.000 F600.000
G1 X-62.221 Y75.424 Z4.000 F600.000
G1 X-63.386 Y77.088 Z4.000 F600.000
G1 X-64.005 Y77.972 Z4.000 F600.000
G2 X-60.244 Y80.230 Z4.000 I20.366 J-29.667 K0.000 F600.000
G1 X-63.386 Y77.088 Z4.000 F600.000
G0 Z13.050
G0 Z13.050
G0 X-63.386 Y77.088
G0 X-74.728 Y93.286
G0 X-74.728 Y93.286 Z11.050
G1 X-74.728 Y93.286 Z6.050 F600.000
G1 X-75.479 Y94.357 Z6.050 F600.000
G2 X-3.434 Y94.357 Z6.050 I36.022 J-53.134 K0.000 F600.000
G1 X-11.179 Y83.297 Z6.050 F600.000
G3 X-67.734 Y83.297 Z6.050 I-28.278 J-42.074 K0.000 F600.000
G1 X-75.479 Y94.357 Z6.050 F600.000
G2 X-70.718 Y97.296 Z6.050 I30.704 J-44.412 K0.000 F600.000
G1 X-74.728 Y93.286 Z6.050 F600.000
G1 X-73.563 Y91.622 Z6.050 F600.000
G1 X-65.130 Y100.056 Z6.050 F600.000
G2 X-60.479 Y101.878 Z6.050 I19.860 J-43.843 K0.000 F600.000
G1 X-72.399 Y89.959 Z6.050 F600.000
G1 X-71.234 Y88.295 Z6.050 F600.000
G1 X-56.388 Y103.141 Z6.050 F600.000
G2 X-52.666 Y104.034 Z6.050 I11.254 J-38.678 K0.000 F600.000
G1 X-70.069 Y86.632 Z6.050 F600.000
G1 X-68.904 Y84.968 Z6.050 F600.000
G1 X-49.204 Y104.668 Z6.050 F600.000
G2 X-45.967 Y105.076 Z6.050 I7.461 J-46.138 K0.000 F600.000
G1 X-67.739 Y83.304 Z6.050 F600.000
G2 X-61.201 Y87.015 Z6.050 I27.630 J-41.077 K0.000 F600.000
G1 X-42.892 Y105.324 Z6.050 F600.000
G2 X-39.980 Y105.407 Z6.050 I2.441 J-34.397 K0.000 F600.000
G1 X-56.379 Y89.008 Z6.050 F600.000
G2 X-52.292 Y90.267 Z6.050 I16.294 J-45.645 K0.000 F600.000
G1 X-37.191 Y105.367 Z6.050 F600.000
G2 X-34.512 Y105.218 Z6.050 I-0.793 J-38.440 K0.000 F600.000
G1 X-48.659 Y91.071 Z6.050 F600.000
G2 X-45.336 Y91.566 Z6.050 I6.530 J-32.494 K0.000 F600.000
G1 X-31.932 Y104.970 Z6.050 F600.000
G2 X-29.442 Y104.631 Z6.050 I-3.610 J-35.813 K0.000 F600.000
G1 X-42.236 Y91.837 Z6.050 F600.000
G2 X-39.337 Y91.907 Z6.050 I2.345 J-36.987 K0.000 F600.000
G1 X-27.042 Y104.203 Z6.050 F600.000
G2 X-24.718 Y103.699 Z6.050 I-6.062 J-33.527 K0.000 F600.000
G1 X-36.583 Y91.833 Z6.050 F600.000
G2 X-33.975 Y91.613 Z6.050 I-1.326 J-31.214 K0.000 F600.000
G1 X-22.465 Y103.123 Z6.050 F600.000
G2 X-20.278 Y102.481 Z6.050 I-8.099 J-31.627 K0.000 F600.000
G1 X-31.483 Y91.277 Z6.050 F600.000
G2 X-29.092 Y90.839 Z6.050 I-4.399 J-30.794 K0.000 F600.000
G1 X-18.155 Y101.776 Z6.050 F600.000
G2 X-16.091 Y101.011 Z6.050 I-9.918 J-29.931 K0.000 F600.000
G1 X-26.794 Y90.308 Z6.050 F600.000
G2 X-24.586 Y89.688 Z6.050 I-7.133 J-29.617 K0.000 F600.000
G1 X-14.084 Y100.190 Z6.050 F600.000
G2 X-12.132 Y99.313 Z6.050 I-11.573 J-28.389 K0.000 F600.000
G1 X-22.464 Y88.982 Z6.050 F600.000
G2 X-20.416 Y88.201 Z6.050 I-8.996 J-26.687 K0.000 F600.000
G1 X-10.233 Y98.384 Z6.050 F600.000
G1 X-8.386 Y97.403 Z6.050 F600.000
G1 X-18.439 Y87.350 Z6.050 F600.000
G2 X-16.529 Y86.432 Z6.050 I-10.810 J-24.921 K0.000 F600.000
G1 X-6.591 Y96.370 Z6.050 F600.000
G2 X-4.844 Y95.288 Z6.050 I-14.607 J-25.559 K0.000 F600.000
G1 X-14.683 Y85.448 Z6.050 F600.000
G2 X-12.901 Y84.403 Z6.050 I-12.498 J-23.348 K0.000 F600.000
G1 X-4.572 Y92.731 Z6.050 F600.000
G1 X-11.179 Y83.297 Z6.050 F600.000
G1 X-11.179 Y83.297 Z4.050 F600.000
G1 X-4.572 Y92.731 Z4.050 F600.000
G1 X-12.901 Y84.403 Z4.050 F600.000
G3 X-14.683 Y85.448 Z4.050 I-14.280 J-22.303 K0.000 F600.000
G1 X-4.844 Y95.288 Z4.050 F600.000
G3 X-6.591 Y96.370 Z4.050 I-16.354 J-24.478 K0.000 F600.000
G1 X-16.529 Y86.432 Z4.050 F600.000
G3 X-18.439 Y87.350 Z4.050 I-12.719 J-24.003 K0.000 F600.000
G1 X-8.386 Y97.403 Z4.050 F600.000
G1 X-10.233 Y98.384 Z4.050 F600.000
G1 X-20.416 Y88.201 Z4.050 F600.000
G3 X-22.464 Y88.982 Z4.050 I-11.044 J-25.907 K0.000 F600.000
G1 X-12.132 Y99.313 Z4.050 F600.000
G3 X-14.084 Y100.190 Z4.050 I-13.525 J-27.512 K0.000 F600.000
G1 X-24.586 Y89.688 Z4.050 F600.000
G3 X-26.794 Y90.308 Z4.050 I-9.340 J-28.996 K0.000 F600.000
G1 X-16.091 Y101.011 Z4.050 F600.000
G3 X-18.155 Y101.776 Z4.050 I-11.982 J-29.166 K0.000 F600.000
G1 X-29.092 Y90.839 Z4.050 F600.000
G3 X-31.483 Y91.277 Z4.050 I-6.790 J-30.357 K0.000 F600.000
G1 X-20.278 Y102.481 Z4.050 F600.000
G3 X-22.465 Y103.123 Z4.050 I-10.286 J-30.985 K0.000 F600.000
G1 X-33.975 Y91.613 Z4.050 F600.000
G3 X-36.583 Y91.833 Z4.050 I-3.934 J-30.994 K0.000 F600.000
G1 X-24.718 Y103.699 Z4.050 F600.000
G3 X-27.042 Y104.203 Z4.050 I-8.386 J-33.023 K0.000 F600.000
G1 X-39.337 Y91.907 Z4.050 F600.000
G3 X-42.236 Y91.837 Z4.050 I-0.553 J-37.057 K0.000 F600.000
G1 X-29.442 Y104.631 Z4.050 F600.000
G3 X-31.932 Y104.970 Z4.050 I-6.099 J-35.474 K0.000 F600.000
G1 X-45.336 Y91.566 Z4.050 F600.000
G3 X-48.659 Y91.071 Z4.050 I3.208 J-32.988 K0.000 F600.000
G1 X-34.512 Y105.218 Z4.050 F600.000
G3 X-37.191 Y105.367 Z4.050 I-3.473 J-38.291 K0.000 F600.000
G1 X-52.292 Y90.267 Z4.050 F600.000
G3 X-56.379 Y89.008 Z4.050 I12.207 J-46.903 K0.000 F600.000
G1 X-39.980 Y105.407 Z4.050 F600.000
G3 X-42.892 Y105.324 Z4.050 I-0.470 J-34.480 K0.000 F600.000
G1 X-61.201 Y87.015 Z4.050 F600.000
G3 X-67.739 Y83.304 Z4.050 I21.092 J-44.788 K0.000 F600.000
G1 X-45.967 Y105.076 Z4.050 F600.000
G3 X-49.204 Y104.668 Z4.050 I4.225 J-46.546 K0.000 F600.000
G1 X-68.904 Y84.968 Z4.050 F600.000
G1 X-70.069 Y86.632 Z4.050 F600.000
G1 X-52.666 Y104.034 Z4.050 F600.000
G3 X-56.388 Y103.141 Z4.050 I7.532 J-39.572 K0.000 F600.000
G1 X-71.234 Y88.295 Z4.050 F600.000
G1 X-72.399 Y89.959 Z4.050 F600.000
G1 X-60.479 Y101.878 Z4.050 F600.000
G3 X-65.130 Y100.056 Z4.050 I15.210 J-45.666 K0.000 F600.000
G1 X-73.563 Y91.622 Z4.050 F600.000
G1 X-74.728 Y93.286 Z4.050 F600.000
G1 X-70.718 Y97.296 Z4.050 F600.000
G3 X-75.479 Y94.357 Z4.050 I25.943 J-47.351 K0.000 F600.000
G1 X-67.734 Y83.297 Z4.050 F600.000
G2 X-11.179 Y83.297 Z4.050 I28.277 J-42.075 K0.000 F600.000
G1 X-3.434 Y94.357 Z4.050 F600.000
G3 X-75.479 Y94.357 Z4.050 I-36.023 J-53.134 K0.000 F600.000
G1 X-74.728 Y93.286 Z4.050 F600.000
G1 X-74.728 Y93.286 Z4.000 F600.000
G1 X-75.479 Y94.357 Z4.000 F600.000
G2 X-3.434 Y94.357 Z4.000 I36.022 J-53.134 K0.000 F600.000
G1 X-11.179 Y83.297 Z4.000 F600.000
G3 X-67.734 Y83.297 Z4.000 I-28.278 J-42.074 K0.000 F600.000
G1 X-75.479 Y94.357 Z4.000 F600.000
G2 X-70.718 Y97.296 Z4.000 I30.704 J-44.412 K0.000 F600.000
G1 X-74.728 Y93.286 Z4.000 F600.000
G1 X-73.563 Y91.622 Z4.000 F600.000
G1 X-65.130 Y100.056 Z4.000 F600.000
G2 X-60.479 Y101.878 Z4.000 I19.860 J-43.843 K0.000 F600.000
G1 X-72.399 Y89.959 Z4.000 F600.000
G1 X-71.234 Y88.295 Z4.000 F600.000
G1 X-56.388 Y103.141 Z4.000 F600.000
G2 X-52.666 Y104.034 Z4.000 I11.254 J-38.678 K0.000 F600.000
G1 X-70.069 Y86.632 Z4.000 F600.000
G1 X-68.904 Y84.968 Z4.000 F600.000
G1 X-49.204 Y104.668 Z4.000 F600.000
G2 X-45.967 Y105.076 Z4.000 I7.461 J-46.138 K0.000 F600.000
G1 X-67.739 Y83.304 Z4.000 F600.000
G2 X-61.201 Y87.015 Z4.000 I27.630 J-41.077 K0.000 F600.000
G1 X-42.892 Y105.324 Z4.000 F600.000
G2 X-39.980 Y105.407 Z4.000 I2.441 J-34.397 K0.000 F600.000
G1 X-56.379 Y89.008 Z4.000 F600.000
G2 X-52.292 Y90.267 Z4.000 I16.294 J-45.645 K0.000 F600.000
G1 X-37.191 Y105.367 Z4.000 F600.000
G2 X-34.512 Y105.218 Z4.000 I-0.793 J-38.440 K0.000 F600.000
G1 X-48.659 Y91.071 Z4.000 F600.000
G2 X-45.336 Y91.566 Z4.000 I6.530 J-32.494 K0.000 F600.000
G1 X-31.932 Y104.970 Z4.000 F600.000
G2 X-29.442 Y104.631 Z4.000 I-3.610 J-35.813 K0.000 F600.000
G1 X-42.236 Y91.837 Z4.000 F600.000
G2 X-39.337 Y91.907 Z4.000 I2.345 J-36.987 K0.000 F600.000
G1 X-27.042 Y104.203 Z4.000 F600.000
G2 X-24.718 Y103.699 Z4.000 I-6.062 J-33.527 K0.000 F600.000
G1 X-36.583 Y91.833 Z4.000 F600.000
G2 X-33.975 Y91.613 Z4.000 I-1.326 J-31.214 K0.000 F600.000
G1 X-22.465 Y103.123 Z4.000 F600.000
G2 X-20.278 Y102.481 Z4.000 I-8.099 J-31.627 K0.000 F600.000
G1 X-31.483 Y91.277 Z4.000 F600.000
G2 X-29.092 Y90.839 Z4.000 I-4.399 J-30.794 K0.000 F600.000
G1 X-18.155 Y101.776 Z4.000 F600.000
G2 X-16.091 Y101.011 Z4.000 I-9.918 J-29.931 K0.000 F600.000
G1 X-26.794 Y90.308 Z4.000 F600.000
G2 X-24.586 Y89.688 Z4.000 I-7.133 J-29.617 K0.000 F600.000
G1 X-14.084 Y100.190 Z4.000 F600.000
G2 X-12.132 Y99.313 Z4.000 I-11.573 J-28.389 K0.000 F600.000
G1 X-22.464 Y88.982 Z4.000 F600.000
G2 X-20.416 Y88.201 Z4.000 I-8.996 J-26.687 K0.000 F600.000
G1 X-10.233 Y98.384 Z4.000 F600.000
G1 X-8.386 Y97.403 Z4.000 F600.000
G1 X-18.439 Y87.350 Z4.000 F600.000
G2 X-16.529 Y86.432 Z4.000 I-10.810 J-24.921 K0.000 F600.000
G1 X-6.591 Y96.370 Z4.000 F600.000
G2 X-4.844 Y95.288 Z4.000 I-14.607 J-25.559 K0.000 F600.000
G1 X-14.683 Y85.448 Z4.000 F600.000
G2 X-12.901 Y84.403 Z4.000 I-12.498 J-23.348 K0.000 F600.000
G1 X-4.572 Y92.731 Z4.000 F600.000
G1 X-11.179 Y83.297 Z4.000 F600.000
G0 Z13.050
G0 Z13.050
G0 X-11.179 Y83.297
G0 X-0.022 Y99.896
G0 X-0.022 Y99.896 Z11.050
G1 X-0.022 Y99.896 Z6.050 F600.000
G3 X-79.208 Y99.683 Z6.050 I-39.435 J-58.677 K0.000 F600.000
G1 X-86.951 Y110.742 Z6.050 F600.000
G2 X8.039 Y110.742 Z6.050 I47.494 J-69.522 K0.000 F600.000
G1 X0.295 Y99.682 Z6.050 F600.000
G3 X-0.022 Y99.896 Z6.050 I-39.752 J-58.462 K0.000 F600.000
G0 Z13.050
G0 X0.295 Y99.682 Z13.050
G0 X0.295 Y99.682 Z11.050
G1 X0.295 Y99.682 Z6.050 F600.000
G1 X6.901 Y109.117 Z6.050 F600.000
G1 X-1.410 Y100.806 Z6.050 F600.000
G3 X-3.156 Y101.888 Z6.050 I-17.451 J-26.227 K0.000 F600.000
G1 X6.641 Y111.685 Z6.050 F600.000
G1 X4.910 Y112.782 Z6.050 F600.000
G1 X-4.946 Y102.926 Z6.050 F600.000
G1 X-6.783 Y103.918 Z6.050 F600.000
G1 X3.142 Y113.843 Z6.050 F600.000
G3 X1.340 Y114.869 Z6.050 I-17.693 J-28.983 K0.000 F600.000
G1 X-8.668 Y104.861 Z6.050 F600.000
G3 X-10.601 Y105.757 Z6.050 I-14.740 J-29.256 K0.000 F600.000
G1 X-0.498 Y115.860 Z6.050 F600.000
G3 X-2.373 Y116.813 Z6.050 I-16.544 J-30.205 K0.000 F600.000
G1 X-12.581 Y106.605 Z6.050 F600.000
G3 X-14.613 Y107.402 Z6.050 I-13.186 J-30.620 K0.000 F600.000
G1 X-4.292 Y117.723 Z6.050 F600.000
G3 X-6.254 Y118.590 Z6.050 I-15.162 J-31.674 K0.000 F600.000
G1 X-16.697 Y108.146 Z6.050 F600.000
G3 X-18.836 Y108.835 Z6.050 I-11.579 J-32.284 K0.000 F600.000
G1 X-8.256 Y119.416 Z6.050 F600.000
G3 X-10.300 Y120.200 Z6.050 I-13.859 J-33.060 K0.000 F600.000
G1 X-21.034 Y109.466 Z6.050 F600.000
G3 X-23.293 Y110.036 Z6.050 I-9.813 J-34.153 K0.000 F600.000
G1 X-12.387 Y120.941 Z6.050 F600.000
G3 X-14.521 Y121.636 Z6.050 I-12.444 J-34.563 K0.000 F600.000
G1 X-25.617 Y110.540 Z6.050 F600.000
G3 X-28.010 Y110.975 Z6.050 I-7.827 J-36.263 K0.000 F600.000
G1 X-16.702 Y122.284 Z6.050 F600.000
G1 X-18.936 Y122.877 Z6.050 F600.000
G1 X-30.478 Y111.336 Z6.050 F600.000
G3 X-33.026 Y111.617 Z6.050 I-5.554 J-38.712 K0.000 F600.000
G1 X-21.226 Y123.416 Z6.050 F600.000
G3 X-23.572 Y123.899 Z6.050 I-9.080 J-38.140 K0.000 F600.000
G1 X-35.660 Y111.811 Z6.050 F600.000
G3 X-38.392 Y111.907 Z6.050 I-2.865 J-42.365 K0.000 F600.000
G1 X-25.976 Y124.323 Z6.050 F600.000
G3 X-28.442 Y124.685 Z6.050 I-7.157 J-40.184 K0.000 F600.000
G1 X-41.241 Y111.887 Z6.050 F600.000
G3 X-44.208 Y111.748 Z6.050 I0.638 J-45.251 K0.000 F600.000
G1 X-30.976 Y124.980 Z6.050 F600.000
G3 X-33.581 Y125.203 Z6.050 I-4.954 J-42.525 K0.000 F600.000
G1 X-47.309 Y111.475 Z6.050 F600.000
G3 X-50.584 Y111.028 Z6.050 I4.554 J-45.599 K0.000 F600.000
G1 X-36.264 Y125.349 Z6.050 F600.000
G3 X-39.031 Y125.410 Z6.050 I-2.386 J-45.256 K0.000 F600.000
G1 X-54.053 Y110.389 Z6.050 F600.000
G3 X-57.775 Y109.495 Z6.050 I9.846 J-49.193 K0.000 F600.000
G1 X-41.890 Y125.380 Z6.050 F600.000
G3 X-44.858 Y125.240 Z6.050 I0.691 J-46.276 K0.000 F600.000
G1 X-61.814 Y108.284 Z6.050 F600.000
G3 X-66.314 Y106.613 Z6.050 I15.683 J-49.110 K0.000 F600.000
G1 X-47.947 Y124.979 Z6.050 F600.000
G3 X-51.166 Y124.589 Z6.050 I4.774 J-52.867 K0.000 F600.000
G1 X-71.537 Y104.218 Z6.050 F600.000
G3 X-78.260 Y100.323 Z6.050 I30.590 J-60.556 K0.000 F600.000
G1 X-54.530 Y124.053 Z6.050 F600.000
G3 X-58.090 Y123.322 Z6.050 I9.111 J-53.365 K0.000 F600.000
G1 X-80.246 Y101.166 Z6.050 F600.000
G1 X-81.411 Y102.829 Z6.050 F600.000
G1 X-61.864 Y122.376 Z6.050 F600.000
G3 X-65.929 Y121.139 Z6.050 I15.471 J-58.150 K0.000 F600.000
G1 X-82.576 Y104.493 Z6.050 F600.000
G1 X-83.740 Y106.157 Z6.050 F600.000
G1 X-70.363 Y119.535 Z6.050 F600.000
G3 X-75.345 Y117.380 Z6.050 I22.471 J-58.810 K0.000 F600.000
G1 X-84.905 Y107.820 Z6.050 F600.000
G1 X-86.070 Y109.484 Z6.050 F600.000
G1 X-86.951 Y110.742 Z6.050 F600.000
G2 X-81.215 Y114.339 Z6.050 I44.907 J-65.248 K0.000 F600.000
G1 X-86.070 Y109.484 Z6.050 F600.000
G1 X-86.070 Y109.484 Z4.050 F600.000
G1 X-81.215 Y114.339 Z4.050 F600.000
G3 X-86.951 Y110.742 Z4.050 I39.170 J-68.845 K0.000 F600.000
G1 X-86.070 Y109.484 Z4.050 F600.000
G1 X-84.905 Y107.820 Z4.050 F600.000
G1 X-75.345 Y117.380 Z4.050 F600.000
G2 X-70.363 Y119.535 Z4.050 I27.454 J-56.656 K0.000 F600.000
G1 X-83.740 Y106.157 Z4.050 F600.000
G1 X-82.576 Y104.493 Z4.050 F600.000
G1 X-65.929 Y121.139 Z4.050 F600.000
G2 X-61.864 Y122.376 Z4.050 I19.536 J-56.913 K0.000 F600.000
G1 X-81.411 Y102.829 Z4.050 F600.000
G1 X-80.246 Y101.166 Z4.050 F600.000
G1 X-58.090 Y123.322 Z4.050 F600.000
G2 X-54.530 Y124.053 Z4.050 I12.671 J-52.633 K0.000 F600.000
G1 X-78.260 Y100.323 Z4.050 F600.000
G2 X-71.537 Y104.218 Z4.050 I37.313 J-56.661 K0.000 F600.000
G1 X-51.166 Y124.589 Z4.050 F600.000
G2 X-47.947 Y124.979 Z4.050 I7.993 J-52.477 K0.000 F600.000
G1 X-66.314 Y106.613 Z4.050 F600.000
G2 X-61.814 Y108.284 Z4.050 I20.183 J-47.438 K0.000 F600.000
G1 X-44.858 Y125.240 Z4.050 F600.000
G2 X-41.890 Y125.380 Z4.050 I3.659 J-46.136 K0.000 F600.000
G1 X-57.775 Y109.495 Z4.050 F600.000
G2 X-54.053 Y110.389 Z4.050 I13.568 J-48.299 K0.000 F600.000
G1 X-39.031 Y125.410 Z4.050 F600.000
G2 X-36.264 Y125.349 Z4.050 I0.382 J-45.317 K0.000 F600.000
G1 X-50.584 Y111.028 Z4.050 F600.000
G2 X-47.309 Y111.475 Z4.050 I7.830 J-45.152 K0.000 F600.000
G1 X-33.581 Y125.203 Z4.050 F600.000
G2 X-30.976 Y124.980 Z4.050 I-2.349 J-42.749 K0.000 F600.000
G1 X-44.208 Y111.748 Z4.050 F600.000
G2 X-41.241 Y111.887 Z4.050 I3.605 J-45.112 K0.000 F600.000
G1 X-28.442 Y124.685 Z4.050 F600.000
G2 X-25.976 Y124.323 Z4.050 I-4.690 J-40.546 K0.000 F600.000
G1 X-38.392 Y111.907 Z4.050 F600.000
G2 X-35.660 Y111.811 Z4.050 I-0.133 J-42.461 K0.000 F600.000
G1 X-23.572 Y123.899 Z4.050 F600.000
G2 X-21.226 Y123.416 Z4.050 I-6.735 J-38.623 K0.000 F600.000
G1 X-33.026 Y111.617 Z4.050 F600.000
G2 X-30.478 Y111.336 Z4.050 I-3.006 J-38.993 K0.000 F600.000
G1 X-18.936 Y122.877 Z4.050 F600.000
G1 X-16.702 Y122.284 Z4.050 F600.000
G1 X-28.010 Y110.975 Z4.050 F600.000
G2 X-25.617 Y110.540 Z4.050 I-5.434 J-36.698 K0.000 F600.000
G1 X-14.521 Y121.636 Z4.050 F600.000
G2 X-12.387 Y120.941 Z4.050 I-10.311 J-35.259 K0.000 F600.000
G1 X-23.293 Y110.036 Z4.050 F600.000
G2 X-21.034 Y109.466 Z4.050 I-7.554 J-34.722 K0.000 F600.000
G1 X-10.300 Y120.200 Z4.050 F600.000
G2 X-8.256 Y119.416 Z4.050 I-11.815 J-33.844 K0.000 F600.000
G1 X-18.836 Y108.835 Z4.050 F600.000
G2 X-16.697 Y108.146 Z4.050 I-9.439 J-32.973 K0.000 F600.000
G1 X-6.254 Y118.590 Z4.050 F600.000
G2 X-4.292 Y117.723 Z4.050 I-13.200 J-32.540 K0.000 F600.000
G1 X-14.613 Y107.402 Z4.050 F600.000
G2 X-12.581 Y106.605 Z4.050 I-11.154 J-31.417 K0.000 F600.000
G1 X-2.373 Y116.813 Z4.050 F600.000
G2 X-0.498 Y115.860 Z4.050 I-14.669 J-31.159 K0.000 F600.000
G1 X-10.601 Y105.757 Z4.050 F600.000
G2 X-8.668 Y104.861 Z4.050 I-12.808 J-30.152 K0.000 F600.000
G1 X1.340 Y114.869 Z4.050 F600.000
G2 X3.142 Y113.843 Z4.050 I-15.891 J-30.010 K0.000 F600.000
G1 X-6.783 Y103.918 Z4.050 F600.000
G1 X-4.946 Y102.926 Z4.050 F600.000
G1 X4.910 Y112.782 Z4.050 F600.000
G1 X6.641 Y111.685 Z4.050 F600.000
G1 X-3.156 Y101.888 Z4.050 F600.000
G2 X-1.410 Y100.806 Z4.050 I-15.705 J-27.309 K0.000 F600.000
G1 X6.901 Y109.117 Z4.050 F600.000
G1 X0.295 Y99.682 Z4.050 F600.000
G1 X0.295 Y99.682 Z4.050 F600.000
G3 X-79.208 Y99.683 Z4.050 I-39.752 J-58.462 K0.000 F600.000
G1 X-86.951 Y110.742 Z4.050 F600.000
G2 X8.039 Y110.742 Z4.050 I47.494 J-69.522 K0.000 F600.000
G1 X0.295 Y99.682 Z4.050 F600.000
G1 X0.295 Y99.682 Z4.000 F600.000
G3 X-79.208 Y99.683 Z4.000 I-39.752 J-58.462 K0.000 F600.000
G1 X-86.951 Y110.742 Z4.000 F600.000
G2 X8.039 Y110.742 Z4.000 I47.494 J-69.522 K0.000 F600.000
G1 X0.295 Y99.682 Z4.000 F600.000
G1 X0.295 Y99.682 Z4.000 F600.000
G1 X6.901 Y109.117 Z4.000 F600.000
G1 X-1.410 Y100.806 Z4.000 F600.000
G3 X-3.156 Y101.888 Z4.000 I-17.451 J-26.227 K0.000 F600.000
G1 X6.641 Y111.685 Z4.000 F600.000
G1 X4.910 Y112.782 Z4.000 F600.000
G1 X-4.946 Y102.926 Z4.000 F600.000
G1 X-6.783 Y103.918 Z4.000 F600.000
G1 X3.142 Y113.843 Z4.000 F600.000
G3 X1.340 Y114.869 Z4.000 I-17.693 J-28.983 K0.000 F600.000
G1 X-8.668 Y104.861 Z4.000 F600.000
G3 X-10.601 Y105.757 Z4.000 I-14.740 J-29.256 K0.000 F600.000
G1 X-0.498 Y115.860 Z4.000 F600.000
G3 X-2.373 Y116.813 Z4.000 I-16.544 J-30.205 K0.000 F600.000
G1 X-12.581 Y106.605 Z4.000 F600.000
G3 X-14.613 Y107.402 Z4.000 I-13.186 J-30.620 K0.000 F600.000
G1 X-4.292 Y117.723 Z4.000 F600.000
G3 X-6.254 Y118.590 Z4.000 I-15.162 J-31.674 K0.000 F600.000
G1 X-16.697 Y108.146 Z4.000 F600.000
G3 X-18.836 Y108.835 Z4.000 I-11.579 J-32.284 K0.000 F600.000
G1 X-8.256 Y119.416 Z4.000 F600.000
G3 X-10.300 Y120.200 Z4.000 I-13.859 J-33.060 K0.000 F600.000
G1 X-21.034 Y109.466 Z4.000 F600.000
G3 X-23.293 Y110.036 Z4.000 I-9.813 J-34.153 K0.000 F600.000
G1 X-12.387 Y120.941 Z4.000 F600.000
G3 X-14.521 Y121.636 Z4.000 I-12.444 J-34.563 K0.000 F600.000
G1 X-25.617 Y110.540 Z4.000 F600.000
G3 X-28.010 Y110.975 Z4.000 I-7.827 J-36.263 K0.000 F600.000
G1 X-16.702 Y122.284 Z4.000 F600.000
G1 X-18.936 Y122.877 Z4.000 F600.000
G1 X-30.478 Y111.336 Z4.000 F600.000
G3 X-33.026 Y111.617 Z4.000 I-5.554 J-38.712 K0.000 F600.000
G1 X-21.226 Y123.416 Z4.000 F600.000
G3 X-23.572 Y123.899 Z4.000 I-9.080 J-38.140 K0.000 F600.000
G1 X-35.660 Y111.811 Z4.000 F600.000
G3 X-38.392 Y111.907 Z4.000 I-2.865 J-42.365 K0.000 F600.000
G1 X-25.976 Y124.323 Z4.000 F600.000
G3 X-28.442 Y124.685 Z4.000 I-7.157 J-40.184 K0.000 F600.000
G1 X-41.241 Y111.887 Z4.000 F600.000
G3 X-44.208 Y111.748 Z4.000 I0.638 J-45.251 K0.000 F600.000
G1 X-30.976 Y124.980 Z4.000 F600.000
G3 X-33.581 Y125.203 Z4.000 I-4.954 J-42.525 K0.000 F600.000
G1 X-47.309 Y111.475 Z4.000 F600.000
G3 X-50.584 Y111.028 Z4.000 I4.554 J-45.599 K0.000 F600.000
G1 X-36.264 Y125.349 Z4.000 F600.000
G3 X-39.031 Y125.410 Z4.000 I-2.386 J-45.256 K0.000 F600.000
G1 X-54.053 Y110.389 Z4.000 F600.000
G3 X-57.775 Y109.495 Z4.000 I9.846 J-49.193 K0.000 F600.000
G1 X-41.890 Y125.380 Z4.000 F600.000
G3 X-44.858 Y125.240 Z4.000 I0.691 J-46.276 K0.000 F600.000
G1 X-61.814 Y108.284 Z4.000 F600.000
G3 X-66.314 Y106.613 Z4.000 I15.683 J-49.110 K0.000 F600.000
G1 X-47.947 Y124.979 Z4.000 F600.000
G3 X-51.166 Y124.589 Z4.000 I4.774 J-52.867 K0.000 F600.000
G1 X-71.537 Y104.218 Z4.000 F600.000
G3 X-78.260 Y100.323 Z4.000 I30.590 J-60.556 K0.000 F600.000
G1 X-54.530 Y124.053 Z4.000 F600.000
G3 X-58.090 Y123.322 Z4.000 I9.111 J-53.365 K0.000 F600.000
G1 X-80.246 Y101.166 Z4.000 F600.000
G1 X-81.411 Y102.829 Z4.000 F600.000
G1 X-61.864 Y122.376 Z4.000 F600.000
G3 X-65.929 Y121.139 Z4.000 I15.471 J-58.150 K0.000 F600.000
G1 X-82.576 Y104.493 Z4.000 F600.000
G1 X-83.740 Y106.157 Z4.000 F600.000
G1 X-70.363 Y119.535 Z4.000 F600.000
G3 X-75.345 Y117.380 Z4.000 I22.471 J-58.810 K0.000 F600.000
G1 X-84.905 Y107.820 Z4.000 F600.000
G1 X-86.070 Y109.484 Z4.000 F600.000
G1 X-86.951 Y110.742 Z4.000 F600.000
G2 X-81.215 Y114.339 Z4.000 I44.907 J-65.248 K0.000 F600.000
G1 X-86.070 Y109.484 Z4.000 F600.000
G0 Z13.050
G0 Z13.050
(Finish operation: Pocket_Shape010)
(Begin operation: Pocket_Shape011)
(Path: Pocket_Shape011)
(Pocket_Shape011)
G0 Z13.050
G0 X84.873 Y63.076
G0 Z11.050
G1 X84.873 Y63.076 Z6.050 F600.000
G1 X83.708 Y64.740 Z6.050 F600.000
G1 X77.601 Y58.633 Z6.050 F600.000
G2 X71.980 Y55.840 Z6.050 I-36.556 J66.533 K0.000 F600.000
G1 X82.543 Y66.404 Z6.050 F600.000
G1 X81.378 Y68.067 Z6.050 F600.000
G1 X67.157 Y53.846 Z6.050 F600.000
G2 X62.819 Y52.336 Z6.050 I-26.875 J70.240 K0.000 F600.000
G1 X80.214 Y69.731 Z6.050 F600.000
G1 X79.049 Y71.394 Z6.050 F600.000
G1 X58.847 Y51.193 Z6.050 F600.000
G2 X55.118 Y50.292 Z6.050 I-13.160 J46.328 K0.000 F600.000
G1 X77.884 Y73.058 Z6.050 F600.000
G1 X77.129 Y74.136 Z6.050 F600.000
G2 X74.306 Y72.309 Z6.050 I-29.213 J42.039 K0.000 F600.000
G1 X51.621 Y49.624 Z6.050 F600.000
G2 X48.287 Y49.118 Z6.050 I-9.945 J54.314 K0.000 F600.000
G1 X68.086 Y68.917 Z6.050 F600.000
G2 X63.085 Y66.744 Z6.050 I-28.234 J58.155 K0.000 F600.000
G1 X45.096 Y48.756 Z6.050 F600.000
G2 X42.049 Y48.537 Z6.050 I-5.094 J49.578 K0.000 F600.000
G1 X58.714 Y65.202 Z6.050 F600.000
G2 X54.752 Y64.068 Z6.050 I-19.216 J59.658 K0.000 F600.000
G1 X39.112 Y48.428 Z6.050 F600.000
G2 X36.274 Y48.418 Z6.050 I-1.577 J46.441 K0.000 F600.000
G1 X51.112 Y63.257 Z6.050 F600.000
G2 X47.686 Y62.659 Z6.050 I-9.215 J42.689 K0.000 F600.000
G1 X33.526 Y48.499 Z6.050 F600.000
G2 X30.862 Y48.663 Z6.050 I1.355 J43.683 K0.000 F600.000
G1 X44.465 Y62.267 Z6.050 F600.000
G2 X41.392 Y62.022 Z6.050 I-5.265 J46.660 K0.000 F600.000
G1 X28.274 Y48.904 Z6.050 F600.000
G2 X25.758 Y49.216 Z6.050 I3.847 J41.339 K0.000 F600.000
G1 X38.452 Y61.911 Z6.050 F600.000
G2 X35.643 Y61.929 Z6.050 I-1.119 J42.932 K0.000 F600.000
G1 X23.308 Y49.594 Z6.050 F600.000
G2 X20.919 Y50.034 Z6.050 I6.006 J39.308 K0.000 F600.000
G1 X32.935 Y62.050 Z6.050 F600.000
G2 X30.320 Y62.264 Z6.050 I1.947 J39.940 K0.000 F600.000
G1 X18.589 Y50.532 Z6.050 F600.000
G2 X16.313 Y51.085 Z6.050 I7.908 J37.519 K0.000 F600.000
G1 X27.791 Y62.563 Z6.050 F600.000
G2 X25.341 Y62.941 Z6.050 I4.543 J37.548 K0.000 F600.000
G1 X14.089 Y51.690 Z6.050 F600.000
G2 X11.914 Y52.343 Z6.050 I9.610 J35.917 K0.000 F600.000
G1 X22.964 Y63.393 Z6.050 F600.000
G2 X20.656 Y63.913 Z6.050 I6.793 J35.500 K0.000 F600.000
G1 X9.791 Y53.049 Z6.050 F600.000
G2 X7.717 Y53.802 Z6.050 I11.298 J34.330 K0.000 F600.000
G1 X18.413 Y64.498 Z6.050 F600.000
G2 X16.230 Y65.144 Z6.050 I8.772 J33.658 K0.000 F600.000
G1 X5.685 Y54.599 Z6.050 F600.000
G2 X3.695 Y55.438 Z6.050 I12.728 J32.985 K0.000 F600.000
G1 X14.105 Y65.847 Z6.050 F600.000
G2 X12.035 Y66.606 Z6.050 I10.535 J31.971 K0.000 F600.000
G1 X1.745 Y56.316 Z6.050 F600.000
G2 X-0.166 Y57.234 Z6.050 I14.054 J31.737 K0.000 F600.000
G1 X10.017 Y67.416 Z6.050 F600.000
G2 X8.049 Y68.277 Z6.050 I12.144 J30.449 K0.000 F600.000
G1 X-2.036 Y58.192 Z6.050 F600.000
G2 X-3.863 Y59.193 Z6.050 I15.482 J30.393 K0.000 F600.000
G1 X6.129 Y69.186 Z6.050 F600.000
G2 X4.256 Y70.141 Z6.050 I13.666 J29.106 K0.000 F600.000
G1 X-5.654 Y60.231 Z6.050 F600.000
G2 X-7.410 Y61.303 Z6.050 I16.666 J29.280 K0.000 F600.000
G1 X2.428 Y71.141 Z6.050 F600.000
G2 X0.644 Y72.186 Z6.050 I15.822 J29.077 K0.000 F600.000
G1 X-9.133 Y62.409 Z6.050 F600.000
G1 X-10.117 Y63.076 Z6.050 F600.000
G1 X-7.367 Y67.003 Z6.050 F600.000
G1 X-1.092 Y73.278 Z6.050 F600.000
G2 X-2.373 Y74.135 Z6.050 I12.647 J20.277 K0.000 F600.000
G1 X-10.117 Y63.076 Z6.050 F600.000
G3 X84.873 Y63.076 Z6.050 I47.494 J69.522 K0.000 F600.000
G1 X77.129 Y74.136 Z6.050 F600.000
G2 X-2.373 Y74.135 Z6.050 I-39.752 J58.462 K0.000 F600.000
G1 X-7.367 Y67.003 Z6.050 F600.000
G1 X-7.367 Y67.003 Z4.050 F600.000
G1 X-2.373 Y74.135 Z4.050 F600.000
G3 X77.129 Y74.136 Z4.050 I39.751 J58.463 K0.000 F600.000
G1 X84.873 Y63.076 Z4.050 F600.000
G2 X-10.117 Y63.076 Z4.050 I-47.496 J69.521 K0.000 F600.000
G1 X-2.373 Y74.135 Z4.050 F600.000
G3 X-1.092 Y73.278 Z4.050 I13.928 J19.419 K0.000 F600.000
G1 X-7.367 Y67.003 Z4.050 F600.000
G1 X-10.117 Y63.076 Z4.050 F600.000
G1 X-9.133 Y62.409 Z4.050 F600.000
G1 X0.644 Y72.186 Z4.050 F600.000
G3 X2.428 Y71.141 Z4.050 I17.606 J28.033 K0.000 F600.000
G1 X-7.410 Y61.303 Z4.050 F600.000
G3 X-5.654 Y60.231 Z4.050 I18.422 J28.208 K0.000 F600.000
G1 X4.256 Y70.141 Z4.050 F600.000
G3 X6.129 Y69.186 Z4.050 I15.539 J28.151 K0.000 F600.000
G1 X-3.863 Y59.193 Z4.050 F600.000
G3 X-2.036 Y58.192 Z4.050 I17.309 J29.392 K0.000 F600.000
G1 X8.049 Y68.277 Z4.050 F600.000
G3 X10.017 Y67.416 Z4.050 I14.112 J29.588 K0.000 F600.000
G1 X-0.166 Y57.234 Z4.050 F600.000
G3 X1.745 Y56.316 Z4.050 I15.966 J30.820 K0.000 F600.000
G1 X12.035 Y66.606 Z4.050 F600.000
G3 X14.105 Y65.847 Z4.050 I12.605 J31.213 K0.000 F600.000
G1 X3.695 Y55.438 Z4.050 F600.000
G3 X5.685 Y54.599 Z4.050 I14.718 J32.147 K0.000 F600.000
G1 X16.230 Y65.144 Z4.050 F600.000
G3 X18.413 Y64.498 Z4.050 I10.954 J33.012 K0.000 F600.000
G1 X7.717 Y53.802 Z4.050 F600.000
G3 X9.791 Y53.049 Z4.050 I13.373 J33.576 K0.000 F600.000
G1 X20.656 Y63.913 Z4.050 F600.000
G3 X22.964 Y63.393 Z4.050 I9.101 J34.979 K0.000 F600.000
G1 X11.914 Y52.343 Z4.050 F600.000
G3 X14.089 Y51.690 Z4.050 I11.785 J35.264 K0.000 F600.000
G1 X25.341 Y62.941 Z4.050 F600.000
G3 X27.791 Y62.563 Z4.050 I6.993 J37.170 K0.000 F600.000
G1 X16.313 Y51.085 Z4.050 F600.000
G3 X18.589 Y50.532 Z4.050 I10.184 J36.966 K0.000 F600.000
G1 X30.320 Y62.264 Z4.050 F600.000
G3 X32.935 Y62.050 Z4.050 I4.562 J39.726 K0.000 F600.000
G1 X20.919 Y50.034 Z4.050 F600.000
G3 X23.308 Y49.594 Z4.050 I8.394 J38.868 K0.000 F600.000
G1 X35.643 Y61.929 Z4.050 F600.000
G3 X38.452 Y61.911 Z4.050 I1.691 J42.914 K0.000 F600.000
G1 X25.758 Y49.216 Z4.050 F600.000
G3 X28.274 Y48.904 Z4.050 I6.364 J41.027 K0.000 F600.000
G1 X41.392 Y62.022 Z4.050 F600.000
G3 X44.465 Y62.267 Z4.050 I-2.192 J46.905 K0.000 F600.000
G1 X30.862 Y48.663 Z4.050 F600.000
G3 X33.526 Y48.499 Z4.050 I4.020 J43.519 K0.000 F600.000
G1 X47.686 Y62.659 Z4.050 F600.000
G3 X51.112 Y63.257 Z4.050 I-5.788 J43.287 K0.000 F600.000
G1 X36.274 Y48.418 Z4.050 F600.000
G3 X39.112 Y48.428 Z4.050 I1.261 J46.451 K0.000 F600.000
G1 X54.752 Y64.068 Z4.050 F600.000
G3 X58.714 Y65.202 Z4.050 I-15.254 J60.792 K0.000 F600.000
G1 X42.049 Y48.537 Z4.050 F600.000
G3 X45.096 Y48.756 Z4.050 I-2.047 J49.797 K0.000 F600.000
G1 X63.085 Y66.744 Z4.050 F600.000
G3 X68.086 Y68.917 Z4.050 I-23.233 J60.327 K0.000 F600.000
G1 X48.287 Y49.118 Z4.050 F600.000
G3 X51.621 Y49.624 Z4.050 I-6.611 J54.820 K0.000 F600.000
G1 X74.306 Y72.309 Z4.050 F600.000
G3 X77.129 Y74.136 Z4.050 I-26.390 J43.867 K0.000 F600.000
G1 X77.884 Y73.058 Z4.050 F600.000
G1 X55.118 Y50.292 Z4.050 F600.000
G3 X58.847 Y51.193 Z4.050 I-9.431 J47.228 K0.000 F600.000
G1 X79.049 Y71.394 Z4.050 F600.000
G1 X80.214 Y69.731 Z4.050 F600.000
G1 X62.819 Y52.336 Z4.050 F600.000
G3 X67.157 Y53.846 Z4.050 I-22.537 J71.749 K0.000 F600.000
G1 X81.378 Y68.067 Z4.050 F600.000
G1 X82.543 Y66.404 Z4.050 F600.000
G1 X71.980 Y55.840 Z4.050 F600.000
G3 X77.601 Y58.633 Z4.050 I-30.935 J69.325 K0.000 F600.000
G1 X83.708 Y64.740 Z4.050 F600.000
G1 X84.873 Y63.076 Z4.050 F600.000
G1 X84.873 Y63.076 Z4.000 F600.000
G1 X83.708 Y64.740 Z4.000 F600.000
G1 X77.601 Y58.633 Z4.000 F600.000
G2 X71.980 Y55.840 Z4.000 I-36.556 J66.533 K0.000 F600.000
G1 X82.543 Y66.404 Z4.000 F600.000
G1 X81.378 Y68.067 Z4.000 F600.000
G1 X67.157 Y53.846 Z4.000 F600.000
G2 X62.819 Y52.336 Z4.000 I-26.875 J70.240 K0.000 F600.000
G1 X80.214 Y69.731 Z4.000 F600.000
G1 X79.049 Y71.394 Z4.000 F600.000
G1 X58.847 Y51.193 Z4.000 F600.000
G2 X55.118 Y50.292 Z4.000 I-13.160 J46.328 K0.000 F600.000
G1 X77.884 Y73.058 Z4.000 F600.000
G1 X77.129 Y74.136 Z4.000 F600.000
G2 X74.306 Y72.309 Z4.000 I-29.213 J42.039 K0.000 F600.000
G1 X51.621 Y49.624 Z4.000 F600.000
G2 X48.287 Y49.118 Z4.000 I-9.945 J54.314 K0.000 F600.000
G1 X68.086 Y68.917 Z4.000 F600.000
G2 X63.085 Y66.744 Z4.000 I-28.234 J58.155 K0.000 F600.000
G1 X45.096 Y48.756 Z4.000 F600.000
G2 X42.049 Y48.537 Z4.000 I-5.094 J49.578 K0.000 F600.000
G1 X58.714 Y65.202 Z4.000 F600.000
G2 X54.752 Y64.068 Z4.000 I-19.216 J59.658 K0.000 F600.000
G1 X39.112 Y48.428 Z4.000 F600.000
G2 X36.274 Y48.418 Z4.000 I-1.577 J46.441 K0.000 F600.000
G1 X51.112 Y63.257 Z4.000 F600.000
G2 X47.686 Y62.659 Z4.000 I-9.215 J42.689 K0.000 F600.000
G1 X33.526 Y48.499 Z4.000 F600.000
G2 X30.862 Y48.663 Z4.000 I1.355 J43.683 K0.000 F600.000
G1 X44.465 Y62.267 Z4.000 F600.000
G2 X41.392 Y62.022 Z4.000 I-5.265 J46.660 K0.000 F600.000
G1 X28.274 Y48.904 Z4.000 F600.000
G2 X25.758 Y49.216 Z4.000 I3.847 J41.339 K0.000 F600.000
G1 X38.452 Y61.911 Z4.000 F600.000
G2 X35.643 Y61.929 Z4.000 I-1.119 J42.932 K0.000 F600.000
G1 X23.308 Y49.594 Z4.000 F600.000
G2 X20.919 Y50.034 Z4.000 I6.006 J39.308 K0.000 F600.000
G1 X32.935 Y62.050 Z4.000 F600.000
G2 X30.320 Y62.264 Z4.000 I1.947 J39.940 K0.000 F600.000
G1 X18.589 Y50.532 Z4.000 F600.000
G2 X16.313 Y51.085 Z4.000 I7.908 J37.519 K0.000 F600.000
G1 X27.791 Y62.563 Z4.000 F600.000
G2 X25.341 Y62.941 Z4.000 I4.543 J37.548 K0.000 F600.000
G1 X14.089 Y51.690 Z4.000 F600.000
G2 X11.914 Y52.343 Z4.000 I9.610 J35.917 K0.000 F600.000
G1 X22.964 Y63.393 Z4.000 F600.000
G2 X20.656 Y63.913 Z4.000 I6.793 J35.500 K0.000 F600.000
G1 X9.791 Y53.049 Z4.000 F600.000
G2 X7.717 Y53.802 Z4.000 I11.298 J34.330 K0.000 F600.000
G1 X18.413 Y64.498 Z4.000 F600.000
G2 X16.230 Y65.144 Z4.000 I8.772 J33.658 K0.000 F600.000
G1 X5.685 Y54.599 Z4.000 F600.000
G2 X3.695 Y55.438 Z4.000 I12.728 J32.985 K0.000 F600.000
G1 X14.105 Y65.847 Z4.000 F600.000
G2 X12.035 Y66.606 Z4.000 I10.535 J31.971 K0.000 F600.000
G1 X1.745 Y56.316 Z4.000 F600.000
G2 X-0.166 Y57.234 Z4.000 I14.054 J31.737 K0.000 F600.000
G1 X10.017 Y67.416 Z4.000 F600.000
G2 X8.049 Y68.277 Z4.000 I12.144 J30.449 K0.000 F600.000
G1 X-2.036 Y58.192 Z4.000 F600.000
G2 X-3.863 Y59.193 Z4.000 I15.482 J30.393 K0.000 F600.000
G1 X6.129 Y69.186 Z4.000 F600.000
G2 X4.256 Y70.141 Z4.000 I13.666 J29.106 K0.000 F600.000
G1 X-5.654 Y60.231 Z4.000 F600.000
G2 X-7.410 Y61.303 Z4.000 I16.666 J29.280 K0.000 F600.000
G1 X2.428 Y71.141 Z4.000 F600.000
G2 X0.644 Y72.186 Z4.000 I15.822 J29.077 K0.000 F600.000
G1 X-9.133 Y62.409 Z4.000 F600.000
G1 X-10.117 Y63.076 Z4.000 F600.000
G1 X-7.367 Y67.003 Z4.000 F600.000
G1 X-1.092 Y73.278 Z4.000 F600.000
G2 X-2.373 Y74.135 Z4.000 I12.647 J20.277 K0.000 F600.000
G1 X-10.117 Y63.076 Z4.000 F600.000
G3 X84.873 Y63.076 Z4.000 I47.494 J69.522 K0.000 F600.000
G1 X77.129 Y74.136 Z4.000 F600.000
G2 X-2.373 Y74.135 Z4.000 I-39.752 J58.462 K0.000 F600.000
G1 X-7.367 Y67.003 Z4.000 F600.000
G0 Z13.050
G0 Z13.050
G0 X-7.367 Y67.003
G0 X4.849 Y84.449
G0 X4.849 Y84.449 Z11.050
G1 X4.849 Y84.449 Z6.050 F600.000
G1 X9.100 Y90.521 Z6.050 F600.000
G3 X65.656 Y90.521 Z6.050 I28.277 J42.075 K0.000 F600.000
G1 X73.400 Y79.461 Z6.050 F600.000
G2 X1.356 Y79.461 Z6.050 I-36.023 J53.134 K0.000 F600.000
G1 X9.100 Y90.521 Z6.050 F600.000
G3 X10.198 Y89.799 Z6.050 I9.899 J13.857 K0.000 F600.000
G1 X4.849 Y84.449 Z6.050 F600.000
G1 X1.356 Y79.461 Z6.050 F600.000
G1 X2.152 Y78.924 Z6.050 F600.000
G1 X11.960 Y88.732 Z6.050 F600.000
G3 X13.783 Y87.727 Z6.050 I13.833 J22.946 K0.000 F600.000
G1 X3.885 Y77.829 Z6.050 F600.000
G3 X5.666 Y76.781 Z6.050 I15.887 J24.979 K0.000 F600.000
G1 X15.671 Y86.786 Z6.050 F600.000
G3 X17.626 Y85.912 Z6.050 I12.176 J24.608 K0.000 F600.000
G1 X7.496 Y75.783 Z6.050 F600.000
G3 X9.376 Y74.835 Z6.050 I14.519 J26.446 K0.000 F600.000
G1 X19.650 Y85.108 Z6.050 F600.000
G3 X21.748 Y84.378 Z6.050 I10.394 J26.478 K0.000 F600.000
G1 X11.309 Y73.938 Z6.050 F600.000
G3 X13.295 Y73.096 Z6.050 I13.052 J28.018 K0.000 F600.000
G1 X23.924 Y83.725 Z6.050 F600.000
G3 X26.183 Y83.156 Z6.050 I8.429 J28.676 K0.000 F600.000
G1 X15.337 Y72.310 Z6.050 F600.000
G3 X17.439 Y71.584 Z6.050 I11.456 J29.730 K0.000 F600.000
G1 X28.535 Y82.679 Z6.050 F600.000
G3 X30.996 Y82.312 Z6.050 I5.938 J31.368 K0.000 F600.000
G1 X19.603 Y70.919 Z6.050 F600.000
G3 X21.833 Y70.320 Z6.050 I9.688 J31.626 K0.000 F600.000
G1 X33.566 Y82.054 Z6.050 F600.000
G3 X36.256 Y81.916 Z6.050 I3.113 J34.343 K0.000 F600.000
G1 X24.132 Y69.791 Z6.050 F600.000
G3 X26.506 Y69.337 Z6.050 I7.692 J33.766 K0.000 F600.000
G1 X39.109 Y81.940 Z6.050 F600.000
G3 X42.126 Y82.128 Z6.050 I-0.894 J38.605 K0.000 F600.000
G1 X28.960 Y68.963 Z6.050 F600.000
G3 X31.501 Y68.675 Z6.050 I5.391 J36.234 K0.000 F600.000
G1 X45.371 Y82.544 Z6.050 F600.000
G3 X48.886 Y83.232 Z6.050 I-5.409 J37.001 K0.000 F600.000
G1 X34.140 Y68.485 Z6.050 F600.000
G3 X36.894 Y68.411 Z6.050 I2.435 J39.404 K0.000 F600.000
G1 X52.790 Y84.307 Z6.050 F600.000
G3 X57.291 Y85.979 Z6.050 I-12.773 J41.269 K0.000 F600.000
G1 X39.767 Y68.455 Z6.050 F600.000
G3 X42.771 Y68.631 Z6.050 I-1.018 J43.107 K0.000 F600.000
G1 X62.970 Y88.830 Z6.050 F600.000
G3 X65.656 Y90.521 Z6.050 I-16.028 J28.431 K0.000 F600.000
G1 X66.411 Y89.443 Z6.050 F600.000
G1 X45.953 Y68.985 Z6.050 F600.000
G3 X49.323 Y69.526 Z6.050 I-6.067 J48.522 K0.000 F600.000
G1 X67.576 Y87.779 Z6.050 F600.000
G1 X68.741 Y86.116 Z6.050 F600.000
G1 X52.953 Y70.328 Z6.050 F600.000
G3 X56.903 Y71.449 Z6.050 I-10.790 J45.518 K0.000 F600.000
G1 X69.906 Y84.452 Z6.050 F600.000
G1 X71.070 Y82.788 Z6.050 F600.000
G1 X61.322 Y73.040 Z6.050 F600.000
G3 X66.484 Y75.374 Z6.050 I-19.799 J50.673 K0.000 F600.000
G1 X72.235 Y81.125 Z6.050 F600.000
G1 X73.400 Y79.461 Z6.050 F600.000
G1 X73.400 Y79.461 Z4.050 F600.000
G1 X72.235 Y81.125 Z4.050 F600.000
G1 X66.484 Y75.374 Z4.050 F600.000
G2 X61.322 Y73.040 Z4.050 I-24.961 J48.340 K0.000 F600.000
G1 X71.070 Y82.788 Z4.050 F600.000
G1 X69.906 Y84.452 Z4.050 F600.000
G1 X56.903 Y71.449 Z4.050 F600.000
G2 X52.953 Y70.328 Z4.050 I-14.739 J44.397 K0.000 F600.000
G1 X68.741 Y86.116 Z4.050 F600.000
G1 X67.576 Y87.779 Z4.050 F600.000
G1 X49.323 Y69.526 Z4.050 F600.000
G2 X45.953 Y68.985 Z4.050 I-9.437 J47.981 K0.000 F600.000
G1 X66.411 Y89.443 Z4.050 F600.000
G1 X65.656 Y90.521 Z4.050 F600.000
G2 X62.970 Y88.830 Z4.050 I-18.714 J26.740 K0.000 F600.000
G1 X42.771 Y68.631 Z4.050 F600.000
G2 X39.767 Y68.455 Z4.050 I-4.023 J42.931 K0.000 F600.000
G1 X57.291 Y85.979 Z4.050 F600.000
G2 X52.790 Y84.307 Z4.050 I-17.273 J39.596 K0.000 F600.000
G1 X36.894 Y68.411 Z4.050 F600.000
G2 X34.140 Y68.485 Z4.050 I-0.319 J39.478 K0.000 F600.000
G1 X48.886 Y83.232 Z4.050 F600.000
G2 X45.371 Y82.544 Z4.050 I-8.925 J36.314 K0.000 F600.000
G1 X31.501 Y68.675 Z4.050 F600.000
G2 X28.960 Y68.963 Z4.050 I2.851 J36.522 K0.000 F600.000
G1 X42.126 Y82.128 Z4.050 F600.000
G2 X39.109 Y81.940 Z4.050 I-3.911 J38.417 K0.000 F600.000
G1 X26.506 Y69.337 Z4.050 F600.000
G2 X24.132 Y69.791 Z4.050 I5.318 J34.221 K0.000 F600.000
G1 X36.256 Y81.916 Z4.050 F600.000
G2 X33.566 Y82.054 Z4.050 I0.423 J34.481 K0.000 F600.000
G1 X21.833 Y70.320 Z4.050 F600.000
G2 X19.603 Y70.919 Z4.050 I7.459 J32.225 K0.000 F600.000
G1 X30.996 Y82.312 Z4.050 F600.000
G2 X28.535 Y82.679 Z4.050 I3.477 J31.735 K0.000 F600.000
G1 X17.439 Y71.584 Z4.050 F600.000
G2 X15.337 Y72.310 Z4.050 I9.355 J30.457 K0.000 F600.000
G1 X26.183 Y83.156 Z4.050 F600.000
G2 X23.924 Y83.725 Z4.050 I6.170 J29.245 K0.000 F600.000
G1 X13.295 Y73.096 Z4.050 F600.000
G2 X11.309 Y73.938 Z4.050 I11.066 J28.861 K0.000 F600.000
G1 X21.748 Y84.378 Z4.050 F600.000
G2 X19.650 Y85.108 Z4.050 I8.296 J27.208 K0.000 F600.000
G1 X9.376 Y74.835 Z4.050 F600.000
G2 X7.496 Y75.783 Z4.050 I12.638 J27.395 K0.000 F600.000
G1 X17.626 Y85.912 Z4.050 F600.000
G2 X15.671 Y86.786 Z4.050 I10.221 J25.482 K0.000 F600.000
G1 X5.666 Y76.781 Z4.050 F600.000
G2 X3.885 Y77.829 Z4.050 I14.106 J26.026 K0.000 F600.000
G1 X13.783 Y87.727 Z4.050 F600.000
G2 X11.960 Y88.732 Z4.050 I12.010 J23.950 K0.000 F600.000
G1 X2.152 Y78.924 Z4.050 F600.000
G1 X1.356 Y79.461 Z4.050 F600.000
G1 X4.849 Y84.449 Z4.050 F600.000
G1 X10.198 Y89.799 Z4.050 F600.000
G2 X9.100 Y90.521 Z4.050 I8.801 J14.579 K0.000 F600.000
G1 X1.356 Y79.461 Z4.050 F600.000
G3 X73.400 Y79.461 Z4.050 I36.022 J53.134 K0.000 F600.000
G1 X65.656 Y90.521 Z4.050 F600.000
G2 X9.100 Y90.521 Z4.050 I-28.278 J42.074 K0.000 F600.000
G1 X4.849 Y84.449 Z4.050 F600.000
G1 X4.849 Y84.449 Z4.000 F600.000
G1 X9.100 Y90.521 Z4.000 F600.000
G3 X65.656 Y90.521 Z4.000 I28.277 J42.075 K0.000 F600.000
G1 X73.400 Y79.461 Z4.000 F600.000
G2 X1.356 Y79.461 Z4.000 I-36.023 J53.134 K0.000 F600.000
G1 X9.100 Y90.521 Z4.000 F600.000
G3 X10.198 Y89.799 Z4.000 I9.899 J13.857 K0.000 F600.000
G1 X4.849 Y84.449 Z4.000 F600.000
G1 X1.356 Y79.461 Z4.000 F600.000
G1 X2.152 Y78.924 Z4.000 F600.000
G1 X11.960 Y88.732 Z4.000 F600.000
G3 X13.783 Y87.727 Z4.000 I13.833 J22.946 K0.000 F600.000
G1 X3.885 Y77.829 Z4.000 F600.000
G3 X5.666 Y76.781 Z4.000 I15.887 J24.979 K0.000 F600.000
G1 X15.671 Y86.786 Z4.000 F600.000
G3 X17.626 Y85.912 Z4.000 I12.176 J24.608 K0.000 F600.000
G1 X7.496 Y75.783 Z4.000 F600.000
G3 X9.376 Y74.835 Z4.000 I14.519 J26.446 K0.000 F600.000
G1 X19.650 Y85.108 Z4.000 F600.000
G3 X21.748 Y84.378 Z4.000 I10.394 J26.478 K0.000 F600.000
G1 X11.309 Y73.938 Z4.000 F600.000
G3 X13.295 Y73.096 Z4.000 I13.052 J28.018 K0.000 F600.000
G1 X23.924 Y83.725 Z4.000 F600.000
G3 X26.183 Y83.156 Z4.000 I8.429 J28.676 K0.000 F600.000
G1 X15.337 Y72.310 Z4.000 F600.000
G3 X17.439 Y71.584 Z4.000 I11.456 J29.730 K0.000 F600.000
G1 X28.535 Y82.679 Z4.000 F600.000
G3 X30.996 Y82.312 Z4.000 I5.938 J31.368 K0.000 F600.000
G1 X19.603 Y70.919 Z4.000 F600.000
G3 X21.833 Y70.320 Z4.000 I9.688 J31.626 K0.000 F600.000
G1 X33.566 Y82.054 Z4.000 F600.000
G3 X36.256 Y81.916 Z4.000 I3.113 J34.343 K0.000 F600.000
G1 X24.132 Y69.791 Z4.000 F600.000
G3 X26.506 Y69.337 Z4.000 I7.692 J33.766 K0.000 F600.000
G1 X39.109 Y81.940 Z4.000 F600.000
G3 X42.126 Y82.128 Z4.000 I-0.894 J38.605 K0.000 F600.000
G1 X28.960 Y68.963 Z4.000 F600.000
G3 X31.501 Y68.675 Z4.000 I5.391 J36.234 K0.000 F600.000
G1 X45.371 Y82.544 Z4.000 F600.000
G3 X48.886 Y83.232 Z4.000 I-5.409 J37.001 K0.000 F600.000
G1 X34.140 Y68.485 Z4.000 F600.000
G3 X36.894 Y68.411 Z4.000 I2.435 J39.404 K0.000 F600.000
G1 X52.790 Y84.307 Z4.000 F600.000
G3 X57.291 Y85.979 Z4.000 I-12.773 J41.269 K0.000 F600.000
G1 X39.767 Y68.455 Z4.000 F600.000
G3 X42.771 Y68.631 Z4.000 I-1.018 J43.107 K0.000 F600.000
G1 X62.970 Y88.830 Z4.000 F600.000
G3 X65.656 Y90.521 Z4.000 I-16.028 J28.431 K0.000 F600.000
G1 X66.411 Y89.443 Z4.000 F600.000
G1 X45.953 Y68.985 Z4.000 F600.000
G3 X49.323 Y69.526 Z4.000 I-6.067 J48.522 K0.000 F600.000
G1 X67.576 Y87.779 Z4.000 F600.000
G1 X68.741 Y86.116 Z4.000 F600.000
G1 X52.953 Y70.328 Z4.000 F600.000
G3 X56.903 Y71.449 Z4.000 I-10.790 J45.518 K0.000 F600.000
G1 X69.906 Y84.452 Z4.000 F600.000
G1 X71.070 Y82.788 Z4.000 F600.000
G1 X61.322 Y73.040 Z4.000 F600.000
G3 X66.484 Y75.374 Z4.000 I-19.799 J50.673 K0.000 F600.000
G1 X72.235 Y81.125 Z4.000 F600.000
G1 X73.400 Y79.461 Z4.000 F600.000
G0 Z13.050
G0 Z13.050
G0 X73.400 Y79.461
G0 X61.927 Y95.847
G0 X61.927 Y95.847 Z11.050
G1 X61.927 Y95.847 Z6.050 F600.000
G1 X60.762 Y97.510 Z6.050 F600.000
G1 X55.580 Y92.329 Z6.050 F600.000
G2 X50.974 Y90.551 Z6.050 I-16.462 J35.792 K0.000 F600.000
G1 X59.597 Y99.174 Z6.050 F600.000
G1 X58.432 Y100.838 Z6.050 F600.000
G1 X47.083 Y89.488 Z6.050 F600.000
G2 X43.620 Y88.853 Z6.050 I-7.718 J32.334 K0.000 F600.000
G1 X57.268 Y102.501 Z6.050 F600.000
G1 X56.103 Y104.165 Z6.050 F600.000
G1 X40.454 Y88.516 Z6.050 F600.000
G2 X37.514 Y88.404 Z6.050 I-2.844 J36.026 K0.000 F600.000
G1 X54.938 Y105.828 Z6.050 F600.000
G1 X54.181 Y106.909 Z6.050 F600.000
G2 X51.768 Y105.487 Z6.050 I-12.530 J18.502 K0.000 F600.000
G1 X34.769 Y88.487 Z6.050 F600.000
G2 X32.165 Y88.713 Z6.050 I1.463 J32.057 K0.000 F600.000
G1 X46.857 Y103.404 Z6.050 F600.000
G2 X43.065 Y102.441 Z6.050 I-8.715 J26.357 K0.000 F600.000
G1 X29.704 Y89.079 Z6.050 F600.000
G2 X27.356 Y89.560 Z6.050 I4.725 J29.050 K0.000 F600.000
G1 X39.802 Y102.007 Z6.050 F600.000
G2 X36.881 Y101.914 Z6.050 I-2.157 J21.822 K0.000 F600.000
G1 X25.107 Y90.140 Z6.050 F600.000
G2 X22.960 Y90.821 Z6.050 I6.589 J24.503 K0.000 F600.000
G1 X34.205 Y102.066 Z6.050 F600.000
G2 X31.742 Y102.431 Z6.050 I2.390 J24.621 K0.000 F600.000
G1 X20.902 Y91.592 Z6.050 F600.000
G2 X18.925 Y92.442 Z6.050 I9.449 J24.696 K0.000 F600.000
G1 X29.432 Y102.950 Z6.050 F600.000
G2 X27.273 Y103.619 Z6.050 I5.563 J21.780 K0.000 F600.000
G1 X17.023 Y93.369 Z6.050 F600.000
G2 X15.193 Y94.368 Z6.050 I11.345 J22.948 K0.000 F600.000
G1 X25.229 Y104.403 Z6.050 F600.000
G2 X23.313 Y105.316 Z6.050 I8.236 J19.761 K0.000 F600.000
G1 X13.436 Y95.439 Z6.050 F600.000
G1 X12.829 Y95.846 Z6.050 F600.000
G1 X17.067 Y101.899 Z6.050 F600.000
G1 X21.497 Y106.329 Z6.050 F600.000
G2 X20.575 Y106.908 Z6.050 I5.362 J9.560 K0.000 F600.000
G1 X12.829 Y95.846 Z6.050 F600.000
G3 X61.927 Y95.847 Z6.050 I24.548 J36.751 K0.000 F600.000
G1 X54.181 Y106.909 Z6.050 F600.000
G2 X20.575 Y106.908 Z6.050 I-16.804 J25.688 K0.000 F600.000
G1 X17.067 Y101.899 Z6.050 F600.000
G1 X17.067 Y101.899 Z4.050 F600.000
G1 X20.575 Y106.908 Z4.050 F600.000
G3 X54.181 Y106.909 Z4.050 I16.802 J25.688 K0.000 F600.000
G1 X61.927 Y95.847 Z4.050 F600.000
G2 X12.829 Y95.846 Z4.050 I-24.550 J36.751 K0.000 F600.000
G1 X20.575 Y106.908 Z4.050 F600.000
G3 X21.497 Y106.329 Z4.050 I6.284 J8.981 K0.000 F600.000
G1 X17.067 Y101.899 Z4.050 F600.000
G1 X12.829 Y95.846 Z4.050 F600.000
G1 X13.436 Y95.439 Z4.050 F600.000
G1 X23.313 Y105.316 Z4.050 F600.000
G3 X25.229 Y104.403 Z4.050 I10.152 J18.848 K0.000 F600.000
G1 X15.193 Y94.368 Z4.050 F600.000
G3 X17.023 Y93.369 Z4.050 I13.175 J21.949 K0.000 F600.000
G1 X27.273 Y103.619 Z4.050 F600.000
G3 X29.432 Y102.950 Z4.050 I7.723 J21.111 K0.000 F600.000
G1 X18.925 Y92.442 Z4.050 F600.000
G3 X20.902 Y91.592 Z4.050 I11.426 J23.846 K0.000 F600.000
G1 X31.742 Y102.431 Z4.050 F600.000
G3 X34.205 Y102.066 Z4.050 I4.854 J24.256 K0.000 F600.000
G1 X22.960 Y90.821 Z4.050 F600.000
G3 X25.107 Y90.140 Z4.050 I8.736 J23.822 K0.000 F600.000
G1 X36.881 Y101.914 Z4.050 F600.000
G3 X39.802 Y102.007 Z4.050 I0.764 J21.915 K0.000 F600.000
G1 X27.356 Y89.560 Z4.050 F600.000
G3 X29.704 Y89.079 Z4.050 I7.073 J28.569 K0.000 F600.000
G1 X43.065 Y102.441 Z4.050 F600.000
G3 X46.857 Y103.404 Z4.050 I-4.923 J27.321 K0.000 F600.000
G1 X32.165 Y88.713 Z4.050 F600.000
G3 X34.769 Y88.487 Z4.050 I4.066 J31.831 K0.000 F600.000
G1 X51.768 Y105.487 Z4.050 F600.000
G3 X54.181 Y106.909 Z4.050 I-10.117 J19.924 K0.000 F600.000
G1 X54.938 Y105.828 Z4.050 F600.000
G1 X37.514 Y88.404 Z4.050 F600.000
G3 X40.454 Y88.516 Z4.050 I0.097 J36.138 K0.000 F600.000
G1 X56.103 Y104.165 Z4.050 F600.000
G1 X57.268 Y102.501 Z4.050 F600.000
G1 X43.620 Y88.853 Z4.050 F600.000
G3 X47.083 Y89.488 Z4.050 I-4.255 J32.969 K0.000 F600.000
G1 X58.432 Y100.838 Z4.050 F600.000
G1 X59.597 Y99.174 Z4.050 F600.000
G1 X50.974 Y90.551 Z4.050 F600.000
G3 X55.580 Y92.329 Z4.050 I-11.855 J37.570 K0.000 F600.000
G1 X60.762 Y97.510 Z4.050 F600.000
G1 X61.927 Y95.847 Z4.050 F600.000
G1 X61.927 Y95.847 Z4.000 F600.000
G1 X60.762 Y97.510 Z4.000 F600.000
G1 X55.580 Y92.329 Z4.000 F600.000
G2 X50.974 Y90.551 Z4.000 I-16.462 J35.792 K0.000 F600.000
G1 X59.597 Y99.174 Z4.000 F600.000
G1 X58.432 Y100.838 Z4.000 F600.000
G1 X47.083 Y89.488 Z4.000 F600.000
G2 X43.620 Y88.853 Z4.000 I-7.718 J32.334 K0.000 F600.000
G1 X57.268 Y102.501 Z4.000 F600.000
G1 X56.103 Y104.165 Z4.000 F600.000
G1 X40.454 Y88.516 Z4.000 F600.000
G2 X37.514 Y88.404 Z4.000 I-2.844 J36.026 K0.000 F600.000
G1 X54.938 Y105.828 Z4.000 F600.000
G1 X54.181 Y106.909 Z4.000 F600.000
G2 X51.768 Y105.487 Z4.000 I-12.530 J18.502 K0.000 F600.000
G1 X34.769 Y88.487 Z4.000 F600.000
G2 X32.165 Y88.713 Z4.000 I1.463 J32.057 K0.000 F600.000
G1 X46.857 Y103.404 Z4.000 F600.000
G2 X43.065 Y102.441 Z4.000 I-8.715 J26.357 K0.000 F600.000
G1 X29.704 Y89.079 Z4.000 F600.000
G2 X27.356 Y89.560 Z4.000 I4.725 J29.050 K0.000 F600.000
G1 X39.802 Y102.007 Z4.000 F600.000
G2 X36.881 Y101.914 Z4.000 I-2.157 J21.822 K0.000 F600.000
G1 X25.107 Y90.140 Z4.000 F600.000
G2 X22.960 Y90.821 Z4.000 I6.589 J24.503 K0.000 F600.000
G1 X34.205 Y102.066 Z4.000 F600.000
G2 X31.742 Y102.431 Z4.000 I2.390 J24.621 K0.000 F600.000
G1 X20.902 Y91.592 Z4.000 F600.000
G2 X18.925 Y92.442 Z4.000 I9.449 J24.696 K0.000 F600.000
G1 X29.432 Y102.950 Z4.000 F600.000
G2 X27.273 Y103.619 Z4.000 I5.563 J21.780 K0.000 F600.000
G1 X17.023 Y93.369 Z4.000 F600.000
G2 X15.193 Y94.368 Z4.000 I11.345 J22.948 K0.000 F600.000
G1 X25.229 Y104.403 Z4.000 F600.000
G2 X23.313 Y105.316 Z4.000 I8.236 J19.761 K0.000 F600.000
G1 X13.436 Y95.439 Z4.000 F600.000
G1 X12.829 Y95.846 Z4.000 F600.000
G1 X17.067 Y101.899 Z4.000 F600.000
G1 X21.497 Y106.329 Z4.000 F600.000
G2 X20.575 Y106.908 Z4.000 I5.362 J9.560 K0.000 F600.000
G1 X12.829 Y95.846 Z4.000 F600.000
G3 X61.927 Y95.847 Z4.000 I24.548 J36.751 K0.000 F600.000
G1 X54.181 Y106.909 Z4.000 F600.000
G2 X20.575 Y106.908 Z4.000 I-16.804 J25.688 K0.000 F600.000
G1 X17.067 Y101.899 Z4.000 F600.000
G0 Z13.050
G0 Z13.050
(Finish operation: Pocket_Shape011)
(Begin operation: Profile015)
(Path: Profile015)
(Profile015)
(Compensated Tool Path. Diameter: 2.0)
G0 Z13.050
G0 X-31.948 Y123.487
G0 Z11.050
G1 X-31.948 Y123.487 Z6.050 F600.000
G2 X-31.895 Y122.728 Z6.050 I-1.939 J-0.518 K0.000 F600.000
G1 X-32.827 Y113.849 Z6.050 F600.000
G2 X-34.641 Y112.030 Z6.050 I-1.997 J0.178 K0.000 F600.000
G3 X-43.927 Y112.025 Z6.050 I-4.598 J-84.508 K0.000 F600.000
G2 X-46.094 Y113.848 Z6.050 I-0.165 J2.003 K0.000 F600.000
G1 X-47.028 Y122.727 Z6.050 F600.000
G2 X-45.146 Y124.973 Z6.050 I1.992 J0.242 K0.000 F600.000
G2 X-33.777 Y124.974 Z6.050 I5.689 J-83.603 K0.000 F600.000
G2 X-31.948 Y123.487 Z6.050 I-0.110 J-2.004 K0.000 F600.000
G0 Z13.050
G0 X-33.644 Y104.902 Z13.050
G0 X-33.644 Y104.902 Z11.050
G1 X-33.644 Y104.902 Z6.050 F600.000
G2 X-29.232 Y104.344 Z6.050 I-5.813 J-63.695 K0.000 F600.000
G2 X-27.572 Y101.910 Z6.050 I-0.297 J-1.985 K0.000 F600.000
G1 X-29.430 Y93.171 Z6.050 F600.000
G2 X-31.745 Y91.580 Z6.050 I-1.972 J0.389 K0.000 F600.000
G3 X-45.274 Y91.834 Z6.050 I-7.713 J-50.378 K0.000 F600.000
G1 X-47.177 Y91.578 Z6.050 F600.000
G2 X-49.493 Y93.170 Z6.050 I-0.344 J1.980 K0.000 F600.000
G1 X-51.350 Y101.909 Z6.050 F600.000
G2 X-49.691 Y104.343 Z6.050 I1.956 J0.449 K0.000 F600.000
G2 X-33.644 Y104.902 Z6.050 I10.234 J-63.136 K0.000 F600.000
G0 Z13.050
G0 X-35.461 Y84.985 Z13.050
G0 X-35.461 Y84.985 Z11.050
G1 X-35.461 Y84.985 Z6.050 F600.000
G2 X-27.119 Y83.401 Z6.050 I-3.996 J-43.804 K0.000 F600.000
G2 X-25.723 Y80.952 Z6.050 I-0.543 J-1.932 K0.000 F600.000
G1 X-27.888 Y72.288 Z6.050 F600.000
G2 X-29.148 Y70.860 Z6.050 I-1.959 J0.458 K0.000 F600.000
G2 X-30.264 Y70.780 Z6.050 I-0.694 J1.866 K0.000 F600.000
G3 X-48.439 Y70.836 Z6.050 I-9.179 J-29.717 K0.000 F600.000
G2 X-51.024 Y72.288 Z6.050 I-0.627 J1.910 K0.000 F600.000
G1 X-53.192 Y80.951 Z6.050 F600.000
G2 X-51.796 Y83.400 Z6.050 I1.939 J0.517 K0.000 F600.000
G2 X-35.461 Y84.985 Z6.050 I12.339 J-42.220 K0.000 F600.000
G1 X-35.461 Y84.985 Z4.050 F600.000
G2 X-27.119 Y83.401 Z4.050 I-3.996 J-43.804 K0.000 F600.000
G2 X-25.723 Y80.952 Z4.050 I-0.543 J-1.932 K0.000 F600.000
G1 X-27.888 Y72.288 Z4.050 F600.000
G2 X-29.148 Y70.860 Z4.050 I-1.959 J0.458 K0.000 F600.000
G2 X-30.264 Y70.780 Z4.050 I-0.694 J1.866 K0.000 F600.000
G3 X-48.439 Y70.836 Z4.050 I-9.179 J-29.717 K0.000 F600.000
G2 X-51.024 Y72.288 Z4.050 I-0.627 J1.910 K0.000 F600.000
G1 X-53.192 Y80.951 Z4.050 F600.000
G2 X-51.796 Y83.400 Z4.050 I1.939 J0.517 K0.000 F600.000
G2 X-35.461 Y84.985 Z4.050 I12.339 J-42.220 K0.000 F600.000
G0 Z13.050
G0 X-34.825 Y91.956 Z13.050
G0 X-34.825 Y91.956 Z11.050
G1 X-34.825 Y91.956 Z4.050 F600.000
G3 X-45.274 Y91.834 Z4.050 I-4.634 J-50.754 K0.000 F600.000
G1 X-47.177 Y91.578 Z4.050 F600.000
G2 X-49.493 Y93.170 Z4.050 I-0.344 J1.980 K0.000 F600.000
G1 X-51.350 Y101.909 Z4.050 F600.000
G2 X-49.691 Y104.343 Z4.050 I1.956 J0.449 K0.000 F600.000
G2 X-29.232 Y104.344 Z4.050 I10.234 J-63.136 K0.000 F600.000
G2 X-27.572 Y101.910 Z4.050 I-0.297 J-1.985 K0.000 F600.000
G1 X-29.430 Y93.171 Z4.050 F600.000
G2 X-31.745 Y91.580 Z4.050 I-1.972 J0.389 K0.000 F600.000
G3 X-34.825 Y91.956 Z4.050 I-7.713 J-50.378 K0.000 F600.000
G0 Z13.050
G0 X-34.641 Y112.030 Z13.050
G0 X-34.641 Y112.030 Z11.050
G1 X-34.641 Y112.030 Z4.050 F600.000
G3 X-43.927 Y112.025 Z4.050 I-4.598 J-84.508 K0.000 F600.000
G2 X-46.094 Y113.848 Z4.050 I-0.165 J2.003 K0.000 F600.000
G1 X-47.028 Y122.727 Z4.050 F600.000
G2 X-45.146 Y124.973 Z4.050 I1.992 J0.242 K0.000 F600.000
G2 X-33.777 Y124.974 Z4.050 I5.689 J-83.603 K0.000 F600.000
G2 X-31.895 Y122.728 Z4.050 I-0.110 J-2.004 K0.000 F600.000
G1 X-32.827 Y113.849 Z4.050 F600.000
G2 X-34.641 Y112.030 Z4.050 I-1.997 J0.178 K0.000 F600.000
G1 X-34.641 Y112.030 Z2.050 F600.000
G3 X-43.927 Y112.025 Z2.050 I-4.598 J-84.508 K0.000 F600.000
G2 X-46.094 Y113.848 Z2.050 I-0.165 J2.003 K0.000 F600.000
G1 X-47.028 Y122.727 Z2.050 F600.000
G2 X-45.146 Y124.973 Z2.050 I1.992 J0.242 K0.000 F600.000
G2 X-33.777 Y124.974 Z2.050 I5.689 J-83.603 K0.000 F600.000
G2 X-31.895 Y122.728 Z2.050 I-0.110 J-2.004 K0.000 F600.000
G1 X-32.827 Y113.849 Z2.050 F600.000
G2 X-34.641 Y112.030 Z2.050 I-1.997 J0.178 K0.000 F600.000
G0 Z13.050
G0 X-35.118 Y105.019 Z13.050
G0 X-35.118 Y105.019 Z11.050
G1 X-35.118 Y105.019 Z2.050 F600.000
G2 X-29.232 Y104.344 Z2.050 I-4.339 J-63.813 K0.000 F600.000
G2 X-27.572 Y101.910 Z2.050 I-0.297 J-1.985 K0.000 F600.000
G1 X-29.430 Y93.171 Z2.050 F600.000
G2 X-31.745 Y91.580 Z2.050 I-1.972 J0.389 K0.000 F600.000
G3 X-45.274 Y91.834 Z2.050 I-7.713 J-50.378 K0.000 F600.000
G1 X-47.177 Y91.578 Z2.050 F600.000
G2 X-49.493 Y93.170 Z2.050 I-0.344 J1.980 K0.000 F600.000
G1 X-51.350 Y101.909 Z2.050 F600.000
G2 X-49.691 Y104.343 Z2.050 I1.956 J0.449 K0.000 F600.000
G2 X-35.118 Y105.019 Z2.050 I10.234 J-63.136 K0.000 F600.000
G0 Z13.050
G0 X-36.474 Y85.065 Z13.050
G0 X-36.474 Y85.065 Z11.050
G1 X-36.474 Y85.065 Z2.050 F600.000
G2 X-27.119 Y83.401 Z2.050 I-2.983 J-43.885 K0.000 F600.000
G2 X-25.723 Y80.952 Z2.050 I-0.543 J-1.932 K0.000 F600.000
G1 X-27.888 Y72.288 Z2.050 F600.000
G2 X-29.148 Y70.860 Z2.050 I-1.959 J0.458 K0.000 F600.000
G2 X-30.264 Y70.780 Z2.050 I-0.694 J1.866 K0.000 F600.000
G3 X-48.439 Y70.836 Z2.050 I-9.179 J-29.717 K0.000 F600.000
G2 X-51.024 Y72.288 Z2.050 I-0.627 J1.910 K0.000 F600.000
G1 X-53.192 Y80.951 Z2.050 F600.000
G2 X-51.796 Y83.400 Z2.050 I1.939 J0.517 K0.000 F600.000
G2 X-36.474 Y85.065 Z2.050 I12.339 J-42.220 K0.000 F600.000
G1 X-36.474 Y85.065 Z0.050 F600.000
G2 X-27.119 Y83.401 Z0.050 I-2.983 J-43.885 K0.000 F600.000
G2 X-25.723 Y80.952 Z0.050 I-0.543 J-1.932 K0.000 F600.000
G1 X-27.888 Y72.288 Z0.050 F600.000
G2 X-29.148 Y70.860 Z0.050 I-1.959 J0.458 K0.000 F600.000
G2 X-30.264 Y70.780 Z0.050 I-0.694 J1.866 K0.000 F600.000
G3 X-48.439 Y70.836 Z0.050 I-9.179 J-29.717 K0.000 F600.000
G2 X-51.024 Y72.288 Z0.050 I-0.627 J1.910 K0.000 F600.000
G1 X-53.192 Y80.951 Z0.050 F600.000
G2 X-51.796 Y83.400 Z0.050 I1.939 J0.517 K0.000 F600.000
G2 X-36.474 Y85.065 Z0.050 I12.339 J-42.220 K0.000 F600.000
G0 Z13.050
G0 X-35.999 Y92.049 Z13.050
G0 X-35.999 Y92.049 Z11.050
G1 X-35.999 Y92.049 Z0.050 F600.000
G3 X-45.274 Y91.834 Z0.050 I-3.459 J-50.848 K0.000 F600.000
G1 X-47.177 Y91.578 Z0.050 F600.000
G2 X-49.493 Y93.170 Z0.050 I-0.344 J1.980 K0.000 F600.000
G1 X-51.350 Y101.909 Z0.050 F600.000
G2 X-49.691 Y104.343 Z0.050 I1.956 J0.449 K0.000 F600.000
G2 X-29.232 Y104.344 Z0.050 I10.234 J-63.136 K0.000 F600.000
G2 X-27.572 Y101.910 Z0.050 I-0.297 J-1.985 K0.000 F600.000
G1 X-29.430 Y93.171 Z0.050 F600.000
G2 X-31.745 Y91.580 Z0.050 I-1.972 J0.389 K0.000 F600.000
G3 X-35.999 Y92.049 Z0.050 I-7.713 J-50.378 K0.000 F600.000
G0 Z13.050
G0 X-34.995 Y112.049 Z13.050
G0 X-34.995 Y112.049 Z11.050
G1 X-34.995 Y112.049 Z0.050 F600.000
G3 X-43.927 Y112.025 Z0.050 I-4.244 J-84.526 K0.000 F600.000
G2 X-46.094 Y113.848 Z0.050 I-0.165 J2.003 K0.000 F600.000
G1 X-47.028 Y122.727 Z0.050 F600.000
G2 X-45.146 Y124.973 Z0.050 I1.992 J0.242 K0.000 F600.000
G2 X-33.777 Y124.974 Z0.050 I5.689 J-83.603 K0.000 F600.000
G2 X-31.895 Y122.728 Z0.050 I-0.110 J-2.004 K0.000 F600.000
G1 X-32.827 Y113.849 Z0.050 F600.000
G2 X-34.641 Y112.030 Z0.050 I-1.997 J0.178 K0.000 F600.000
G3 X-34.995 Y112.049 Z0.050 I-4.598 J-84.508 K0.000 F600.000
G0 Z13.050
G0 Z13.050
(Finish operation: Profile015)
(Begin operation: Profile017)
(Path: Profile017)
(Profile017)
(Compensated Tool Path. Diameter: 2.0)
G0 Z13.050
G0 X19.692 Y146.726
G0 Z11.050
G1 X19.692 Y146.726 Z6.050 F600.000
G2 X25.561 Y143.217 Z6.050 I-59.147 J-105.552 K0.000 F600.000
G2 X27.296 Y134.760 Z6.050 I-3.217 J-5.066 K0.000 F600.000
G1 X-34.541 Y46.444 Z6.050 F600.000
G2 X-37.972 Y44.074 Z6.050 I-4.920 J3.453 K0.000 F600.000
G2 X-44.335 Y46.396 Z6.050 I-1.484 J5.812 K0.000 F600.000
G1 X-106.174 Y134.708 Z6.050 F600.000
G2 X-104.535 Y143.175 Z6.050 I4.918 J3.440 K0.000 F600.000
G2 X19.692 Y146.726 Z6.050 I65.081 J-102.000 K0.000 F600.000
G1 X19.692 Y146.726 Z4.050 F600.000
G2 X25.561 Y143.217 Z4.050 I-59.147 J-105.552 K0.000 F600.000
G2 X27.296 Y134.760 Z4.050 I-3.217 J-5.066 K0.000 F600.000
G1 X-34.541 Y46.444 Z4.050 F600.000
G2 X-37.972 Y44.074 Z4.050 I-4.920 J3.453 K0.000 F600.000
G2 X-44.335 Y46.396 Z4.050 I-1.484 J5.812 K0.000 F600.000
G1 X-106.174 Y134.708 Z4.050 F600.000
G2 X-104.535 Y143.175 Z4.050 I4.918 J3.440 K0.000 F600.000
G2 X19.692 Y146.726 Z4.050 I65.081 J-102.000 K0.000 F600.000
G1 X19.692 Y146.726 Z2.050 F600.000
G2 X25.561 Y143.217 Z2.050 I-59.147 J-105.552 K0.000 F600.000
G2 X27.296 Y134.760 Z2.050 I-3.217 J-5.066 K0.000 F600.000
G1 X-34.541 Y46.444 Z2.050 F600.000
G2 X-37.972 Y44.074 Z2.050 I-4.920 J3.453 K0.000 F600.000
G2 X-44.335 Y46.396 Z2.050 I-1.484 J5.812 K0.000 F600.000
G1 X-106.174 Y134.708 Z2.050 F600.000
G2 X-104.535 Y143.175 Z2.050 I4.918 J3.440 K0.000 F600.000
G2 X19.692 Y146.726 Z2.050 I65.081 J-102.000 K0.000 F600.000
G1 X19.692 Y146.726 Z0.050 F600.000
G2 X25.561 Y143.217 Z0.050 I-59.147 J-105.552 K0.000 F600.000
G2 X27.296 Y134.760 Z0.050 I-3.217 J-5.066 K0.000 F600.000
G1 X-34.541 Y46.444 Z0.050 F600.000
G2 X-37.972 Y44.074 Z0.050 I-4.920 J3.453 K0.000 F600.000
G2 X-44.335 Y46.396 Z0.050 I-1.484 J5.812 K0.000 F600.000
G1 X-106.174 Y134.708 Z0.050 F600.000
G2 X-104.535 Y143.175 Z0.050 I4.918 J3.440 K0.000 F600.000
G2 X19.692 Y146.726 Z0.050 I65.081 J-102.000 K0.000 F600.000
G0 Z13.050
G0 Z13.050
G0 X19.692 Y146.726
G0 X33.699 Y128.671
G0 X33.699 Y128.671 Z11.050
G1 X33.699 Y128.671 Z6.050 F600.000
G2 X42.257 Y127.422 Z6.050 I3.678 J-4.741 K0.000 F600.000
G1 X104.096 Y39.110 Z6.050 F600.000
G2 X102.457 Y30.643 Z6.050 I-4.918 J-3.440 K0.000 F600.000
G2 X43.629 Y11.811 Z6.050 I-65.074 J101.979 K0.000 F600.000
G2 X-27.638 Y30.601 Z6.050 I-6.251 J120.838 K0.000 F600.000
G2 X-29.374 Y39.058 Z6.050 I3.217 J5.066 K0.000 F600.000
G1 X32.463 Y127.374 Z6.050 F600.000
G2 X33.699 Y128.671 Z6.050 I4.914 J-3.443 K0.000 F600.000
G1 X33.699 Y128.671 Z4.050 F600.000
G2 X42.257 Y127.422 Z4.050 I3.678 J-4.741 K0.000 F600.000
G1 X104.096 Y39.110 Z4.050 F600.000
G2 X102.457 Y30.643 Z4.050 I-4.918 J-3.440 K0.000 F600.000
G2 X43.629 Y11.811 Z4.050 I-65.074 J101.979 K0.000 F600.000
G2 X-27.638 Y30.601 Z4.050 I-6.251 J120.838 K0.000 F600.000
G2 X-29.374 Y39.058 Z4.050 I3.217 J5.066 K0.000 F600.000
G1 X32.463 Y127.374 Z4.050 F600.000
G2 X33.699 Y128.671 Z4.050 I4.914 J-3.443 K0.000 F600.000
G1 X33.699 Y128.671 Z2.050 F600.000
G2 X42.257 Y127.422 Z2.050 I3.678 J-4.741 K0.000 F600.000
G1 X104.096 Y39.110 Z2.050 F600.000
G2 X102.457 Y30.643 Z2.050 I-4.918 J-3.440 K0.000 F600.000
G2 X43.629 Y11.811 Z2.050 I-65.074 J101.979 K0.000 F600.000
G2 X-27.638 Y30.601 Z2.050 I-6.251 J120.838 K0.000 F600.000
G2 X-29.374 Y39.058 Z2.050 I3.217 J5.066 K0.000 F600.000
G1 X32.463 Y127.374 Z2.050 F600.000
G2 X33.699 Y128.671 Z2.050 I4.914 J-3.443 K0.000 F600.000
G1 X33.699 Y128.671 Z0.050 F600.000
G2 X42.257 Y127.422 Z0.050 I3.678 J-4.741 K0.000 F600.000
G1 X104.096 Y39.110 Z0.050 F600.000
G2 X102.457 Y30.643 Z0.050 I-4.918 J-3.440 K0.000 F600.000
G2 X43.629 Y11.811 Z0.050 I-65.074 J101.979 K0.000 F600.000
G2 X-27.638 Y30.601 Z0.050 I-6.251 J120.838 K0.000 F600.000
G2 X-29.374 Y39.058 Z0.050 I3.217 J5.066 K0.000 F600.000
G1 X32.463 Y127.374 Z0.050 F600.000
G2 X33.699 Y128.671 Z0.050 I4.914 J-3.443 K0.000 F600.000
G0 Z13.050
G0 Z13.050
(Finish operation: Profile017)
(Begin postamble)
M5
G17 G90
M2
