(Exported by FreeCAD)
(Post Processor: script_module)
(Output Time:2025-04-16 16:12:13.399054)
(Begin preamble)
G17 G90
G21
(Begin operation: Fixture)
(Path: Fixture)
G54
(Finish operation: Fixture)
(Begin operation: 3mm_Endmill007)
(Path: 3mm_Endmill007)
(3mm_Endmill007)
(Begin toolchange)
( M6 T2 )
M3 S10000
(Finish operation: 3mm_Endmill007)
(Begin operation: Pocket_Shape005)
(Path: Pocket_Shape005)
(Pocket_Shape005)
G0 Z5.000
G0 X0.000 Y0.000
G0 X16.816 Y26.634
G0 X16.816 Y26.634 Z3.000
G1 X16.816 Y26.634 Z-3.000 F600.000
G1 X23.702 Y36.468 Z-3.000 F600.000
G3 X22.908 Y36.969 Z-3.000 I-6.334 J-9.166 K0.000 F600.000
G1 X14.102 Y28.163 Z-3.000 F600.000
G3 X11.153 Y29.456 Z-3.000 I-13.182 J-26.056 K0.000 F600.000
G1 X20.214 Y38.517 Z-3.000 F600.000
G3 X17.341 Y39.886 Z-3.000 I-17.682 J-33.395 K0.000 F600.000
G1 X7.938 Y30.483 Z-3.000 F600.000
G3 X4.396 Y31.185 Z-3.000 I-7.525 J-28.719 K0.000 F600.000
G1 X14.288 Y41.076 Z-3.000 F600.000
G3 X11.036 Y42.067 Z-3.000 I-10.602 J-28.969 K0.000 F600.000
G1 X0.458 Y31.489 Z-3.000 F600.000
G3 X-4.044 Y31.230 Z-3.000 I-0.622 J-28.416 K0.000 F600.000
G1 X7.556 Y42.829 Z-3.000 F600.000
G3 X3.807 Y43.323 Z-3.000 I-6.080 J-31.675 K0.000 F600.000
G1 X-9.475 Y30.041 Z-3.000 F600.000
G3 X-16.817 Y26.633 Z-3.000 I9.427 J-29.920 K0.000 F600.000
G1 X-16.944 Y26.815 Z-3.000 F600.000
G1 X-0.269 Y43.490 Z-3.000 F600.000
G3 X-4.768 Y43.234 Z-3.000 I-0.013 J-39.413 K0.000 F600.000
G1 X-18.692 Y29.310 Z-3.000 F600.000
G1 X-20.439 Y31.805 Z-3.000 F600.000
G1 X-9.885 Y42.360 Z-3.000 F600.000
G3 X-16.078 Y40.409 Z-3.000 I9.253 J-40.185 K0.000 F600.000
G1 X-22.186 Y34.301 Z-3.000 F600.000
G1 X-23.703 Y36.467 Z-3.000 F600.000
G2 X-16.078 Y40.409 Z-3.000 I22.997 J-35.144 K0.000 F600.000
G3 X-23.703 Y36.467 Z-3.000 I15.371 J-39.085 K0.000 F600.000
G1 X-16.817 Y26.633 Z-3.000 F600.000
G2 X16.816 Y26.634 Z-3.000 I16.817 J-26.620 K0.000 F600.000
G1 X23.702 Y36.468 Z-3.000 F600.000
G3 X-16.078 Y40.409 Z-3.000 I-23.691 J-36.401 K0.000 F600.000
G1 X-16.078 Y40.409 Z-4.050 F600.000
G2 X23.702 Y36.468 Z-4.050 I16.089 J-40.341 K0.000 F600.000
G1 X16.816 Y26.634 Z-4.050 F600.000
G3 X-16.817 Y26.633 Z-4.050 I-16.816 J-26.621 K0.000 F600.000
G1 X-23.703 Y36.467 Z-4.050 F600.000
G2 X-16.078 Y40.409 Z-4.050 I22.997 J-35.144 K0.000 F600.000
G3 X-23.703 Y36.467 Z-4.050 I15.371 J-39.085 K0.000 F600.000
G1 X-22.186 Y34.301 Z-4.050 F600.000
G1 X-16.078 Y40.409 Z-4.050 F600.000
G2 X-9.885 Y42.360 Z-4.050 I15.446 J-38.235 K0.000 F600.000
G1 X-20.439 Y31.805 Z-4.050 F600.000
G1 X-18.692 Y29.310 Z-4.050 F600.000
G1 X-4.768 Y43.234 Z-4.050 F600.000
G2 X-0.269 Y43.490 Z-4.050 I4.486 J-39.157 K0.000 F600.000
G1 X-16.944 Y26.815 Z-4.050 F600.000
G1 X-16.817 Y26.633 Z-4.050 F600.000
G2 X-9.475 Y30.041 Z-4.050 I16.769 J-26.511 K0.000 F600.000
G1 X3.807 Y43.323 Z-4.050 F600.000
G2 X7.556 Y42.829 Z-4.050 I-2.331 J-32.169 K0.000 F600.000
G1 X-4.044 Y31.230 Z-4.050 F600.000
G2 X0.458 Y31.489 Z-4.050 I3.880 J-28.157 K0.000 F600.000
G1 X11.036 Y42.067 Z-4.050 F600.000
G2 X14.288 Y41.076 Z-4.050 I-7.350 J-29.959 K0.000 F600.000
G1 X4.396 Y31.185 Z-4.050 F600.000
G2 X7.938 Y30.483 Z-4.050 I-3.984 J-29.420 K0.000 F600.000
G1 X17.341 Y39.886 Z-4.050 F600.000
G2 X20.214 Y38.517 Z-4.050 I-14.809 J-34.764 K0.000 F600.000
G1 X11.153 Y29.456 Z-4.050 F600.000
G2 X14.102 Y28.163 Z-4.050 I-10.232 J-27.349 K0.000 F600.000
G1 X22.908 Y36.969 Z-4.050 F600.000
G2 X23.702 Y36.468 Z-4.050 I-5.540 J-9.666 K0.000 F600.000
G1 X16.816 Y26.634 Z-4.050 F600.000
G0 Z5.000
G0 Z5.000
G0 X16.816 Y26.634
G0 X28.292 Y43.024
G0 X28.292 Y43.024 Z3.000
G1 X28.292 Y43.024 Z-3.000 F600.000
G1 X35.177 Y52.856 Z-3.000 F600.000
G3 X34.398 Y53.372 Z-3.000 I-7.780 J-10.894 K0.000 F600.000
G1 X25.666 Y44.640 Z-3.000 F600.000
G3 X22.903 Y46.120 Z-3.000 I-20.328 J-34.627 K0.000 F600.000
G1 X31.759 Y54.976 Z-3.000 F600.000
G3 X29.018 Y56.478 Z-3.000 I-22.874 J-38.494 K0.000 F600.000
G1 X19.992 Y47.451 Z-3.000 F600.000
G3 X16.934 Y48.636 Z-3.000 I-16.724 J-38.621 K0.000 F600.000
G1 X26.153 Y57.855 Z-3.000 F600.000
G3 X23.170 Y59.115 Z-3.000 I-19.536 J-42.074 K0.000 F600.000
G1 X13.693 Y49.637 Z-3.000 F600.000
G3 X10.269 Y50.456 Z-3.000 I-10.247 J-35.278 K0.000 F600.000
G1 X20.054 Y60.241 Z-3.000 F600.000
G3 X16.801 Y61.231 Z-3.000 I-15.796 J-46.084 K0.000 F600.000
G1 X6.634 Y51.064 Z-3.000 F600.000
G3 X2.749 Y51.422 Z-3.000 I-5.301 J-36.306 K0.000 F600.000
G1 X13.390 Y62.062 Z-3.000 F600.000
G3 X9.819 Y62.734 Z-3.000 I-8.802 J-36.966 K0.000 F600.000
G1 X-1.442 Y51.473 Z-3.000 F600.000
G3 X-6.021 Y51.137 Z-3.000 I0.723 J-41.181 K0.000 F600.000
G1 X6.046 Y63.204 Z-3.000 F600.000
G3 X2.057 Y63.457 Z-3.000 I-5.038 J-47.925 K0.000 F600.000
G1 X-11.115 Y50.286 Z-3.000 F600.000
G3 X-17.049 Y48.594 Z-3.000 I10.882 J-49.422 K0.000 F600.000
G1 X-2.191 Y63.452 Z-3.000 F600.000
G3 X-6.756 Y63.130 Z-3.000 I1.167 J-48.985 K0.000 F600.000
G1 X-24.705 Y45.181 Z-3.000 F600.000
G3 X-28.293 Y43.023 Z-3.000 I17.794 J-33.654 K0.000 F600.000
G1 X-29.452 Y44.677 Z-3.000 F600.000
G1 X-11.727 Y62.402 Z-3.000 F600.000
G3 X-17.276 Y61.095 Z-3.000 I10.264 J-56.019 K0.000 F600.000
G1 X-31.199 Y47.172 Z-3.000 F600.000
G1 X-32.946 Y49.668 Z-3.000 F600.000
G1 X-23.721 Y58.892 Z-3.000 F600.000
G3 X-32.046 Y54.810 Z-3.000 I22.233 J-55.870 K0.000 F600.000
G1 X-34.693 Y52.163 Z-3.000 F600.000
G1 X-35.178 Y52.855 Z-3.000 F600.000
G2 X-32.046 Y54.810 Z-3.000 I24.062 J-35.057 K0.000 F600.000
G3 X-35.178 Y52.855 Z-3.000 I20.728 J-36.689 K0.000 F600.000
G1 X-28.293 Y43.023 Z-3.000 F600.000
G2 X28.292 Y43.024 Z-3.000 I28.293 J-42.979 K0.000 F600.000
G1 X35.177 Y52.856 Z-3.000 F600.000
G3 X-32.046 Y54.810 Z-3.000 I-35.175 J-52.799 K0.000 F600.000
G1 X-32.046 Y54.810 Z-4.050 F600.000
G2 X35.177 Y52.856 Z-4.050 I32.048 J-54.754 K0.000 F600.000
G1 X28.292 Y43.024 Z-4.050 F600.000
G3 X-28.293 Y43.023 Z-4.050 I-28.292 J-42.980 K0.000 F600.000
G1 X-35.178 Y52.855 Z-4.050 F600.000
G2 X-32.046 Y54.810 Z-4.050 I23.860 J-34.734 K0.000 F600.000
G3 X-35.178 Y52.855 Z-4.050 I20.930 J-37.013 K0.000 F600.000
G1 X-34.693 Y52.163 Z-4.050 F600.000
G1 X-32.046 Y54.810 Z-4.050 F600.000
G2 X-23.721 Y58.892 Z-4.050 I30.557 J-51.788 K0.000 F600.000
G1 X-32.946 Y49.668 Z-4.050 F600.000
G1 X-31.199 Y47.172 Z-4.050 F600.000
G1 X-17.276 Y61.095 Z-4.050 F600.000
G2 X-11.727 Y62.402 Z-4.050 I15.814 J-54.712 K0.000 F600.000
G1 X-29.452 Y44.677 Z-4.050 F600.000
G1 X-28.293 Y43.023 Z-4.050 F600.000
G2 X-24.705 Y45.181 Z-4.050 I21.382 J-31.497 K0.000 F600.000
G1 X-6.756 Y63.130 Z-4.050 F600.000
G2 X-2.191 Y63.452 Z-4.050 I5.732 J-48.662 K0.000 F600.000
G1 X-17.049 Y48.594 Z-4.050 F600.000
G2 X-11.115 Y50.286 Z-4.050 I16.816 J-47.730 K0.000 F600.000
G1 X2.057 Y63.457 Z-4.050 F600.000
G2 X6.046 Y63.204 Z-4.050 I-1.048 J-48.177 K0.000 F600.000
G1 X-6.021 Y51.137 Z-4.050 F600.000
G2 X-1.442 Y51.473 Z-4.050 I5.302 J-40.845 K0.000 F600.000
G1 X9.819 Y62.734 Z-4.050 F600.000
G2 X13.390 Y62.062 Z-4.050 I-5.231 J-37.638 K0.000 F600.000
G1 X2.749 Y51.422 Z-4.050 F600.000
G2 X6.634 Y51.064 Z-4.050 I-1.417 J-36.664 K0.000 F600.000
G1 X16.801 Y61.231 Z-4.050 F600.000
G2 X20.054 Y60.241 Z-4.050 I-12.543 J-47.074 K0.000 F600.000
G1 X10.269 Y50.456 Z-4.050 F600.000
G2 X13.693 Y49.637 Z-4.050 I-6.823 J-36.097 K0.000 F600.000
G1 X23.170 Y59.115 Z-4.050 F600.000
G2 X26.153 Y57.855 Z-4.050 I-16.553 J-43.334 K0.000 F600.000
G1 X16.934 Y48.636 Z-4.050 F600.000
G2 X19.992 Y47.451 Z-4.050 I-13.666 J-39.806 K0.000 F600.000
G1 X29.018 Y56.478 Z-4.050 F600.000
G2 X31.759 Y54.976 Z-4.050 I-20.133 J-39.996 K0.000 F600.000
G1 X22.903 Y46.120 Z-4.050 F600.000
G2 X25.666 Y44.640 Z-4.050 I-17.565 J-36.107 K0.000 F600.000
G1 X34.398 Y53.372 Z-4.050 F600.000
G2 X35.177 Y52.856 Z-4.050 I-7.001 J-11.410 K0.000 F600.000
G1 X28.292 Y43.024 Z-4.050 F600.000
G0 Z5.000
G0 Z5.000
G0 X28.292 Y43.024
G0 X39.766 Y59.411
G0 X39.766 Y59.411 Z3.000
G1 X39.766 Y59.411 Z-3.000 F600.000
G1 X46.650 Y69.242 Z-3.000 F600.000
G1 X45.878 Y69.765 Z-3.000 F600.000
G1 X37.182 Y61.069 Z-3.000 F600.000
G3 X34.492 Y62.622 Z-3.000 I-24.377 J-39.120 K0.000 F600.000
G1 X43.275 Y71.405 Z-3.000 F600.000
G3 X40.589 Y72.961 Z-3.000 I-26.810 J-43.188 K0.000 F600.000
G1 X31.704 Y64.076 Z-3.000 F600.000
G3 X28.818 Y65.433 Z-3.000 I-22.167 J-43.411 K0.000 F600.000
G1 X37.819 Y74.434 Z-3.000 F600.000
G3 X34.964 Y75.822 Z-3.000 I-24.139 J-46.027 K0.000 F600.000
G1 X25.812 Y66.669 Z-3.000 F600.000
G3 X22.695 Y67.795 Z-3.000 I-18.718 J-46.984 K0.000 F600.000
G1 X32.014 Y77.114 Z-3.000 F600.000
G3 X28.963 Y78.306 Z-3.000 I-21.023 J-49.340 K0.000 F600.000
G1 X19.455 Y68.797 Z-3.000 F600.000
G3 X16.075 Y69.660 Z-3.000 I-14.850 J-51.100 K0.000 F600.000
G1 X25.815 Y79.401 Z-3.000 F600.000
G3 X22.564 Y80.392 Z-3.000 I-14.853 J-42.892 K0.000 F600.000
G1 X12.556 Y70.384 Z-3.000 F600.000
G3 X8.870 Y70.940 Z-3.000 I-10.320 J-55.899 K0.000 F600.000
G1 X19.186 Y81.256 Z-3.000 F600.000
G3 X15.693 Y82.006 Z-3.000 I-14.015 J-56.789 K0.000 F600.000
G1 X5.003 Y71.316 Z-3.000 F600.000
G3 X0.935 Y71.490 Z-3.000 I-4.077 J-47.492 K0.000 F600.000
G1 X12.061 Y82.617 Z-3.000 F600.000
G3 X8.282 Y83.081 Z-3.000 I-9.482 J-61.608 K0.000 F600.000
G1 X-3.381 Y71.418 Z-3.000 F600.000
G3 X-7.993 Y71.048 Z-3.000 I3.008 J-66.516 K0.000 F600.000
G1 X4.338 Y83.379 Z-3.000 F600.000
G3 X0.213 Y83.497 Z-3.000 I-3.988 J-67.448 K0.000 F600.000
G1 X-12.971 Y70.313 Z-3.000 F600.000
G3 X-18.460 Y69.066 Z-3.000 I10.074 J-57.068 K0.000 F600.000
G1 X-4.138 Y83.388 Z-3.000 F600.000
G3 X-8.737 Y83.032 Z-3.000 I2.277 J-59.258 K0.000 F600.000
G1 X-24.663 Y67.106 Z-3.000 F600.000
G3 X-32.165 Y63.847 Z-3.000 I23.052 J-63.319 K0.000 F600.000
G1 X-13.643 Y82.368 Z-3.000 F600.000
G3 X-18.941 Y81.313 Z-3.000 I9.817 J-63.113 K0.000 F600.000
G1 X-40.211 Y60.043 Z-3.000 F600.000
G1 X-41.958 Y62.539 Z-3.000 F600.000
G1 X-24.756 Y79.740 Z-3.000 F600.000
G3 X-31.364 Y77.376 Z-3.000 I22.412 J-73.033 K0.000 F600.000
G1 X-43.706 Y65.034 Z-3.000 F600.000
G1 X-45.453 Y67.529 Z-3.000 F600.000
G1 X-39.324 Y73.658 Z-3.000 F600.000
G3 X-46.651 Y69.241 Z-3.000 I36.979 J-69.627 K0.000 F600.000
G1 X-39.768 Y59.410 Z-3.000 F600.000
G2 X39.766 Y59.411 Z-3.000 I39.768 J-59.359 K0.000 F600.000
G1 X46.650 Y69.242 Z-3.000 F600.000
G3 X-46.651 Y69.241 Z-3.000 I-46.650 J-69.186 K0.000 F600.000
G1 X-45.453 Y67.529 Z-3.000 F600.000
G1 X-45.453 Y67.529 Z-4.050 F600.000
G1 X-46.651 Y69.241 Z-4.050 F600.000
G2 X46.650 Y69.242 Z-4.050 I46.651 J-69.186 K0.000 F600.000
G1 X39.766 Y59.411 Z-4.050 F600.000
G3 X-39.768 Y59.410 Z-4.050 I-39.766 J-59.360 K0.000 F600.000
G1 X-46.651 Y69.241 Z-4.050 F600.000
G2 X-39.324 Y73.658 Z-4.050 I44.306 J-65.210 K0.000 F600.000
G1 X-45.453 Y67.529 Z-4.050 F600.000
G1 X-43.706 Y65.034 Z-4.050 F600.000
G1 X-31.364 Y77.376 Z-4.050 F600.000
G2 X-24.756 Y79.740 Z-4.050 I29.020 J-70.668 K0.000 F600.000
G1 X-41.958 Y62.539 Z-4.050 F600.000
G1 X-40.211 Y60.043 Z-4.050 F600.000
G1 X-18.941 Y81.313 Z-4.050 F600.000
G2 X-13.643 Y82.368 Z-4.050 I15.115 J-62.057 K0.000 F600.000
G1 X-32.165 Y63.847 Z-4.050 F600.000
G2 X-24.663 Y67.106 Z-4.050 I30.554 J-60.059 K0.000 F600.000
G1 X-8.737 Y83.032 Z-4.050 F600.000
G2 X-4.138 Y83.388 Z-4.050 I6.876 J-58.902 K0.000 F600.000
G1 X-18.460 Y69.066 Z-4.050 F600.000
G2 X-12.971 Y70.313 Z-4.050 I15.563 J-55.821 K0.000 F600.000
G1 X0.213 Y83.497 Z-4.050 F600.000
G2 X4.338 Y83.379 Z-4.050 I0.137 J-67.566 K0.000 F600.000
G1 X-7.993 Y71.048 Z-4.050 F600.000
G2 X-3.381 Y71.418 Z-4.050 I7.620 J-66.147 K0.000 F600.000
G1 X8.282 Y83.081 Z-4.050 F600.000
G2 X12.061 Y82.617 Z-4.050 I-5.703 J-62.072 K0.000 F600.000
G1 X0.935 Y71.490 Z-4.050 F600.000
G2 X5.003 Y71.316 Z-4.050 I-0.009 J-47.667 K0.000 F600.000
G1 X15.693 Y82.006 Z-4.050 F600.000
G2 X19.186 Y81.256 Z-4.050 I-10.522 J-57.539 K0.000 F600.000
G1 X8.870 Y70.940 Z-4.050 F600.000
G2 X12.556 Y70.384 Z-4.050 I-6.634 J-56.455 K0.000 F600.000
G1 X22.564 Y80.392 Z-4.050 F600.000
G2 X25.815 Y79.401 Z-4.050 I-11.602 J-43.883 K0.000 F600.000
G1 X16.075 Y69.660 Z-4.050 F600.000
G2 X19.455 Y68.797 Z-4.050 I-11.471 J-51.963 K0.000 F600.000
G1 X28.963 Y78.306 Z-4.050 F600.000
G2 X32.014 Y77.114 Z-4.050 I-17.972 J-50.531 K0.000 F600.000
G1 X22.695 Y67.795 Z-4.050 F600.000
G2 X25.812 Y66.669 Z-4.050 I-15.601 J-48.109 K0.000 F600.000
G1 X34.964 Y75.822 Z-4.050 F600.000
G2 X37.819 Y74.434 Z-4.050 I-21.284 J-47.415 K0.000 F600.000
G1 X28.818 Y65.433 Z-4.050 F600.000
G2 X31.704 Y64.076 Z-4.050 I-19.281 J-44.768 K0.000 F600.000
G1 X40.589 Y72.961 Z-4.050 F600.000
G2 X43.275 Y71.405 Z-4.050 I-24.123 J-44.744 K0.000 F600.000
G1 X34.492 Y62.622 Z-4.050 F600.000
G2 X37.182 Y61.069 Z-4.050 I-21.688 J-40.673 K0.000 F600.000
G1 X45.878 Y69.765 Z-4.050 F600.000
G1 X46.650 Y69.242 Z-4.050 F600.000
G1 X39.766 Y59.411 Z-4.050 F600.000
G0 Z5.000
G0 Z5.000
(Finish operation: Pocket_Shape005)
(Begin operation: Profile008)
(Path: Profile008)
(Profile008)
(Compensated Tool Path. Diameter: 3.0)
G0 Z5.000
G0 X59.537 Y105.914
G0 Z3.000
G1 X59.537 Y105.914 Z-3.000 F600.000
G2 X65.279 Y102.475 Z-3.000 I-59.535 J-105.904 K0.000 F600.000
G2 X67.178 Y93.333 Z-3.000 I-3.481 J-5.491 K0.000 F600.000
G1 X5.324 Y4.991 Z-3.000 F600.000
G2 X0.866 Y2.279 Z-3.000 I-5.329 J3.741 K0.000 F600.000
G2 X-5.272 Y4.919 Z-3.000 I-0.867 J6.440 K0.000 F600.000
G1 X-67.128 Y93.255 Z-3.000 F600.000
G2 X-65.374 Y102.412 Z-3.000 I5.328 J3.726 K0.000 F600.000
G2 X59.537 Y105.914 Z-3.000 I65.376 J-102.402 K0.000 F600.000
G1 X59.537 Y105.914 Z-6.000 F600.000
G2 X65.279 Y102.475 Z-6.000 I-59.535 J-105.904 K0.000 F600.000
G2 X67.178 Y93.333 Z-6.000 I-3.481 J-5.491 K0.000 F600.000
G1 X5.324 Y4.991 Z-6.000 F600.000
G2 X0.866 Y2.279 Z-6.000 I-5.329 J3.741 K0.000 F600.000
G2 X-5.272 Y4.919 Z-6.000 I-0.867 J6.440 K0.000 F600.000
G1 X-67.128 Y93.255 Z-6.000 F600.000
G2 X-65.374 Y102.412 Z-6.000 I5.328 J3.726 K0.000 F600.000
G2 X59.537 Y105.914 Z-6.000 I65.376 J-102.402 K0.000 F600.000
G1 X59.537 Y105.914 Z-8.000 F600.000
G2 X65.279 Y102.475 Z-8.000 I-59.535 J-105.904 K0.000 F600.000
G2 X67.178 Y93.333 Z-8.000 I-3.481 J-5.491 K0.000 F600.000
G1 X5.324 Y4.991 Z-8.000 F600.000
G2 X0.866 Y2.279 Z-8.000 I-5.329 J3.741 K0.000 F600.000
G2 X-5.272 Y4.919 Z-8.000 I-0.867 J6.440 K0.000 F600.000
G1 X-67.128 Y93.255 Z-8.000 F600.000
G2 X-65.374 Y102.412 Z-8.000 I5.328 J3.726 K0.000 F600.000
G2 X59.537 Y105.914 Z-8.000 I65.376 J-102.402 K0.000 F600.000
G0 Z5.000
G0 Z5.000
(Finish operation: Profile008)
(Begin postamble)
M5
G17 G90
M2
