(Exported by FreeCAD)
(Post Processor: script_module)
(Output Time:2025-04-11 18:48:54.896572)
(Begin preamble)
G17 G90
G21
(Begin operation: Fixture)
(Path: Fixture)
G54
(Finish operation: Fixture)
(Begin operation: 3mm_Endmill003)
(Path: 3mm_Endmill003)
(3mm_Endmill003)
(Begin toolchange)
( M6 T2 )
M3 S10000
(Finish operation: 3mm_Endmill003)
(Begin operation: Pocket_Shape)
(Path: Pocket_Shape)
(Pocket_Shape)
G0 Z13.000
G0 X0.000 Y0.000
G0 X35.931 Y57.947
G0 X35.931 Y57.947 Z11.000
G1 X35.931 Y57.947 Z5.000 F600.000
G1 X42.643 Y67.897 Z5.000 F600.000
G1 X42.035 Y68.293 Z5.000 F600.000
G1 X33.302 Y59.560 Z5.000 F600.000
G3 X30.554 Y61.055 Z5.000 I-22.990 J-38.966 K0.000 F600.000
G1 X39.393 Y69.894 Z5.000 F600.000
G3 X36.659 Y71.403 Z5.000 I-25.522 J-42.989 K0.000 F600.000
G1 X27.702 Y62.446 Z5.000 F600.000
G3 X24.738 Y63.724 Z5.000 I-17.874 J-37.365 K0.000 F600.000
G1 X33.838 Y72.824 Z5.000 F600.000
G3 X30.922 Y74.151 Z5.000 I-18.979 J-37.822 K0.000 F600.000
G1 X21.641 Y64.870 Z5.000 F600.000
G3 X18.424 Y65.895 Z5.000 I-16.422 J-45.949 K0.000 F600.000
G1 X27.895 Y75.367 Z5.000 F600.000
G3 X24.768 Y76.482 Z5.000 I-19.412 J-49.493 K0.000 F600.000
G1 X15.050 Y66.764 Z5.000 F600.000
G3 X11.535 Y67.492 Z5.000 I-12.310 J-50.632 K0.000 F600.000
G1 X21.529 Y77.486 Z5.000 F600.000
G3 X18.161 Y78.360 Z5.000 I-15.676 J-53.470 K0.000 F600.000
G1 X7.829 Y68.028 Z5.000 F600.000
G3 X3.933 Y68.375 Z5.000 I-5.948 J-44.733 K0.000 F600.000
G1 X14.673 Y79.116 Z5.000 F600.000
G3 X11.027 Y79.712 Z5.000 I-11.192 J-56.994 K0.000 F600.000
G1 X-0.188 Y68.497 Z5.000 F600.000
G3 X-4.587 Y68.341 Z5.000 I0.046 J-63.434 K0.000 F600.000
G1 X7.236 Y80.164 Z5.000 F600.000
G3 X3.254 Y80.424 Z5.000 I-6.153 J-63.607 K0.000 F600.000
G1 X-9.329 Y67.841 Z5.000 F600.000
G3 X-14.528 Y66.885 Z5.000 I6.778 J-51.462 K0.000 F600.000
G1 X-0.928 Y80.485 Z5.000 F600.000
G3 X-5.344 Y80.312 Z5.000 I-0.203 J-51.181 K0.000 F600.000
G1 X-20.348 Y65.307 Z5.000 F600.000
G3 X-27.234 Y62.664 Z5.000 I19.637 J-61.454 K0.000 F600.000
G1 X-10.048 Y79.850 Z5.000 F600.000
G3 X-15.117 Y79.024 Z5.000 I6.453 J-55.555 K0.000 F600.000
G1 X-36.033 Y58.108 Z5.000 F600.000
G1 X-37.741 Y60.642 Z5.000 F600.000
G1 X-20.661 Y77.722 Z5.000 F600.000
G3 X-26.877 Y75.749 Z5.000 I18.218 J-68.169 K0.000 F600.000
G1 X-39.450 Y63.176 Z5.000 F600.000
G1 X-41.159 Y65.710 Z5.000 F600.000
G1 X-34.241 Y72.628 Z5.000 F600.000
G3 X-42.637 Y67.901 Z5.000 I31.776 J-66.256 K0.000 F600.000
G1 X-35.926 Y57.950 Z5.000 F600.000
G2 X35.931 Y57.947 Z5.000 I35.926 J-55.893 K0.000 F600.000
G1 X42.643 Y67.897 Z5.000 F600.000
G3 X-42.637 Y67.901 Z5.000 I-42.643 J-65.840 K0.000 F600.000
G1 X-41.159 Y65.710 Z5.000 F600.000
G1 X-41.159 Y65.710 Z4.000 F600.000
G1 X-42.637 Y67.901 Z4.000 F600.000
G2 X42.643 Y67.897 Z4.000 I42.637 J-65.844 K0.000 F600.000
G1 X35.931 Y57.947 Z4.000 F600.000
G3 X-35.926 Y57.950 Z4.000 I-35.931 J-55.890 K0.000 F600.000
G1 X-42.637 Y67.901 Z4.000 F600.000
G2 X-34.241 Y72.628 Z4.000 I40.172 J-61.529 K0.000 F600.000
G1 X-41.159 Y65.710 Z4.000 F600.000
G1 X-39.450 Y63.176 Z4.000 F600.000
G1 X-26.877 Y75.749 Z4.000 F600.000
G2 X-20.661 Y77.722 Z4.000 I24.434 J-66.196 K0.000 F600.000
G1 X-37.741 Y60.642 Z4.000 F600.000
G1 X-36.033 Y58.108 Z4.000 F600.000
G1 X-15.117 Y79.024 Z4.000 F600.000
G2 X-10.048 Y79.850 Z4.000 I11.521 J-54.729 K0.000 F600.000
G1 X-27.234 Y62.664 Z4.000 F600.000
G2 X-20.348 Y65.307 Z4.000 I26.523 J-58.812 K0.000 F600.000
G1 X-5.344 Y80.312 Z4.000 F600.000
G2 X-0.928 Y80.485 Z4.000 I4.213 J-51.007 K0.000 F600.000
G1 X-14.528 Y66.885 Z4.000 F600.000
G2 X-9.329 Y67.841 Z4.000 I11.977 J-50.506 K0.000 F600.000
G1 X3.254 Y80.424 Z4.000 F600.000
G2 X7.236 Y80.164 Z4.000 I-2.170 J-63.867 K0.000 F600.000
G1 X-4.587 Y68.341 Z4.000 F600.000
G2 X-0.188 Y68.497 Z4.000 I4.445 J-63.278 K0.000 F600.000
G1 X11.027 Y79.712 Z4.000 F600.000
G2 X14.673 Y79.116 Z4.000 I-7.546 J-57.590 K0.000 F600.000
G1 X3.933 Y68.375 Z4.000 F600.000
G2 X7.829 Y68.028 Z4.000 I-2.052 J-45.080 K0.000 F600.000
G1 X18.161 Y78.360 Z4.000 F600.000
G2 X21.529 Y77.486 Z4.000 I-12.308 J-54.344 K0.000 F600.000
G1 X11.535 Y67.492 Z4.000 F600.000
G2 X15.050 Y66.764 Z4.000 I-8.795 J-51.360 K0.000 F600.000
G1 X24.768 Y76.482 Z4.000 F600.000
G2 X27.895 Y75.367 Z4.000 I-16.285 J-50.608 K0.000 F600.000
G1 X18.424 Y65.895 Z4.000 F600.000
G2 X21.641 Y64.870 Z4.000 I-13.205 J-46.975 K0.000 F600.000
G1 X30.922 Y74.151 Z4.000 F600.000
G2 X33.838 Y72.824 Z4.000 I-16.064 J-39.150 K0.000 F600.000
G1 X24.738 Y63.724 Z4.000 F600.000
G2 X27.702 Y62.446 Z4.000 I-14.909 J-38.644 K0.000 F600.000
G1 X36.659 Y71.403 Z4.000 F600.000
G2 X39.393 Y69.894 Z4.000 I-22.789 J-44.498 K0.000 F600.000
G1 X30.554 Y61.055 Z4.000 F600.000
G2 X33.302 Y59.560 Z4.000 I-20.243 J-40.462 K0.000 F600.000
G1 X42.035 Y68.293 Z4.000 F600.000
G1 X42.643 Y67.897 Z4.000 F600.000
G1 X35.931 Y57.947 Z4.000 F600.000
G0 Z13.000
G0 Z13.000
G0 X35.931 Y57.947
G0 X46.746 Y74.769
G0 X46.746 Y74.769 Z11.000
G1 X46.746 Y74.769 Z5.000 F600.000
G3 X-47.111 Y74.534 Z5.000 I-46.746 J-72.711 K0.000 F600.000
G1 X-53.821 Y84.484 Z5.000 F600.000
G2 X53.829 Y84.479 Z5.000 I53.821 J-82.424 K0.000 F600.000
G1 X47.117 Y74.530 Z5.000 F600.000
G3 X46.746 Y74.769 Z5.000 I-47.117 J-72.471 K0.000 F600.000
G1 X47.117 Y74.530 Z5.000 F600.000
G1 X53.829 Y84.479 Z5.000 F600.000
G1 X53.221 Y84.876 Z5.000 F600.000
G1 X44.507 Y76.162 Z5.000 F600.000
G3 X41.819 Y77.716 Z5.000 I-27.146 J-43.861 K0.000 F600.000
G1 X50.605 Y86.503 Z5.000 F600.000
G3 X47.918 Y88.058 Z5.000 I-26.690 J-43.022 K0.000 F600.000
G1 X39.043 Y79.183 Z5.000 F600.000
G3 X36.178 Y80.561 Z5.000 I-24.280 J-46.798 K0.000 F600.000
G1 X45.153 Y89.536 Z5.000 F600.000
G3 X42.314 Y90.939 Z5.000 I-26.250 J-49.519 K0.000 F600.000
G1 X33.227 Y81.853 Z5.000 F600.000
G3 X30.187 Y83.055 Z5.000 I-21.410 J-49.723 K0.000 F600.000
G1 X39.398 Y92.267 Z5.000 F600.000
G3 X36.405 Y93.515 Z5.000 I-23.587 J-52.336 K0.000 F600.000
G1 X27.049 Y84.160 Z5.000 F600.000
G3 X23.799 Y85.152 Z5.000 I-18.067 J-53.357 K0.000 F600.000
G1 X33.329 Y94.683 Z5.000 F600.000
G3 X30.169 Y95.765 Z5.000 I-20.731 J-55.358 K0.000 F600.000
G1 X20.444 Y86.040 Z5.000 F600.000
G3 X16.978 Y86.817 Z5.000 I-18.217 J-73.145 K0.000 F600.000
G1 X26.908 Y96.747 Z5.000 F600.000
G3 X23.551 Y97.633 Z5.000 I-17.355 J-58.930 K0.000 F600.000
G1 X13.369 Y87.451 Z5.000 F600.000
G3 X9.632 Y87.957 Z5.000 I-10.225 J-61.514 K0.000 F600.000
G1 X20.096 Y98.420 Z5.000 F600.000
G3 X16.534 Y99.101 Z5.000 I-11.711 J-51.612 K0.000 F600.000
G1 X5.734 Y88.301 Z5.000 F600.000
G3 X1.670 Y88.479 Z5.000 I-4.977 J-67.051 K0.000 F600.000
G1 X12.841 Y99.650 Z5.000 F600.000
G3 X9.026 Y100.078 Z5.000 I-9.480 J-67.264 K0.000 F600.000
G1 X-2.601 Y88.451 Z5.000 F600.000
G3 X-7.092 Y88.203 Z5.000 I0.898 J-56.945 K0.000 F600.000
G1 X5.069 Y100.364 Z5.000 F600.000
G3 X0.949 Y100.486 Z5.000 I-4.234 J-72.815 K0.000 F600.000
G1 X-11.854 Y87.683 Z5.000 F600.000
G3 X-16.959 Y86.821 Z5.000 I11.677 J-84.657 K0.000 F600.000
G1 X-3.343 Y100.437 Z5.000 F600.000
G3 X-7.841 Y100.181 Z5.000 I2.266 J-79.694 K0.000 F600.000
G1 X-22.507 Y85.515 Z5.000 F600.000
G3 X-28.662 Y83.603 Z5.000 I18.620 J-70.802 K0.000 F600.000
G1 X-12.582 Y99.683 Z5.000 F600.000
G3 X-17.603 Y98.905 Z5.000 I7.935 J-67.790 K0.000 F600.000
G1 X-35.754 Y80.754 Z5.000 F600.000
G3 X-44.715 Y76.036 Z5.000 I33.208 J-73.935 K0.000 F600.000
G1 X-22.977 Y97.773 Z5.000 F600.000
G3 X-28.812 Y96.182 Z5.000 I17.195 J-74.515 K0.000 F600.000
G1 X-48.459 Y76.534 Z5.000 F600.000
G1 X-50.168 Y79.067 Z5.000 F600.000
G1 X-35.268 Y93.968 Z5.000 F600.000
G3 X-42.738 Y90.741 Z5.000 I34.120 J-89.234 K0.000 F600.000
G1 X-51.877 Y81.601 Z5.000 F600.000
G1 X-53.586 Y84.135 Z5.000 F600.000
G1 X-53.821 Y84.484 Z5.000 F600.000
G2 X-52.196 Y85.525 Z5.000 I19.227 J-28.223 K0.000 F600.000
G1 X-53.586 Y84.135 Z5.000 F600.000
G1 X-53.586 Y84.135 Z4.000 F600.000
G1 X-52.196 Y85.525 Z4.000 F600.000
G3 X-53.821 Y84.484 Z4.000 I17.602 J-29.264 K0.000 F600.000
G1 X-53.586 Y84.135 Z4.000 F600.000
G1 X-51.877 Y81.601 Z4.000 F600.000
G1 X-42.738 Y90.741 Z4.000 F600.000
G2 X-35.268 Y93.968 Z4.000 I41.590 J-86.007 K0.000 F600.000
G1 X-50.168 Y79.067 Z4.000 F600.000
G1 X-48.459 Y76.534 Z4.000 F600.000
G1 X-28.812 Y96.182 Z4.000 F600.000
G2 X-22.977 Y97.773 Z4.000 I23.030 J-72.923 K0.000 F600.000
G1 X-44.715 Y76.036 Z4.000 F600.000
G2 X-35.754 Y80.754 Z4.000 I42.170 J-69.217 K0.000 F600.000
G1 X-17.603 Y98.905 Z4.000 F600.000
G2 X-12.582 Y99.683 Z4.000 I12.956 J-67.012 K0.000 F600.000
G1 X-28.662 Y83.603 Z4.000 F600.000
G2 X-22.507 Y85.515 Z4.000 I24.775 J-68.890 K0.000 F600.000
G1 X-7.841 Y100.181 Z4.000 F600.000
G2 X-3.343 Y100.437 Z4.000 I6.764 J-79.438 K0.000 F600.000
G1 X-16.959 Y86.821 Z4.000 F600.000
G2 X-11.854 Y87.683 Z4.000 I16.782 J-83.794 K0.000 F600.000
G1 X0.949 Y100.486 Z4.000 F600.000
G2 X5.069 Y100.364 Z4.000 I-0.115 J-72.938 K0.000 F600.000
G1 X-7.092 Y88.203 Z4.000 F600.000
G2 X-2.601 Y88.451 Z4.000 I5.390 J-56.696 K0.000 F600.000
G1 X9.026 Y100.078 Z4.000 F600.000
G2 X12.841 Y99.650 Z4.000 I-5.665 J-67.692 K0.000 F600.000
G1 X1.670 Y88.479 Z4.000 F600.000
G2 X5.734 Y88.301 Z4.000 I-0.913 J-67.230 K0.000 F600.000
G1 X16.534 Y99.101 Z4.000 F600.000
G2 X20.096 Y98.420 Z4.000 I-8.149 J-52.293 K0.000 F600.000
G1 X9.632 Y87.957 Z4.000 F600.000
G2 X13.369 Y87.451 Z4.000 I-6.488 J-62.019 K0.000 F600.000
G1 X23.551 Y97.633 Z4.000 F600.000
G2 X26.908 Y96.747 Z4.000 I-13.999 J-59.816 K0.000 F600.000
G1 X16.978 Y86.817 Z4.000 F600.000
G2 X20.444 Y86.040 Z4.000 I-14.751 J-73.922 K0.000 F600.000
G1 X30.169 Y95.765 Z4.000 F600.000
G2 X33.329 Y94.683 Z4.000 I-17.571 J-56.441 K0.000 F600.000
G1 X23.799 Y85.152 Z4.000 F600.000
G2 X27.049 Y84.160 Z4.000 I-14.816 J-54.349 K0.000 F600.000
G1 X36.405 Y93.515 Z4.000 F600.000
G2 X39.398 Y92.267 Z4.000 I-20.593 J-53.585 K0.000 F600.000
G1 X30.187 Y83.055 Z4.000 F600.000
G2 X33.227 Y81.853 Z4.000 I-18.370 J-50.925 K0.000 F600.000
G1 X42.314 Y90.939 Z4.000 F600.000
G2 X45.153 Y89.536 Z4.000 I-23.411 J-50.922 K0.000 F600.000
G1 X36.178 Y80.561 Z4.000 F600.000
G2 X39.043 Y79.183 Z4.000 I-21.416 J-48.176 K0.000 F600.000
G1 X47.918 Y88.058 Z4.000 F600.000
G2 X50.605 Y86.503 Z4.000 I-24.003 J-44.577 K0.000 F600.000
G1 X41.819 Y77.716 Z4.000 F600.000
G2 X44.507 Y76.162 Z4.000 I-24.457 J-45.415 K0.000 F600.000
G1 X53.221 Y84.876 Z4.000 F600.000
G1 X53.829 Y84.479 Z4.000 F600.000
G1 X47.117 Y74.530 Z4.000 F600.000
G1 X47.117 Y74.530 Z4.000 F600.000
G3 X-47.111 Y74.534 Z4.000 I-47.117 J-72.471 K0.000 F600.000
G1 X-53.821 Y84.484 Z4.000 F600.000
G2 X53.829 Y84.479 Z4.000 I53.821 J-82.424 K0.000 F600.000
G1 X47.117 Y74.530 Z4.000 F600.000
G0 Z13.000
G0 Z13.000
G0 X47.117 Y74.530
G0 X58.303 Y91.112
G0 X58.303 Y91.112 Z11.000
G1 X58.303 Y91.112 Z5.000 F600.000
G1 X65.014 Y101.061 Z5.000 F600.000
G1 X64.407 Y101.459 Z5.000 F600.000
G1 X55.706 Y92.758 Z5.000 F600.000
G3 X53.045 Y94.339 Z5.000 I-30.165 J-47.743 K0.000 F600.000
G1 X61.804 Y103.098 Z5.000 F600.000
G3 X59.141 Y104.678 Z5.000 I-31.951 J-50.791 K0.000 F600.000
G1 X50.317 Y95.854 Z5.000 F600.000
G3 X47.522 Y97.301 Z5.000 I-27.813 J-50.298 K0.000 F600.000
G1 X56.420 Y106.199 Z5.000 F600.000
G3 X53.637 Y107.659 Z5.000 I-29.679 J-53.184 K0.000 F600.000
G1 X44.657 Y98.679 Z5.000 F600.000
G3 X41.720 Y99.985 Z5.000 I-25.408 J-53.172 K0.000 F600.000
G1 X50.792 Y109.056 Z5.000 F600.000
G3 X47.883 Y110.390 Z5.000 I-27.296 J-55.694 K0.000 F600.000
G1 X38.708 Y101.216 Z5.000 F600.000
G3 X35.614 Y102.364 Z5.000 I-22.629 J-56.255 K0.000 F600.000
G1 X44.908 Y111.658 Z5.000 F600.000
G3 X41.865 Y112.858 Z5.000 I-23.453 J-55.028 K0.000 F600.000
G1 X32.439 Y103.431 Z5.000 F600.000
G3 X29.179 Y104.414 Z5.000 I-19.555 J-58.918 K0.000 F600.000
G1 X38.747 Y113.983 Z5.000 F600.000
G3 X35.556 Y115.033 Z5.000 I-21.958 J-61.314 K0.000 F600.000
G1 X25.832 Y105.310 Z5.000 F600.000
G3 X22.393 Y106.113 Z5.000 I-16.370 J-62.314 K0.000 F600.000
G1 X32.287 Y116.008 Z5.000 F600.000
G3 X28.939 Y116.902 Z5.000 I-19.000 J-64.429 K0.000 F600.000
G1 X18.853 Y106.816 Z5.000 F600.000
G3 X15.196 Y107.402 Z5.000 I-12.514 J-66.439 K0.000 F600.000
G1 X25.507 Y117.712 Z5.000 F600.000
G3 X21.987 Y118.435 Z5.000 I-15.762 J-67.838 K0.000 F600.000
G1 X11.427 Y107.876 Z5.000 F600.000
G3 X7.540 Y108.230 Z5.000 I-8.412 J-70.684 K0.000 F600.000
G1 X18.374 Y119.065 Z5.000 F600.000
G3 X14.651 Y119.584 Z5.000 I-11.610 J-69.678 K0.000 F600.000
G1 X3.500 Y108.434 Z5.000 F600.000
G3 X-0.686 Y108.490 Z5.000 I-3.115 J-76.171 K0.000 F600.000
G1 X10.819 Y119.995 Z5.000 F600.000
G3 X6.874 Y120.293 Z5.000 I-7.743 J-76.283 K0.000 F600.000
G1 X-5.045 Y108.374 Z5.000 F600.000
G3 X-9.602 Y108.059 Z5.000 I3.441 J-83.065 K0.000 F600.000
G1 X2.802 Y120.464 Z5.000 F600.000
G3 X-1.423 Y120.482 Z5.000 I-2.458 J-81.847 K0.000 F600.000
G1 X-14.391 Y107.513 Z5.000 F600.000
G3 X-19.442 Y106.705 Z5.000 I8.498 J-69.291 K0.000 F600.000
G1 X-5.792 Y120.355 Z5.000 F600.000
G3 X-10.352 Y120.037 Z5.000 I3.341 J-80.960 K0.000 F600.000
G1 X-24.824 Y105.566 Z5.000 F600.000
G3 X-30.636 Y103.996 Z5.000 I17.281 J-75.521 K0.000 F600.000
G1 X-15.100 Y119.532 Z5.000 F600.000
G3 X-20.102 Y118.773 Z5.000 I11.591 J-93.219 K0.000 F600.000
G1 X-37.029 Y101.845 Z5.000 F600.000
G3 X-44.243 Y98.874 Z5.000 I34.621 J-94.304 K0.000 F600.000
G1 X-25.376 Y117.742 Z5.000 F600.000
G3 X-30.993 Y116.367 Z5.000 I16.377 J-79.101 K0.000 F600.000
G1 X-52.989 Y94.371 Z5.000 F600.000
G3 X-58.295 Y91.117 Z5.000 I40.253 J-71.585 K0.000 F600.000
G1 X-59.177 Y92.425 Z5.000 F600.000
G1 X-37.054 Y114.548 Z5.000 F600.000
G3 X-43.712 Y112.133 Z5.000 I30.051 J-93.227 K0.000 F600.000
G1 X-60.886 Y94.959 Z5.000 F600.000
G1 X-62.595 Y97.493 Z5.000 F600.000
G1 X-51.257 Y108.831 Z5.000 F600.000
G3 X-60.372 Y103.959 Z5.000 I47.376 J-99.593 K0.000 F600.000
G1 X-64.304 Y100.026 Z5.000 F600.000
G1 X-65.005 Y101.066 Z5.000 F600.000
G2 X-60.372 Y103.959 Z5.000 I44.210 J-65.671 K0.000 F600.000
G3 X-65.005 Y101.066 Z5.000 I43.715 J-75.193 K0.000 F600.000
G1 X-58.295 Y91.117 Z5.000 F600.000
G2 X58.303 Y91.112 Z5.000 I58.295 J-89.056 K0.000 F600.000
G1 X65.014 Y101.061 Z5.000 F600.000
G3 X-60.372 Y103.959 Z5.000 I-65.015 J-99.002 K0.000 F600.000
G1 X-60.372 Y103.959 Z4.000 F600.000
G2 X65.014 Y101.061 Z4.000 I60.371 J-101.900 K0.000 F600.000
G1 X58.303 Y91.112 Z4.000 F600.000
G3 X-58.295 Y91.117 Z4.000 I-58.303 J-89.051 K0.000 F600.000
G1 X-65.005 Y101.066 Z4.000 F600.000
G2 X-60.372 Y103.959 Z4.000 I48.349 J-72.301 K0.000 F600.000
G3 X-65.005 Y101.066 Z4.000 I39.576 J-68.563 K0.000 F600.000
G1 X-64.304 Y100.026 Z4.000 F600.000
G1 X-60.372 Y103.959 Z4.000 F600.000
G2 X-51.257 Y108.831 Z4.000 I56.490 J-94.721 K0.000 F600.000
G1 X-62.595 Y97.493 Z4.000 F600.000
G1 X-60.886 Y94.959 Z4.000 F600.000
G1 X-43.712 Y112.133 Z4.000 F600.000
G2 X-37.054 Y114.548 Z4.000 I36.709 J-90.812 K0.000 F600.000
G1 X-59.177 Y92.425 Z4.000 F600.000
G1 X-58.295 Y91.117 Z4.000 F600.000
G2 X-52.989 Y94.371 Z4.000 I45.559 J-68.330 K0.000 F600.000
G1 X-30.993 Y116.367 Z4.000 F600.000
G2 X-25.376 Y117.742 Z4.000 I21.994 J-77.726 K0.000 F600.000
G1 X-44.243 Y98.874 Z4.000 F600.000
G2 X-37.029 Y101.845 Z4.000 I41.835 J-91.333 K0.000 F600.000
G1 X-20.102 Y118.773 Z4.000 F600.000
G2 X-15.100 Y119.532 Z4.000 I16.593 J-92.459 K0.000 F600.000
G1 X-30.636 Y103.996 Z4.000 F600.000
G2 X-24.824 Y105.566 Z4.000 I23.094 J-73.951 K0.000 F600.000
G1 X-10.352 Y120.037 Z4.000 F600.000
G2 X-5.792 Y120.355 Z4.000 I7.900 J-80.643 K0.000 F600.000
G1 X-19.442 Y106.705 Z4.000 F600.000
G2 X-14.391 Y107.513 Z4.000 I13.549 J-68.482 K0.000 F600.000
G1 X-1.423 Y120.482 Z4.000 F600.000
G2 X2.802 Y120.464 Z4.000 I1.767 J-81.865 K0.000 F600.000
G1 X-9.602 Y108.059 Z4.000 F600.000
G2 X-5.045 Y108.374 Z4.000 I7.999 J-82.751 K0.000 F600.000
G1 X6.874 Y120.293 Z4.000 F600.000
G2 X10.819 Y119.995 Z4.000 I-3.798 J-76.580 K0.000 F600.000
G1 X-0.686 Y108.490 Z4.000 F600.000
G2 X3.500 Y108.434 Z4.000 I1.072 J-76.227 K0.000 F600.000
G1 X14.651 Y119.584 Z4.000 F600.000
G2 X18.374 Y119.065 Z4.000 I-7.886 J-70.197 K0.000 F600.000
G1 X7.540 Y108.230 Z4.000 F600.000
G2 X11.427 Y107.876 Z4.000 I-4.524 J-71.039 K0.000 F600.000
G1 X21.987 Y118.435 Z4.000 F600.000
G2 X25.507 Y117.712 Z4.000 I-12.242 J-68.561 K0.000 F600.000
G1 X15.196 Y107.402 Z4.000 F600.000
G2 X18.853 Y106.816 Z4.000 I-8.857 J-67.025 K0.000 F600.000
G1 X28.939 Y116.902 Z4.000 F600.000
G2 X32.287 Y116.008 Z4.000 I-15.651 J-65.324 K0.000 F600.000
G1 X22.393 Y106.113 Z4.000 F600.000
G2 X25.832 Y105.310 Z4.000 I-12.931 J-63.118 K0.000 F600.000
G1 X35.556 Y115.033 Z4.000 F600.000
G2 X38.747 Y113.983 Z4.000 I-18.767 J-62.365 K0.000 F600.000
G1 X29.179 Y104.414 Z4.000 F600.000
G2 X32.439 Y103.431 Z4.000 I-16.296 J-59.901 K0.000 F600.000
G1 X41.865 Y112.858 Z4.000 F600.000
G2 X44.908 Y111.658 Z4.000 I-20.410 J-56.228 K0.000 F600.000
G1 X35.614 Y102.364 Z4.000 F600.000
G2 X38.708 Y101.216 Z4.000 I-19.534 J-57.403 K0.000 F600.000
G1 X47.883 Y110.390 Z4.000 F600.000
G2 X50.792 Y109.056 Z4.000 I-24.387 J-57.028 K0.000 F600.000
G1 X41.720 Y99.985 Z4.000 F600.000
G2 X44.657 Y98.679 Z4.000 I-22.472 J-54.478 K0.000 F600.000
G1 X53.637 Y107.659 Z4.000 F600.000
G2 X56.420 Y106.199 Z4.000 I-26.897 J-54.644 K0.000 F600.000
G1 X47.522 Y97.301 Z4.000 F600.000
G2 X50.317 Y95.854 Z4.000 I-25.018 J-51.746 K0.000 F600.000
G1 X59.141 Y104.678 Z4.000 F600.000
G2 X61.804 Y103.098 Z4.000 I-29.289 J-52.372 K0.000 F600.000
G1 X53.045 Y94.339 Z4.000 F600.000
G2 X55.706 Y92.758 Z4.000 I-27.504 J-49.325 K0.000 F600.000
G1 X64.407 Y101.459 Z4.000 F600.000
G1 X65.014 Y101.061 Z4.000 F600.000
G1 X58.303 Y91.112 Z4.000 F600.000
G0 Z13.000
G0 Z13.000
(Finish operation: Pocket_Shape)
(Begin operation: Profile)
(Path: Profile)
(Profile)
(Compensated Tool Path. Diameter: 3.0)
G0 Z13.000
G0 X76.529 Y144.216
G0 Z11.000
G1 X76.529 Y144.216 Z5.000 F600.000
G2 X81.175 Y141.617 Z5.000 I-76.528 J-142.212 K0.000 F600.000
G2 X84.976 Y125.291 Z5.000 I-5.769 J-9.949 K0.000 F600.000
G1 X9.534 Y13.452 Z5.000 F600.000
G2 X2.098 Y8.577 Z5.000 I-9.537 J6.440 K0.000 F600.000
G2 X-9.495 Y13.398 Z5.000 I-2.098 J11.306 K0.000 F600.000
G1 X-84.930 Y125.244 Z5.000 F600.000
G2 X-81.232 Y141.582 Z5.000 I9.536 J6.429 K0.000 F600.000
G2 X76.529 Y144.216 Z5.000 I81.233 J-139.578 K0.000 F600.000
G1 X76.529 Y144.216 Z2.000 F600.000
G2 X81.175 Y141.617 Z2.000 I-76.528 J-142.212 K0.000 F600.000
G2 X84.976 Y125.291 Z2.000 I-5.769 J-9.949 K0.000 F600.000
G1 X9.534 Y13.452 Z2.000 F600.000
G2 X2.098 Y8.577 Z2.000 I-9.537 J6.440 K0.000 F600.000
G2 X-9.495 Y13.398 Z2.000 I-2.098 J11.306 K0.000 F600.000
G1 X-84.930 Y125.244 Z2.000 F600.000
G2 X-81.232 Y141.582 Z2.000 I9.536 J6.429 K0.000 F600.000
G2 X76.529 Y144.216 Z2.000 I81.233 J-139.578 K0.000 F600.000
G1 X76.529 Y144.216 Z0.000 F600.000
G2 X81.175 Y141.617 Z0.000 I-76.528 J-142.212 K0.000 F600.000
G2 X84.976 Y125.291 Z0.000 I-5.769 J-9.949 K0.000 F600.000
G1 X9.534 Y13.452 Z0.000 F600.000
G2 X2.098 Y8.577 Z0.000 I-9.537 J6.440 K0.000 F600.000
G2 X-9.495 Y13.398 Z0.000 I-2.098 J11.306 K0.000 F600.000
G1 X-84.930 Y125.244 Z0.000 F600.000
G2 X-81.232 Y141.582 Z0.000 I9.536 J6.429 K0.000 F600.000
G2 X76.529 Y144.216 Z0.000 I81.233 J-139.578 K0.000 F600.000
G0 Z13.000
G0 Z13.000
(Finish operation: Profile)
(Begin postamble)
M5
G17 G90
M2
