(Exported by FreeCAD)
(Post Processor: script_module)
(Output Time:2025-04-10 14:57:58.326484)
(Begin preamble)
G17 G90
G21
(Begin operation: Fixture)
(Path: Fixture)
G54
(Finish operation: Fixture)
(Begin operation: 3mm_Endmill003)
(Path: 3mm_Endmill003)
(3mm_Endmill003)
(Begin toolchange)
( M6 T2 )
M3 S10000
(Finish operation: 3mm_Endmill003)
(Begin operation: Profile)
(Path: Profile)
(Profile)
(Compensated Tool Path. Diameter: 3.0)
G0 Z25.000
G0 X0.000 Y0.000
G0 X1.721 Y-10.863
G0 X1.721 Y-10.863 Z23.000
G1 X1.721 Y-10.863 Z17.000 F600.000
G2 X-10.863 Y-1.721 Z17.000 I-1.721 J10.863 K0.000 F600.000
G2 X-1.721 Y10.863 Z17.000 I10.863 J1.721 K0.000 F600.000
G2 X1.721 Y-10.863 Z17.000 I1.721 J-10.863 K0.000 F600.000
G1 X1.721 Y-10.863 Z14.000 F600.000
G2 X-10.863 Y-1.721 Z14.000 I-1.721 J10.863 K0.000 F600.000
G2 X-1.721 Y10.863 Z14.000 I10.863 J1.721 K0.000 F600.000
G2 X1.721 Y-10.863 Z14.000 I1.721 J-10.863 K0.000 F600.000
G1 X1.721 Y-10.863 Z11.000 F600.000
G2 X-10.863 Y-1.721 Z11.000 I-1.721 J10.863 K0.000 F600.000
G2 X-1.721 Y10.863 Z11.000 I10.863 J1.721 K0.000 F600.000
G2 X1.721 Y-10.863 Z11.000 I1.721 J-10.863 K0.000 F600.000
G1 X1.721 Y-10.863 Z8.000 F600.000
G2 X-10.863 Y-1.721 Z8.000 I-1.721 J10.863 K0.000 F600.000
G2 X-1.721 Y10.863 Z8.000 I10.863 J1.721 K0.000 F600.000
G2 X1.721 Y-10.863 Z8.000 I1.721 J-10.863 K0.000 F600.000
G1 X1.721 Y-10.863 Z5.000 F600.000
G2 X-10.863 Y-1.721 Z5.000 I-1.721 J10.863 K0.000 F600.000
G2 X-1.721 Y10.863 Z5.000 I10.863 J1.721 K0.000 F600.000
G2 X1.721 Y-10.863 Z5.000 I1.721 J-10.863 K0.000 F600.000
G1 X1.721 Y-10.863 Z2.000 F600.000
G2 X-10.863 Y-1.721 Z2.000 I-1.721 J10.863 K0.000 F600.000
G2 X-1.721 Y10.863 Z2.000 I10.863 J1.721 K0.000 F600.000
G2 X1.721 Y-10.863 Z2.000 I1.721 J-10.863 K0.000 F600.000
G1 X1.721 Y-10.863 Z0.000 F600.000
G2 X-10.863 Y-1.721 Z0.000 I-1.721 J10.863 K0.000 F600.000
G2 X-1.721 Y10.863 Z0.000 I10.863 J1.721 K0.000 F600.000
G2 X1.721 Y-10.863 Z0.000 I1.721 J-10.863 K0.000 F600.000
G0 Z25.000
G0 Z25.000
(Finish operation: Profile)
(Begin operation: Profile001)
(Path: Profile001)
(Profile001)
(Compensated Tool Path. Diameter: 3.0)
G0 Z25.000
G0 X18.738 Y18.738
G0 Z23.000
G1 X18.738 Y18.738 Z17.000 F600.000
G2 X3.009 Y-26.328 Z17.000 I-18.738 J-18.738 K0.000 F600.000
G2 X-26.328 Y-3.009 Z17.000 I-3.009 J26.328 K0.000 F600.000
G2 X-3.009 Y26.328 Z17.000 I26.328 J3.009 K0.000 F600.000
G2 X18.738 Y18.738 Z17.000 I3.009 J-26.328 K0.000 F600.000
G1 X18.738 Y18.738 Z14.000 F600.000
G2 X3.009 Y-26.328 Z14.000 I-18.738 J-18.738 K0.000 F600.000
G2 X-26.328 Y-3.009 Z14.000 I-3.009 J26.328 K0.000 F600.000
G2 X-3.009 Y26.328 Z14.000 I26.328 J3.009 K0.000 F600.000
G2 X18.738 Y18.738 Z14.000 I3.009 J-26.328 K0.000 F600.000
G1 X18.738 Y18.738 Z11.000 F600.000
G2 X3.009 Y-26.328 Z11.000 I-18.738 J-18.738 K0.000 F600.000
G2 X-26.328 Y-3.009 Z11.000 I-3.009 J26.328 K0.000 F600.000
G2 X-3.009 Y26.328 Z11.000 I26.328 J3.009 K0.000 F600.000
G2 X18.738 Y18.738 Z11.000 I3.009 J-26.328 K0.000 F600.000
G1 X18.738 Y18.738 Z8.000 F600.000
G2 X3.009 Y-26.328 Z8.000 I-18.738 J-18.738 K0.000 F600.000
G2 X-26.328 Y-3.009 Z8.000 I-3.009 J26.328 K0.000 F600.000
G2 X-3.009 Y26.328 Z8.000 I26.328 J3.009 K0.000 F600.000
G2 X18.738 Y18.738 Z8.000 I3.009 J-26.328 K0.000 F600.000
G1 X18.738 Y18.738 Z5.000 F600.000
G2 X3.009 Y-26.328 Z5.000 I-18.738 J-18.738 K0.000 F600.000
G2 X-26.328 Y-3.009 Z5.000 I-3.009 J26.328 K0.000 F600.000
G2 X-3.009 Y26.328 Z5.000 I26.328 J3.009 K0.000 F600.000
G2 X18.738 Y18.738 Z5.000 I3.009 J-26.328 K0.000 F600.000
G1 X18.738 Y18.738 Z2.000 F600.000
G2 X3.009 Y-26.328 Z2.000 I-18.738 J-18.738 K0.000 F600.000
G2 X-26.328 Y-3.009 Z2.000 I-3.009 J26.328 K0.000 F600.000
G2 X-3.009 Y26.328 Z2.000 I26.328 J3.009 K0.000 F600.000
G2 X18.738 Y18.738 Z2.000 I3.009 J-26.328 K0.000 F600.000
G1 X18.738 Y18.738 Z0.000 F600.000
G2 X3.009 Y-26.328 Z0.000 I-18.738 J-18.738 K0.000 F600.000
G2 X-26.328 Y-3.009 Z0.000 I-3.009 J26.328 K0.000 F600.000
G2 X-3.009 Y26.328 Z0.000 I26.328 J3.009 K0.000 F600.000
G2 X18.738 Y18.738 Z0.000 I3.009 J-26.328 K0.000 F600.000
G0 Z25.000
G0 Z25.000
(Finish operation: Profile001)
(Begin operation: Profile002)
(Path: Profile002)
(Profile002)
(Compensated Tool Path. Diameter: 3.0)
G0 Z25.000
G0 X20.152 Y20.152
G0 Z23.000
G1 X20.152 Y20.152 Z17.000 F600.000
G2 X3.659 Y-28.264 Z17.000 I-20.152 J-20.152 K0.000 F600.000
G2 X-3.659 Y28.264 Z17.000 I-3.659 J28.264 K0.000 F600.000
G2 X20.152 Y20.152 Z17.000 I3.659 J-28.264 K0.000 F600.000
G1 X20.152 Y20.152 Z14.000 F600.000
G2 X3.659 Y-28.264 Z14.000 I-20.152 J-20.152 K0.000 F600.000
G2 X-3.659 Y28.264 Z14.000 I-3.659 J28.264 K0.000 F600.000
G2 X20.152 Y20.152 Z14.000 I3.659 J-28.264 K0.000 F600.000
G1 X20.152 Y20.152 Z11.000 F600.000
G2 X3.659 Y-28.264 Z11.000 I-20.152 J-20.152 K0.000 F600.000
G2 X-3.659 Y28.264 Z11.000 I-3.659 J28.264 K0.000 F600.000
G2 X20.152 Y20.152 Z11.000 I3.659 J-28.264 K0.000 F600.000
G1 X20.152 Y20.152 Z8.000 F600.000
G2 X3.659 Y-28.264 Z8.000 I-20.152 J-20.152 K0.000 F600.000
G2 X-3.659 Y28.264 Z8.000 I-3.659 J28.264 K0.000 F600.000
G2 X20.152 Y20.152 Z8.000 I3.659 J-28.264 K0.000 F600.000
G1 X20.152 Y20.152 Z5.000 F600.000
G2 X3.659 Y-28.264 Z5.000 I-20.152 J-20.152 K0.000 F600.000
G2 X-3.659 Y28.264 Z5.000 I-3.659 J28.264 K0.000 F600.000
G2 X20.152 Y20.152 Z5.000 I3.659 J-28.264 K0.000 F600.000
G1 X20.152 Y20.152 Z2.000 F600.000
G2 X3.659 Y-28.264 Z2.000 I-20.152 J-20.152 K0.000 F600.000
G2 X-3.659 Y28.264 Z2.000 I-3.659 J28.264 K0.000 F600.000
G2 X20.152 Y20.152 Z2.000 I3.659 J-28.264 K0.000 F600.000
G1 X20.152 Y20.152 Z0.000 F600.000
G2 X3.659 Y-28.264 Z0.000 I-20.152 J-20.152 K0.000 F600.000
G2 X-3.659 Y28.264 Z0.000 I-3.659 J28.264 K0.000 F600.000
G2 X20.152 Y20.152 Z0.000 I3.659 J-28.264 K0.000 F600.000
G0 Z25.000
G0 Z25.000
(Finish operation: Profile002)
(Begin operation: Profile003)
(Path: Profile003)
(Profile003)
(Compensated Tool Path. Diameter: 3.0)
G0 Z25.000
G0 X31.112 Y31.112
G0 Z23.000
G1 X31.112 Y31.112 Z17.000 F600.000
G2 X2.845 Y-43.908 Z17.000 I-31.112 J-31.112 K0.000 F600.000
G2 X-43.908 Y-2.845 Z17.000 I-2.845 J43.908 K0.000 F600.000
G2 X-2.845 Y43.908 Z17.000 I43.908 J2.845 K0.000 F600.000
G2 X31.112 Y31.112 Z17.000 I2.845 J-43.908 K0.000 F600.000
G1 X31.112 Y31.112 Z14.000 F600.000
G2 X2.845 Y-43.908 Z14.000 I-31.112 J-31.112 K0.000 F600.000
G2 X-43.908 Y-2.845 Z14.000 I-2.845 J43.908 K0.000 F600.000
G2 X-2.845 Y43.908 Z14.000 I43.908 J2.845 K0.000 F600.000
G2 X31.112 Y31.112 Z14.000 I2.845 J-43.908 K0.000 F600.000
G1 X31.112 Y31.112 Z11.000 F600.000
G2 X2.845 Y-43.908 Z11.000 I-31.112 J-31.112 K0.000 F600.000
G2 X-43.908 Y-2.845 Z11.000 I-2.845 J43.908 K0.000 F600.000
G2 X-2.845 Y43.908 Z11.000 I43.908 J2.845 K0.000 F600.000
G2 X31.112 Y31.112 Z11.000 I2.845 J-43.908 K0.000 F600.000
G1 X31.112 Y31.112 Z8.000 F600.000
G2 X2.845 Y-43.908 Z8.000 I-31.112 J-31.112 K0.000 F600.000
G2 X-43.908 Y-2.845 Z8.000 I-2.845 J43.908 K0.000 F600.000
G2 X-2.845 Y43.908 Z8.000 I43.908 J2.845 K0.000 F600.000
G2 X31.112 Y31.112 Z8.000 I2.845 J-43.908 K0.000 F600.000
G1 X31.112 Y31.112 Z5.000 F600.000
G2 X2.845 Y-43.908 Z5.000 I-31.112 J-31.112 K0.000 F600.000
G2 X-43.908 Y-2.845 Z5.000 I-2.845 J43.908 K0.000 F600.000
G2 X-2.845 Y43.908 Z5.000 I43.908 J2.845 K0.000 F600.000
G2 X31.112 Y31.112 Z5.000 I2.845 J-43.908 K0.000 F600.000
G1 X31.112 Y31.112 Z2.000 F600.000
G2 X2.845 Y-43.908 Z2.000 I-31.112 J-31.112 K0.000 F600.000
G2 X-43.908 Y-2.845 Z2.000 I-2.845 J43.908 K0.000 F600.000
G2 X-2.845 Y43.908 Z2.000 I43.908 J2.845 K0.000 F600.000
G2 X31.112 Y31.112 Z2.000 I2.845 J-43.908 K0.000 F600.000
G1 X31.112 Y31.112 Z0.000 F600.000
G2 X2.845 Y-43.908 Z0.000 I-31.112 J-31.112 K0.000 F600.000
G2 X-43.908 Y-2.845 Z0.000 I-2.845 J43.908 K0.000 F600.000
G2 X-2.845 Y43.908 Z0.000 I43.908 J2.845 K0.000 F600.000
G2 X31.112 Y31.112 Z0.000 I2.845 J-43.908 K0.000 F600.000
G0 Z25.000
G0 Z25.000
(Finish operation: Profile003)
(Begin operation: Profile004)
(Path: Profile004)
(Profile004)
(Compensated Tool Path. Diameter: 3.0)
G0 Z25.000
G0 X32.527 Y32.527
G0 Z23.000
G1 X32.527 Y32.527 Z17.000 F600.000
G2 X2.813 Y-45.914 Z17.000 I-32.527 J-32.527 K0.000 F600.000
G2 X-45.914 Y-2.801 Z17.000 I-2.813 J45.914 K0.000 F600.000
G2 X-2.789 Y45.915 Z17.000 I45.914 J2.801 K0.000 F600.000
G2 X32.527 Y32.527 Z17.000 I2.789 J-45.915 K0.000 F600.000
G1 X32.527 Y32.527 Z14.000 F600.000
G2 X2.813 Y-45.914 Z14.000 I-32.527 J-32.527 K0.000 F600.000
G2 X-45.914 Y-2.801 Z14.000 I-2.813 J45.914 K0.000 F600.000
G2 X-2.789 Y45.915 Z14.000 I45.914 J2.801 K0.000 F600.000
G2 X32.527 Y32.527 Z14.000 I2.789 J-45.915 K0.000 F600.000
G1 X32.527 Y32.527 Z11.000 F600.000
G2 X2.813 Y-45.914 Z11.000 I-32.527 J-32.527 K0.000 F600.000
G2 X-45.914 Y-2.801 Z11.000 I-2.813 J45.914 K0.000 F600.000
G2 X-2.789 Y45.915 Z11.000 I45.914 J2.801 K0.000 F600.000
G2 X32.527 Y32.527 Z11.000 I2.789 J-45.915 K0.000 F600.000
G1 X32.527 Y32.527 Z8.000 F600.000
G2 X2.813 Y-45.914 Z8.000 I-32.527 J-32.527 K0.000 F600.000
G2 X-45.914 Y-2.801 Z8.000 I-2.813 J45.914 K0.000 F600.000
G2 X-2.789 Y45.915 Z8.000 I45.914 J2.801 K0.000 F600.000
G2 X32.527 Y32.527 Z8.000 I2.789 J-45.915 K0.000 F600.000
G1 X32.527 Y32.527 Z5.000 F600.000
G2 X2.813 Y-45.914 Z5.000 I-32.527 J-32.527 K0.000 F600.000
G2 X-45.914 Y-2.801 Z5.000 I-2.813 J45.914 K0.000 F600.000
G2 X-2.789 Y45.915 Z5.000 I45.914 J2.801 K0.000 F600.000
G2 X32.527 Y32.527 Z5.000 I2.789 J-45.915 K0.000 F600.000
G1 X32.527 Y32.527 Z2.000 F600.000
G2 X2.813 Y-45.914 Z2.000 I-32.527 J-32.527 K0.000 F600.000
G2 X-45.914 Y-2.801 Z2.000 I-2.813 J45.914 K0.000 F600.000
G2 X-2.789 Y45.915 Z2.000 I45.914 J2.801 K0.000 F600.000
G2 X32.527 Y32.527 Z2.000 I2.789 J-45.915 K0.000 F600.000
G1 X32.527 Y32.527 Z0.000 F600.000
G2 X2.813 Y-45.914 Z0.000 I-32.527 J-32.527 K0.000 F600.000
G2 X-45.914 Y-2.801 Z0.000 I-2.813 J45.914 K0.000 F600.000
G2 X-2.789 Y45.915 Z0.000 I45.914 J2.801 K0.000 F600.000
G2 X32.527 Y32.527 Z0.000 I2.789 J-45.915 K0.000 F600.000
G0 Z25.000
G0 Z25.000
(Finish operation: Profile004)
(Begin operation: Profile005)
(Path: Profile005)
(Profile005)
(Compensated Tool Path. Diameter: 3.0)
G0 Z25.000
G0 X43.487 Y43.487
G0 Z23.000
G1 X43.487 Y43.487 Z17.000 F600.000
G2 X3.331 Y-61.409 Z17.000 I-43.487 J-43.487 K0.000 F600.000
G2 X-3.357 Y61.408 Z17.000 I-3.331 J61.409 K0.000 F600.000
G2 X43.487 Y43.487 Z17.000 I3.357 J-61.408 K0.000 F600.000
G1 X43.487 Y43.487 Z14.000 F600.000
G2 X3.331 Y-61.409 Z14.000 I-43.487 J-43.487 K0.000 F600.000
G2 X-3.357 Y61.408 Z14.000 I-3.331 J61.409 K0.000 F600.000
G2 X43.487 Y43.487 Z14.000 I3.357 J-61.408 K0.000 F600.000
G1 X43.487 Y43.487 Z11.000 F600.000
G2 X3.331 Y-61.409 Z11.000 I-43.487 J-43.487 K0.000 F600.000
G2 X-3.357 Y61.408 Z11.000 I-3.331 J61.409 K0.000 F600.000
G2 X43.487 Y43.487 Z11.000 I3.357 J-61.408 K0.000 F600.000
G1 X43.487 Y43.487 Z8.000 F600.000
G2 X3.331 Y-61.409 Z8.000 I-43.487 J-43.487 K0.000 F600.000
G2 X-3.357 Y61.408 Z8.000 I-3.331 J61.409 K0.000 F600.000
G2 X43.487 Y43.487 Z8.000 I3.357 J-61.408 K0.000 F600.000
G1 X43.487 Y43.487 Z5.000 F600.000
G2 X3.331 Y-61.409 Z5.000 I-43.487 J-43.487 K0.000 F600.000
G2 X-3.357 Y61.408 Z5.000 I-3.331 J61.409 K0.000 F600.000
G2 X43.487 Y43.487 Z5.000 I3.357 J-61.408 K0.000 F600.000
G1 X43.487 Y43.487 Z2.000 F600.000
G2 X3.331 Y-61.409 Z2.000 I-43.487 J-43.487 K0.000 F600.000
G2 X-3.357 Y61.408 Z2.000 I-3.331 J61.409 K0.000 F600.000
G2 X43.487 Y43.487 Z2.000 I3.357 J-61.408 K0.000 F600.000
G1 X43.487 Y43.487 Z0.000 F600.000
G2 X3.331 Y-61.409 Z0.000 I-43.487 J-43.487 K0.000 F600.000
G2 X-3.357 Y61.408 Z0.000 I-3.331 J61.409 K0.000 F600.000
G2 X43.487 Y43.487 Z0.000 I3.357 J-61.408 K0.000 F600.000
G0 Z25.000
G0 Z25.000
(Finish operation: Profile005)
(Begin postamble)
M5
G17 G90
M2
