(Exported by FreeCAD)
(Post Processor: script_module)
(Output Time:2025-04-11 15:57:50.091911)
(Begin preamble)
G17 G90
G21
(Begin operation: Fixture)
(Path: Fixture)
G54
(Finish operation: Fixture)
(Begin operation: 3mm_Endmill003)
(Path: 3mm_Endmill003)
(3mm_Endmill003)
(Begin toolchange)
( M6 T2 )
M3 S10000
(Finish operation: 3mm_Endmill003)
(Begin operation: Profile)
(Path: Profile)
(Profile)
(Compensated Tool Path. Diameter: 3.0)
G0 Z13.000
G0 X20.152 Y20.152
G0 Z11.000
G1 X20.152 Y20.152 Z5.000 F600.000
G2 X3.659 Y-28.264 Z5.000 I-20.152 J-20.152 K0.000 F600.000
G2 X-3.659 Y28.264 Z5.000 I-3.659 J28.264 K0.000 F600.000
G2 X20.152 Y20.152 Z5.000 I3.659 J-28.264 K0.000 F600.000
G1 X20.152 Y20.152 Z2.000 F600.000
G2 X3.659 Y-28.264 Z2.000 I-20.152 J-20.152 K0.000 F600.000
G2 X-3.659 Y28.264 Z2.000 I-3.659 J28.264 K0.000 F600.000
G2 X20.152 Y20.152 Z2.000 I3.659 J-28.264 K0.000 F600.000
G1 X20.152 Y20.152 Z0.000 F600.000
G2 X3.659 Y-28.264 Z0.000 I-20.152 J-20.152 K0.000 F600.000
G2 X-3.659 Y28.264 Z0.000 I-3.659 J28.264 K0.000 F600.000
G2 X20.152 Y20.152 Z0.000 I3.659 J-28.264 K0.000 F600.000
G0 Z13.000
G0 Z13.000
(Finish operation: Profile)
(Begin operation: Profile001)
(Path: Profile001)
(Profile001)
(Compensated Tool Path. Diameter: 3.0)
G0 Z13.000
G0 X32.880 Y32.880
G0 Z11.000
G1 X32.880 Y32.880 Z5.000 F600.000
G2 X2.951 Y-46.406 Z5.000 I-32.880 J-32.880 K0.000 F600.000
G2 X-46.407 Y-2.938 Z5.000 I-2.951 J46.406 K0.000 F600.000
G2 X-2.925 Y46.408 Z5.000 I46.407 J2.938 K0.000 F600.000
G2 X32.880 Y32.880 Z5.000 I2.925 J-46.408 K0.000 F600.000
G1 X32.880 Y32.880 Z2.000 F600.000
G2 X2.951 Y-46.406 Z2.000 I-32.880 J-32.880 K0.000 F600.000
G2 X-46.407 Y-2.938 Z2.000 I-2.951 J46.406 K0.000 F600.000
G2 X-2.925 Y46.408 Z2.000 I46.407 J2.938 K0.000 F600.000
G2 X32.880 Y32.880 Z2.000 I2.925 J-46.408 K0.000 F600.000
G1 X32.880 Y32.880 Z0.000 F600.000
G2 X2.951 Y-46.406 Z0.000 I-32.880 J-32.880 K0.000 F600.000
G2 X-46.407 Y-2.938 Z0.000 I-2.951 J46.406 K0.000 F600.000
G2 X-2.925 Y46.408 Z0.000 I46.407 J2.938 K0.000 F600.000
G2 X32.880 Y32.880 Z0.000 I2.925 J-46.408 K0.000 F600.000
G0 Z13.000
G0 Z13.000
(Finish operation: Profile001)
(Begin operation: Profile002)
(Path: Profile002)
(Profile002)
(Compensated Tool Path. Diameter: 3.0)
G0 Z13.000
G0 X34.294 Y34.294
G0 Z11.000
G1 X34.294 Y34.294 Z5.000 F600.000
G2 X2.867 Y-48.415 Z5.000 I-34.294 J-34.294 K0.000 F600.000
G2 X-48.415 Y-2.867 Z5.000 I-2.867 J48.415 K0.000 F600.000
G2 X-2.867 Y48.415 Z5.000 I48.415 J2.867 K0.000 F600.000
G2 X34.294 Y34.294 Z5.000 I2.867 J-48.415 K0.000 F600.000
G1 X34.294 Y34.294 Z2.000 F600.000
G2 X2.867 Y-48.415 Z2.000 I-34.294 J-34.294 K0.000 F600.000
G2 X-48.415 Y-2.867 Z2.000 I-2.867 J48.415 K0.000 F600.000
G2 X-2.867 Y48.415 Z2.000 I48.415 J2.867 K0.000 F600.000
G2 X34.294 Y34.294 Z2.000 I2.867 J-48.415 K0.000 F600.000
G1 X34.294 Y34.294 Z0.000 F600.000
G2 X2.867 Y-48.415 Z0.000 I-34.294 J-34.294 K0.000 F600.000
G2 X-48.415 Y-2.867 Z0.000 I-2.867 J48.415 K0.000 F600.000
G2 X-2.867 Y48.415 Z0.000 I48.415 J2.867 K0.000 F600.000
G2 X34.294 Y34.294 Z0.000 I2.867 J-48.415 K0.000 F600.000
G0 Z13.000
G0 Z13.000
(Finish operation: Profile002)
(Begin operation: Profile003)
(Path: Profile003)
(Profile003)
(Compensated Tool Path. Diameter: 3.0)
G0 Z13.000
G0 X47.022 Y47.022
G0 Z11.000
G1 X47.022 Y47.022 Z5.000 F600.000
G2 X4.665 Y-66.336 Z5.000 I-47.022 J-47.022 K0.000 F600.000
G2 X-66.336 Y-4.665 Z5.000 I-4.665 J66.336 K0.000 F600.000
G2 X-4.665 Y66.336 Z5.000 I66.336 J4.665 K0.000 F600.000
G2 X47.022 Y47.022 Z5.000 I4.665 J-66.336 K0.000 F600.000
G1 X47.022 Y47.022 Z2.000 F600.000
G2 X4.665 Y-66.336 Z2.000 I-47.022 J-47.022 K0.000 F600.000
G2 X-66.336 Y-4.665 Z2.000 I-4.665 J66.336 K0.000 F600.000
G2 X-4.665 Y66.336 Z2.000 I66.336 J4.665 K0.000 F600.000
G2 X47.022 Y47.022 Z2.000 I4.665 J-66.336 K0.000 F600.000
G1 X47.022 Y47.022 Z0.000 F600.000
G2 X4.665 Y-66.336 Z0.000 I-47.022 J-47.022 K0.000 F600.000
G2 X-66.336 Y-4.665 Z0.000 I-4.665 J66.336 K0.000 F600.000
G2 X-4.665 Y66.336 Z0.000 I66.336 J4.665 K0.000 F600.000
G2 X47.022 Y47.022 Z0.000 I4.665 J-66.336 K0.000 F600.000
G0 Z13.000
G0 Z13.000
(Finish operation: Profile003)
(Begin operation: Profile004)
(Path: Profile004)
(Profile004)
(Compensated Tool Path. Diameter: 3.0)
G0 Z13.000
G0 X48.437 Y48.437
G0 Z11.000
G1 X48.437 Y48.437 Z5.000 F600.000
G2 X3.445 Y-68.413 Z5.000 I-48.437 J-48.437 K0.000 F600.000
G2 X-3.445 Y68.413 Z5.000 I-3.445 J68.413 K0.000 F600.000
G2 X48.437 Y48.437 Z5.000 I3.445 J-68.413 K0.000 F600.000
G1 X48.437 Y48.437 Z2.000 F600.000
G2 X3.445 Y-68.413 Z2.000 I-48.437 J-48.437 K0.000 F600.000
G2 X-3.445 Y68.413 Z2.000 I-3.445 J68.413 K0.000 F600.000
G2 X48.437 Y48.437 Z2.000 I3.445 J-68.413 K0.000 F600.000
G1 X48.437 Y48.437 Z0.000 F600.000
G2 X3.445 Y-68.413 Z0.000 I-48.437 J-48.437 K0.000 F600.000
G2 X-3.445 Y68.413 Z0.000 I-3.445 J68.413 K0.000 F600.000
G2 X48.437 Y48.437 Z0.000 I3.445 J-68.413 K0.000 F600.000
G0 Z13.000
G0 Z13.000
(Finish operation: Profile004)
(Begin operation: Profile005)
(Path: Profile005)
(Profile005)
(Compensated Tool Path. Diameter: 3.0)
G0 Z13.000
G0 X61.165 Y61.165
G0 Z11.000
G1 X61.165 Y61.165 Z5.000 F600.000
G2 X3.979 Y-86.408 Z5.000 I-61.165 J-61.165 K0.000 F600.000
G2 X-86.409 Y-3.966 Z5.000 I-3.979 J86.408 K0.000 F600.000
G2 X-3.953 Y86.409 Z5.000 I86.409 J3.966 K0.000 F600.000
G2 X61.165 Y61.165 Z5.000 I3.953 J-86.409 K0.000 F600.000
G1 X61.165 Y61.165 Z2.000 F600.000
G2 X3.979 Y-86.408 Z2.000 I-61.165 J-61.165 K0.000 F600.000
G2 X-86.409 Y-3.966 Z2.000 I-3.979 J86.408 K0.000 F600.000
G2 X-3.953 Y86.409 Z2.000 I86.409 J3.966 K0.000 F600.000
G2 X61.165 Y61.165 Z2.000 I3.953 J-86.409 K0.000 F600.000
G1 X61.165 Y61.165 Z0.000 F600.000
G2 X3.979 Y-86.408 Z0.000 I-61.165 J-61.165 K0.000 F600.000
G2 X-86.409 Y-3.966 Z0.000 I-3.979 J86.408 K0.000 F600.000
G2 X-3.953 Y86.409 Z0.000 I86.409 J3.966 K0.000 F600.000
G2 X61.165 Y61.165 Z0.000 I3.953 J-86.409 K0.000 F600.000
G0 Z13.000
G0 Z13.000
(Finish operation: Profile005)
(Begin postamble)
M5
G17 G90
M2
