(Exported by FreeCAD)
(Post Processor: script_module)
(Output Time:2025-04-19 19:29:48.706235)
(Begin preamble)
G17 G90
G21
(Begin operation: Fixture)
(Path: Fixture)
G54
(Finish operation: Fixture)
(Begin operation: 3mm_Endmill003)
(Path: 3mm_Endmill003)
(3mm_Endmill003)
(Begin toolchange)
( M6 T2 )
M3 S10000
(Finish operation: 3mm_Endmill003)
(Begin operation: Pocket_Shape)
(Path: Pocket_Shape)
(Pocket_Shape)
G0 Z5.000
G0 X-10.441 Y27.142
G0 Z3.000
G1 X-10.441 Y27.142 Z-3.000 F600.000
G3 X-10.444 Y27.222 Z-3.000 I-3356.091 J-96.680 K0.000 F600.000
G1 X-15.750 Y26.860 Z-3.000 F600.000
G3 X-15.519 Y23.039 Z-3.000 I581.124 J33.125 K0.000 F600.000
G2 X-17.016 Y21.445 Z-3.000 I-1.497 J-0.094 K0.000 F600.000
G1 X-20.872 Y21.445 Z-3.000 F600.000
G2 X-22.368 Y22.836 Z-3.000 I0.000 J1.500 K0.000 F600.000
G1 X-22.576 Y25.664 Z-3.000 F600.000
G1 X-27.452 Y25.394 Z-3.000 F600.000
G2 X-27.216 Y22.952 Z-3.000 I-27.631 J-3.903 K0.000 F600.000
G2 X-28.681 Y21.320 Z-3.000 I-1.494 J-0.132 K0.000 F600.000
G1 X-31.969 Y21.256 Z-3.000 F600.000
G2 X-33.496 Y22.679 Z-3.000 I-0.029 J1.500 K0.000 F600.000
G3 X-33.671 Y25.399 Z-3.000 I-32.602 J-0.729 K0.000 F600.000
G1 X-38.515 Y25.084 Z-3.000 F600.000
G2 X-38.461 Y22.719 Z-3.000 I-35.623 J-1.992 K0.000 F600.000
G2 X-39.961 Y21.192 Z-3.000 I-1.500 J-0.027 K0.000 F600.000
G1 X-43.502 Y21.192 Z-3.000 F600.000
G2 X-45.001 Y22.649 Z-3.000 I0.000 J1.500 K0.000 F600.000
G2 X-45.095 Y26.342 Z-3.000 I414.248 J12.371 K0.000 F600.000
G1 X-49.992 Y26.028 Z-3.000 F600.000
G1 X-49.904 Y22.606 Z-3.000 F600.000
G2 X-51.168 Y21.086 Z-3.000 I-1.500 J-0.039 K0.000 F600.000
G3 X-56.348 Y19.677 Z-3.000 I2.290 J-18.652 K0.000 F600.000
G1 X-55.214 Y15.261 Z-3.000 F600.000
G2 X-51.495 Y16.362 Z-3.000 I15.711 J-46.236 K0.000 F600.000
G2 X-49.587 Y14.945 Z-3.000 I0.409 J-1.443 K0.000 F600.000
G3 X-49.463 Y11.525 Z-3.000 I44.992 J-0.089 K0.000 F600.000
G2 X-51.377 Y10.000 Z-3.000 I-1.498 J-0.084 K0.000 F600.000
G3 X-55.386 Y10.809 Z-3.000 I-6.235 J-20.573 K0.000 F600.000
G1 X-56.134 Y6.012 Z-3.000 F600.000
G2 X-45.592 Y2.691 Z-3.000 I-5.922 J-37.182 K0.000 F600.000
G2 X-46.180 Y-0.171 Z-3.000 I-0.628 J-1.362 K0.000 F600.000
G2 X-49.740 Y-0.235 Z-3.000 I-3.560 J99.529 K0.000 F600.000
G3 X-52.977 Y-0.797 Z-3.000 I0.681 J-13.531 K0.000 F600.000
G3 X-54.773 Y-2.006 Z-3.000 I0.920 J-3.303 K0.000 F600.000
G3 X-55.512 Y-4.093 Z-3.000 I3.722 J-2.493 K0.000 F600.000
G3 X-55.781 Y-7.461 Z-3.000 I19.862 J-3.285 K0.000 F600.000
G3 X-55.387 Y-14.415 Z-3.000 I101.005 J2.242 K0.000 F600.000
G2 X-54.963 Y-19.987 Z-3.000 I-1372.949 J-107.219 K0.000 F600.000
G2 X-55.935 Y-21.498 Z-3.000 I-1.476 J-0.118 K0.000 F600.000
G1 X-55.632 Y-25.791 Z-3.000 F600.000
G2 X-20.743 Y-26.364 Z-3.000 I7.221 J-623.160 K0.000 F600.000
G2 X-9.774 Y-27.203 Z-3.000 I-8.664 J-185.336 K0.000 F600.000
G1 X-8.276 Y-22.745 Z-3.000 F600.000
G3 X-15.898 Y-22.111 Z-3.000 I-14.669 J-130.342 K0.000 F600.000
G3 X-35.034 Y-21.531 Z-3.000 I-22.793 J-435.877 K0.000 F600.000
G1 X-43.368 Y-21.474 Z-3.000 F600.000
G1 X-47.651 Y-21.538 Z-3.000 F600.000
G2 X-49.161 Y-20.223 Z-3.000 I-0.022 J1.500 K0.000 F600.000
G3 X-49.742 Y-15.962 Z-3.000 I-69.505 J-7.308 K0.000 F600.000
G2 X-48.328 Y-14.431 Z-3.000 I1.500 J0.033 K0.000 F600.000
G2 X-45.533 Y-14.365 Z-3.000 I2.405 J-42.496 K0.000 F600.000
G2 X-44.048 Y-15.603 Z-3.000 I0.009 J-1.500 K0.000 F600.000
G2 X-43.897 Y-16.741 Z-3.000 I-8.973 J-1.771 K0.000 F600.000
G1 X-39.815 Y-16.669 Z-3.000 F600.000
G2 X-39.865 Y-15.587 Z-3.000 I4.779 J0.763 K0.000 F600.000
G2 X-38.381 Y-14.301 Z-3.000 I1.485 J-0.215 K0.000 F600.000
G1 X-35.790 Y-14.301 Z-3.000 F600.000
G2 X-34.295 Y-15.686 Z-3.000 I-0.000 J-1.500 K0.000 F600.000
G2 X-34.154 Y-17.817 Z-3.000 I-72.747 J-5.867 K0.000 F600.000
G1 X-29.986 Y-17.743 Z-3.000 F600.000
G2 X-30.582 Y-7.114 Z-3.000 I698.380 J44.531 K0.000 F600.000
G1 X-34.703 Y-7.260 Z-3.000 F600.000
G1 X-34.546 Y-9.767 Z-3.000 F600.000
G2 X-36.032 Y-11.361 Z-3.000 I-1.497 J-0.094 K0.000 F600.000
G2 X-38.891 Y-11.401 Z-3.000 I-2.536 J79.814 K0.000 F600.000
G2 X-40.130 Y-10.024 Z-3.000 I0.257 J1.478 K0.000 F600.000
G3 X-40.282 Y-8.235 Z-3.000 I-30.914 J-1.728 K0.000 F600.000
G1 X-44.411 Y-8.347 Z-3.000 F600.000
G1 X-44.282 Y-9.998 Z-3.000 F600.000
G2 X-45.747 Y-11.614 Z-3.000 I-1.495 J-0.116 K0.000 F600.000
G1 X-48.716 Y-11.676 Z-3.000 F600.000
G2 X-50.245 Y-10.249 Z-3.000 I-0.031 J1.500 K0.000 F600.000
G2 X-50.271 Y-6.757 Z-3.000 I26.162 J1.938 K0.000 F600.000
G2 X-49.280 Y-4.673 Z-3.000 I3.199 J-0.244 K0.000 F600.000
G2 X-47.644 Y-4.013 Z-3.000 I2.095 J-2.835 K0.000 F600.000
G2 X-46.093 Y-3.873 Z-3.000 I1.709 J-10.307 K0.000 F600.000
G1 X-18.307 Y-3.874 Z-3.000 F600.000
G2 X-16.185 Y-4.116 Z-3.000 I0.326 J-6.549 K0.000 F600.000
G2 X-14.900 Y-5.519 Z-3.000 I-0.646 J-1.882 K0.000 F600.000
G2 X-14.863 Y-7.125 Z-3.000 I-2.588 J-0.865 K0.000 F600.000
G2 X-16.289 Y-8.073 Z-3.000 I-1.395 J0.552 K0.000 F600.000
G3 X-22.413 Y-8.009 Z-3.000 I-5.342 J-220.493 K0.000 F600.000
G3 X-23.691 Y-8.131 Z-3.000 I-0.104 J-5.690 K0.000 F600.000
G3 X-24.560 Y-8.511 Z-3.000 I0.330 J-1.940 K0.000 F600.000
G3 X-25.023 Y-9.508 Z-3.000 I0.988 J-1.065 K0.000 F600.000
G3 X-25.250 Y-12.332 Z-3.000 I15.694 J-2.681 K0.000 F600.000
G3 X-24.757 Y-17.572 Z-3.000 I28.511 J0.039 K0.000 F600.000
G2 X-12.289 Y-17.468 Z-3.000 I11.580 J-640.556 K0.000 F600.000
G3 X-12.632 Y-7.966 Z-3.000 I-77.671 J1.949 K0.000 F600.000
G2 X-11.327 Y-6.350 Z-3.000 I1.495 J0.127 K0.000 F600.000
G1 X-8.245 Y-5.959 Z-3.000 F600.000
G3 X-8.501 Y-1.801 Z-3.000 I-4.549 J1.806 K0.000 F600.000
G3 X-11.239 Y-0.275 Z-3.000 I-2.959 J-2.091 K0.000 F600.000
G3 X-22.347 Y0.076 Z-3.000 I-8.830 J-103.378 K0.000 F600.000
G3 X-35.901 Y-0.046 Z-3.000 I5.273 J-1333.174 K0.000 F600.000
G2 X-36.416 Y2.868 Z-3.000 I-0.015 J1.500 K0.000 F600.000
G1 X-35.523 Y3.184 Z-3.000 F600.000
G2 X-34.399 Y5.672 Z-3.000 I1.122 J0.991 K0.000 F600.000
G2 X-8.105 Y5.202 Z-3.000 I-2.762 J-890.351 K0.000 F600.000
G1 X-7.695 Y10.762 Z-3.000 F600.000
G2 X-8.879 Y10.800 Z-3.000 I-0.425 J5.274 K0.000 F600.000
G2 X-10.045 Y12.224 Z-3.000 I0.334 J1.462 K0.000 F600.000
G3 X-10.441 Y27.142 Z-3.000 I-3356.487 J-81.762 K0.000 F600.000
G0 Z5.000
G0 X-13.257 Y20.478 Z5.000
G0 X-13.257 Y20.478 Z3.000
G1 X-13.257 Y20.478 Z-3.000 F600.000
G2 X-14.701 Y19.097 Z-3.000 I-3.574 J2.292 K0.000 F600.000
G2 X-13.189 Y17.832 Z-3.000 I-1.861 J-3.759 K0.000 F600.000
G3 X-13.257 Y20.478 Z-3.000 I-592.183 J-13.859 K0.000 F600.000
G0 Z5.000
G0 X-15.943 Y16.364 Z5.000
G0 X-15.943 Y16.364 Z3.000
G1 X-15.943 Y16.364 Z-3.000 F600.000
G3 X-16.717 Y16.607 Z-3.000 I-0.820 J-1.256 K0.000 F600.000
G1 X-20.762 Y16.733 Z-3.000 F600.000
G3 X-22.308 Y15.175 Z-3.000 I-0.047 J-1.499 K0.000 F600.000
G3 X-22.181 Y12.255 Z-3.000 I171.413 J5.937 K0.000 F600.000
G3 X-20.683 Y10.826 Z-3.000 I1.498 J0.071 K0.000 F600.000
G1 X-16.763 Y10.826 Z-3.000 F600.000
G3 X-15.263 Y12.326 Z-3.000 I-0.000 J1.500 K0.000 F600.000
G1 X-15.263 Y15.108 Z-3.000 F600.000
G3 X-15.943 Y16.364 Z-3.000 I-1.500 J-0.000 K0.000 F600.000
G0 Z5.000
G0 X-12.670 Y10.474 Z5.000
G0 X-12.670 Y10.474 Z3.000
G1 X-12.670 Y10.474 Z-3.000 F600.000
G2 X-14.632 Y8.370 Z-3.000 I-3.999 J1.764 K0.000 F600.000
G1 X-10.886 Y8.274 Z-3.000 F600.000
G1 X-10.876 Y8.419 Z-3.000 F600.000
G2 X-12.670 Y10.474 Z-3.000 I2.254 J3.778 K0.000 F600.000
G0 Z5.000
G0 X-23.140 Y8.567 Z5.000
G0 X-23.140 Y8.567 Z3.000
G1 X-23.140 Y8.567 Z-3.000 F600.000
G2 X-24.454 Y9.888 Z-3.000 I2.180 J3.485 K0.000 F600.000
G2 X-25.652 Y8.610 Z-3.000 I-3.530 J2.109 K0.000 F600.000
G1 X-23.140 Y8.567 Z-3.000 F600.000
G0 Z5.000
G0 X-27.051 Y11.385 Z5.000
G0 X-27.051 Y11.385 Z3.000
G1 X-27.051 Y11.385 Z-3.000 F600.000
G3 X-26.770 Y12.351 Z-3.000 I-1.217 J0.877 K0.000 F600.000
G3 X-27.027 Y15.504 Z-3.000 I-78.534 J-4.822 K0.000 F600.000
G3 X-28.521 Y16.861 Z-3.000 I-1.493 J-0.143 K0.000 F600.000
G1 X-31.998 Y16.861 Z-3.000 F600.000
G3 X-33.480 Y15.595 Z-3.000 I-0.000 J-1.500 K0.000 F600.000
G3 X-33.238 Y12.054 Z-3.000 I35.142 J0.621 K0.000 F600.000
G3 X-31.718 Y10.701 Z-3.000 I1.493 J0.146 K0.000 F600.000
G1 X-28.241 Y10.763 Z-3.000 F600.000
G3 X-27.051 Y11.385 Z-3.000 I-0.027 J1.500 K0.000 F600.000
G0 Z5.000
G0 X-24.621 Y17.606 Z5.000
G0 X-24.621 Y17.606 Z3.000
G1 X-24.621 Y17.606 Z-3.000 F600.000
G2 X-23.154 Y19.070 Z-3.000 I3.663 J-2.205 K0.000 F600.000
G2 X-24.761 Y20.682 Z-3.000 I2.244 J3.842 K0.000 F600.000
G2 X-26.108 Y19.150 Z-3.000 I-3.795 J1.978 K0.000 F600.000
G2 X-24.621 Y17.606 Z-3.000 I-2.321 J-3.725 K0.000 F600.000
G0 Z5.000
G0 X-24.603 Y18.848 Z5.000
G0 X-24.603 Y18.848 Z3.000
G1 X-24.603 Y18.848 Z-3.000 F600.000
G1 X-24.401 Y19.059 Z-3.000 F600.000
G2 X-24.737 Y19.403 Z-3.000 I1.222 J1.527 K0.000 F600.000
G1 X-24.927 Y19.183 Z-3.000 F600.000
G1 X-24.603 Y18.848 Z-3.000 F600.000
G0 Z5.000
G0 X-34.554 Y19.061 Z5.000
G0 X-34.554 Y19.061 Z3.000
G1 X-34.554 Y19.061 Z-3.000 F600.000
G2 X-35.962 Y20.645 Z-3.000 I2.341 J3.498 K0.000 F600.000
G2 X-37.382 Y19.016 Z-3.000 I-3.778 J1.861 K0.000 F600.000
G2 X-35.909 Y17.567 Z-3.000 I-2.165 J-3.674 K0.000 F600.000
G2 X-34.554 Y19.061 Z-3.000 I3.732 J-2.025 K0.000 F600.000
G0 Z5.000
G0 X-35.716 Y19.063 Z5.000
G0 X-35.716 Y19.063 Z3.000
G1 X-35.716 Y19.063 Z-3.000 F600.000
G2 X-35.954 Y19.309 Z-3.000 I0.874 J1.083 K0.000 F600.000
G2 X-36.183 Y19.060 Z-3.000 I-1.122 J0.804 K0.000 F600.000
G2 X-35.941 Y18.813 Z-3.000 I-0.876 J-1.101 K0.000 F600.000
G1 X-35.716 Y19.063 Z-3.000 F600.000
G0 Z5.000
G0 X-38.634 Y16.217 Z5.000
G0 X-38.634 Y16.217 Z3.000
G1 X-38.634 Y16.217 Z-3.000 F600.000
G3 X-39.708 Y16.670 Z-3.000 I-1.074 J-1.047 K0.000 F600.000
G1 X-43.311 Y16.670 Z-3.000 F600.000
G3 X-44.810 Y15.128 Z-3.000 I-0.000 J-1.500 K0.000 F600.000
G3 X-44.695 Y12.035 Z-3.000 I91.308 J1.849 K0.000 F600.000
G3 X-43.132 Y10.448 Z-3.000 I1.519 J-0.066 K0.000 F600.000
G1 X-39.593 Y10.574 Z-3.000 F600.000
G3 X-38.146 Y12.082 Z-3.000 I-0.053 J1.499 K0.000 F600.000
G3 X-38.208 Y15.208 Z-3.000 I-99.599 J-0.417 K0.000 F600.000
G3 X-38.634 Y16.217 Z-3.000 I-1.500 J-0.038 K0.000 F600.000
G0 Z5.000
G0 X-35.662 Y9.999 Z5.000
G0 X-35.662 Y9.999 Z3.000
G1 X-35.662 Y9.999 Z-3.000 F600.000
G2 X-39.487 Y7.576 Z-3.000 I-3.977 J2.047 K0.000 F600.000
G1 X-43.026 Y7.450 Z-3.000 F600.000
G2 X-46.925 Y9.457 Z-3.000 I-0.166 J4.471 K0.000 F600.000
G2 X-49.098 Y7.351 Z-3.000 I-3.981 J1.933 K0.000 F600.000
G2 X-43.820 Y5.134 Z-3.000 I-10.503 J-32.410 K0.000 F600.000
G2 X-42.306 Y-0.874 Z-3.000 I-2.386 J-3.796 K0.000 F600.000
G1 X-39.764 Y-0.874 Z-3.000 F600.000
G2 X-38.842 Y4.861 Z-3.000 I3.824 J2.327 K0.000 F600.000
G2 X-34.520 Y8.666 Z-3.000 I4.431 J-0.676 K0.000 F600.000
G2 X-35.662 Y9.999 Z-3.000 I2.523 J3.318 K0.000 F600.000
G0 Z5.000
G0 X-38.880 Y6.889 Z5.000
G0 X-38.880 Y6.889 Z3.000
G1 X-38.880 Y6.889 Z-3.000 F600.000
G2 X-39.460 Y6.826 Z-3.000 I-0.626 J3.083 K0.000 F600.000
G1 X-42.999 Y6.701 Z-3.000 F600.000
G2 X-46.842 Y8.194 Z-3.000 I-0.203 J5.170 K0.000 F600.000
G2 X-47.441 Y7.556 Z-3.000 I-2.609 J1.850 K0.000 F600.000
G2 X-43.454 Y5.790 Z-3.000 I-11.062 J-30.364 K0.000 F600.000
G2 X-41.081 Y2.354 Z-3.000 I-2.716 J-4.414 K0.000 F600.000
G2 X-39.529 Y5.249 Z-3.000 I5.019 J-0.827 K0.000 F600.000
G2 X-38.880 Y6.889 Z-3.000 I4.610 J-0.877 K0.000 F600.000
G0 Z5.000
G0 X-40.087 Y6.054 Z5.000
G0 X-40.087 Y6.054 Z3.000
G1 X-40.087 Y6.054 Z-3.000 F600.000
G1 X-42.429 Y5.971 Z-3.000 F600.000
G2 X-41.103 Y4.450 Z-3.000 I-3.479 J-4.374 K0.000 F600.000
G2 X-40.210 Y5.630 Z-3.000 I4.197 J-2.247 K0.000 F600.000
G2 X-40.087 Y6.054 Z-3.000 I1.908 J-0.324 K0.000 F600.000
G0 Z5.000
G0 X-41.057 Y0.428 Z5.000
G0 X-41.057 Y0.428 Z3.000
G1 X-41.057 Y0.428 Z-3.000 F600.000
G2 X-41.185 Y-0.124 Z-3.000 I-2.291 J0.241 K0.000 F600.000
G1 X-40.914 Y-0.124 Z-3.000 F600.000
G2 X-41.057 Y0.428 Z-3.000 I2.156 J0.856 K0.000 F600.000
G0 Z5.000
G0 X-42.134 Y-12.740 Z5.000
G0 X-42.134 Y-12.740 Z3.000
G1 X-42.134 Y-12.740 Z-3.000 F600.000
G1 X-42.208 Y-12.838 Z-3.000 F600.000
G1 X-41.971 Y-13.105 Z-3.000 F600.000
G1 X-41.898 Y-13.007 Z-3.000 F600.000
G2 X-42.134 Y-12.740 Z-3.000 I0.895 J1.029 K0.000 F600.000
G0 Z5.000
G0 X-51.923 Y-13.356 Z5.000
G0 X-51.923 Y-13.356 Z3.000
G1 X-51.923 Y-13.356 Z-3.000 F600.000
G2 X-52.522 Y-12.613 Z-3.000 I2.525 J2.646 K0.000 F600.000
G2 X-52.394 Y-14.202 Z-3.000 I-310.648 J-25.768 K0.000 F600.000
G2 X-51.923 Y-13.356 Z-3.000 I3.165 J-1.209 K0.000 F600.000
G0 Z5.000
G0 X-52.055 Y-21.005 Z5.000
G0 X-52.055 Y-21.005 Z3.000
G1 X-52.055 Y-21.005 Z-3.000 F600.000
G2 X-52.838 Y-22.763 Z-3.000 I-3.980 J0.720 K0.000 F600.000
G1 X-51.259 Y-22.747 Z-3.000 F600.000
G2 X-52.055 Y-21.005 Z-3.000 I3.248 J2.536 K0.000 F600.000
G0 Z5.000
G0 X-22.016 Y-13.933 Z5.000
G0 X-22.016 Y-13.933 Z3.000
G1 X-22.016 Y-13.933 Z-3.000 F600.000
G3 X-20.525 Y-15.089 Z-3.000 I1.460 J0.344 K0.000 F600.000
G1 X-17.428 Y-15.025 Z-3.000 F600.000
G3 X-15.959 Y-13.516 Z-3.000 I-0.031 J1.500 K0.000 F600.000
G3 X-16.024 Y-11.620 Z-3.000 I-37.914 J-0.363 K0.000 F600.000
G3 X-17.425 Y-10.198 Z-3.000 I-1.498 J-0.074 K0.000 F600.000
G3 X-20.312 Y-10.291 Z-3.000 I-1.150 J-9.138 K0.000 F600.000
G3 X-21.915 Y-11.976 Z-3.000 I0.493 J-2.074 K0.000 F600.000
G3 X-22.055 Y-13.563 Z-3.000 I6.185 J-1.346 K0.000 F600.000
G3 X-22.016 Y-13.933 Z-3.000 I1.500 J-0.026 K0.000 F600.000
G0 Z5.000
G0 X-12.497 Y-3.557 Z5.000
G0 X-12.497 Y-3.557 Z3.000
G1 X-12.497 Y-3.557 Z-3.000 F600.000
G2 X-11.242 Y-3.315 Z-3.000 I1.827 J-6.109 K0.000 F600.000
G3 X-11.547 Y-3.259 Z-3.000 I-0.270 J-0.609 K0.000 F600.000
G3 X-12.739 Y-3.160 Z-3.000 I-2.585 J-23.699 K0.000 F600.000
G2 X-12.497 Y-3.557 Z-3.000 I-3.366 J-2.315 K0.000 F600.000
G0 Z5.000
G0 X-45.860 Y18.867 Z5.000
G0 X-45.860 Y18.867 Z3.000
G1 X-45.860 Y18.867 Z-3.000 F600.000
G2 X-47.419 Y20.483 Z-3.000 I2.248 J3.730 K0.000 F600.000
G2 X-48.889 Y18.845 Z-3.000 I-3.819 J1.948 K0.000 F600.000
G2 X-47.274 Y17.300 Z-3.000 I-2.145 J-3.858 K0.000 F600.000
G2 X-45.860 Y18.867 Z-3.000 I3.810 J-2.016 K0.000 F600.000
G0 Z5.000
G0 X-47.058 Y18.832 Z5.000
G0 X-47.058 Y18.832 Z3.000
G1 X-47.058 Y18.832 Z-3.000 F600.000
G1 X-47.396 Y19.181 Z-3.000 F600.000
G2 X-47.662 Y18.898 Z-3.000 I-1.275 J0.934 K0.000 F600.000
G1 X-47.315 Y18.561 Z-3.000 F600.000
G2 X-47.058 Y18.832 Z-3.000 I1.226 J-0.903 K0.000 F600.000
G1 X-47.058 Y18.832 Z-5.000 F600.000
G1 X-47.396 Y19.181 Z-5.000 F600.000
G2 X-47.662 Y18.898 Z-5.000 I-1.275 J0.934 K0.000 F600.000
G1 X-47.315 Y18.561 Z-5.000 F600.000
G2 X-47.058 Y18.832 Z-5.000 I1.226 J-0.903 K0.000 F600.000
G0 Z5.000
G0 X-46.531 Y18.312 Z5.000
G0 X-46.531 Y18.312 Z3.000
G1 X-46.531 Y18.312 Z-5.000 F600.000
G2 X-45.860 Y18.867 Z-5.000 I3.067 J-3.029 K0.000 F600.000
G2 X-47.419 Y20.483 Z-5.000 I2.248 J3.730 K0.000 F600.000
G2 X-48.889 Y18.845 Z-5.000 I-3.819 J1.948 K0.000 F600.000
G2 X-47.274 Y17.300 Z-5.000 I-2.145 J-3.858 K0.000 F600.000
G2 X-46.531 Y18.312 Z-5.000 I3.810 J-2.016 K0.000 F600.000
G0 Z5.000
G0 X-44.384 Y16.217 Z5.000
G0 X-44.384 Y16.217 Z3.000
G1 X-44.384 Y16.217 Z-5.000 F600.000
G3 X-44.810 Y15.128 Z-5.000 I1.074 J-1.048 K0.000 F600.000
G3 X-44.695 Y12.035 Z-5.000 I91.308 J1.849 K0.000 F600.000
G3 X-43.132 Y10.448 Z-5.000 I1.519 J-0.066 K0.000 F600.000
G1 X-39.593 Y10.574 Z-5.000 F600.000
G3 X-38.146 Y12.082 Z-5.000 I-0.053 J1.499 K0.000 F600.000
G3 X-38.208 Y15.208 Z-5.000 I-99.599 J-0.417 K0.000 F600.000
G3 X-39.708 Y16.670 Z-5.000 I-1.500 J-0.038 K0.000 F600.000
G1 X-43.311 Y16.670 Z-5.000 F600.000
G3 X-44.384 Y16.217 Z-5.000 I-0.000 J-1.500 K0.000 F600.000
G0 Z5.000
G0 X-43.705 Y21.206 Z5.000
G0 X-43.705 Y21.206 Z3.000
G1 X-43.705 Y21.206 Z-5.000 F600.000
G2 X-45.001 Y22.649 Z-5.000 I0.203 J1.486 K0.000 F600.000
G2 X-45.095 Y26.342 Z-5.000 I414.248 J12.371 K0.000 F600.000
G1 X-49.992 Y26.028 Z-5.000 F600.000
G1 X-49.904 Y22.606 Z-5.000 F600.000
G2 X-51.168 Y21.086 Z-5.000 I-1.500 J-0.039 K0.000 F600.000
G3 X-56.348 Y19.677 Z-5.000 I2.290 J-18.652 K0.000 F600.000
G1 X-55.214 Y15.261 Z-5.000 F600.000
G2 X-51.495 Y16.362 Z-5.000 I15.711 J-46.236 K0.000 F600.000
G2 X-49.587 Y14.945 Z-5.000 I0.409 J-1.443 K0.000 F600.000
G3 X-49.463 Y11.525 Z-5.000 I44.992 J-0.089 K0.000 F600.000
G2 X-51.377 Y10.000 Z-5.000 I-1.498 J-0.084 K0.000 F600.000
G3 X-55.386 Y10.809 Z-5.000 I-6.235 J-20.573 K0.000 F600.000
G1 X-56.134 Y6.012 Z-5.000 F600.000
G2 X-45.592 Y2.691 Z-5.000 I-5.922 J-37.182 K0.000 F600.000
G2 X-46.180 Y-0.171 Z-5.000 I-0.628 J-1.362 K0.000 F600.000
G2 X-49.740 Y-0.235 Z-5.000 I-3.560 J99.529 K0.000 F600.000
G3 X-52.977 Y-0.797 Z-5.000 I0.681 J-13.531 K0.000 F600.000
G3 X-54.773 Y-2.006 Z-5.000 I0.920 J-3.303 K0.000 F600.000
G3 X-55.512 Y-4.093 Z-5.000 I3.722 J-2.493 K0.000 F600.000
G3 X-55.781 Y-7.461 Z-5.000 I19.862 J-3.285 K0.000 F600.000
G3 X-55.387 Y-14.415 Z-5.000 I101.005 J2.242 K0.000 F600.000
G2 X-54.963 Y-19.987 Z-5.000 I-1372.949 J-107.219 K0.000 F600.000
G2 X-55.935 Y-21.498 Z-5.000 I-1.476 J-0.118 K0.000 F600.000
G1 X-55.632 Y-25.791 Z-5.000 F600.000
G2 X-20.743 Y-26.364 Z-5.000 I7.221 J-623.160 K0.000 F600.000
G2 X-9.774 Y-27.203 Z-5.000 I-8.664 J-185.336 K0.000 F600.000
G1 X-8.276 Y-22.745 Z-5.000 F600.000
G3 X-15.898 Y-22.111 Z-5.000 I-14.669 J-130.342 K0.000 F600.000
G3 X-35.034 Y-21.531 Z-5.000 I-22.793 J-435.877 K0.000 F600.000
G1 X-43.368 Y-21.474 Z-5.000 F600.000
G1 X-47.651 Y-21.538 Z-5.000 F600.000
G2 X-49.161 Y-20.223 Z-5.000 I-0.022 J1.500 K0.000 F600.000
G3 X-49.742 Y-15.962 Z-5.000 I-69.505 J-7.308 K0.000 F600.000
G2 X-48.328 Y-14.431 Z-5.000 I1.500 J0.033 K0.000 F600.000
G2 X-45.533 Y-14.365 Z-5.000 I2.405 J-42.496 K0.000 F600.000
G2 X-44.048 Y-15.603 Z-5.000 I0.009 J-1.500 K0.000 F600.000
G2 X-43.897 Y-16.741 Z-5.000 I-8.973 J-1.771 K0.000 F600.000
G1 X-39.815 Y-16.669 Z-5.000 F600.000
G2 X-39.865 Y-15.587 Z-5.000 I4.779 J0.763 K0.000 F600.000
G2 X-38.381 Y-14.301 Z-5.000 I1.485 J-0.215 K0.000 F600.000
G1 X-35.790 Y-14.301 Z-5.000 F600.000
G2 X-34.295 Y-15.686 Z-5.000 I-0.000 J-1.500 K0.000 F600.000
G2 X-34.154 Y-17.817 Z-5.000 I-72.747 J-5.867 K0.000 F600.000
G1 X-29.986 Y-17.743 Z-5.000 F600.000
G2 X-30.582 Y-7.114 Z-5.000 I698.380 J44.531 K0.000 F600.000
G1 X-34.703 Y-7.260 Z-5.000 F600.000
G1 X-34.546 Y-9.767 Z-5.000 F600.000
G2 X-36.032 Y-11.361 Z-5.000 I-1.497 J-0.094 K0.000 F600.000
G2 X-38.891 Y-11.401 Z-5.000 I-2.536 J79.814 K0.000 F600.000
G2 X-40.130 Y-10.024 Z-5.000 I0.257 J1.478 K0.000 F600.000
G3 X-40.282 Y-8.235 Z-5.000 I-30.914 J-1.728 K0.000 F600.000
G1 X-44.411 Y-8.347 Z-5.000 F600.000
G1 X-44.282 Y-9.998 Z-5.000 F600.000
G2 X-45.747 Y-11.614 Z-5.000 I-1.495 J-0.116 K0.000 F600.000
G1 X-48.716 Y-11.676 Z-5.000 F600.000
G2 X-50.245 Y-10.249 Z-5.000 I-0.031 J1.500 K0.000 F600.000
G2 X-50.271 Y-6.757 Z-5.000 I26.162 J1.938 K0.000 F600.000
G2 X-49.280 Y-4.673 Z-5.000 I3.199 J-0.244 K0.000 F600.000
G2 X-47.644 Y-4.013 Z-5.000 I2.095 J-2.835 K0.000 F600.000
G2 X-46.093 Y-3.873 Z-5.000 I1.709 J-10.307 K0.000 F600.000
G1 X-18.307 Y-3.874 Z-5.000 F600.000
G2 X-16.185 Y-4.116 Z-5.000 I0.326 J-6.549 K0.000 F600.000
G2 X-14.900 Y-5.519 Z-5.000 I-0.646 J-1.882 K0.000 F600.000
G2 X-14.863 Y-7.125 Z-5.000 I-2.588 J-0.865 K0.000 F600.000
G2 X-16.289 Y-8.073 Z-5.000 I-1.395 J0.552 K0.000 F600.000
G3 X-22.413 Y-8.009 Z-5.000 I-5.342 J-220.493 K0.000 F600.000
G3 X-23.691 Y-8.131 Z-5.000 I-0.104 J-5.690 K0.000 F600.000
G3 X-24.560 Y-8.511 Z-5.000 I0.330 J-1.940 K0.000 F600.000
G3 X-25.023 Y-9.508 Z-5.000 I0.988 J-1.065 K0.000 F600.000
G3 X-25.250 Y-12.332 Z-5.000 I15.694 J-2.681 K0.000 F600.000
G3 X-24.757 Y-17.572 Z-5.000 I28.511 J0.039 K0.000 F600.000
G2 X-12.289 Y-17.468 Z-5.000 I11.580 J-640.556 K0.000 F600.000
G3 X-12.632 Y-7.966 Z-5.000 I-77.671 J1.949 K0.000 F600.000
G2 X-11.327 Y-6.350 Z-5.000 I1.495 J0.127 K0.000 F600.000
G1 X-8.245 Y-5.959 Z-5.000 F600.000
G3 X-8.501 Y-1.801 Z-5.000 I-4.549 J1.806 K0.000 F600.000
G3 X-11.239 Y-0.275 Z-5.000 I-2.959 J-2.091 K0.000 F600.000
G3 X-22.347 Y0.076 Z-5.000 I-8.830 J-103.378 K0.000 F600.000
G3 X-35.901 Y-0.046 Z-5.000 I5.273 J-1333.174 K0.000 F600.000
G2 X-36.416 Y2.868 Z-5.000 I-0.015 J1.500 K0.000 F600.000
G1 X-35.523 Y3.184 Z-5.000 F600.000
G2 X-34.399 Y5.672 Z-5.000 I1.122 J0.991 K0.000 F600.000
G2 X-8.105 Y5.202 Z-5.000 I-2.762 J-890.351 K0.000 F600.000
G1 X-7.695 Y10.762 Z-5.000 F600.000
G2 X-8.879 Y10.800 Z-5.000 I-0.425 J5.274 K0.000 F600.000
G2 X-10.045 Y12.224 Z-5.000 I0.334 J1.462 K0.000 F600.000
G3 X-10.444 Y27.222 Z-5.000 I-3356.487 J-81.762 K0.000 F600.000
G1 X-15.750 Y26.860 Z-5.000 F600.000
G3 X-15.519 Y23.039 Z-5.000 I581.124 J33.125 K0.000 F600.000
G2 X-17.016 Y21.445 Z-5.000 I-1.497 J-0.094 K0.000 F600.000
G1 X-20.872 Y21.445 Z-5.000 F600.000
G2 X-22.368 Y22.836 Z-5.000 I0.000 J1.500 K0.000 F600.000
G1 X-22.576 Y25.664 Z-5.000 F600.000
G1 X-27.452 Y25.394 Z-5.000 F600.000
G2 X-27.216 Y22.952 Z-5.000 I-27.631 J-3.903 K0.000 F600.000
G2 X-28.681 Y21.320 Z-5.000 I-1.494 J-0.132 K0.000 F600.000
G1 X-31.969 Y21.256 Z-5.000 F600.000
G2 X-33.496 Y22.679 Z-5.000 I-0.029 J1.500 K0.000 F600.000
G3 X-33.671 Y25.399 Z-5.000 I-32.602 J-0.729 K0.000 F600.000
G1 X-38.515 Y25.084 Z-5.000 F600.000
G2 X-38.461 Y22.719 Z-5.000 I-35.623 J-1.992 K0.000 F600.000
G2 X-39.961 Y21.192 Z-5.000 I-1.500 J-0.027 K0.000 F600.000
G1 X-43.502 Y21.192 Z-5.000 F600.000
G2 X-43.705 Y21.206 Z-5.000 I0.000 J1.500 K0.000 F600.000
G0 Z5.000
G0 X-37.382 Y19.016 Z5.000
G0 X-37.382 Y19.016 Z3.000
G1 X-37.382 Y19.016 Z-5.000 F600.000
G2 X-35.909 Y17.567 Z-5.000 I-2.165 J-3.674 K0.000 F600.000
G2 X-34.554 Y19.061 Z-5.000 I3.732 J-2.025 K0.000 F600.000
G2 X-35.962 Y20.645 Z-5.000 I2.341 J3.498 K0.000 F600.000
G2 X-37.382 Y19.016 Z-5.000 I-3.778 J1.861 K0.000 F600.000
G0 Z5.000
G0 X-36.183 Y19.060 Z5.000
G0 X-36.183 Y19.060 Z3.000
G1 X-36.183 Y19.060 Z-5.000 F600.000
G2 X-35.941 Y18.813 Z-5.000 I-0.876 J-1.101 K0.000 F600.000
G1 X-35.716 Y19.063 Z-5.000 F600.000
G2 X-35.954 Y19.309 Z-5.000 I0.874 J1.083 K0.000 F600.000
G2 X-36.183 Y19.060 Z-5.000 I-1.122 J0.804 K0.000 F600.000
G0 Z5.000
G0 X-33.122 Y16.354 Z5.000
G0 X-33.122 Y16.354 Z3.000
G1 X-33.122 Y16.354 Z-5.000 F600.000
G3 X-33.480 Y15.595 Z-5.000 I1.124 J-0.993 K0.000 F600.000
G3 X-33.238 Y12.054 Z-5.000 I35.142 J0.621 K0.000 F600.000
G3 X-31.718 Y10.701 Z-5.000 I1.493 J0.146 K0.000 F600.000
G1 X-28.241 Y10.763 Z-5.000 F600.000
G3 X-26.770 Y12.351 Z-5.000 I-0.027 J1.500 K0.000 F600.000
G3 X-27.027 Y15.504 Z-5.000 I-78.534 J-4.822 K0.000 F600.000
G3 X-28.521 Y16.861 Z-5.000 I-1.493 J-0.143 K0.000 F600.000
G1 X-31.998 Y16.861 Z-5.000 F600.000
G3 X-33.122 Y16.354 Z-5.000 I-0.000 J-1.500 K0.000 F600.000
G0 Z5.000
G0 X-35.662 Y9.999 Z5.000
G0 X-35.662 Y9.999 Z3.000
G1 X-35.662 Y9.999 Z-5.000 F600.000
G2 X-39.487 Y7.576 Z-5.000 I-3.977 J2.047 K0.000 F600.000
G1 X-43.026 Y7.450 Z-5.000 F600.000
G2 X-46.925 Y9.457 Z-5.000 I-0.166 J4.471 K0.000 F600.000
G2 X-49.098 Y7.351 Z-5.000 I-3.981 J1.933 K0.000 F600.000
G2 X-43.820 Y5.134 Z-5.000 I-10.503 J-32.410 K0.000 F600.000
G2 X-42.306 Y-0.874 Z-5.000 I-2.386 J-3.796 K0.000 F600.000
G1 X-39.764 Y-0.874 Z-5.000 F600.000
G2 X-38.842 Y4.861 Z-5.000 I3.824 J2.327 K0.000 F600.000
G2 X-34.520 Y8.666 Z-5.000 I4.431 J-0.676 K0.000 F600.000
G2 X-35.662 Y9.999 Z-5.000 I2.523 J3.318 K0.000 F600.000
G0 Z5.000
G0 X-38.880 Y6.889 Z5.000
G0 X-38.880 Y6.889 Z3.000
G1 X-38.880 Y6.889 Z-5.000 F600.000
G2 X-39.460 Y6.826 Z-5.000 I-0.626 J3.083 K0.000 F600.000
G1 X-42.999 Y6.701 Z-5.000 F600.000
G2 X-46.842 Y8.194 Z-5.000 I-0.203 J5.170 K0.000 F600.000
G2 X-47.441 Y7.556 Z-5.000 I-2.609 J1.850 K0.000 F600.000
G2 X-43.454 Y5.790 Z-5.000 I-11.062 J-30.364 K0.000 F600.000
G2 X-41.081 Y2.354 Z-5.000 I-2.716 J-4.414 K0.000 F600.000
G2 X-39.529 Y5.249 Z-5.000 I5.019 J-0.827 K0.000 F600.000
G2 X-38.880 Y6.889 Z-5.000 I4.610 J-0.877 K0.000 F600.000
G0 Z5.000
G0 X-40.087 Y6.054 Z5.000
G0 X-40.087 Y6.054 Z3.000
G1 X-40.087 Y6.054 Z-5.000 F600.000
G1 X-42.429 Y5.971 Z-5.000 F600.000
G2 X-41.103 Y4.450 Z-5.000 I-3.479 J-4.374 K0.000 F600.000
G2 X-40.210 Y5.630 Z-5.000 I4.197 J-2.247 K0.000 F600.000
G2 X-40.087 Y6.054 Z-5.000 I1.908 J-0.324 K0.000 F600.000
G0 Z5.000
G0 X-41.057 Y0.428 Z5.000
G0 X-41.057 Y0.428 Z3.000
G1 X-41.057 Y0.428 Z-5.000 F600.000
G2 X-41.185 Y-0.124 Z-5.000 I-2.291 J0.241 K0.000 F600.000
G1 X-40.914 Y-0.124 Z-5.000 F600.000
G2 X-41.057 Y0.428 Z-5.000 I2.156 J0.856 K0.000 F600.000
G0 Z5.000
G0 X-42.134 Y-12.740 Z5.000
G0 X-42.134 Y-12.740 Z3.000
G1 X-42.134 Y-12.740 Z-5.000 F600.000
G1 X-42.208 Y-12.838 Z-5.000 F600.000
G1 X-41.971 Y-13.105 Z-5.000 F600.000
G1 X-41.898 Y-13.007 Z-5.000 F600.000
G2 X-42.134 Y-12.740 Z-5.000 I0.895 J1.029 K0.000 F600.000
G0 Z5.000
G0 X-51.923 Y-13.356 Z5.000
G0 X-51.923 Y-13.356 Z3.000
G1 X-51.923 Y-13.356 Z-5.000 F600.000
G2 X-52.522 Y-12.613 Z-5.000 I2.525 J2.646 K0.000 F600.000
G2 X-52.394 Y-14.202 Z-5.000 I-310.648 J-25.768 K0.000 F600.000
G2 X-51.923 Y-13.356 Z-5.000 I3.165 J-1.209 K0.000 F600.000
G0 Z5.000
G0 X-52.055 Y-21.005 Z5.000
G0 X-52.055 Y-21.005 Z3.000
G1 X-52.055 Y-21.005 Z-5.000 F600.000
G2 X-52.838 Y-22.763 Z-5.000 I-3.980 J0.720 K0.000 F600.000
G1 X-51.259 Y-22.747 Z-5.000 F600.000
G2 X-52.055 Y-21.005 Z-5.000 I3.248 J2.536 K0.000 F600.000
G0 Z5.000
G0 X-22.016 Y-13.933 Z5.000
G0 X-22.016 Y-13.933 Z3.000
G1 X-22.016 Y-13.933 Z-5.000 F600.000
G3 X-20.525 Y-15.089 Z-5.000 I1.460 J0.344 K0.000 F600.000
G1 X-17.428 Y-15.025 Z-5.000 F600.000
G3 X-15.959 Y-13.516 Z-5.000 I-0.031 J1.500 K0.000 F600.000
G3 X-16.024 Y-11.620 Z-5.000 I-37.914 J-0.363 K0.000 F600.000
G3 X-17.425 Y-10.198 Z-5.000 I-1.498 J-0.074 K0.000 F600.000
G3 X-20.312 Y-10.291 Z-5.000 I-1.150 J-9.138 K0.000 F600.000
G3 X-21.915 Y-11.976 Z-5.000 I0.493 J-2.074 K0.000 F600.000
G3 X-22.055 Y-13.563 Z-5.000 I6.185 J-1.346 K0.000 F600.000
G3 X-22.016 Y-13.933 Z-5.000 I1.500 J-0.026 K0.000 F600.000
G0 Z5.000
G0 X-12.497 Y-3.557 Z5.000
G0 X-12.497 Y-3.557 Z3.000
G1 X-12.497 Y-3.557 Z-5.000 F600.000
G2 X-11.242 Y-3.315 Z-5.000 I1.827 J-6.109 K0.000 F600.000
G3 X-11.547 Y-3.259 Z-5.000 I-0.270 J-0.609 K0.000 F600.000
G3 X-12.739 Y-3.160 Z-5.000 I-2.585 J-23.699 K0.000 F600.000
G2 X-12.497 Y-3.557 Z-5.000 I-3.366 J-2.315 K0.000 F600.000
G0 Z5.000
G0 X-12.193 Y8.308 Z5.000
G0 X-12.193 Y8.308 Z3.000
G1 X-12.193 Y8.308 Z-5.000 F600.000
G1 X-10.886 Y8.274 Z-5.000 F600.000
G1 X-10.876 Y8.419 Z-5.000 F600.000
G2 X-12.670 Y10.474 Z-5.000 I2.254 J3.778 K0.000 F600.000
G2 X-14.632 Y8.370 Z-5.000 I-3.999 J1.764 K0.000 F600.000
G1 X-12.193 Y8.308 Z-5.000 F600.000
G0 Z5.000
G0 X-15.637 Y11.336 Z5.000
G0 X-15.637 Y11.336 Z3.000
G1 X-15.637 Y11.336 Z-5.000 F600.000
G3 X-15.263 Y12.326 Z-5.000 I-1.127 J0.990 K0.000 F600.000
G1 X-15.263 Y15.108 Z-5.000 F600.000
G3 X-16.717 Y16.607 Z-5.000 I-1.500 J-0.000 K0.000 F600.000
G1 X-20.762 Y16.733 Z-5.000 F600.000
G3 X-22.308 Y15.175 Z-5.000 I-0.047 J-1.499 K0.000 F600.000
G3 X-22.181 Y12.255 Z-5.000 I171.413 J5.937 K0.000 F600.000
G3 X-20.683 Y10.826 Z-5.000 I1.498 J0.071 K0.000 F600.000
G1 X-16.763 Y10.826 Z-5.000 F600.000
G3 X-15.637 Y11.336 Z-5.000 I-0.000 J1.500 K0.000 F600.000
G0 Z5.000
G0 X-13.189 Y17.832 Z5.000
G0 X-13.189 Y17.832 Z3.000
G1 X-13.189 Y17.832 Z-5.000 F600.000
G3 X-13.257 Y20.478 Z-5.000 I-592.183 J-13.859 K0.000 F600.000
G2 X-14.701 Y19.097 Z-5.000 I-3.574 J2.292 K0.000 F600.000
G2 X-13.189 Y17.832 Z-5.000 I-1.861 J-3.759 K0.000 F600.000
G0 Z5.000
G0 X-23.154 Y19.070 Z5.000
G0 X-23.154 Y19.070 Z3.000
G1 X-23.154 Y19.070 Z-5.000 F600.000
G2 X-24.761 Y20.682 Z-5.000 I2.244 J3.842 K0.000 F600.000
G2 X-26.108 Y19.150 Z-5.000 I-3.795 J1.978 K0.000 F600.000
G2 X-24.621 Y17.606 Z-5.000 I-2.321 J-3.725 K0.000 F600.000
G2 X-23.154 Y19.070 Z-5.000 I3.663 J-2.205 K0.000 F600.000
G0 Z5.000
G0 X-24.401 Y19.059 Z5.000
G0 X-24.401 Y19.059 Z3.000
G1 X-24.401 Y19.059 Z-5.000 F600.000
G2 X-24.737 Y19.403 Z-5.000 I1.222 J1.527 K0.000 F600.000
G1 X-24.927 Y19.183 Z-5.000 F600.000
G1 X-24.603 Y18.848 Z-5.000 F600.000
G1 X-24.401 Y19.059 Z-5.000 F600.000
G0 Z5.000
G0 X-24.454 Y9.888 Z5.000
G0 X-24.454 Y9.888 Z3.000
G1 X-24.454 Y9.888 Z-5.000 F600.000
G2 X-25.652 Y8.610 Z-5.000 I-3.530 J2.109 K0.000 F600.000
G1 X-23.140 Y8.567 Z-5.000 F600.000
G2 X-24.454 Y9.888 Z-5.000 I2.180 J3.485 K0.000 F600.000
G0 Z5.000
G0 Z5.000
G0 X-24.454 Y9.888
G0 X-72.702 Y3.720
G0 X-72.702 Y3.720 Z3.000
G1 X-72.702 Y3.720 Z-3.000 F600.000
G3 X-102.496 Y3.778 Z-3.000 I-22.274 J-3823.676 K0.000 F600.000
G2 X-103.167 Y6.619 Z-3.000 I-0.000 J1.500 K0.000 F600.000
G2 X-83.718 Y15.508 Z-3.000 I117.597 J-231.571 K0.000 F600.000
G2 X-78.690 Y17.416 Z-3.000 I43.029 J-105.875 K0.000 F600.000
G1 X-80.754 Y25.444 Z-3.000 F600.000
G3 X-100.181 Y15.076 Z-3.000 I62.134 J-139.805 K0.000 F600.000
G1 X-103.460 Y12.988 Z-3.000 F600.000
G2 X-105.764 Y14.198 Z-3.000 I-0.806 J1.265 K0.000 F600.000
G3 X-106.202 Y25.719 Z-3.000 I-1503.806 J-51.355 K0.000 F600.000
G1 X-112.769 Y25.198 Z-3.000 F600.000
G3 X-111.995 Y5.217 Z-3.000 I1089.366 J32.194 K0.000 F600.000
G2 X-113.441 Y3.653 Z-3.000 I-1.499 J-0.064 K0.000 F600.000
G3 X-121.948 Y3.334 Z-3.000 I47.273 J-1371.656 K0.000 F600.000
G1 X-121.515 Y-3.304 Z-3.000 F600.000
G2 X-113.188 Y-3.082 Z-3.000 I7.482 J-124.537 K0.000 F600.000
G2 X-111.680 Y-4.535 Z-3.000 I0.008 J-1.500 K0.000 F600.000
G2 X-111.082 Y-25.356 Z-3.000 I-1214.950 J-45.286 K0.000 F600.000
G1 X-104.555 Y-25.183 Z-3.000 F600.000
G2 X-104.944 Y-13.354 Z-3.000 I2559.424 J90.115 K0.000 F600.000
G2 X-102.945 Y-11.892 Z-3.000 I1.499 J0.048 K0.000 F600.000
G2 X-86.632 Y-20.494 Z-3.000 I-18.634 J-55.108 K0.000 F600.000
G2 X-81.636 Y-24.847 Z-3.000 I-30.714 J-40.299 K0.000 F600.000
G1 X-78.579 Y-17.537 Z-3.000 F600.000
G3 X-95.295 Y-8.045 Z-3.000 I-35.780 J-43.547 K0.000 F600.000
G3 X-101.322 Y-6.154 Z-3.000 I-23.454 J-64.181 K0.000 F600.000
G2 X-100.904 Y-3.210 Z-3.000 I0.407 J1.444 K0.000 F600.000
G2 X-73.287 Y-3.738 Z-3.000 I-5.815 J-1026.527 K0.000 F600.000
G1 X-72.702 Y3.720 Z-3.000 F600.000
G0 Z5.000
G0 X-75.946 Y0.733 Z5.000
G0 X-75.946 Y0.733 Z3.000
G1 X-75.946 Y0.733 Z-3.000 F600.000
G3 X-102.496 Y0.778 Z-3.000 I-19.033 J-3407.406 K0.000 F600.000
G2 X-104.508 Y9.303 Z-3.000 I0.000 J4.500 K0.000 F600.000
G1 X-103.458 Y9.828 Z-3.000 F600.000
G2 X-108.762 Y14.087 Z-3.000 I-0.810 J4.424 K0.000 F600.000
G3 X-109.076 Y22.482 Z-3.000 I-2433.195 J-86.603 K0.000 F600.000
G1 X-109.674 Y22.434 Z-3.000 F600.000
G3 X-108.998 Y5.346 Z-3.000 I931.659 J28.299 K0.000 F600.000
G2 X-113.335 Y0.655 Z-3.000 I-4.496 J-0.193 K0.000 F600.000
G3 X-118.754 Y0.458 Z-3.000 I29.139 J-873.816 K0.000 F600.000
G1 X-118.713 Y-0.168 Z-3.000 F600.000
G2 X-113.205 Y-0.082 Z-3.000 I5.218 J-158.725 K0.000 F600.000
G2 X-108.681 Y-4.441 Z-3.000 I0.025 J-4.500 K0.000 F600.000
G1 X-108.240 Y-18.455 Z-3.000 F600.000
G1 X-108.152 Y-22.277 Z-3.000 F600.000
G1 X-107.657 Y-22.264 Z-3.000 F600.000
G2 X-107.942 Y-13.450 Z-3.000 I2611.819 J88.768 K0.000 F600.000
G2 X-102.505 Y-8.911 Z-3.000 I4.491 J0.146 K0.000 F600.000
G2 X-100.882 Y-0.210 Z-3.000 I1.585 J4.206 K0.000 F600.000
G2 X-76.055 Y-0.658 Z-3.000 I-5.101 J-969.813 K0.000 F600.000
G1 X-75.946 Y0.733 Z-3.000 F600.000
G0 Z5.000
G0 X-86.184 Y-15.780 Z5.000
G0 X-86.184 Y-15.780 Z3.000
G1 X-86.184 Y-15.780 Z-3.000 F600.000
G3 X-97.965 Y-10.288 Z-3.000 I-28.897 J-46.607 K0.000 F600.000
G3 X-101.512 Y-9.217 Z-3.000 I-18.237 J-54.002 K0.000 F600.000
G2 X-84.473 Y-18.371 Z-3.000 I-19.633 J-56.982 K0.000 F600.000
G2 X-82.760 Y-19.759 Z-3.000 I-17.324 J-23.133 K0.000 F600.000
G1 X-82.225 Y-18.480 Z-3.000 F600.000
G3 X-86.184 Y-15.780 Z-3.000 I-32.856 J-43.907 K0.000 F600.000
G0 Z5.000
G0 X-104.792 Y-8.236 Z5.000
G0 X-104.792 Y-8.236 Z3.000
G1 X-104.792 Y-8.236 Z-3.000 F600.000
G2 X-103.085 Y0.064 Z-3.000 I3.857 J3.532 K0.000 F600.000
G2 X-105.896 Y9.269 Z-3.000 I0.582 J5.209 K0.000 F600.000
G2 X-108.497 Y11.158 Z-3.000 I1.556 J4.877 K0.000 F600.000
G1 X-108.249 Y5.378 Z-3.000 F600.000
G2 X-111.392 Y0.349 Z-3.000 I-5.223 J-0.232 K0.000 F600.000
G2 X-107.932 Y-4.417 Z-3.000 I-1.774 J-4.928 K0.000 F600.000
G1 X-107.746 Y-10.308 Z-3.000 F600.000
G2 X-104.792 Y-8.236 Z-3.000 I4.259 J-2.930 K0.000 F600.000
G0 Z5.000
G0 X-105.997 Y-7.883 Z5.000
G0 X-105.997 Y-7.883 Z3.000
G1 X-105.997 Y-7.883 Z-3.000 F600.000
G2 X-104.882 Y-0.217 Z-3.000 I5.047 J3.180 K0.000 F600.000
G2 X-107.969 Y2.824 Z-3.000 I2.321 J5.443 K0.000 F600.000
G2 X-109.847 Y0.400 Z-3.000 I-5.362 J2.214 K0.000 F600.000
G2 X-107.182 Y-4.393 Z-3.000 I-3.307 J-4.976 K0.000 F600.000
G1 X-107.052 Y-8.524 Z-3.000 F600.000
G2 X-105.997 Y-7.883 Z-3.000 I2.535 J-2.986 K0.000 F600.000
G0 Z5.000
G0 X-107.022 Y-1.836 Z5.000
G0 X-107.022 Y-1.836 Z3.000
G1 X-107.022 Y-1.836 Z-3.000 F600.000
G2 X-106.111 Y-0.414 Z-3.000 I4.811 J-2.081 K0.000 F600.000
G2 X-107.945 Y1.309 Z-3.000 I3.336 J5.389 K0.000 F600.000
G2 X-108.676 Y0.438 Z-3.000 I-4.326 J2.889 K0.000 F600.000
G2 X-107.022 Y-1.836 Z-3.000 I-4.234 J-4.818 K0.000 F600.000
G0 Z5.000
G0 X-107.627 Y8.369 Z5.000
G0 X-107.627 Y8.369 Z3.000
G1 X-107.627 Y8.369 Z-3.000 F600.000
G2 X-107.177 Y9.017 Z-3.000 I3.049 J-1.638 K0.000 F600.000
G2 X-107.668 Y9.320 Z-3.000 I1.072 J2.291 K0.000 F600.000
G1 X-107.627 Y8.369 Z-3.000 F600.000
G0 Z5.000
G0 X-100.746 Y11.159 Z5.000
G0 X-100.746 Y11.159 Z3.000
G1 X-100.746 Y11.159 Z-3.000 F600.000
G2 X-82.268 Y19.286 Z-3.000 I98.501 J-198.885 K0.000 F600.000
G1 X-82.769 Y21.233 Z-3.000 F600.000
G3 X-100.746 Y11.159 Z-3.000 I68.485 J-143.294 K0.000 F600.000
G0 Z5.000
G0 X-87.753 Y17.901 Z5.000
G0 X-87.753 Y17.901 Z3.000
G1 X-87.753 Y17.901 Z-3.000 F600.000
G2 X-83.160 Y19.745 Z-3.000 I44.862 J-105.094 K0.000 F600.000
G1 X-83.269 Y20.167 Z-3.000 F600.000
G3 X-87.753 Y17.901 Z-3.000 I39.896 J-84.529 K0.000 F600.000
G1 X-87.753 Y17.901 Z-5.000 F600.000
G2 X-83.160 Y19.745 Z-5.000 I44.862 J-105.094 K0.000 F600.000
G1 X-83.269 Y20.167 Z-5.000 F600.000
G3 X-87.753 Y17.901 Z-5.000 I39.896 J-84.529 K0.000 F600.000
G0 Z5.000
G0 X-88.099 Y18.561 Z5.000
G0 X-88.099 Y18.561 Z3.000
G1 X-88.099 Y18.561 Z-5.000 F600.000
G3 X-100.746 Y11.159 Z-5.000 I73.815 J-140.622 K0.000 F600.000
G2 X-82.268 Y19.286 Z-5.000 I98.501 J-198.885 K0.000 F600.000
G1 X-82.769 Y21.233 Z-5.000 F600.000
G3 X-88.099 Y18.561 Z-5.000 I68.485 J-143.294 K0.000 F600.000
G0 Z5.000
G0 X-89.491 Y21.224 Z5.000
G0 X-89.491 Y21.224 Z3.000
G1 X-89.491 Y21.224 Z-5.000 F600.000
G3 X-100.181 Y15.076 Z-5.000 I70.872 J-135.586 K0.000 F600.000
G1 X-103.460 Y12.988 Z-5.000 F600.000
G2 X-105.764 Y14.198 Z-5.000 I-0.806 J1.265 K0.000 F600.000
G3 X-106.202 Y25.719 Z-5.000 I-1503.806 J-51.355 K0.000 F600.000
G1 X-112.769 Y25.198 Z-5.000 F600.000
G3 X-111.995 Y5.217 Z-5.000 I1089.366 J32.194 K0.000 F600.000
G2 X-113.441 Y3.653 Z-5.000 I-1.499 J-0.064 K0.000 F600.000
G3 X-121.948 Y3.334 Z-5.000 I47.273 J-1371.656 K0.000 F600.000
G1 X-121.515 Y-3.304 Z-5.000 F600.000
G2 X-113.188 Y-3.082 Z-5.000 I7.482 J-124.537 K0.000 F600.000
G2 X-111.680 Y-4.535 Z-5.000 I0.008 J-1.500 K0.000 F600.000
G2 X-111.082 Y-25.356 Z-5.000 I-1214.950 J-45.286 K0.000 F600.000
G1 X-104.555 Y-25.183 Z-5.000 F600.000
G2 X-104.944 Y-13.354 Z-5.000 I2559.424 J90.115 K0.000 F600.000
G2 X-102.945 Y-11.892 Z-5.000 I1.499 J0.048 K0.000 F600.000
G2 X-86.632 Y-20.494 Z-5.000 I-18.634 J-55.108 K0.000 F600.000
G2 X-81.636 Y-24.847 Z-5.000 I-30.714 J-40.299 K0.000 F600.000
G1 X-78.579 Y-17.537 Z-5.000 F600.000
G3 X-95.295 Y-8.045 Z-5.000 I-35.780 J-43.547 K0.000 F600.000
G3 X-101.322 Y-6.154 Z-5.000 I-23.454 J-64.181 K0.000 F600.000
G2 X-100.904 Y-3.210 Z-5.000 I0.407 J1.444 K0.000 F600.000
G2 X-73.287 Y-3.738 Z-5.000 I-5.815 J-1026.527 K0.000 F600.000
G1 X-72.702 Y3.720 Z-5.000 F600.000
G3 X-102.496 Y3.778 Z-5.000 I-22.274 J-3823.676 K0.000 F600.000
G2 X-103.167 Y6.619 Z-5.000 I-0.000 J1.500 K0.000 F600.000
G2 X-83.718 Y15.508 Z-5.000 I117.597 J-231.571 K0.000 F600.000
G2 X-78.690 Y17.416 Z-5.000 I43.029 J-105.875 K0.000 F600.000
G1 X-80.754 Y25.444 Z-5.000 F600.000
G3 X-89.491 Y21.224 Z-5.000 I62.134 J-139.805 K0.000 F600.000
G0 Z5.000
G0 X-103.458 Y9.828 Z5.000
G0 X-103.458 Y9.828 Z3.000
G1 X-103.458 Y9.828 Z-5.000 F600.000
G2 X-108.762 Y14.087 Z-5.000 I-0.810 J4.424 K0.000 F600.000
G3 X-109.076 Y22.482 Z-5.000 I-2433.195 J-86.603 K0.000 F600.000
G1 X-109.674 Y22.434 Z-5.000 F600.000
G3 X-108.998 Y5.346 Z-5.000 I931.659 J28.299 K0.000 F600.000
G2 X-113.335 Y0.655 Z-5.000 I-4.496 J-0.193 K0.000 F600.000
G3 X-118.754 Y0.458 Z-5.000 I29.139 J-873.816 K0.000 F600.000
G1 X-118.713 Y-0.168 Z-5.000 F600.000
G2 X-113.205 Y-0.082 Z-5.000 I5.218 J-158.725 K0.000 F600.000
G2 X-108.681 Y-4.441 Z-5.000 I0.025 J-4.500 K0.000 F600.000
G1 X-108.240 Y-18.455 Z-5.000 F600.000
G1 X-108.152 Y-22.277 Z-5.000 F600.000
G1 X-107.657 Y-22.264 Z-5.000 F600.000
G2 X-107.942 Y-13.450 Z-5.000 I2611.819 J88.768 K0.000 F600.000
G2 X-102.505 Y-8.911 Z-5.000 I4.491 J0.146 K0.000 F600.000
G2 X-100.882 Y-0.210 Z-5.000 I1.585 J4.206 K0.000 F600.000
G2 X-76.055 Y-0.658 Z-5.000 I-5.101 J-969.813 K0.000 F600.000
G1 X-75.946 Y0.733 Z-5.000 F600.000
G3 X-102.496 Y0.778 Z-5.000 I-19.033 J-3407.406 K0.000 F600.000
G2 X-104.508 Y9.303 Z-5.000 I0.000 J4.500 K0.000 F600.000
G1 X-103.458 Y9.828 Z-5.000 F600.000
G0 Z5.000
G0 X-105.896 Y9.269 Z5.000
G0 X-105.896 Y9.269 Z3.000
G1 X-105.896 Y9.269 Z-5.000 F600.000
G2 X-108.497 Y11.158 Z-5.000 I1.556 J4.877 K0.000 F600.000
G1 X-108.249 Y5.378 Z-5.000 F600.000
G2 X-111.392 Y0.349 Z-5.000 I-5.223 J-0.232 K0.000 F600.000
G2 X-107.932 Y-4.417 Z-5.000 I-1.774 J-4.928 K0.000 F600.000
G1 X-107.746 Y-10.308 Z-5.000 F600.000
G2 X-104.792 Y-8.236 Z-5.000 I4.259 J-2.930 K0.000 F600.000
G2 X-103.085 Y0.064 Z-5.000 I3.857 J3.532 K0.000 F600.000
G2 X-105.896 Y9.269 Z-5.000 I0.582 J5.209 K0.000 F600.000
G0 Z5.000
G0 X-107.177 Y9.017 Z5.000
G0 X-107.177 Y9.017 Z3.000
G1 X-107.177 Y9.017 Z-5.000 F600.000
G2 X-107.668 Y9.320 Z-5.000 I1.072 J2.291 K0.000 F600.000
G1 X-107.627 Y8.369 Z-5.000 F600.000
G2 X-107.177 Y9.017 Z-5.000 I3.049 J-1.638 K0.000 F600.000
G0 Z5.000
G0 X-107.969 Y2.824 Z5.000
G0 X-107.969 Y2.824 Z3.000
G1 X-107.969 Y2.824 Z-5.000 F600.000
G2 X-109.847 Y0.400 Z-5.000 I-5.362 J2.214 K0.000 F600.000
G2 X-107.182 Y-4.393 Z-5.000 I-3.307 J-4.976 K0.000 F600.000
G1 X-107.052 Y-8.524 Z-5.000 F600.000
G2 X-105.997 Y-7.883 Z-5.000 I2.535 J-2.986 K0.000 F600.000
G2 X-104.882 Y-0.217 Z-5.000 I5.047 J3.180 K0.000 F600.000
G2 X-107.969 Y2.824 Z-5.000 I2.321 J5.443 K0.000 F600.000
G0 Z5.000
G0 X-107.945 Y1.309 Z5.000
G0 X-107.945 Y1.309 Z3.000
G1 X-107.945 Y1.309 Z-5.000 F600.000
G2 X-108.676 Y0.438 Z-5.000 I-4.326 J2.889 K0.000 F600.000
G2 X-107.022 Y-1.836 Z-5.000 I-4.234 J-4.818 K0.000 F600.000
G2 X-106.111 Y-0.414 Z-5.000 I4.811 J-2.081 K0.000 F600.000
G2 X-107.945 Y1.309 Z-5.000 I3.336 J5.389 K0.000 F600.000
G0 Z5.000
G0 X-101.512 Y-9.217 Z5.000
G0 X-101.512 Y-9.217 Z3.000
G1 X-101.512 Y-9.217 Z-5.000 F600.000
G2 X-84.473 Y-18.371 Z-5.000 I-19.633 J-56.982 K0.000 F600.000
G2 X-82.760 Y-19.759 Z-5.000 I-17.324 J-23.133 K0.000 F600.000
G1 X-82.225 Y-18.480 Z-5.000 F600.000
G3 X-97.965 Y-10.288 Z-5.000 I-32.856 J-43.907 K0.000 F600.000
G3 X-101.512 Y-9.217 Z-5.000 I-18.237 J-54.002 K0.000 F600.000
G0 Z5.000
G0 Z5.000
G0 X-101.512 Y-9.217
G0 X12.449 Y-15.693
G0 X12.449 Y-15.693 Z3.000
G1 X12.449 Y-15.693 Z-3.000 F600.000
G2 X25.679 Y-21.083 Z-3.000 I-8.204 J-39.068 K0.000 F600.000
G2 X32.605 Y-26.981 Z-3.000 I-18.936 J-29.252 K0.000 F600.000
G1 X40.111 Y-24.006 Z-3.000 F600.000
G3 X37.927 Y-22.359 Z-3.000 I-10.830 J-12.092 K0.000 F600.000
G2 X38.770 Y-19.612 Z-3.000 I0.834 J1.247 K0.000 F600.000
G2 X60.435 Y-20.128 Z-3.000 I1.691 J-384.023 K0.000 F600.000
G1 X62.796 Y-20.277 Z-3.000 F600.000
G1 X63.056 Y-13.687 Z-3.000 F600.000
G3 X52.605 Y-13.637 Z-3.000 I-8.178 J-610.999 K0.000 F600.000
G3 X52.110 Y-13.637 Z-3.000 I-0.248 J-0.939 K0.000 F600.000
G3 X28.053 Y-14.015 Z-3.000 I3.839 J-1009.480 K0.000 F600.000
G2 X27.494 Y-13.922 Z-3.000 I-0.036 J1.500 K0.000 F600.000
G3 X13.338 Y-9.640 Z-3.000 I-35.106 J-90.518 K0.000 F600.000
G1 X12.449 Y-15.693 Z-3.000 F600.000
G0 Z5.000
G0 X15.811 Y-13.449 Z5.000
G0 X15.811 Y-13.449 Z3.000
G1 X15.811 Y-13.449 Z-3.000 F600.000
G2 X30.265 Y-20.689 Z-3.000 I-10.546 J-39.104 K0.000 F600.000
G2 X33.200 Y-23.271 Z-3.000 I-23.715 J-29.919 K0.000 F600.000
G1 X33.375 Y-23.449 Z-3.000 F600.000
G1 X34.658 Y-22.940 Z-3.000 F600.000
G2 X37.505 Y-16.800 Z-3.000 I4.081 J1.838 K0.000 F600.000
G3 X28.126 Y-17.014 Z-3.000 I11.015 J-687.609 K0.000 F600.000
G2 X26.449 Y-16.734 Z-3.000 I-0.109 J4.499 K0.000 F600.000
G3 X15.830 Y-13.319 Z-3.000 I-35.368 J-91.767 K0.000 F600.000
G1 X15.811 Y-13.449 Z-3.000 F600.000
G0 Z5.000
G0 X23.327 Y-8.330 Z5.000
G0 X23.327 Y-8.330 Z3.000
G1 X23.327 Y-8.330 Z-3.000 F600.000
G1 X29.099 Y-8.205 Z-3.000 F600.000
G3 X28.736 Y-3.249 Z-3.000 I-71.512 J-2.748 K0.000 F600.000
G2 X30.587 Y-1.641 Z-3.000 I1.492 J0.151 K0.000 F600.000
G2 X42.178 Y-5.131 Z-3.000 I-17.583 J-79.387 K0.000 F600.000
G2 X52.232 Y-10.396 Z-3.000 I-16.794 J-44.302 K0.000 F600.000
G1 X56.604 Y-6.068 Z-3.000 F600.000
G3 X51.016 Y-2.749 Z-3.000 I-16.812 J-21.940 K0.000 F600.000
G2 X51.615 Y0.107 Z-3.000 I0.640 J1.357 K0.000 F600.000
G1 X54.764 Y0.195 Z-3.000 F600.000
G3 X54.708 Y3.623 Z-3.000 I-100.735 J0.067 K0.000 F600.000
G2 X56.251 Y5.165 Z-3.000 I1.499 J0.042 K0.000 F600.000
G3 X62.924 Y5.001 Z-3.000 I10.283 J283.389 K0.000 F600.000
G1 X63.177 Y11.077 Z-3.000 F600.000
G1 X55.955 Y11.077 Z-3.000 F600.000
G2 X54.455 Y12.577 Z-3.000 I0.000 J1.500 K0.000 F600.000
G3 X54.442 Y16.807 Z-3.000 I-155.020 J1.641 K0.000 F600.000
G1 X51.618 Y16.643 Z-3.000 F600.000
G2 X51.131 Y19.587 Z-3.000 I-0.087 J1.497 K0.000 F600.000
G1 X56.530 Y21.081 Z-3.000 F600.000
G1 X53.942 Y26.895 Z-3.000 F600.000
G3 X41.201 Y21.921 Z-3.000 I57.894 J-167.116 K0.000 F600.000
G3 X29.975 Y16.844 Z-3.000 I135.452 J-314.436 K0.000 F600.000
G2 X27.845 Y18.130 Z-3.000 I-0.632 J1.361 K0.000 F600.000
G3 X27.423 Y26.469 Z-3.000 I-1799.413 J-86.947 K0.000 F600.000
G1 X21.675 Y26.094 Z-3.000 F600.000
G3 X22.309 Y12.590 Z-3.000 I817.128 J31.615 K0.000 F600.000
G2 X20.851 Y11.016 Z-3.000 I-1.498 J-0.074 K0.000 F600.000
G2 X12.631 Y10.853 Z-3.000 I-20.286 J817.253 K0.000 F600.000
G1 X12.835 Y5.348 Z-3.000 F600.000
G2 X21.302 Y5.482 Z-3.000 I7.680 J-216.864 K0.000 F600.000
G2 X22.813 Y4.050 Z-3.000 I0.013 J-1.500 K0.000 F600.000
G2 X23.327 Y-8.330 Z-3.000 I-1087.002 J-51.333 K0.000 F600.000
G0 Z5.000
G0 X26.059 Y-1.428 Z5.000
G0 X26.059 Y-1.428 Z3.000
G1 X26.059 Y-1.428 Z-3.000 F600.000
G2 X31.602 Y1.198 Z-3.000 I4.185 J-1.670 K0.000 F600.000
G2 X33.764 Y8.109 Z-3.000 I3.608 J2.665 K0.000 F600.000
G2 X29.932 Y13.752 Z-3.000 I0.503 J4.464 K0.000 F600.000
G2 X25.108 Y16.708 Z-3.000 I-0.608 J4.423 K0.000 F600.000
G1 X25.305 Y12.739 Z-3.000 F600.000
G2 X22.452 Y8.336 Z-3.000 I-4.467 J-0.231 K0.000 F600.000
G2 X25.810 Y4.185 Z-3.000 I-1.135 J-4.353 K0.000 F600.000
G2 X26.059 Y-1.428 Z-3.000 I-1288.978 J-59.832 K0.000 F600.000
G0 Z5.000
G0 X28.291 Y6.714 Z5.000
G0 X28.291 Y6.714 Z3.000
G1 X28.291 Y6.714 Z-3.000 F600.000
G2 X28.709 Y7.557 Z-3.000 I4.291 J-1.601 K0.000 F600.000
G2 X27.557 Y9.251 Z-3.000 I5.053 J4.675 K0.000 F600.000
G2 X27.208 Y8.614 Z-3.000 I-3.256 J1.370 K0.000 F600.000
G2 X28.291 Y6.714 Z-3.000 I-5.428 J-4.352 K0.000 F600.000
G0 Z5.000
G0 X33.836 Y4.427 Z5.000
G0 X33.836 Y4.427 Z3.000
G1 X33.836 Y4.427 Z-3.000 F600.000
G3 X34.918 Y2.386 Z-3.000 I1.387 J-0.572 K0.000 F600.000
G2 X41.255 Y0.950 Z-3.000 I-17.416 J-91.552 K0.000 F600.000
G2 X46.724 Y-0.982 Z-3.000 I-7.788 J-30.752 K0.000 F600.000
G3 X48.858 Y0.378 Z-3.000 I0.634 J1.359 K0.000 F600.000
G1 X48.858 Y3.791 Z-3.000 F600.000
G3 X47.750 Y5.239 Z-3.000 I-1.500 J-0.000 K0.000 F600.000
G3 X45.956 Y5.333 Z-3.000 I-1.651 J-14.373 K0.000 F600.000
G3 X35.222 Y5.355 Z-3.000 I-6.416 J-510.799 K0.000 F600.000
G3 X33.836 Y4.427 Z-3.000 I-0.000 J-1.500 K0.000 F600.000
G0 Z5.000
G0 X34.193 Y11.079 Z5.000
G0 X34.193 Y11.079 Z3.000
G1 X34.193 Y11.079 Z-3.000 F600.000
G3 X34.283 Y11.077 Z-3.000 I0.081 J1.498 K0.000 F600.000
G2 X47.108 Y11.141 Z-3.000 I16.491 J-2027.170 K0.000 F600.000
G3 X48.604 Y12.683 Z-3.000 I-0.003 J1.500 K0.000 F600.000
G2 X48.541 Y16.256 Z-3.000 I141.589 J4.294 K0.000 F600.000
G3 X46.636 Y17.688 Z-3.000 I-1.500 J-0.012 K0.000 F600.000
G3 X33.853 Y14.017 Z-3.000 I169.699 J-614.991 K0.000 F600.000
G3 X34.193 Y11.079 Z-3.000 I0.421 J-1.440 K0.000 F600.000
G0 Z5.000
G0 X47.998 Y8.239 Z5.000
G0 X47.998 Y8.239 Z3.000
G1 X47.998 Y8.239 Z-3.000 F600.000
G2 X51.793 Y4.492 Z-3.000 I-0.612 J-4.416 K0.000 F600.000
G2 X55.490 Y8.108 Z-3.000 I4.401 J-0.801 K0.000 F600.000
G2 X51.523 Y11.839 Z-3.000 I0.442 J4.444 K0.000 F600.000
G2 X47.998 Y8.239 Z-3.000 I-4.383 J0.766 K0.000 F600.000
G0 Z5.000
G0 X59.313 Y8.077 Z5.000
G0 X59.313 Y8.077 Z3.000
G1 X59.313 Y8.077 Z-3.000 F600.000
G1 X60.049 Y8.056 Z-3.000 F600.000
G1 X60.050 Y8.077 Z-3.000 F600.000
G1 X59.313 Y8.077 Z-3.000 F600.000
G0 Z5.000
G0 X51.467 Y-6.306 Z5.000
G0 X51.467 Y-6.306 Z3.000
G1 X51.467 Y-6.306 Z-3.000 F600.000
G3 X51.147 Y-6.139 Z-3.000 I-5.078 J-9.308 K0.000 F600.000
G1 X51.851 Y-6.552 Z-3.000 F600.000
G1 X51.867 Y-6.536 Z-3.000 F600.000
G3 X51.467 Y-6.306 Z-3.000 I-5.478 J-9.078 K0.000 F600.000
G0 Z5.000
G0 X48.717 Y-4.795 Z5.000
G0 X48.717 Y-4.795 Z3.000
G1 X48.717 Y-4.795 Z-3.000 F600.000
G2 X48.044 Y-4.064 Z-3.000 I2.441 J2.919 K0.000 F600.000
G2 X47.376 Y-4.121 Z-3.000 I-0.551 J2.511 K0.000 F600.000
G2 X48.717 Y-4.795 Z-3.000 I-8.525 J-18.626 K0.000 F600.000
G0 Z5.000
G0 X48.818 Y-16.651 Z5.000
G0 X48.818 Y-16.651 Z3.000
G1 X48.818 Y-16.651 Z-3.000 F600.000
G3 X46.599 Y-16.676 Z-3.000 I3.451 J-404.588 K0.000 F600.000
G2 X59.919 Y-17.099 Z-3.000 I-3.820 J-330.913 K0.000 F600.000
G1 X59.936 Y-16.661 Z-3.000 F600.000
G3 X52.605 Y-16.637 Z-3.000 I-5.065 J-428.629 K0.000 F600.000
G3 X48.818 Y-16.651 Z-3.000 I-0.336 J-404.602 K0.000 F600.000
G0 Z5.000
G0 X45.621 Y20.519 Z5.000
G0 X45.621 Y20.519 Z3.000
G1 X45.621 Y20.519 Z-3.000 F600.000
G2 X47.808 Y20.669 Z-3.000 I1.382 J-4.146 K0.000 F600.000
G2 X49.050 Y21.895 Z-3.000 I3.702 J-2.509 K0.000 F600.000
G3 X45.621 Y20.519 Z-3.000 I34.430 J-90.792 K0.000 F600.000
G0 Z5.000
G0 X51.216 Y22.723 Z5.000
G0 X51.216 Y22.723 Z3.000
G1 X51.216 Y22.723 Z-3.000 F600.000
G1 X52.373 Y23.043 Z-3.000 F600.000
G1 X52.331 Y23.138 Z-3.000 F600.000
G1 X51.216 Y22.723 Z-3.000 F600.000
G1 X51.216 Y22.723 Z-5.000 F600.000
G1 X52.373 Y23.043 Z-5.000 F600.000
G1 X52.331 Y23.138 Z-5.000 F600.000
G1 X51.216 Y22.723 Z-5.000 F600.000
G0 Z5.000
G0 X49.050 Y21.895 Z5.000
G0 X49.050 Y21.895 Z3.000
G1 X49.050 Y21.895 Z-5.000 F600.000
G3 X45.621 Y20.519 Z-5.000 I34.430 J-90.792 K0.000 F600.000
G2 X47.808 Y20.669 Z-5.000 I1.382 J-4.146 K0.000 F600.000
G2 X49.050 Y21.895 Z-5.000 I3.702 J-2.509 K0.000 F600.000
G0 Z5.000
G0 X50.704 Y19.392 Z5.000
G0 X50.704 Y19.392 Z3.000
G1 X50.704 Y19.392 Z-5.000 F600.000
G2 X51.131 Y19.587 Z-5.000 I0.827 J-1.251 K0.000 F600.000
G1 X56.530 Y21.081 Z-5.000 F600.000
G1 X53.942 Y26.895 Z-5.000 F600.000
G3 X41.201 Y21.921 Z-5.000 I57.894 J-167.116 K0.000 F600.000
G3 X29.975 Y16.844 Z-5.000 I135.452 J-314.436 K0.000 F600.000
G2 X27.845 Y18.130 Z-5.000 I-0.632 J1.361 K0.000 F600.000
G3 X27.423 Y26.469 Z-5.000 I-1799.413 J-86.947 K0.000 F600.000
G1 X21.675 Y26.094 Z-5.000 F600.000
G3 X22.309 Y12.590 Z-5.000 I817.128 J31.615 K0.000 F600.000
G2 X20.851 Y11.016 Z-5.000 I-1.498 J-0.074 K0.000 F600.000
G2 X12.631 Y10.853 Z-5.000 I-20.286 J817.253 K0.000 F600.000
G1 X12.835 Y5.348 Z-5.000 F600.000
G2 X21.302 Y5.482 Z-5.000 I7.680 J-216.864 K0.000 F600.000
G2 X22.813 Y4.050 Z-5.000 I0.013 J-1.500 K0.000 F600.000
G2 X23.327 Y-8.330 Z-5.000 I-1087.002 J-51.333 K0.000 F600.000
G1 X29.099 Y-8.205 Z-5.000 F600.000
G3 X28.736 Y-3.249 Z-5.000 I-71.512 J-2.748 K0.000 F600.000
G2 X30.587 Y-1.641 Z-5.000 I1.492 J0.151 K0.000 F600.000
G2 X42.178 Y-5.131 Z-5.000 I-17.583 J-79.387 K0.000 F600.000
G2 X52.232 Y-10.396 Z-5.000 I-16.794 J-44.302 K0.000 F600.000
G1 X56.604 Y-6.068 Z-5.000 F600.000
G3 X51.016 Y-2.749 Z-5.000 I-16.812 J-21.940 K0.000 F600.000
G2 X51.615 Y0.107 Z-5.000 I0.640 J1.357 K0.000 F600.000
G1 X54.764 Y0.195 Z-5.000 F600.000
G3 X54.708 Y3.623 Z-5.000 I-100.735 J0.067 K0.000 F600.000
G2 X56.251 Y5.165 Z-5.000 I1.499 J0.042 K0.000 F600.000
G3 X62.924 Y5.001 Z-5.000 I10.283 J283.389 K0.000 F600.000
G1 X63.177 Y11.077 Z-5.000 F600.000
G1 X55.955 Y11.077 Z-5.000 F600.000
G2 X54.455 Y12.577 Z-5.000 I0.000 J1.500 K0.000 F600.000
G3 X54.442 Y16.807 Z-5.000 I-155.020 J1.641 K0.000 F600.000
G1 X51.618 Y16.643 Z-5.000 F600.000
G2 X50.704 Y19.392 Z-5.000 I-0.087 J1.497 K0.000 F600.000
G0 Z5.000
G0 X48.179 Y17.222 Z5.000
G0 X48.179 Y17.222 Z3.000
G1 X48.179 Y17.222 Z-5.000 F600.000
G3 X46.636 Y17.688 Z-5.000 I-1.137 J-0.978 K0.000 F600.000
G3 X33.853 Y14.017 Z-5.000 I169.699 J-614.991 K0.000 F600.000
G3 X34.283 Y11.077 Z-5.000 I0.421 J-1.440 K0.000 F600.000
G2 X47.108 Y11.141 Z-5.000 I16.491 J-2027.170 K0.000 F600.000
G3 X48.604 Y12.683 Z-5.000 I-0.003 J1.500 K0.000 F600.000
G2 X48.541 Y16.256 Z-5.000 I141.589 J4.294 K0.000 F600.000
G3 X48.179 Y17.222 Z-5.000 I-1.500 J-0.012 K0.000 F600.000
G0 Z5.000
G0 X51.523 Y11.839 Z5.000
G0 X51.523 Y11.839 Z3.000
G1 X51.523 Y11.839 Z-5.000 F600.000
G2 X47.998 Y8.239 Z-5.000 I-4.383 J0.766 K0.000 F600.000
G2 X51.793 Y4.492 Z-5.000 I-0.612 J-4.416 K0.000 F600.000
G2 X55.490 Y8.108 Z-5.000 I4.401 J-0.801 K0.000 F600.000
G2 X51.523 Y11.839 Z-5.000 I0.442 J4.444 K0.000 F600.000
G0 Z5.000
G0 X48.048 Y5.123 Z5.000
G0 X48.048 Y5.123 Z3.000
G1 X48.048 Y5.123 Z-5.000 F600.000
G3 X47.750 Y5.239 Z-5.000 I-0.690 J-1.332 K0.000 F600.000
G3 X45.956 Y5.333 Z-5.000 I-1.651 J-14.373 K0.000 F600.000
G3 X35.222 Y5.355 Z-5.000 I-6.416 J-510.799 K0.000 F600.000
G3 X34.918 Y2.386 Z-5.000 I-0.000 J-1.500 K0.000 F600.000
G2 X41.255 Y0.950 Z-5.000 I-17.416 J-91.552 K0.000 F600.000
G2 X46.724 Y-0.982 Z-5.000 I-7.788 J-30.752 K0.000 F600.000
G3 X48.858 Y0.378 Z-5.000 I0.634 J1.359 K0.000 F600.000
G1 X48.858 Y3.791 Z-5.000 F600.000
G3 X48.048 Y5.123 Z-5.000 I-1.500 J-0.000 K0.000 F600.000
G0 Z5.000
G0 X48.044 Y-4.064 Z5.000
G0 X48.044 Y-4.064 Z3.000
G1 X48.044 Y-4.064 Z-5.000 F600.000
G2 X47.376 Y-4.121 Z-5.000 I-0.551 J2.511 K0.000 F600.000
G2 X48.717 Y-4.795 Z-5.000 I-8.525 J-18.626 K0.000 F600.000
G2 X48.044 Y-4.064 Z-5.000 I2.441 J2.919 K0.000 F600.000
G0 Z5.000
G0 X51.147 Y-6.139 Z5.000
G0 X51.147 Y-6.139 Z3.000
G1 X51.147 Y-6.139 Z-5.000 F600.000
G1 X51.851 Y-6.552 Z-5.000 F600.000
G1 X51.867 Y-6.536 Z-5.000 F600.000
G3 X51.147 Y-6.139 Z-5.000 I-5.478 J-9.078 K0.000 F600.000
G0 Z5.000
G0 X51.182 Y-13.641 Z5.000
G0 X51.182 Y-13.641 Z3.000
G1 X51.182 Y-13.641 Z-5.000 F600.000
G3 X28.053 Y-14.015 Z-5.000 I4.766 J-1009.476 K0.000 F600.000
G2 X27.494 Y-13.922 Z-5.000 I-0.036 J1.500 K0.000 F600.000
G3 X13.338 Y-9.640 Z-5.000 I-35.106 J-90.518 K0.000 F600.000
G1 X12.449 Y-15.693 Z-5.000 F600.000
G2 X25.679 Y-21.083 Z-5.000 I-8.204 J-39.068 K0.000 F600.000
G2 X32.605 Y-26.981 Z-5.000 I-18.936 J-29.252 K0.000 F600.000
G1 X40.111 Y-24.006 Z-5.000 F600.000
G3 X37.927 Y-22.359 Z-5.000 I-10.830 J-12.092 K0.000 F600.000
G2 X38.770 Y-19.612 Z-5.000 I0.834 J1.247 K0.000 F600.000
G2 X60.435 Y-20.128 Z-5.000 I1.691 J-384.023 K0.000 F600.000
G1 X62.796 Y-20.277 Z-5.000 F600.000
G1 X63.056 Y-13.687 Z-5.000 F600.000
G3 X52.605 Y-13.637 Z-5.000 I-8.178 J-610.999 K0.000 F600.000
G3 X52.110 Y-13.637 Z-5.000 I-0.248 J-0.939 K0.000 F600.000
G3 X51.182 Y-13.641 Z-5.000 I3.839 J-1009.480 K0.000 F600.000
G0 Z5.000
G0 X51.190 Y-16.638 Z5.000
G0 X51.190 Y-16.638 Z3.000
G1 X51.190 Y-16.638 Z-5.000 F600.000
G3 X46.599 Y-16.676 Z-5.000 I1.079 J-404.601 K0.000 F600.000
G2 X59.919 Y-17.099 Z-5.000 I-3.820 J-330.913 K0.000 F600.000
G1 X59.936 Y-16.661 Z-5.000 F600.000
G3 X52.605 Y-16.637 Z-5.000 I-5.065 J-428.629 K0.000 F600.000
G3 X51.190 Y-16.638 Z-5.000 I-0.336 J-404.602 K0.000 F600.000
G0 Z5.000
G0 X37.505 Y-16.800 Z5.000
G0 X37.505 Y-16.800 Z3.000
G1 X37.505 Y-16.800 Z-5.000 F600.000
G3 X28.126 Y-17.014 Z-5.000 I11.015 J-687.609 K0.000 F600.000
G2 X26.449 Y-16.734 Z-5.000 I-0.109 J4.499 K0.000 F600.000
G3 X15.830 Y-13.319 Z-5.000 I-35.368 J-91.767 K0.000 F600.000
G1 X15.811 Y-13.449 Z-5.000 F600.000
G2 X30.265 Y-20.689 Z-5.000 I-10.546 J-39.104 K0.000 F600.000
G2 X33.200 Y-23.271 Z-5.000 I-23.715 J-29.919 K0.000 F600.000
G1 X33.375 Y-23.449 Z-5.000 F600.000
G1 X34.658 Y-22.940 Z-5.000 F600.000
G2 X37.505 Y-16.800 Z-5.000 I4.081 J1.838 K0.000 F600.000
G0 Z5.000
G0 X31.602 Y1.198 Z5.000
G0 X31.602 Y1.198 Z3.000
G1 X31.602 Y1.198 Z-5.000 F600.000
G2 X33.764 Y8.109 Z-5.000 I3.608 J2.665 K0.000 F600.000
G2 X29.932 Y13.752 Z-5.000 I0.503 J4.464 K0.000 F600.000
G2 X25.108 Y16.708 Z-5.000 I-0.608 J4.423 K0.000 F600.000
G1 X25.305 Y12.739 Z-5.000 F600.000
G2 X22.452 Y8.336 Z-5.000 I-4.467 J-0.231 K0.000 F600.000
G2 X25.810 Y4.185 Z-5.000 I-1.135 J-4.353 K0.000 F600.000
G2 X26.059 Y-1.428 Z-5.000 I-1288.978 J-59.832 K0.000 F600.000
G2 X31.602 Y1.198 Z-5.000 I4.185 J-1.670 K0.000 F600.000
G0 Z5.000
G0 X28.291 Y6.714 Z5.000
G0 X28.291 Y6.714 Z3.000
G1 X28.291 Y6.714 Z-5.000 F600.000
G2 X28.709 Y7.557 Z-5.000 I4.291 J-1.601 K0.000 F600.000
G2 X27.557 Y9.251 Z-5.000 I5.053 J4.675 K0.000 F600.000
G2 X27.208 Y8.614 Z-5.000 I-3.256 J1.370 K0.000 F600.000
G2 X28.291 Y6.714 Z-5.000 I-5.428 J-4.352 K0.000 F600.000
G0 Z5.000
G0 X59.313 Y8.077 Z5.000
G0 X59.313 Y8.077 Z3.000
G1 X59.313 Y8.077 Z-5.000 F600.000
G1 X60.049 Y8.056 Z-5.000 F600.000
G1 X60.050 Y8.077 Z-5.000 F600.000
G1 X59.313 Y8.077 Z-5.000 F600.000
G0 Z5.000
G0 Z5.000
G0 X59.313 Y8.077
G0 X78.586 Y8.241
G0 X78.586 Y8.241 Z3.000
G1 X78.586 Y8.241 Z-3.000 F600.000
G2 X87.349 Y3.162 Z-3.000 I-43.773 J-85.612 K0.000 F600.000
G2 X95.520 Y-4.509 Z-3.000 I-27.284 J-37.255 K0.000 F600.000
G1 X99.734 Y-1.805 Z-3.000 F600.000
G3 X97.338 Y0.795 Z-3.000 I-18.533 J-14.673 K0.000 F600.000
G2 X98.360 Y3.365 Z-3.000 I1.051 J1.070 K0.000 F600.000
G1 X100.019 Y3.397 Z-3.000 F600.000
G2 X99.006 Y17.178 Z-3.000 I928.536 J75.190 K0.000 F600.000
G1 X97.693 Y17.178 Z-3.000 F600.000
G2 X96.711 Y19.812 Z-3.000 I-0.000 J1.500 K0.000 F600.000
G2 X100.608 Y22.992 Z-3.000 I39.750 J-44.728 K0.000 F600.000
G1 X96.030 Y26.753 Z-3.000 F600.000
G3 X83.730 Y14.960 Z-3.000 I115.909 J-133.201 K0.000 F600.000
G1 X81.714 Y12.841 Z-3.000 F600.000
G2 X79.702 Y12.661 Z-3.000 I-1.113 J1.104 K0.000 F600.000
G1 X78.586 Y8.241 Z-3.000 F600.000
G0 Z5.000
G0 X82.261 Y9.692 Z5.000
G0 X82.261 Y9.692 Z3.000
G1 X82.261 Y9.692 Z-3.000 F600.000
G2 X83.366 Y9.074 Z-3.000 I-19.759 J-36.619 K0.000 F600.000
G2 X83.289 Y10.258 Z-3.000 I3.222 J0.805 K0.000 F600.000
G2 X82.261 Y9.692 Z-3.000 I-2.045 J2.498 K0.000 F600.000
G0 Z5.000
G0 X86.271 Y9.884 Z5.000
G0 X86.271 Y9.884 Z3.000
G1 X86.271 Y9.884 Z-3.000 F600.000
G3 X87.005 Y8.665 Z-3.000 I1.498 J0.072 K0.000 F600.000
G2 X91.435 Y5.482 Z-3.000 I-11.905 J-21.241 K0.000 F600.000
G3 X92.175 Y4.909 Z-3.000 I1.961 J1.769 K0.000 F600.000
G3 X94.262 Y6.357 Z-3.000 I0.589 J1.380 K0.000 F600.000
G1 X93.881 Y14.701 Z-3.000 F600.000
G3 X91.368 Y15.738 Z-3.000 I-1.498 J-0.068 K0.000 F600.000
G3 X86.645 Y10.948 Z-3.000 I33.454 J-37.717 K0.000 F600.000
G3 X86.271 Y9.884 Z-3.000 I1.125 J-0.992 K0.000 F600.000
G0 Z5.000
G0 X93.613 Y1.874 Z5.000
G0 X93.613 Y1.874 Z3.000
G1 X93.613 Y1.874 Z-3.000 F600.000
G1 X93.907 Y1.588 Z-3.000 F600.000
G2 X93.896 Y1.943 Z-3.000 I1.345 J0.220 K0.000 F600.000
G1 X93.613 Y1.874 Z-3.000 F600.000
G0 Z5.000
G0 X93.218 Y19.051 Z5.000
G0 X93.218 Y19.051 Z3.000
G1 X93.218 Y19.051 Z-3.000 F600.000
G2 X93.584 Y20.498 Z-3.000 I4.022 J-0.248 K0.000 F600.000
G1 X92.119 Y19.118 Z-3.000 F600.000
G2 X93.218 Y19.051 Z-3.000 I0.373 J-2.921 K0.000 F600.000
G1 X93.218 Y19.051 Z-5.000 F600.000
G2 X93.584 Y20.498 Z-5.000 I4.022 J-0.248 K0.000 F600.000
G1 X92.119 Y19.118 Z-5.000 F600.000
G2 X93.218 Y19.051 Z-5.000 I0.373 J-2.921 K0.000 F600.000
G0 Z5.000
G0 X96.199 Y18.803 Z5.000
G0 X96.199 Y18.803 Z3.000
G1 X96.199 Y18.803 Z-5.000 F600.000
G2 X96.711 Y19.812 Z-5.000 I1.495 J-0.125 K0.000 F600.000
G2 X100.608 Y22.992 Z-5.000 I39.750 J-44.728 K0.000 F600.000
G1 X96.030 Y26.753 Z-5.000 F600.000
G3 X83.730 Y14.960 Z-5.000 I115.909 J-133.201 K0.000 F600.000
G1 X81.714 Y12.841 Z-5.000 F600.000
G2 X79.702 Y12.661 Z-5.000 I-1.113 J1.104 K0.000 F600.000
G1 X78.586 Y8.241 Z-5.000 F600.000
G2 X87.349 Y3.162 Z-5.000 I-43.773 J-85.612 K0.000 F600.000
G2 X95.520 Y-4.509 Z-5.000 I-27.284 J-37.255 K0.000 F600.000
G1 X99.734 Y-1.805 Z-5.000 F600.000
G3 X97.338 Y0.795 Z-5.000 I-18.533 J-14.673 K0.000 F600.000
G2 X98.360 Y3.365 Z-5.000 I1.051 J1.070 K0.000 F600.000
G1 X100.019 Y3.397 Z-5.000 F600.000
G2 X99.006 Y17.178 Z-5.000 I928.536 J75.190 K0.000 F600.000
G1 X97.693 Y17.178 Z-5.000 F600.000
G2 X96.199 Y18.803 Z-5.000 I-0.000 J1.500 K0.000 F600.000
G0 Z5.000
G0 X93.395 Y15.739 Z5.000
G0 X93.395 Y15.739 Z3.000
G1 X93.395 Y15.739 Z-5.000 F600.000
G3 X91.368 Y15.738 Z-5.000 I-1.013 J-1.107 K0.000 F600.000
G3 X86.645 Y10.948 Z-5.000 I33.454 J-37.717 K0.000 F600.000
G3 X87.005 Y8.665 Z-5.000 I1.125 J-0.992 K0.000 F600.000
G2 X91.435 Y5.482 Z-5.000 I-11.905 J-21.241 K0.000 F600.000
G3 X92.175 Y4.909 Z-5.000 I1.961 J1.769 K0.000 F600.000
G3 X94.262 Y6.357 Z-5.000 I0.589 J1.380 K0.000 F600.000
G1 X93.881 Y14.701 Z-5.000 F600.000
G3 X93.395 Y15.739 Z-5.000 I-1.498 J-0.068 K0.000 F600.000
G0 Z5.000
G0 X83.289 Y10.258 Z5.000
G0 X83.289 Y10.258 Z3.000
G1 X83.289 Y10.258 Z-5.000 F600.000
G2 X82.261 Y9.692 Z-5.000 I-2.045 J2.498 K0.000 F600.000
G2 X83.366 Y9.074 Z-5.000 I-19.759 J-36.619 K0.000 F600.000
G2 X83.289 Y10.258 Z-5.000 I3.222 J0.805 K0.000 F600.000
G0 Z5.000
G0 X93.613 Y1.874 Z5.000
G0 X93.613 Y1.874 Z3.000
G1 X93.613 Y1.874 Z-5.000 F600.000
G1 X93.907 Y1.588 Z-5.000 F600.000
G2 X93.896 Y1.943 Z-5.000 I1.345 J0.220 K0.000 F600.000
G1 X93.613 Y1.874 Z-5.000 F600.000
G0 Z5.000
G0 Z5.000
G0 X93.613 Y1.874
G0 X105.685 Y7.509
G0 X105.685 Y7.509 Z3.000
G1 X105.685 Y7.509 Z-3.000 F600.000
G3 X109.438 Y8.496 Z-3.000 I-87.387 J339.974 K0.000 F600.000
G2 X114.488 Y9.253 Z-3.000 I8.841 J-41.755 K0.000 F600.000
G1 X113.068 Y13.363 Z-3.000 F600.000
G3 X104.635 Y11.094 Z-3.000 I8.131 J-47.029 K0.000 F600.000
G1 X105.685 Y7.509 Z-3.000 F600.000
G0 Z5.000
G0 X106.201 Y8.416 Z5.000
G0 X106.201 Y8.416 Z3.000
G1 X106.201 Y8.416 Z-3.000 F600.000
G2 X110.274 Y9.434 Z-3.000 I14.607 J-49.783 K0.000 F600.000
G2 X113.470 Y9.902 Z-3.000 I7.825 J-42.289 K0.000 F600.000
G1 X112.570 Y12.507 Z-3.000 F600.000
G3 X105.552 Y10.631 Z-3.000 I8.849 J-47.158 K0.000 F600.000
G1 X106.201 Y8.416 Z-3.000 F600.000
G0 Z5.000
G0 X106.715 Y9.330 Z5.000
G0 X106.715 Y9.330 Z3.000
G1 X106.715 Y9.330 Z-3.000 F600.000
G2 X112.458 Y10.535 Z-3.000 I9.853 J-32.692 K0.000 F600.000
G1 X112.077 Y11.639 Z-3.000 F600.000
G3 X106.475 Y10.149 Z-3.000 I8.128 J-41.841 K0.000 F600.000
G1 X106.715 Y9.330 Z-3.000 F600.000
G1 X106.715 Y9.330 Z-5.000 F600.000
G2 X112.458 Y10.535 Z-5.000 I9.853 J-32.692 K0.000 F600.000
G1 X112.077 Y11.639 Z-5.000 F600.000
G3 X106.475 Y10.149 Z-5.000 I8.128 J-41.841 K0.000 F600.000
G1 X106.715 Y9.330 Z-5.000 F600.000
G0 Z5.000
G0 X106.912 Y8.620 Z5.000
G0 X106.912 Y8.620 Z3.000
G1 X106.912 Y8.620 Z-5.000 F600.000
G2 X110.274 Y9.434 Z-5.000 I13.896 J-49.987 K0.000 F600.000
G2 X113.470 Y9.902 Z-5.000 I7.825 J-42.289 K0.000 F600.000
G1 X112.570 Y12.507 Z-5.000 F600.000
G3 X105.552 Y10.631 Z-5.000 I8.849 J-47.158 K0.000 F600.000
G1 X106.201 Y8.416 Z-5.000 F600.000
G2 X106.912 Y8.620 Z-5.000 I14.607 J-49.783 K0.000 F600.000
G0 Z5.000
G0 X107.106 Y7.878 Z5.000
G0 X107.106 Y7.878 Z3.000
G1 X107.106 Y7.878 Z-5.000 F600.000
G3 X109.438 Y8.496 Z-5.000 I-88.808 J339.605 K0.000 F600.000
G2 X114.488 Y9.253 Z-5.000 I8.841 J-41.755 K0.000 F600.000
G1 X113.068 Y13.363 Z-5.000 F600.000
G3 X104.635 Y11.094 Z-5.000 I8.131 J-47.029 K0.000 F600.000
G1 X105.685 Y7.509 Z-5.000 F600.000
G3 X107.106 Y7.878 Z-5.000 I-87.387 J339.974 K0.000 F600.000
G0 Z5.000
G0 Z5.000
G0 X107.106 Y7.878
G0 X108.957 Y2.756
G0 X108.957 Y2.756 Z3.000
G1 X108.957 Y2.756 Z-3.000 F600.000
G3 X106.640 Y1.856 Z-3.000 I17.638 J-48.827 K0.000 F600.000
G1 X107.886 Y-1.363 Z-3.000 F600.000
G2 X116.761 Y0.378 Z-3.000 I17.094 J-63.650 K0.000 F600.000
G1 X115.293 Y4.418 Z-3.000 F600.000
G3 X110.034 Y3.132 Z-3.000 I5.362 J-33.329 K0.000 F600.000
G3 X108.957 Y2.756 Z-3.000 I16.561 J-49.202 K0.000 F600.000
G0 Z5.000
G0 X109.224 Y2.033 Z5.000
G0 X109.224 Y2.033 Z3.000
G1 X109.224 Y2.033 Z-3.000 F600.000
G1 X107.607 Y1.436 Z-3.000 F600.000
G1 X108.343 Y-0.467 Z-3.000 F600.000
G2 X115.740 Y0.993 Z-3.000 I16.110 J-62.137 K0.000 F600.000
G1 X114.805 Y3.564 Z-3.000 F600.000
G3 X110.278 Y2.422 Z-3.000 I5.350 J-30.760 K0.000 F600.000
G1 X109.224 Y2.033 Z-3.000 F600.000
G0 Z5.000
G0 X109.480 Y1.351 Z5.000
G0 X109.480 Y1.351 Z3.000
G1 X109.480 Y1.351 Z-3.000 F600.000
G3 X108.581 Y0.996 Z-3.000 I10.337 J-27.522 K0.000 F600.000
G1 X108.801 Y0.428 Z-3.000 F600.000
G2 X114.720 Y1.604 Z-3.000 I16.066 J-65.384 K0.000 F600.000
G1 X114.318 Y2.709 Z-3.000 F600.000
G3 X109.480 Y1.351 Z-3.000 I5.499 J-28.881 K0.000 F600.000
G1 X109.480 Y1.351 Z-5.000 F600.000
G3 X108.581 Y0.996 Z-5.000 I10.337 J-27.522 K0.000 F600.000
G1 X108.801 Y0.428 Z-5.000 F600.000
G2 X114.720 Y1.604 Z-5.000 I16.066 J-65.384 K0.000 F600.000
G1 X114.318 Y2.709 Z-5.000 F600.000
G3 X109.480 Y1.351 Z-5.000 I5.499 J-28.881 K0.000 F600.000
G0 Z5.000
G0 X109.227 Y2.034 Z5.000
G0 X109.227 Y2.034 Z3.000
G1 X109.227 Y2.034 Z-5.000 F600.000
G1 X107.607 Y1.436 Z-5.000 F600.000
G1 X108.343 Y-0.467 Z-5.000 F600.000
G2 X115.740 Y0.993 Z-5.000 I16.110 J-62.137 K0.000 F600.000
G1 X114.805 Y3.564 Z-5.000 F600.000
G3 X110.278 Y2.422 Z-5.000 I5.350 J-30.760 K0.000 F600.000
G1 X109.227 Y2.034 Z-5.000 F600.000
G0 Z5.000
G0 X108.966 Y2.759 Z5.000
G0 X108.966 Y2.759 Z3.000
G1 X108.966 Y2.759 Z-5.000 F600.000
G3 X106.640 Y1.856 Z-5.000 I17.629 J-48.830 K0.000 F600.000
G1 X107.886 Y-1.363 Z-5.000 F600.000
G2 X116.761 Y0.378 Z-5.000 I17.094 J-63.650 K0.000 F600.000
G1 X115.293 Y4.418 Z-5.000 F600.000
G3 X110.034 Y3.132 Z-5.000 I5.362 J-33.329 K0.000 F600.000
G3 X108.966 Y2.759 Z-5.000 I16.561 J-49.202 K0.000 F600.000
G0 Z5.000
G0 Z5.000
G0 X108.966 Y2.759
G0 X108.905 Y-6.340
G0 X108.905 Y-6.340 Z3.000
G1 X108.905 Y-6.340 Z-3.000 F600.000
G3 X103.875 Y-6.344 Z-3.000 I-2.201 J-330.581 K0.000 F600.000
G3 X100.189 Y-7.017 Z-3.000 I-0.418 J-8.154 K0.000 F600.000
G3 X99.060 Y-7.686 Z-3.000 I1.409 J-3.661 K0.000 F600.000
G3 X98.508 Y-8.649 Z-3.000 I1.136 J-1.291 K0.000 F600.000
G3 X98.231 Y-10.030 Z-3.000 I6.230 J-1.965 K0.000 F600.000
G2 X96.718 Y-11.328 Z-3.000 I-1.486 J0.202 K0.000 F600.000
G3 X84.261 Y-11.139 Z-3.000 I-18.010 J-776.839 K0.000 F600.000
G3 X81.575 Y-11.467 Z-3.000 I-0.027 J-10.941 K0.000 F600.000
G3 X79.675 Y-12.555 Z-3.000 I0.687 J-3.405 K0.000 F600.000
G3 X78.904 Y-14.979 Z-3.000 I2.747 J-2.208 K0.000 F600.000
G3 X79.132 Y-20.686 Z-3.000 I107.207 J1.419 K0.000 F600.000
G1 X79.560 Y-27.166 Z-3.000 F600.000
G1 X85.038 Y-26.921 Z-3.000 F600.000
G2 X84.393 Y-20.251 Z-3.000 I190.131 J21.747 K0.000 F600.000
G2 X84.489 Y-18.095 Z-3.000 I7.971 J0.727 K0.000 F600.000
G2 X86.590 Y-16.159 Z-3.000 I2.683 J-0.803 K0.000 F600.000
G2 X88.189 Y-15.977 Z-3.000 I1.512 J-6.178 K0.000 F600.000
G1 X97.418 Y-16.230 Z-3.000 F600.000
G2 X98.835 Y-17.364 Z-3.000 I-0.044 J-1.508 K0.000 F600.000
G2 X99.456 Y-19.543 Z-3.000 I-72.928 J-21.963 K0.000 F600.000
G2 X97.898 Y-21.439 Z-3.000 I-1.445 J-0.401 K0.000 F600.000
G3 X89.870 Y-21.222 Z-3.000 I-5.940 J-70.974 K0.000 F600.000
G1 X90.129 Y-25.417 Z-3.000 F600.000
G2 X104.979 Y-25.990 Z-3.000 I-4.628 J-312.574 K0.000 F600.000
G2 X103.652 Y-17.759 Z-3.000 I154.689 J29.172 K0.000 F600.000
G2 X103.464 Y-15.408 Z-3.000 I18.663 J2.676 K0.000 F600.000
G2 X104.021 Y-12.996 Z-3.000 I4.661 J0.194 K0.000 F600.000
G2 X106.128 Y-11.530 Z-3.000 I2.647 J-1.557 K0.000 F600.000
G2 X108.271 Y-11.236 Z-3.000 I2.158 J-7.758 K0.000 F600.000
G1 X116.995 Y-11.363 Z-3.000 F600.000
G2 X119.821 Y-12.088 Z-3.000 I-0.355 J-7.262 K0.000 F600.000
G2 X121.446 Y-14.157 Z-3.000 I-1.595 J-2.926 K0.000 F600.000
G2 X121.477 Y-18.207 Z-3.000 I-8.724 J-2.092 K0.000 F600.000
G1 X127.307 Y-17.518 Z-3.000 F600.000
G3 X127.330 Y-11.699 Z-3.000 I-25.554 J3.012 K0.000 F600.000
G3 X126.651 Y-9.254 Z-3.000 I-7.868 J-0.868 K0.000 F600.000
G3 X123.755 Y-7.002 Z-3.000 I-3.568 J-1.601 K0.000 F600.000
G3 X120.770 Y-6.679 Z-3.000 I-5.086 J-33.074 K0.000 F600.000
G3 X112.305 Y-6.380 Z-3.000 I-10.389 J-173.890 K0.000 F600.000
G3 X108.905 Y-6.340 Z-3.000 I-5.601 J-330.541 K0.000 F600.000
G0 Z5.000
G0 X103.570 Y-9.350 Z5.000
G0 X103.570 Y-9.350 Z3.000
G1 X103.570 Y-9.350 Z-3.000 F600.000
G3 X101.310 Y-9.810 Z-3.000 I-0.158 J-4.998 K0.000 F600.000
G2 X100.895 Y-11.568 Z-3.000 I-9.242 J1.257 K0.000 F600.000
G2 X99.173 Y-13.606 Z-3.000 I-4.031 J1.660 K0.000 F600.000
G2 X100.508 Y-14.510 Z-3.000 I-1.646 J-3.873 K0.000 F600.000
G2 X102.408 Y-10.230 Z-3.000 I6.697 J-0.411 K0.000 F600.000
G2 X103.570 Y-9.350 Z-3.000 I3.232 J-3.060 K0.000 F600.000
G0 Z5.000
G0 X121.765 Y-9.772 Z5.000
G0 X121.765 Y-9.772 Z3.000
G1 X121.765 Y-9.772 Z-3.000 F600.000
G2 X124.477 Y-13.952 Z-3.000 I-3.592 J-5.301 K0.000 F600.000
G3 X124.136 Y-11.049 Z-3.000 I-10.341 J0.259 K0.000 F600.000
G3 X123.593 Y-10.104 Z-3.000 I-1.601 J-0.292 K0.000 F600.000
G3 X123.162 Y-9.946 Z-3.000 I-0.576 J-0.908 K0.000 F600.000
G3 X121.765 Y-9.772 Z-3.000 I-2.737 J-16.299 K0.000 F600.000
G0 Z5.000
G0 X83.827 Y-14.162 Z5.000
G0 X83.827 Y-14.162 Z3.000
G1 X83.827 Y-14.162 Z-3.000 F600.000
G3 X82.094 Y-14.453 Z-3.000 I0.157 J-6.249 K0.000 F600.000
G3 X81.924 Y-14.669 Z-3.000 I-0.002 J-0.173 K0.000 F600.000
G3 X81.933 Y-16.408 Z-3.000 I23.143 J-0.754 K0.000 F600.000
G2 X83.827 Y-14.162 Z-3.000 I4.896 J-2.208 K0.000 F600.000
G1 X83.827 Y-14.162 Z-5.000 F600.000
G3 X82.094 Y-14.453 Z-5.000 I0.157 J-6.249 K0.000 F600.000
G3 X81.924 Y-14.669 Z-5.000 I-0.002 J-0.173 K0.000 F600.000
G3 X81.933 Y-16.408 Z-5.000 I23.143 J-0.754 K0.000 F600.000
G2 X83.827 Y-14.162 Z-5.000 I4.896 J-2.208 K0.000 F600.000
G0 Z5.000
G0 X85.556 Y-16.610 Z5.000
G0 X85.556 Y-16.610 Z3.000
G1 X85.556 Y-16.610 Z-5.000 F600.000
G2 X86.590 Y-16.159 Z-5.000 I1.615 J-2.288 K0.000 F600.000
G2 X88.189 Y-15.977 Z-5.000 I1.512 J-6.178 K0.000 F600.000
G1 X97.418 Y-16.230 Z-5.000 F600.000
G2 X98.835 Y-17.364 Z-5.000 I-0.044 J-1.508 K0.000 F600.000
G2 X99.456 Y-19.543 Z-5.000 I-72.928 J-21.963 K0.000 F600.000
G2 X97.898 Y-21.439 Z-5.000 I-1.445 J-0.401 K0.000 F600.000
G3 X89.870 Y-21.222 Z-5.000 I-5.940 J-70.974 K0.000 F600.000
G1 X90.129 Y-25.417 Z-5.000 F600.000
G2 X104.979 Y-25.990 Z-5.000 I-4.628 J-312.574 K0.000 F600.000
G2 X103.652 Y-17.759 Z-5.000 I154.689 J29.172 K0.000 F600.000
G2 X103.464 Y-15.408 Z-5.000 I18.663 J2.676 K0.000 F600.000
G2 X104.021 Y-12.996 Z-5.000 I4.661 J0.194 K0.000 F600.000
G2 X106.128 Y-11.530 Z-5.000 I2.647 J-1.557 K0.000 F600.000
G2 X108.271 Y-11.236 Z-5.000 I2.158 J-7.758 K0.000 F600.000
G1 X116.995 Y-11.363 Z-5.000 F600.000
G2 X119.821 Y-12.088 Z-5.000 I-0.355 J-7.262 K0.000 F600.000
G2 X121.446 Y-14.157 Z-5.000 I-1.595 J-2.926 K0.000 F600.000
G2 X121.477 Y-18.207 Z-5.000 I-8.724 J-2.092 K0.000 F600.000
G1 X127.307 Y-17.518 Z-5.000 F600.000
G3 X127.330 Y-11.699 Z-5.000 I-25.554 J3.012 K0.000 F600.000
G3 X126.651 Y-9.254 Z-5.000 I-7.868 J-0.868 K0.000 F600.000
G3 X123.755 Y-7.002 Z-5.000 I-3.568 J-1.601 K0.000 F600.000
G3 X120.770 Y-6.679 Z-5.000 I-5.086 J-33.074 K0.000 F600.000
G3 X112.305 Y-6.380 Z-5.000 I-10.389 J-173.890 K0.000 F600.000
G3 X103.875 Y-6.344 Z-5.000 I-5.601 J-330.541 K0.000 F600.000
G3 X100.189 Y-7.017 Z-5.000 I-0.418 J-8.154 K0.000 F600.000
G3 X99.060 Y-7.686 Z-5.000 I1.409 J-3.661 K0.000 F600.000
G3 X98.508 Y-8.649 Z-5.000 I1.136 J-1.291 K0.000 F600.000
G3 X98.231 Y-10.030 Z-5.000 I6.230 J-1.965 K0.000 F600.000
G2 X96.718 Y-11.328 Z-5.000 I-1.486 J0.202 K0.000 F600.000
G3 X84.261 Y-11.139 Z-5.000 I-18.010 J-776.839 K0.000 F600.000
G3 X81.575 Y-11.467 Z-5.000 I-0.027 J-10.941 K0.000 F600.000
G3 X79.675 Y-12.555 Z-5.000 I0.687 J-3.405 K0.000 F600.000
G3 X78.904 Y-14.979 Z-5.000 I2.747 J-2.208 K0.000 F600.000
G3 X79.132 Y-20.686 Z-5.000 I107.207 J1.419 K0.000 F600.000
G1 X79.560 Y-27.166 Z-5.000 F600.000
G1 X85.038 Y-26.921 Z-5.000 F600.000
G2 X84.393 Y-20.251 Z-5.000 I190.131 J21.747 K0.000 F600.000
G2 X84.489 Y-18.095 Z-5.000 I7.971 J0.727 K0.000 F600.000
G2 X85.556 Y-16.610 Z-5.000 I2.683 J-0.803 K0.000 F600.000
G0 Z5.000
G0 X99.173 Y-13.606 Z5.000
G0 X99.173 Y-13.606 Z3.000
G1 X99.173 Y-13.606 Z-5.000 F600.000
G2 X100.508 Y-14.510 Z-5.000 I-1.646 J-3.873 K0.000 F600.000
G2 X102.408 Y-10.230 Z-5.000 I6.697 J-0.411 K0.000 F600.000
G2 X103.570 Y-9.350 Z-5.000 I3.232 J-3.060 K0.000 F600.000
G3 X101.310 Y-9.810 Z-5.000 I-0.158 J-4.998 K0.000 F600.000
G2 X100.895 Y-11.568 Z-5.000 I-9.242 J1.257 K0.000 F600.000
G2 X99.173 Y-13.606 Z-5.000 I-4.031 J1.660 K0.000 F600.000
G0 Z5.000
G0 X121.765 Y-9.772 Z5.000
G0 X121.765 Y-9.772 Z3.000
G1 X121.765 Y-9.772 Z-5.000 F600.000
G2 X124.477 Y-13.952 Z-5.000 I-3.592 J-5.301 K0.000 F600.000
G3 X124.136 Y-11.049 Z-5.000 I-10.341 J0.259 K0.000 F600.000
G3 X123.593 Y-10.104 Z-5.000 I-1.601 J-0.292 K0.000 F600.000
G3 X123.162 Y-9.946 Z-5.000 I-0.576 J-0.908 K0.000 F600.000
G3 X121.765 Y-9.772 Z-5.000 I-2.737 J-16.299 K0.000 F600.000
G0 Z5.000
G0 Z5.000
G0 X121.765 Y-9.772
G0 X115.604 Y-15.788
G0 X115.604 Y-15.788 Z3.000
G1 X115.604 Y-15.788 Z-3.000 F600.000
G1 X110.088 Y-15.665 Z-3.000 F600.000
G3 X110.982 Y-21.806 Z-3.000 I881.723 J125.153 K0.000 F600.000
G2 X111.466 Y-26.499 Z-3.000 I-63.638 J-8.933 K0.000 F600.000
G1 X116.852 Y-26.135 Z-3.000 F600.000
G3 X115.762 Y-16.750 Z-3.000 I-170.099 J-14.984 K0.000 F600.000
G3 X115.604 Y-15.788 Z-3.000 I-16.887 J-2.292 K0.000 F600.000
G0 Z5.000
G0 X114.965 Y-16.524 Z5.000
G0 X114.965 Y-16.524 Z3.000
G1 X114.965 Y-16.524 Z-3.000 F600.000
G1 X110.944 Y-16.434 Z-3.000 F600.000
G2 X112.016 Y-24.137 Z-3.000 I-218.188 J-34.300 K0.000 F600.000
G2 X112.157 Y-25.700 Z-3.000 I-37.548 J-4.173 K0.000 F600.000
G1 X116.032 Y-25.439 Z-3.000 F600.000
G3 X114.965 Y-16.524 Z-3.000 I-132.644 J-11.361 K0.000 F600.000
G0 Z5.000
G0 X114.320 Y-17.260 Z5.000
G0 X114.320 Y-17.260 Z3.000
G1 X114.320 Y-17.260 Z-3.000 F600.000
G1 X111.812 Y-17.204 Z-3.000 F600.000
G2 X112.844 Y-24.902 Z-3.000 I-110.498 J-18.732 K0.000 F600.000
G1 X115.210 Y-24.743 Z-3.000 F600.000
G3 X114.320 Y-17.260 Z-3.000 I-129.024 J-11.554 K0.000 F600.000
G0 Z5.000
G0 X113.666 Y-17.996 Z5.000
G0 X113.666 Y-17.996 Z3.000
G1 X113.666 Y-17.996 Z-3.000 F600.000
G1 X112.685 Y-17.974 Z-3.000 F600.000
G2 X113.520 Y-24.105 Z-3.000 I-102.816 J-17.124 K0.000 F600.000
G1 X114.382 Y-24.047 Z-3.000 F600.000
G3 X113.666 Y-17.996 Z-3.000 I-108.073 J-9.724 K0.000 F600.000
G1 X113.666 Y-17.996 Z-5.000 F600.000
G1 X112.685 Y-17.974 Z-5.000 F600.000
G2 X113.520 Y-24.105 Z-5.000 I-102.816 J-17.124 K0.000 F600.000
G1 X114.382 Y-24.047 Z-5.000 F600.000
G3 X113.666 Y-17.996 Z-5.000 I-108.073 J-9.724 K0.000 F600.000
G0 Z5.000
G0 X113.683 Y-17.246 Z5.000
G0 X113.683 Y-17.246 Z3.000
G1 X113.683 Y-17.246 Z-5.000 F600.000
G1 X111.812 Y-17.204 Z-5.000 F600.000
G2 X112.844 Y-24.902 Z-5.000 I-110.498 J-18.732 K0.000 F600.000
G1 X115.210 Y-24.743 Z-5.000 F600.000
G3 X114.320 Y-17.260 Z-5.000 I-129.024 J-11.554 K0.000 F600.000
G1 X113.683 Y-17.246 Z-5.000 F600.000
G0 Z5.000
G0 X113.700 Y-16.496 Z5.000
G0 X113.700 Y-16.496 Z3.000
G1 X113.700 Y-16.496 Z-5.000 F600.000
G1 X110.944 Y-16.434 Z-5.000 F600.000
G2 X112.016 Y-24.137 Z-5.000 I-218.188 J-34.300 K0.000 F600.000
G2 X112.157 Y-25.700 Z-5.000 I-37.548 J-4.173 K0.000 F600.000
G1 X116.032 Y-25.439 Z-5.000 F600.000
G3 X114.965 Y-16.524 Z-5.000 I-132.644 J-11.361 K0.000 F600.000
G1 X113.700 Y-16.496 Z-5.000 F600.000
G0 Z5.000
G0 X113.716 Y-15.746 Z5.000
G0 X113.716 Y-15.746 Z3.000
G1 X113.716 Y-15.746 Z-5.000 F600.000
G1 X110.088 Y-15.665 Z-5.000 F600.000
G3 X110.982 Y-21.806 Z-5.000 I881.723 J125.153 K0.000 F600.000
G2 X111.466 Y-26.499 Z-5.000 I-63.638 J-8.933 K0.000 F600.000
G1 X116.852 Y-26.135 Z-5.000 F600.000
G3 X115.762 Y-16.750 Z-5.000 I-170.099 J-14.984 K0.000 F600.000
G3 X115.604 Y-15.788 Z-5.000 I-16.887 J-2.292 K0.000 F600.000
G1 X113.716 Y-15.746 Z-5.000 F600.000
G0 Z5.000
G0 Z5.000
G0 X113.716 Y-15.746
G0 X121.242 Y-3.241
G0 X121.242 Y-3.241 Z3.000
G1 X121.242 Y-3.241 Z-3.000 F600.000
G1 X127.194 Y-3.115 Z-3.000 F600.000
G3 X126.461 Y24.262 Z-3.000 I-1962.937 J-38.850 K0.000 F600.000
G3 X126.334 Y26.841 Z-3.000 I-69.545 J-2.133 K0.000 F600.000
G1 X120.463 Y26.545 Z-3.000 F600.000
G1 X120.557 Y22.124 Z-3.000 F600.000
G2 X118.709 Y20.633 Z-3.000 I-1.500 J-0.032 K0.000 F600.000
G2 X111.858 Y22.312 Z-3.000 I169.166 J704.804 K0.000 F600.000
G3 X106.634 Y23.366 Z-3.000 I-18.361 J-77.557 K0.000 F600.000
G1 X105.091 Y19.150 Z-3.000 F600.000
G2 X114.757 Y16.998 Z-3.000 I-13.851 J-85.018 K0.000 F600.000
G2 X119.905 Y15.363 Z-3.000 I-34.013 J-115.981 K0.000 F600.000
G2 X120.938 Y13.971 Z-3.000 I-0.467 J-1.426 K0.000 F600.000
G2 X121.221 Y-0.463 Z-3.000 I-1470.898 J-36.065 K0.000 F600.000
G1 X121.242 Y-3.241 Z-3.000 F600.000
G0 Z5.000
G0 X123.747 Y15.204 Z5.000
G0 X123.747 Y15.204 Z3.000
G1 X123.747 Y15.204 Z-3.000 F600.000
G3 X123.543 Y21.876 Z-3.000 I-463.614 J-10.818 K0.000 F600.000
G2 X121.118 Y18.102 Z-3.000 I-4.425 J0.177 K0.000 F600.000
G2 X123.747 Y15.204 Z-3.000 I-1.611 J-4.103 K0.000 F600.000
G0 Z5.000
G0 X122.923 Y17.852 Z5.000
G0 X122.923 Y17.852 Z3.000
G1 X122.923 Y17.852 Z-3.000 F600.000
G1 X122.904 Y18.529 Z-3.000 F600.000
G2 X122.538 Y18.163 Z-3.000 I-1.663 J1.297 K0.000 F600.000
G2 X122.923 Y17.852 Z-3.000 I-1.061 J-1.711 K0.000 F600.000
G1 X122.923 Y17.852 Z-5.000 F600.000
G1 X122.904 Y18.529 Z-5.000 F600.000
G2 X122.538 Y18.163 Z-5.000 I-1.663 J1.297 K0.000 F600.000
G2 X122.923 Y17.852 Z-5.000 I-1.061 J-1.711 K0.000 F600.000
G0 Z5.000
G0 X122.431 Y17.297 Z5.000
G0 X122.431 Y17.297 Z3.000
G1 X122.431 Y17.297 Z-5.000 F600.000
G2 X123.747 Y15.204 Z-5.000 I-2.924 J-3.298 K0.000 F600.000
G3 X123.543 Y21.876 Z-5.000 I-463.614 J-10.818 K0.000 F600.000
G2 X121.118 Y18.102 Z-5.000 I-4.425 J0.177 K0.000 F600.000
G2 X122.431 Y17.297 Z-5.000 I-1.611 J-4.103 K0.000 F600.000
G0 Z5.000
G0 X120.436 Y15.057 Z5.000
G0 X120.436 Y15.057 Z3.000
G1 X120.436 Y15.057 Z-5.000 F600.000
G2 X120.938 Y13.971 Z-5.000 I-0.998 J-1.120 K0.000 F600.000
G2 X121.221 Y-0.463 Z-5.000 I-1470.898 J-36.065 K0.000 F600.000
G1 X121.242 Y-3.241 Z-5.000 F600.000
G1 X127.194 Y-3.115 Z-5.000 F600.000
G3 X126.461 Y24.262 Z-5.000 I-1962.937 J-38.850 K0.000 F600.000
G3 X126.334 Y26.841 Z-5.000 I-69.545 J-2.133 K0.000 F600.000
G1 X120.463 Y26.545 Z-5.000 F600.000
G1 X120.557 Y22.124 Z-5.000 F600.000
G2 X118.709 Y20.633 Z-5.000 I-1.500 J-0.032 K0.000 F600.000
G2 X111.858 Y22.312 Z-5.000 I169.166 J704.804 K0.000 F600.000
G3 X106.634 Y23.366 Z-5.000 I-18.361 J-77.557 K0.000 F600.000
G1 X105.091 Y19.150 Z-5.000 F600.000
G2 X114.757 Y16.998 Z-5.000 I-13.851 J-85.018 K0.000 F600.000
G2 X119.905 Y15.363 Z-5.000 I-34.013 J-115.981 K0.000 F600.000
G2 X120.436 Y15.057 Z-5.000 I-0.467 J-1.426 K0.000 F600.000
G0 Z5.000
G0 Z5.000
(Finish operation: Pocket_Shape)
(Begin postamble)
M5
G17 G90
M2
