(Exported by FreeCAD)
(Post Processor: script_module)
(Output Time:2026-07-03 17:58:42.123800)
(Begin preamble)
G17 G90
G21
(Begin operation: Fixture)
(Path: Fixture)
G54
(Finish operation: Fixture)
(Begin operation: 1_5mm001)
(Path: 1_5mm001)
(1_5mm001)
(Begin toolchange)
( M6 T3 )
M3 S10000
(Finish operation: 1_5mm001)
(Begin operation: Pocket_Shape)
(Path: Pocket_Shape)
(Pocket_Shape)
G0 Z5.000
G0 X-74.808 Y-57.937
G0 Z3.000
G1 X-74.808 Y-57.937 Z-1.000 F180.000
G2 X-74.797 Y-57.994 Z-1.000 I-0.431 J-0.107 K0.000 F180.000
G1 X-74.880 Y-58.009 Z-1.000 F180.000
G1 X-74.808 Y-57.937 Z-1.000 F180.000
G2 X-74.797 Y-57.994 Z-1.000 I-0.431 J-0.107 K0.000 F180.000
G3 X-83.511 Y-60.426 Z-1.000 I8.294 J-46.541 K0.000 F180.000
G1 X-83.529 Y-60.431 Z-1.000 F180.000
G1 X-83.536 Y-60.410 Z-1.000 F180.000
G1 X-83.994 Y-58.638 Z-1.000 F180.000
G2 X-75.322 Y-55.504 Z-1.000 I17.558 J-35.016 K0.000 F180.000
G1 X-75.294 Y-55.498 Z-1.000 F180.000
G1 X-75.288 Y-55.521 Z-1.000 F180.000
G1 X-74.808 Y-57.937 Z-1.000 F180.000
G1 X-75.159 Y-56.167 Z-1.000 F180.000
G1 X-77.566 Y-58.574 Z-1.000 F180.000
G3 X-80.492 Y-59.379 Z-1.000 I10.595 J-44.236 K0.000 F180.000
G1 X-77.068 Y-55.955 Z-1.000 F180.000
G3 X-80.225 Y-56.990 Z-1.000 I10.293 J-36.713 K0.000 F180.000
G1 X-83.558 Y-60.323 Z-1.000 F180.000
G1 X-83.994 Y-58.638 Z-1.000 F180.000
G1 X-83.994 Y-58.638 Z-2.000 F180.000
G1 X-83.558 Y-60.323 Z-2.000 F180.000
G1 X-80.225 Y-56.990 Z-2.000 F180.000
G2 X-77.068 Y-55.955 Z-2.000 I13.450 J-35.677 K0.000 F180.000
G1 X-80.492 Y-59.379 Z-2.000 F180.000
G2 X-77.566 Y-58.574 Z-2.000 I13.521 J-43.431 K0.000 F180.000
G1 X-75.159 Y-56.167 Z-2.000 F180.000
G1 X-74.808 Y-57.937 Z-2.000 F180.000
G1 X-75.288 Y-55.521 Z-2.000 F180.000
G1 X-75.294 Y-55.498 Z-2.000 F180.000
G1 X-75.322 Y-55.504 Z-2.000 F180.000
G3 X-83.994 Y-58.638 Z-2.000 I8.887 J-38.150 K0.000 F180.000
G1 X-83.536 Y-60.410 Z-2.000 F180.000
G1 X-83.529 Y-60.431 Z-2.000 F180.000
G1 X-83.511 Y-60.426 Z-2.000 F180.000
G2 X-74.797 Y-57.994 Z-2.000 I17.007 J-44.109 K0.000 F180.000
G3 X-74.808 Y-57.937 Z-2.000 I-0.441 J-0.050 K0.000 F180.000
G1 X-74.880 Y-58.009 Z-2.000 F180.000
G1 X-74.797 Y-57.994 Z-2.000 F180.000
G3 X-74.808 Y-57.937 Z-2.000 I-0.441 J-0.050 K0.000 F180.000
G0 Z5.000
G0 Z5.000
G0 X-74.808 Y-57.937
G0 X-75.000 Y-63.765
G0 X-75.000 Y-63.765 Z3.000
G1 X-75.000 Y-63.765 Z-1.000 F180.000
G2 X-71.550 Y-63.950 Z-1.000 I-2.764 J-83.628 K0.000 F180.000
G2 X-70.476 Y-64.486 Z-1.000 I-0.077 J-1.497 K0.000 F180.000
G2 X-70.101 Y-65.371 Z-1.000 I-1.603 J-1.201 K0.000 F180.000
G2 X-70.137 Y-69.572 Z-1.000 I-14.569 J-1.977 K0.000 F180.000
G1 X-70.140 Y-69.573 Z-1.000 F180.000
G1 X-72.219 Y-69.610 Z-1.000 F180.000
G1 X-72.227 Y-69.609 Z-1.000 F180.000
G3 X-72.282 Y-66.743 Z-1.000 I-4.481 J1.348 K0.000 F180.000
G3 X-72.398 Y-66.517 Z-1.000 I-0.715 J-0.226 K0.000 F180.000
G3 X-73.780 Y-65.832 Z-1.000 I-1.441 J-1.171 K0.000 F180.000
G3 X-87.841 Y-65.907 Z-1.000 I-4.902 J-398.748 K0.000 F180.000
G1 X-87.864 Y-65.906 Z-1.000 F180.000
G1 X-87.866 Y-65.883 Z-1.000 F180.000
G1 X-87.928 Y-64.069 Z-1.000 F180.000
G1 X-87.927 Y-64.051 Z-1.000 F180.000
G2 X-79.015 Y-63.728 Z-1.000 I17.376 J-356.677 K0.000 F180.000
G1 X-77.948 Y-63.719 Z-1.000 F180.000
G2 X-75.000 Y-63.765 Z-1.000 I0.184 J-83.674 K0.000 F180.000
G0 Z5.000
G0 X-69.969 Y-67.306 Z5.000
G0 X-69.969 Y-67.306 Z3.000
G1 X-69.969 Y-67.306 Z-1.000 F180.000
G1 X-72.206 Y-69.543 Z-1.000 F180.000
G2 X-72.227 Y-69.609 Z-1.000 I-4.820 J1.456 K0.000 F180.000
G1 X-72.219 Y-69.610 Z-1.000 F180.000
G1 X-70.140 Y-69.573 Z-1.000 F180.000
G1 X-70.137 Y-69.572 Z-1.000 F180.000
G3 X-69.969 Y-67.306 Z-1.000 I-14.109 J2.182 K0.000 F180.000
G3 X-70.101 Y-65.371 Z-1.000 I-14.203 J0.005 K0.000 F180.000
G1 X-70.110 Y-65.326 Z-1.000 F180.000
G1 X-72.122 Y-67.338 Z-1.000 F180.000
G3 X-72.282 Y-66.743 Z-1.000 I-4.057 J-0.770 K0.000 F180.000
G3 X-72.398 Y-66.517 Z-1.000 I-0.715 J-0.226 K0.000 F180.000
G3 X-72.960 Y-66.054 Z-1.000 I-1.406 J-1.134 K0.000 F180.000
G1 X-70.994 Y-64.088 Z-1.000 F180.000
G3 X-71.550 Y-63.950 Z-1.000 I-0.634 J-1.364 K0.000 F180.000
G3 X-72.889 Y-63.862 Z-1.000 I-4.104 J-52.434 K0.000 F180.000
G1 X-74.848 Y-65.821 Z-1.000 F180.000
G3 X-76.955 Y-65.806 Z-1.000 I-2.298 J-181.220 K0.000 F180.000
G1 X-74.917 Y-63.768 Z-1.000 F180.000
G3 X-76.993 Y-63.723 Z-1.000 I-2.654 J-74.194 K0.000 F180.000
G1 X-79.073 Y-65.803 Z-1.000 F180.000
G3 X-81.201 Y-65.810 Z-1.000 I-0.412 J-183.271 K0.000 F180.000
G1 X-79.122 Y-63.731 Z-1.000 F180.000
G3 X-81.303 Y-63.791 Z-1.000 I4.851 J-217.037 K0.000 F180.000
G1 X-83.342 Y-65.829 Z-1.000 F180.000
G1 X-85.494 Y-65.860 Z-1.000 F180.000
G1 X-83.498 Y-63.864 Z-1.000 F180.000
G3 X-85.706 Y-63.951 Z-1.000 I7.516 J-219.727 K0.000 F180.000
G1 X-87.658 Y-65.903 Z-1.000 F180.000
G2 X-87.864 Y-65.906 Z-1.000 I-0.123 J1.569 K0.000 F180.000
G1 X-87.866 Y-65.883 Z-1.000 F180.000
G1 X-87.928 Y-64.069 Z-1.000 F180.000
G1 X-87.927 Y-64.051 Z-1.000 F180.000
G1 X-87.927 Y-64.051 Z-2.000 F180.000
G1 X-87.928 Y-64.069 Z-2.000 F180.000
G1 X-87.866 Y-65.883 Z-2.000 F180.000
G1 X-87.864 Y-65.906 Z-2.000 F180.000
G3 X-87.658 Y-65.903 Z-2.000 I0.083 J1.572 K0.000 F180.000
G1 X-85.706 Y-63.951 Z-2.000 F180.000
G2 X-83.498 Y-63.864 Z-2.000 I9.724 J-219.641 K0.000 F180.000
G1 X-85.494 Y-65.860 Z-2.000 F180.000
G1 X-83.342 Y-65.829 Z-2.000 F180.000
G1 X-81.303 Y-63.791 Z-2.000 F180.000
G2 X-79.122 Y-63.731 Z-2.000 I7.032 J-216.977 K0.000 F180.000
G1 X-81.201 Y-65.810 Z-2.000 F180.000
G2 X-79.073 Y-65.803 Z-2.000 I1.716 J-183.263 K0.000 F180.000
G1 X-76.993 Y-63.723 Z-2.000 F180.000
G2 X-74.917 Y-63.768 Z-2.000 I-0.578 J-74.239 K0.000 F180.000
G1 X-76.955 Y-65.806 Z-2.000 F180.000
G2 X-74.848 Y-65.821 Z-2.000 I-0.191 J-181.235 K0.000 F180.000
G1 X-72.889 Y-63.862 Z-2.000 F180.000
G2 X-71.550 Y-63.950 Z-2.000 I-2.764 J-52.522 K0.000 F180.000
G2 X-70.994 Y-64.088 Z-2.000 I-0.079 J-1.502 K0.000 F180.000
G1 X-72.960 Y-66.054 Z-2.000 F180.000
G2 X-72.398 Y-66.517 Z-2.000 I-0.845 J-1.597 K0.000 F180.000
G2 X-72.282 Y-66.743 Z-2.000 I-0.598 J-0.453 K0.000 F180.000
G2 X-72.122 Y-67.338 Z-2.000 I-3.897 J-1.365 K0.000 F180.000
G1 X-70.110 Y-65.326 Z-2.000 F180.000
G1 X-70.101 Y-65.371 Z-2.000 F180.000
G2 X-69.969 Y-67.306 Z-2.000 I-14.072 J-1.930 K0.000 F180.000
G2 X-70.137 Y-69.572 Z-2.000 I-14.277 J-0.084 K0.000 F180.000
G1 X-70.140 Y-69.573 Z-2.000 F180.000
G1 X-72.219 Y-69.610 Z-2.000 F180.000
G1 X-72.227 Y-69.609 Z-2.000 F180.000
G3 X-72.206 Y-69.543 Z-2.000 I-4.799 J1.523 K0.000 F180.000
G1 X-69.969 Y-67.306 Z-2.000 F180.000
G0 Z5.000
G0 X-69.968 Y-67.306 Z5.000
G0 X-69.968 Y-67.306 Z3.000
G1 X-69.968 Y-67.306 Z-2.000 F180.000
G2 X-70.137 Y-69.572 Z-2.000 I-14.702 J-0.042 K0.000 F180.000
G1 X-70.140 Y-69.573 Z-2.000 F180.000
G1 X-72.219 Y-69.610 Z-2.000 F180.000
G1 X-72.227 Y-69.609 Z-2.000 F180.000
G3 X-72.282 Y-66.743 Z-2.000 I-4.481 J1.348 K0.000 F180.000
G3 X-72.398 Y-66.517 Z-2.000 I-0.715 J-0.226 K0.000 F180.000
G3 X-73.780 Y-65.832 Z-2.000 I-1.441 J-1.171 K0.000 F180.000
G3 X-87.841 Y-65.907 Z-2.000 I-4.902 J-398.748 K0.000 F180.000
G1 X-87.864 Y-65.906 Z-2.000 F180.000
G1 X-87.866 Y-65.883 Z-2.000 F180.000
G1 X-87.928 Y-64.069 Z-2.000 F180.000
G1 X-87.927 Y-64.051 Z-2.000 F180.000
G2 X-79.015 Y-63.728 Z-2.000 I17.376 J-356.677 K0.000 F180.000
G1 X-77.948 Y-63.719 Z-2.000 F180.000
G2 X-71.550 Y-63.950 Z-2.000 I0.184 J-83.674 K0.000 F180.000
G2 X-70.476 Y-64.486 Z-2.000 I-0.077 J-1.497 K0.000 F180.000
G2 X-70.101 Y-65.371 Z-2.000 I-1.603 J-1.201 K0.000 F180.000
G2 X-69.968 Y-67.306 Z-2.000 I-14.569 J-1.977 K0.000 F180.000
G0 Z5.000
G0 Z5.000
G0 X-69.968 Y-67.306
G0 X-77.107 Y-73.593
G0 X-77.107 Y-73.593 Z3.000
G1 X-77.107 Y-73.593 Z-1.000 F180.000
G3 X-84.064 Y-71.572 Z-1.000 I-8.527 J-16.364 K0.000 F180.000
G1 X-84.081 Y-71.569 Z-1.000 F180.000
G1 X-84.079 Y-71.545 Z-1.000 F180.000
G1 X-83.796 Y-69.696 Z-1.000 F180.000
G2 X-83.771 Y-69.658 Z-1.000 I0.032 J0.006 K0.000 F180.000
G2 X-83.701 Y-69.668 Z-1.000 I0.008 J-0.194 K0.000 F180.000
G2 X-75.346 Y-72.098 Z-1.000 I-1.299 J-20.042 K0.000 F180.000
G2 X-75.333 Y-72.132 Z-1.000 I0.002 J-0.019 K0.000 F180.000
G1 X-76.036 Y-74.179 Z-1.000 F180.000
G1 X-76.042 Y-74.192 Z-1.000 F180.000
G3 X-77.107 Y-73.593 Z-1.000 I-8.447 J-13.768 K0.000 F180.000
G1 X-75.519 Y-72.006 Z-1.000 F180.000
G2 X-75.327 Y-72.110 Z-1.000 I-0.731 J-1.580 K0.000 F180.000
G1 X-75.333 Y-72.132 Z-1.000 F180.000
G1 X-76.036 Y-74.179 Z-1.000 F180.000
G1 X-76.042 Y-74.192 Z-1.000 F180.000
G3 X-77.107 Y-73.593 Z-1.000 I-8.265 J-13.444 K0.000 F180.000
G3 X-78.553 Y-72.918 Z-1.000 I-7.950 J-15.143 K0.000 F180.000
G1 X-76.947 Y-71.312 Z-1.000 F180.000
G3 X-78.473 Y-70.717 Z-1.000 I-7.424 J-16.781 K0.000 F180.000
G1 X-80.108 Y-72.352 Z-1.000 F180.000
G3 X-81.789 Y-71.912 Z-1.000 I-5.309 J-16.848 K0.000 F180.000
G1 X-80.108 Y-70.231 Z-1.000 F180.000
G3 X-81.872 Y-69.874 Z-1.000 I-4.668 J-18.514 K0.000 F180.000
G1 X-83.614 Y-71.616 Z-1.000 F180.000
G1 X-84.064 Y-71.572 Z-1.000 F180.000
G1 X-84.081 Y-71.569 Z-1.000 F180.000
G1 X-84.079 Y-71.545 Z-1.000 F180.000
G1 X-83.796 Y-69.696 Z-1.000 F180.000
G2 X-83.777 Y-69.660 Z-1.000 I0.035 J0.005 K0.000 F180.000
G1 X-83.777 Y-69.660 Z-2.000 F180.000
G3 X-83.796 Y-69.696 Z-2.000 I0.016 J-0.031 K0.000 F180.000
G1 X-84.079 Y-71.545 Z-2.000 F180.000
G1 X-84.081 Y-71.569 Z-2.000 F180.000
G1 X-84.064 Y-71.572 Z-2.000 F180.000
G1 X-83.614 Y-71.616 Z-2.000 F180.000
G1 X-81.872 Y-69.874 Z-2.000 F180.000
G2 X-80.108 Y-70.231 Z-2.000 I-2.904 J-18.872 K0.000 F180.000
G1 X-81.789 Y-71.912 Z-2.000 F180.000
G2 X-80.108 Y-72.352 Z-2.000 I-3.628 J-17.288 K0.000 F180.000
G1 X-78.473 Y-70.717 Z-2.000 F180.000
G2 X-76.947 Y-71.312 Z-2.000 I-5.898 J-17.376 K0.000 F180.000
G1 X-78.553 Y-72.918 Z-2.000 F180.000
G2 X-77.107 Y-73.593 Z-2.000 I-6.504 J-15.818 K0.000 F180.000
G2 X-76.042 Y-74.192 Z-2.000 I-7.200 J-14.043 K0.000 F180.000
G1 X-76.036 Y-74.179 Z-2.000 F180.000
G1 X-75.333 Y-72.132 Z-2.000 F180.000
G1 X-75.327 Y-72.110 Z-2.000 F180.000
G3 X-75.519 Y-72.006 Z-2.000 I-0.924 J-1.476 K0.000 F180.000
G1 X-77.107 Y-73.593 Z-2.000 F180.000
G2 X-76.042 Y-74.192 Z-2.000 I-7.382 J-14.367 K0.000 F180.000
G1 X-76.036 Y-74.179 Z-2.000 F180.000
G1 X-75.333 Y-72.132 Z-2.000 F180.000
G3 X-75.346 Y-72.098 Z-2.000 I-0.012 J0.015 K0.000 F180.000
G3 X-83.701 Y-69.668 Z-2.000 I-9.653 J-17.612 K0.000 F180.000
G3 X-83.771 Y-69.658 Z-2.000 I-0.063 J-0.183 K0.000 F180.000
G3 X-83.796 Y-69.696 Z-2.000 I0.007 J-0.032 K0.000 F180.000
G1 X-84.079 Y-71.545 Z-2.000 F180.000
G1 X-84.081 Y-71.569 Z-2.000 F180.000
G1 X-84.064 Y-71.572 Z-2.000 F180.000
G2 X-77.107 Y-73.593 Z-2.000 I-1.571 J-18.386 K0.000 F180.000
G0 Z5.000
G0 Z5.000
(Finish operation: Pocket_Shape)
(Begin operation: Pocket_Shape001)
(Path: Pocket_Shape001)
(Pocket_Shape001)
G0 Z5.000
G0 X-74.258 Y-33.045
G0 Z3.000
G1 X-74.258 Y-33.045 Z-1.000 F180.000
G1 X-74.455 Y-33.242 Z-1.000 F180.000
G3 X-74.472 Y-33.079 Z-1.000 I-1.560 J-0.084 K0.000 F180.000
G2 X-74.450 Y-33.059 Z-1.000 I0.035 J-0.016 K0.000 F180.000
G1 X-74.258 Y-33.045 Z-1.000 F180.000
G1 X-74.258 Y-33.045 Z-1.000 F180.000
G1 X-74.455 Y-33.242 Z-1.000 F180.000
G2 X-74.470 Y-33.915 Z-1.000 I-3.441 J-0.262 K0.000 F180.000
G2 X-74.661 Y-34.351 Z-1.000 I-0.747 J0.068 K0.000 F180.000
G2 X-75.310 Y-34.599 Z-1.000 I-0.583 J0.553 K0.000 F180.000
G2 X-75.768 Y-34.555 Z-1.000 I0.892 J11.864 K0.000 F180.000
G1 X-77.197 Y-35.984 Z-1.000 F180.000
G2 X-76.569 Y-35.886 Z-1.000 I0.424 J-0.661 K0.000 F180.000
G1 X-75.210 Y-36.103 Z-1.000 F180.000
G1 X-75.196 Y-36.104 Z-1.000 F180.000
G1 X-73.088 Y-33.996 Z-1.000 F180.000
G1 X-73.106 Y-34.214 Z-1.000 F180.000
G3 X-72.445 Y-35.023 Z-1.000 I0.747 J-0.064 K0.000 F180.000
G2 X-72.046 Y-35.076 Z-1.000 I-0.395 J-4.497 K0.000 F180.000
G1 X-74.465 Y-37.495 Z-1.000 F180.000
G2 X-74.491 Y-37.999 Z-1.000 I-6.033 J0.062 K0.000 F180.000
G2 X-75.095 Y-38.681 Z-1.000 I-0.748 J0.053 K0.000 F180.000
G3 X-75.606 Y-38.835 Z-1.000 I0.288 J-1.885 K0.000 F180.000
G2 X-75.779 Y-38.921 Z-1.000 I-1.317 J2.425 K0.000 F180.000
G3 X-75.715 Y-39.660 Z-1.000 I2.015 J-0.199 K0.000 F180.000
G2 X-75.695 Y-39.853 Z-1.000 I-0.835 J-0.186 K0.000 F180.000
G3 X-75.616 Y-39.906 Z-1.000 I0.061 J0.006 K0.000 F180.000
G2 X-74.789 Y-39.940 Z-1.000 I0.388 J-0.654 K0.000 F180.000
G1 X-73.290 Y-38.441 Z-1.000 F180.000
G1 X-73.276 Y-37.620 Z-1.000 F180.000
G2 X-72.677 Y-36.783 Z-1.000 I0.802 J0.059 K0.000 F180.000
G2 X-71.788 Y-36.939 Z-1.000 I0.224 J-1.334 K0.000 F180.000
G1 X-70.515 Y-35.666 Z-1.000 F180.000
G2 X-70.041 Y-36.450 Z-1.000 I-1.094 J-1.196 K0.000 F180.000
G2 X-70.007 Y-37.279 Z-1.000 I-13.423 J-0.965 K0.000 F180.000
G1 X-71.068 Y-38.340 Z-1.000 F180.000
G2 X-71.067 Y-39.950 Z-1.000 I-14.238 J-0.815 K0.000 F180.000
G3 X-70.541 Y-39.934 Z-1.000 I0.147 J3.866 K0.000 F180.000
G1 X-70.141 Y-39.535 Z-1.000 F180.000
G2 X-70.195 Y-39.904 Z-1.000 I-6.962 J0.829 K0.000 F180.000
G3 X-70.541 Y-39.934 Z-1.000 I0.269 J-5.135 K0.000 F180.000
G0 Z5.000
G0 X-74.466 Y-40.467 Z5.000
G0 X-74.466 Y-40.467 Z3.000
G1 X-74.466 Y-40.467 Z-1.000 F180.000
G3 X-75.609 Y-39.903 Z-1.000 I-0.761 J-0.103 K0.000 F180.000
G2 X-75.691 Y-39.868 Z-1.000 I-0.024 J0.057 K0.000 F180.000
G3 X-75.708 Y-39.694 Z-1.000 I-3.024 J-0.207 K0.000 F180.000
G2 X-75.781 Y-38.935 Z-1.000 I2.061 J0.579 K0.000 F180.000
G2 X-75.775 Y-38.919 Z-1.000 I0.007 J0.006 K0.000 F180.000
G2 X-75.095 Y-38.681 Z-1.000 I1.025 J-1.839 K0.000 F180.000
G3 X-74.505 Y-38.096 Z-1.000 I-0.145 J0.736 K0.000 F180.000
G3 X-74.484 Y-36.828 Z-1.000 I-6.486 J0.739 K0.000 F180.000
G3 X-75.210 Y-36.103 Z-1.000 I-0.787 J-0.061 K0.000 F180.000
G1 X-76.569 Y-35.886 Z-1.000 F180.000
G3 X-77.550 Y-36.742 Z-1.000 I-0.204 J-0.757 K0.000 F180.000
G1 X-77.441 Y-42.009 Z-1.000 F180.000
G3 X-76.799 Y-42.856 Z-1.000 I0.792 J-0.066 K0.000 F180.000
G2 X-75.349 Y-43.082 Z-1.000 I-3.737 J-28.752 K0.000 F180.000
G3 X-75.192 Y-43.093 Z-1.000 I0.131 J0.738 K0.000 F180.000
G3 X-74.438 Y-42.210 Z-1.000 I-0.027 J0.786 K0.000 F180.000
G1 X-74.459 Y-40.557 Z-1.000 F180.000
G3 X-74.466 Y-40.467 Z-1.000 I-0.768 J-0.014 K0.000 F180.000
G0 Z5.000
G0 X-74.789 Y-39.940 Z5.000
G0 X-74.789 Y-39.940 Z3.000
G1 X-74.789 Y-39.940 Z-1.000 F180.000
G1 X-73.290 Y-38.441 Z-1.000 F180.000
G3 X-73.322 Y-40.594 Z-1.000 I304.035 J-5.601 K0.000 F180.000
G1 X-74.445 Y-41.717 Z-1.000 F180.000
G0 Z5.000
G0 X-75.189 Y-44.583 Z5.000
G0 X-75.189 Y-44.583 Z3.000
G1 X-75.189 Y-44.583 Z-1.000 F180.000
G1 X-73.384 Y-44.858 Z-1.000 F180.000
G1 X-73.361 Y-44.860 Z-1.000 F180.000
G1 X-73.359 Y-44.837 Z-1.000 F180.000
G2 X-73.345 Y-42.739 Z-1.000 I296.403 J-0.947 K0.000 F180.000
G1 X-75.189 Y-44.583 Z-1.000 F180.000
G1 X-76.470 Y-44.387 Z-1.000 F180.000
G3 X-76.940 Y-44.444 Z-1.000 I-0.126 J-0.933 K0.000 F180.000
G3 X-77.384 Y-45.076 Z-1.000 I0.304 J-0.686 K0.000 F180.000
G3 X-77.355 Y-45.987 Z-1.000 I3.772 J-0.336 K0.000 F180.000
G2 X-77.381 Y-46.015 Z-1.000 I-0.033 J0.005 K0.000 F180.000
G2 X-77.629 Y-46.037 Z-1.000 I-0.184 J0.662 K0.000 F180.000
G3 X-77.922 Y-46.059 Z-1.000 I0.321 J-6.153 K0.000 F180.000
G2 X-78.743 Y-46.054 Z-1.000 I-0.374 J6.059 K0.000 F180.000
G1 X-78.748 Y-46.020 Z-1.000 F180.000
G1 X-75.741 Y-43.013 Z-1.000 F180.000
G3 X-76.799 Y-42.856 Z-1.000 I-4.949 J-29.718 K0.000 F180.000
G2 X-77.332 Y-42.483 Z-1.000 I0.143 J0.772 K0.000 F180.000
G1 X-79.119 Y-44.270 Z-1.000 F180.000
G3 X-79.446 Y-44.133 Z-1.000 I-0.437 J-0.582 K0.000 F180.000
G3 X-80.873 Y-44.012 Z-1.000 I-1.362 J-7.620 K0.000 F180.000
G3 X-81.012 Y-44.042 Z-1.000 I0.039 J-0.524 K0.000 F180.000
G1 X-79.658 Y-42.687 Z-1.000 F180.000
G3 X-78.871 Y-41.900 Z-1.000 I-0.000 J0.787 K0.000 F180.000
G1 X-77.473 Y-40.502 Z-1.000 F180.000
G0 Z5.000
G0 X-78.892 Y-40.580 Z5.000
G0 X-78.892 Y-40.580 Z3.000
G1 X-78.892 Y-40.580 Z-1.000 F180.000
G3 X-78.899 Y-40.456 Z-1.000 I-16.181 J-0.893 K0.000 F180.000
G3 X-80.191 Y-39.904 Z-1.000 I-0.787 J-0.056 K0.000 F180.000
G2 X-80.260 Y-39.884 Z-1.000 I-0.025 J0.041 K0.000 F180.000
G3 X-80.293 Y-39.708 Z-1.000 I-2.275 J-0.335 K0.000 F180.000
G2 X-80.427 Y-38.971 Z-1.000 I1.854 J0.719 K0.000 F180.000
G1 X-80.420 Y-38.967 Z-1.000 F180.000
G2 X-79.605 Y-38.673 Z-1.000 I1.179 J-1.986 K0.000 F180.000
G3 X-78.967 Y-37.811 Z-1.000 I-0.147 J0.776 K0.000 F180.000
G1 X-78.987 Y-36.354 Z-1.000 F180.000
G3 X-78.992 Y-36.279 Z-1.000 I-0.750 J-0.010 K0.000 F180.000
G3 X-79.552 Y-35.593 Z-1.000 I-0.759 J-0.048 K0.000 F180.000
G3 X-80.809 Y-35.534 Z-1.000 I-0.854 J-4.755 K0.000 F180.000
G3 X-82.096 Y-36.852 Z-1.000 I0.194 J-1.478 K0.000 F180.000
G3 X-81.960 Y-41.881 Z-1.000 I60.483 J-0.878 K0.000 F180.000
G3 X-81.149 Y-42.598 Z-1.000 I0.777 J0.061 K0.000 F180.000
G1 X-79.778 Y-42.676 Z-1.000 F180.000
G3 X-79.658 Y-42.687 Z-1.000 I0.110 J0.539 K0.000 F180.000
G3 X-78.872 Y-41.845 Z-1.000 I-0.000 J0.788 K0.000 F180.000
G3 X-78.892 Y-40.580 Z-1.000 I-16.202 J0.372 K0.000 F180.000
G0 Z5.000
G0 X-78.871 Y-41.900 Z5.000
G0 X-78.871 Y-41.900 Z3.000
G1 X-78.871 Y-41.900 Z-1.000 F180.000
G1 X-77.473 Y-40.502 Z-1.000 F180.000
G1 X-77.516 Y-38.424 Z-1.000 F180.000
G1 X-79.089 Y-39.997 Z-1.000 F180.000
G3 X-80.196 Y-39.907 Z-1.000 I-0.600 J-0.522 K0.000 F180.000
G2 X-80.264 Y-39.872 Z-1.000 I-0.020 J0.044 K0.000 F180.000
G3 X-80.348 Y-39.539 Z-1.000 I-1.122 J-0.108 K0.000 F180.000
G2 X-80.416 Y-39.203 Z-1.000 I1.745 J0.528 K0.000 F180.000
G1 X-79.973 Y-38.760 Z-1.000 F180.000
G3 X-80.392 Y-38.955 Z-1.000 I0.726 J-2.111 K0.000 F180.000
G2 X-80.427 Y-38.971 Z-1.000 I-0.421 J0.856 K0.000 F180.000
G3 X-80.416 Y-39.203 Z-1.000 I1.254 J-0.059 K0.000 F180.000
G0 Z5.000
G0 X-78.968 Y-37.755 Z5.000
G0 X-78.968 Y-37.755 Z3.000
G1 X-78.968 Y-37.755 Z-1.000 F180.000
G1 X-77.432 Y-36.219 Z-1.000 F180.000
G2 X-77.197 Y-35.984 Z-1.000 I0.667 J-0.431 K0.000 F180.000
G1 X-75.768 Y-34.555 Z-1.000 F180.000
G1 X-76.834 Y-34.453 Z-1.000 F180.000
G2 X-77.468 Y-34.134 Z-1.000 I-0.002 J0.787 K0.000 F180.000
G1 X-79.171 Y-35.836 Z-1.000 F180.000
G3 X-79.647 Y-35.575 Z-1.000 I-0.570 J-0.473 K0.000 F180.000
G3 X-80.889 Y-35.543 Z-1.000 I-0.744 J-4.836 K0.000 F180.000
G3 X-81.036 Y-35.580 Z-1.000 I0.270 J-1.386 K0.000 F180.000
G1 X-79.677 Y-34.221 Z-1.000 F180.000
G3 X-79.076 Y-33.620 Z-1.000 I-0.134 J0.735 K0.000 F180.000
G1 X-78.190 Y-32.734 Z-1.000 F180.000
G0 Z5.000
G0 X-79.076 Y-33.620 Z5.000
G0 X-79.076 Y-33.620 Z3.000
G1 X-79.076 Y-33.620 Z-1.000 F180.000
G1 X-78.190 Y-32.734 Z-1.000 F180.000
G3 X-79.065 Y-32.787 Z-1.000 I-0.065 J-6.218 K0.000 F180.000
G3 X-79.075 Y-32.798 Z-1.000 I0.017 J-0.027 K0.000 F180.000
G2 X-79.078 Y-33.636 Z-1.000 I-3.085 J-0.407 K0.000 F180.000
G2 X-79.869 Y-34.232 Z-1.000 I-0.734 J0.152 K0.000 F180.000
G3 X-82.405 Y-34.243 Z-1.000 I-1.209 J-13.573 K0.000 F180.000
G3 X-82.951 Y-34.665 Z-1.000 I0.223 J-0.853 K0.000 F180.000
G3 X-83.308 Y-36.446 Z-1.000 I5.220 J-1.973 K0.000 F180.000
G3 X-83.116 Y-42.725 Z-1.000 I131.965 J0.902 K0.000 F180.000
G2 X-84.150 Y-43.456 Z-1.000 I-0.749 J-0.037 K0.000 F180.000
G2 X-85.038 Y-43.003 Z-1.000 I1.710 J4.446 K0.000 F180.000
G2 X-85.335 Y-42.411 Z-1.000 I0.493 J0.618 K0.000 F180.000
G1 X-85.336 Y-42.389 Z-1.000 F180.000
G1 X-85.622 Y-32.808 Z-1.000 F180.000
G1 X-85.622 Y-32.801 Z-1.000 F180.000
G3 X-87.048 Y-32.787 Z-1.000 I-0.782 J-7.127 K0.000 F180.000
G1 X-87.049 Y-32.810 Z-1.000 F180.000
G3 X-86.756 Y-41.616 Z-1.000 I281.254 J4.940 K0.000 F180.000
G2 X-87.556 Y-42.400 Z-1.000 I-0.752 J-0.033 K0.000 F180.000
G3 X-87.833 Y-43.831 Z-1.000 I7.138 J-2.122 K0.000 F180.000
G1 X-87.814 Y-43.837 Z-1.000 F180.000
G2 X-82.474 Y-46.047 Z-1.000 I-3.501 J-16.016 K0.000 F180.000
G1 X-82.470 Y-46.042 Z-1.000 F180.000
G1 X-81.493 Y-44.438 Z-1.000 F180.000
G2 X-80.772 Y-44.009 Z-1.000 I0.713 J-0.376 K0.000 F180.000
G2 X-79.353 Y-44.154 Z-1.000 I-0.080 J-7.799 K0.000 F180.000
G2 X-78.812 Y-44.867 Z-1.000 I-0.210 J-0.720 K0.000 F180.000
G3 X-78.743 Y-46.054 Z-1.000 I8.377 J-0.110 K0.000 F180.000
G1 X-78.652 Y-46.061 Z-1.000 F180.000
G1 X-78.652 Y-46.061 Z-1.000 F180.000
G3 X-77.629 Y-46.037 Z-1.000 I0.348 J6.960 K0.000 F180.000
G3 X-77.370 Y-46.011 Z-1.000 I0.071 J0.588 K0.000 F180.000
G3 X-77.353 Y-45.977 Z-1.000 I-0.047 J0.045 K0.000 F180.000
G2 X-77.370 Y-44.976 Z-1.000 I3.310 J0.559 K0.000 F180.000
G2 X-76.592 Y-44.379 Z-1.000 I0.738 J-0.156 K0.000 F180.000
G2 X-76.470 Y-44.387 Z-1.000 I0.008 J-0.750 K0.000 F180.000
G1 X-73.384 Y-44.858 Z-1.000 F180.000
G1 X-73.361 Y-44.860 Z-1.000 F180.000
G1 X-73.359 Y-44.837 Z-1.000 F180.000
G2 X-73.277 Y-37.503 Z-1.000 I563.528 J-2.704 K0.000 F180.000
G2 X-72.403 Y-36.764 Z-1.000 I0.795 J-0.053 K0.000 F180.000
G2 X-71.104 Y-37.863 Z-1.000 I-0.065 J-1.394 K0.000 F180.000
G2 X-71.067 Y-39.950 Z-1.000 I-14.084 J-1.293 K0.000 F180.000
G3 X-70.306 Y-39.910 Z-1.000 I0.129 J4.765 K0.000 F180.000
G3 X-70.200 Y-39.906 Z-1.000 I0.042 J0.317 K0.000 F180.000
G1 X-70.195 Y-39.904 Z-1.000 F180.000
G3 X-70.041 Y-36.450 Z-1.000 I-15.067 J2.403 K0.000 F180.000
G3 X-70.760 Y-35.480 Z-1.000 I-1.575 J-0.415 K0.000 F180.000
G3 X-72.445 Y-35.023 Z-1.000 I-2.125 J-4.504 K0.000 F180.000
G2 X-73.106 Y-34.214 Z-1.000 I0.085 J0.745 K0.000 F180.000
G3 X-73.044 Y-33.230 Z-1.000 I-19.340 J1.714 K0.000 F180.000
G2 X-73.028 Y-33.119 Z-1.000 I3.672 J-0.482 K0.000 F180.000
G3 X-73.045 Y-33.072 Z-1.000 I-0.074 J-0.001 K0.000 F180.000
G3 X-74.457 Y-33.062 Z-1.000 I-0.756 J-6.814 K0.000 F180.000
G3 X-74.472 Y-33.079 Z-1.000 I0.019 J-0.033 K0.000 F180.000
G2 X-74.485 Y-34.011 Z-1.000 I-3.236 J-0.423 K0.000 F180.000
G2 X-75.252 Y-34.600 Z-1.000 I-0.740 J0.169 K0.000 F180.000
G2 X-75.339 Y-34.596 Z-1.000 I-0.015 J0.750 K0.000 F180.000
G1 X-76.834 Y-34.453 Z-1.000 F180.000
G2 X-77.626 Y-33.652 Z-1.000 I0.002 J0.794 K0.000 F180.000
G3 X-77.646 Y-32.879 Z-1.000 I-6.916 J0.208 K0.000 F180.000
G2 X-77.644 Y-32.778 Z-1.000 I4.072 J-0.018 K0.000 F180.000
G3 X-77.656 Y-32.753 Z-1.000 I-0.052 J-0.008 K0.000 F180.000
G3 X-79.065 Y-32.787 Z-1.000 I-0.531 J-7.123 K0.000 F180.000
G3 X-79.075 Y-32.798 Z-1.000 I0.017 J-0.027 K0.000 F180.000
G2 X-79.076 Y-33.620 Z-1.000 I-3.087 J-0.407 K0.000 F180.000
G0 Z5.000
G0 X-81.774 Y-34.196 Z5.000
G0 X-81.774 Y-34.196 Z3.000
G1 X-81.774 Y-34.196 Z-1.000 F180.000
G3 X-82.405 Y-34.243 Z-1.000 I0.549 J-11.724 K0.000 F180.000
G3 X-82.951 Y-34.665 Z-1.000 I0.223 J-0.853 K0.000 F180.000
G3 X-83.221 Y-35.644 Z-1.000 I5.028 J-1.913 K0.000 F180.000
G1 X-81.774 Y-34.196 Z-1.000 F180.000
G2 X-79.869 Y-34.232 Z-1.000 I0.700 J-13.568 K0.000 F180.000
G3 X-79.677 Y-34.221 Z-1.000 I0.056 J0.731 K0.000 F180.000
G1 X-81.036 Y-35.580 Z-1.000 F180.000
G3 X-82.041 Y-36.585 Z-1.000 I0.428 J-1.433 K0.000 F180.000
G1 X-83.291 Y-37.835 Z-1.000 F180.000
G3 X-83.238 Y-39.904 Z-1.000 I108.440 J1.725 K0.000 F180.000
G1 X-82.093 Y-38.759 Z-1.000 F180.000
G3 X-82.023 Y-40.809 Z-1.000 I54.583 J0.852 K0.000 F180.000
G1 X-83.155 Y-41.942 Z-1.000 F180.000
G0 Z5.000
G0 X-81.623 Y-44.653 Z5.000
G0 X-81.623 Y-44.653 Z3.000
G1 X-81.623 Y-44.653 Z-1.000 F180.000
G1 X-82.470 Y-46.042 Z-1.000 F180.000
G1 X-82.474 Y-46.047 Z-1.000 F180.000
G3 X-82.809 Y-45.838 Z-1.000 I-4.019 J-6.067 K0.000 F180.000
G1 X-81.623 Y-44.653 Z-1.000 F180.000
G1 X-81.493 Y-44.438 Z-1.000 F180.000
G2 X-81.012 Y-44.042 Z-1.000 I0.717 J-0.380 K0.000 F180.000
G1 X-79.658 Y-42.687 Z-1.000 F180.000
G2 X-79.778 Y-42.676 Z-1.000 I-0.011 J0.549 K0.000 F180.000
G1 X-81.149 Y-42.598 Z-1.000 F180.000
G2 X-81.581 Y-42.489 Z-1.000 I-0.031 J0.787 K0.000 F180.000
G1 X-84.184 Y-45.092 Z-1.000 F180.000
G3 X-85.674 Y-44.461 Z-1.000 I-6.893 J-14.182 K0.000 F180.000
G1 X-84.512 Y-43.298 Z-1.000 F180.000
G2 X-85.038 Y-43.003 Z-1.000 I1.793 J3.808 K0.000 F180.000
G2 X-85.335 Y-42.411 Z-1.000 I0.493 J0.618 K0.000 F180.000
G2 X-85.347 Y-42.013 Z-1.000 I13.626 J0.616 K0.000 F180.000
G1 X-87.295 Y-43.960 Z-1.000 F180.000
G3 X-87.833 Y-43.831 Z-1.000 I-3.017 J-11.387 K0.000 F180.000
G2 X-87.556 Y-42.400 Z-1.000 I7.414 J-0.691 K0.000 F180.000
G3 X-86.756 Y-41.616 Z-1.000 I0.049 J0.750 K0.000 F180.000
G1 X-86.770 Y-41.314 Z-1.000 F180.000
G1 X-85.409 Y-39.953 Z-1.000 F180.000
G1 X-85.470 Y-37.893 Z-1.000 F180.000
G1 X-86.859 Y-39.282 Z-1.000 F180.000
G2 X-86.935 Y-37.236 Z-1.000 I163.002 J7.036 K0.000 F180.000
G1 X-85.531 Y-35.833 Z-1.000 F180.000
G1 X-85.593 Y-33.773 Z-1.000 F180.000
G1 X-86.996 Y-35.176 Z-1.000 F180.000
G2 X-87.043 Y-33.102 Z-1.000 I165.305 J4.762 K0.000 F180.000
G1 X-86.706 Y-32.765 Z-1.000 F180.000
G3 X-87.047 Y-32.787 Z-1.000 I0.125 J-4.718 K0.000 F180.000
G1 X-87.048 Y-32.787 Z-1.000 F180.000
G1 X-87.049 Y-32.810 Z-1.000 F180.000
G1 X-87.043 Y-33.102 Z-1.000 F180.000
G0 Z5.000
G0 X-76.613 Y-47.321 Z5.000
G0 X-76.613 Y-47.321 Z3.000
G1 X-76.613 Y-47.321 Z-1.000 F180.000
G2 X-70.314 Y-49.259 Z-1.000 I-3.905 J-23.889 K0.000 F180.000
G1 X-70.288 Y-49.273 Z-1.000 F180.000
G1 X-70.297 Y-49.295 Z-1.000 F180.000
G1 X-71.228 Y-51.222 Z-1.000 F180.000
G1 X-71.236 Y-51.236 Z-1.000 F180.000
G3 X-76.992 Y-48.475 Z-1.000 I-13.692 J-21.162 K0.000 F180.000
G1 X-77.008 Y-48.468 Z-1.000 F180.000
G2 X-76.613 Y-47.321 Z-1.000 I5.450 J-1.233 K0.000 F180.000
G0 Z5.000
G0 X-76.969 Y-48.483 Z5.000
G0 X-76.969 Y-48.483 Z3.000
G1 X-76.969 Y-48.483 Z-1.000 F180.000
G1 X-75.929 Y-47.444 Z-1.000 F180.000
G3 X-76.613 Y-47.321 Z-1.000 I-3.008 J-14.775 K0.000 F180.000
G3 X-77.008 Y-48.468 Z-1.000 I5.055 J-2.380 K0.000 F180.000
G3 X-76.969 Y-48.483 Z-1.000 I0.118 J0.251 K0.000 F180.000
G2 X-75.420 Y-49.056 Z-1.000 I-7.580 J-22.869 K0.000 F180.000
G1 X-74.206 Y-47.842 Z-1.000 F180.000
G2 X-72.585 Y-48.342 Z-1.000 I-5.647 J-21.202 K0.000 F180.000
G1 X-73.953 Y-49.710 Z-1.000 F180.000
G2 X-72.559 Y-50.438 Z-1.000 I-9.828 J-20.524 K0.000 F180.000
G1 X-71.054 Y-48.932 Z-1.000 F180.000
G2 X-70.314 Y-49.259 Z-1.000 I-6.718 J-16.187 K0.000 F180.000
G1 X-70.288 Y-49.273 Z-1.000 F180.000
G1 X-70.297 Y-49.295 Z-1.000 F180.000
G1 X-71.228 Y-51.222 Z-1.000 F180.000
G1 X-71.236 Y-51.236 Z-1.000 F180.000
G1 X-71.236 Y-51.236 Z-2.000 F180.000
G1 X-71.228 Y-51.222 Z-2.000 F180.000
G1 X-70.297 Y-49.295 Z-2.000 F180.000
G1 X-70.288 Y-49.273 Z-2.000 F180.000
G1 X-70.314 Y-49.259 Z-2.000 F180.000
G3 X-71.054 Y-48.932 Z-2.000 I-7.458 J-15.860 K0.000 F180.000
G1 X-72.559 Y-50.438 Z-2.000 F180.000
G3 X-73.953 Y-49.710 Z-2.000 I-11.221 J-19.796 K0.000 F180.000
G1 X-72.585 Y-48.342 Z-2.000 F180.000
G3 X-74.206 Y-47.842 Z-2.000 I-7.269 J-20.702 K0.000 F180.000
G1 X-75.420 Y-49.056 Z-2.000 F180.000
G3 X-76.969 Y-48.483 Z-2.000 I-9.129 J-22.296 K0.000 F180.000
G2 X-77.008 Y-48.468 Z-2.000 I0.078 J0.266 K0.000 F180.000
G2 X-76.613 Y-47.321 Z-2.000 I5.450 J-1.233 K0.000 F180.000
G2 X-75.929 Y-47.444 Z-2.000 I-2.323 J-14.898 K0.000 F180.000
G1 X-76.969 Y-48.483 Z-2.000 F180.000
G0 Z5.000
G0 X-76.968 Y-48.483 Z5.000
G0 X-76.968 Y-48.483 Z3.000
G1 X-76.968 Y-48.483 Z-2.000 F180.000
G3 X-76.992 Y-48.475 Z-2.000 I-7.959 J-23.915 K0.000 F180.000
G1 X-77.008 Y-48.468 Z-2.000 F180.000
G2 X-76.613 Y-47.321 Z-2.000 I5.450 J-1.233 K0.000 F180.000
G2 X-70.314 Y-49.259 Z-2.000 I-3.905 J-23.889 K0.000 F180.000
G1 X-70.288 Y-49.273 Z-2.000 F180.000
G1 X-70.297 Y-49.295 Z-2.000 F180.000
G1 X-71.228 Y-51.222 Z-2.000 F180.000
G1 X-71.236 Y-51.236 Z-2.000 F180.000
G3 X-76.968 Y-48.483 Z-2.000 I-13.692 J-21.162 K0.000 F180.000
G0 Z5.000
G0 X-78.652 Y-46.061 Z5.000
G0 X-78.652 Y-46.061 Z3.000
G1 X-78.652 Y-46.061 Z-2.000 F180.000
G3 X-77.629 Y-46.037 Z-2.000 I0.348 J6.960 K0.000 F180.000
G3 X-77.370 Y-46.011 Z-2.000 I0.071 J0.588 K0.000 F180.000
G3 X-77.353 Y-45.977 Z-2.000 I-0.047 J0.045 K0.000 F180.000
G2 X-77.370 Y-44.976 Z-2.000 I3.310 J0.559 K0.000 F180.000
G2 X-76.592 Y-44.379 Z-2.000 I0.738 J-0.156 K0.000 F180.000
G2 X-76.470 Y-44.387 Z-2.000 I0.008 J-0.750 K0.000 F180.000
G1 X-73.384 Y-44.858 Z-2.000 F180.000
G1 X-73.361 Y-44.860 Z-2.000 F180.000
G1 X-73.359 Y-44.837 Z-2.000 F180.000
G2 X-73.277 Y-37.503 Z-2.000 I563.528 J-2.704 K0.000 F180.000
G2 X-72.403 Y-36.764 Z-2.000 I0.795 J-0.053 K0.000 F180.000
G2 X-71.104 Y-37.863 Z-2.000 I-0.065 J-1.394 K0.000 F180.000
G2 X-71.067 Y-39.950 Z-2.000 I-14.084 J-1.293 K0.000 F180.000
G3 X-70.306 Y-39.910 Z-2.000 I0.129 J4.765 K0.000 F180.000
G3 X-70.200 Y-39.906 Z-2.000 I0.042 J0.317 K0.000 F180.000
G1 X-70.195 Y-39.904 Z-2.000 F180.000
G3 X-70.041 Y-36.450 Z-2.000 I-15.067 J2.403 K0.000 F180.000
G3 X-70.760 Y-35.480 Z-2.000 I-1.575 J-0.415 K0.000 F180.000
G3 X-72.445 Y-35.023 Z-2.000 I-2.125 J-4.504 K0.000 F180.000
G2 X-73.106 Y-34.214 Z-2.000 I0.085 J0.745 K0.000 F180.000
G3 X-73.044 Y-33.230 Z-2.000 I-19.340 J1.714 K0.000 F180.000
G2 X-73.028 Y-33.119 Z-2.000 I3.672 J-0.482 K0.000 F180.000
G3 X-73.045 Y-33.072 Z-2.000 I-0.074 J-0.001 K0.000 F180.000
G3 X-74.457 Y-33.062 Z-2.000 I-0.756 J-6.814 K0.000 F180.000
G3 X-74.472 Y-33.079 Z-2.000 I0.019 J-0.033 K0.000 F180.000
G2 X-74.485 Y-34.011 Z-2.000 I-3.236 J-0.423 K0.000 F180.000
G2 X-75.252 Y-34.600 Z-2.000 I-0.740 J0.169 K0.000 F180.000
G2 X-75.339 Y-34.596 Z-2.000 I-0.015 J0.750 K0.000 F180.000
G1 X-76.834 Y-34.453 Z-2.000 F180.000
G2 X-77.626 Y-33.652 Z-2.000 I0.002 J0.794 K0.000 F180.000
G3 X-77.646 Y-32.879 Z-2.000 I-6.916 J0.208 K0.000 F180.000
G2 X-77.644 Y-32.778 Z-2.000 I4.072 J-0.018 K0.000 F180.000
G3 X-77.656 Y-32.753 Z-2.000 I-0.052 J-0.008 K0.000 F180.000
G3 X-79.065 Y-32.787 Z-2.000 I-0.531 J-7.123 K0.000 F180.000
G3 X-79.075 Y-32.798 Z-2.000 I0.017 J-0.027 K0.000 F180.000
G2 X-79.076 Y-33.620 Z-2.000 I-3.087 J-0.407 K0.000 F180.000
G1 X-79.076 Y-33.620 Z-2.000 F180.000
G1 X-78.190 Y-32.734 Z-2.000 F180.000
G3 X-79.065 Y-32.787 Z-2.000 I-0.065 J-6.218 K0.000 F180.000
G3 X-79.075 Y-32.798 Z-2.000 I0.017 J-0.027 K0.000 F180.000
G2 X-79.078 Y-33.636 Z-2.000 I-3.085 J-0.407 K0.000 F180.000
G2 X-79.869 Y-34.232 Z-2.000 I-0.734 J0.152 K0.000 F180.000
G3 X-82.405 Y-34.243 Z-2.000 I-1.209 J-13.573 K0.000 F180.000
G3 X-82.951 Y-34.665 Z-2.000 I0.223 J-0.853 K0.000 F180.000
G3 X-83.308 Y-36.446 Z-2.000 I5.220 J-1.973 K0.000 F180.000
G3 X-83.116 Y-42.725 Z-2.000 I131.965 J0.902 K0.000 F180.000
G2 X-84.150 Y-43.456 Z-2.000 I-0.749 J-0.037 K0.000 F180.000
G2 X-85.038 Y-43.003 Z-2.000 I1.710 J4.446 K0.000 F180.000
G2 X-85.335 Y-42.411 Z-2.000 I0.493 J0.618 K0.000 F180.000
G1 X-85.336 Y-42.389 Z-2.000 F180.000
G1 X-85.622 Y-32.808 Z-2.000 F180.000
G1 X-85.622 Y-32.801 Z-2.000 F180.000
G3 X-87.048 Y-32.787 Z-2.000 I-0.782 J-7.127 K0.000 F180.000
G1 X-87.049 Y-32.810 Z-2.000 F180.000
G3 X-86.756 Y-41.616 Z-2.000 I281.254 J4.940 K0.000 F180.000
G2 X-87.556 Y-42.400 Z-2.000 I-0.752 J-0.033 K0.000 F180.000
G3 X-87.833 Y-43.831 Z-2.000 I7.138 J-2.122 K0.000 F180.000
G1 X-87.814 Y-43.837 Z-2.000 F180.000
G2 X-82.474 Y-46.047 Z-2.000 I-3.501 J-16.016 K0.000 F180.000
G1 X-82.470 Y-46.042 Z-2.000 F180.000
G1 X-81.493 Y-44.438 Z-2.000 F180.000
G2 X-80.772 Y-44.009 Z-2.000 I0.713 J-0.376 K0.000 F180.000
G2 X-79.353 Y-44.154 Z-2.000 I-0.080 J-7.799 K0.000 F180.000
G2 X-78.812 Y-44.867 Z-2.000 I-0.210 J-0.720 K0.000 F180.000
G3 X-78.743 Y-46.054 Z-2.000 I8.377 J-0.110 K0.000 F180.000
G1 X-78.652 Y-46.061 Z-2.000 F180.000
G0 Z5.000
G0 X-81.623 Y-44.653 Z5.000
G0 X-81.623 Y-44.653 Z3.000
G1 X-81.623 Y-44.653 Z-2.000 F180.000
G1 X-82.470 Y-46.042 Z-2.000 F180.000
G1 X-82.474 Y-46.047 Z-2.000 F180.000
G3 X-82.809 Y-45.838 Z-2.000 I-4.019 J-6.067 K0.000 F180.000
G1 X-81.623 Y-44.653 Z-2.000 F180.000
G1 X-81.493 Y-44.438 Z-2.000 F180.000
G2 X-81.012 Y-44.042 Z-2.000 I0.717 J-0.380 K0.000 F180.000
G1 X-79.658 Y-42.687 Z-2.000 F180.000
G2 X-79.778 Y-42.676 Z-2.000 I-0.011 J0.549 K0.000 F180.000
G1 X-81.149 Y-42.598 Z-2.000 F180.000
G2 X-81.581 Y-42.489 Z-2.000 I-0.031 J0.787 K0.000 F180.000
G1 X-84.184 Y-45.092 Z-2.000 F180.000
G3 X-85.674 Y-44.461 Z-2.000 I-6.893 J-14.182 K0.000 F180.000
G1 X-84.512 Y-43.298 Z-2.000 F180.000
G2 X-85.038 Y-43.003 Z-2.000 I1.793 J3.808 K0.000 F180.000
G2 X-85.335 Y-42.411 Z-2.000 I0.493 J0.618 K0.000 F180.000
G2 X-85.347 Y-42.013 Z-2.000 I13.626 J0.616 K0.000 F180.000
G1 X-87.295 Y-43.960 Z-2.000 F180.000
G3 X-87.833 Y-43.831 Z-2.000 I-3.017 J-11.387 K0.000 F180.000
G2 X-87.556 Y-42.400 Z-2.000 I7.414 J-0.691 K0.000 F180.000
G3 X-86.756 Y-41.616 Z-2.000 I0.049 J0.750 K0.000 F180.000
G1 X-86.770 Y-41.314 Z-2.000 F180.000
G1 X-85.409 Y-39.953 Z-2.000 F180.000
G1 X-85.470 Y-37.893 Z-2.000 F180.000
G1 X-86.859 Y-39.282 Z-2.000 F180.000
G2 X-86.935 Y-37.236 Z-2.000 I163.002 J7.036 K0.000 F180.000
G1 X-85.531 Y-35.833 Z-2.000 F180.000
G1 X-85.593 Y-33.773 Z-2.000 F180.000
G1 X-86.996 Y-35.176 Z-2.000 F180.000
G2 X-87.043 Y-33.102 Z-2.000 I165.305 J4.762 K0.000 F180.000
G1 X-86.706 Y-32.765 Z-2.000 F180.000
G3 X-87.047 Y-32.787 Z-2.000 I0.125 J-4.718 K0.000 F180.000
G1 X-87.048 Y-32.787 Z-2.000 F180.000
G1 X-87.049 Y-32.810 Z-2.000 F180.000
G1 X-87.043 Y-33.102 Z-2.000 F180.000
G0 Z5.000
G0 X-81.774 Y-34.196 Z5.000
G0 X-81.774 Y-34.196 Z3.000
G1 X-81.774 Y-34.196 Z-2.000 F180.000
G3 X-82.405 Y-34.243 Z-2.000 I0.549 J-11.724 K0.000 F180.000
G3 X-82.951 Y-34.665 Z-2.000 I0.223 J-0.853 K0.000 F180.000
G3 X-83.221 Y-35.644 Z-2.000 I5.028 J-1.913 K0.000 F180.000
G1 X-81.774 Y-34.196 Z-2.000 F180.000
G2 X-79.869 Y-34.232 Z-2.000 I0.700 J-13.568 K0.000 F180.000
G3 X-79.677 Y-34.221 Z-2.000 I0.056 J0.731 K0.000 F180.000
G1 X-81.036 Y-35.580 Z-2.000 F180.000
G3 X-82.041 Y-36.585 Z-2.000 I0.428 J-1.433 K0.000 F180.000
G1 X-83.291 Y-37.835 Z-2.000 F180.000
G3 X-83.238 Y-39.904 Z-2.000 I108.440 J1.725 K0.000 F180.000
G1 X-82.093 Y-38.759 Z-2.000 F180.000
G3 X-82.023 Y-40.809 Z-2.000 I54.583 J0.852 K0.000 F180.000
G1 X-83.155 Y-41.942 Z-2.000 F180.000
G0 Z5.000
G0 X-81.961 Y-41.860 Z5.000
G0 X-81.961 Y-41.860 Z3.000
G1 X-81.961 Y-41.860 Z-2.000 F180.000
G3 X-81.960 Y-41.881 Z-2.000 I60.348 J4.130 K0.000 F180.000
G3 X-81.149 Y-42.598 Z-2.000 I0.777 J0.061 K0.000 F180.000
G1 X-79.778 Y-42.676 Z-2.000 F180.000
G3 X-79.658 Y-42.687 Z-2.000 I0.110 J0.539 K0.000 F180.000
G3 X-78.872 Y-41.845 Z-2.000 I-0.000 J0.788 K0.000 F180.000
G3 X-78.899 Y-40.456 Z-2.000 I-16.202 J0.372 K0.000 F180.000
G3 X-80.191 Y-39.904 Z-2.000 I-0.787 J-0.056 K0.000 F180.000
G2 X-80.260 Y-39.884 Z-2.000 I-0.025 J0.041 K0.000 F180.000
G3 X-80.293 Y-39.708 Z-2.000 I-2.275 J-0.335 K0.000 F180.000
G2 X-80.427 Y-38.971 Z-2.000 I1.854 J0.719 K0.000 F180.000
G1 X-80.420 Y-38.967 Z-2.000 F180.000
G2 X-79.605 Y-38.673 Z-2.000 I1.179 J-1.986 K0.000 F180.000
G3 X-78.967 Y-37.811 Z-2.000 I-0.147 J0.776 K0.000 F180.000
G1 X-78.987 Y-36.354 Z-2.000 F180.000
G3 X-78.992 Y-36.279 Z-2.000 I-0.750 J-0.010 K0.000 F180.000
G3 X-79.552 Y-35.593 Z-2.000 I-0.759 J-0.048 K0.000 F180.000
G3 X-80.809 Y-35.534 Z-2.000 I-0.854 J-4.755 K0.000 F180.000
G3 X-82.096 Y-36.852 Z-2.000 I0.194 J-1.478 K0.000 F180.000
G3 X-81.961 Y-41.860 Z-2.000 I60.483 J-0.878 K0.000 F180.000
G0 Z5.000
G0 X-80.416 Y-39.203 Z5.000
G0 X-80.416 Y-39.203 Z3.000
G1 X-80.416 Y-39.203 Z-2.000 F180.000
G2 X-80.427 Y-38.971 Z-2.000 I1.243 J0.173 K0.000 F180.000
G3 X-80.392 Y-38.955 Z-2.000 I-0.386 J0.873 K0.000 F180.000
G2 X-79.973 Y-38.760 Z-2.000 I1.146 J-1.916 K0.000 F180.000
G1 X-80.416 Y-39.203 Z-2.000 F180.000
G3 X-80.348 Y-39.539 Z-2.000 I1.813 J0.192 K0.000 F180.000
G2 X-80.264 Y-39.872 Z-2.000 I-1.037 J-0.441 K0.000 F180.000
G3 X-80.196 Y-39.907 Z-2.000 I0.048 J0.009 K0.000 F180.000
G2 X-79.089 Y-39.997 Z-2.000 I0.508 J-0.611 K0.000 F180.000
G1 X-77.516 Y-38.424 Z-2.000 F180.000
G1 X-77.473 Y-40.502 Z-2.000 F180.000
G1 X-78.871 Y-41.900 Z-2.000 F180.000
G0 Z5.000
G0 X-77.444 Y-41.871 Z5.000
G0 X-77.444 Y-41.871 Z3.000
G1 X-77.444 Y-41.871 Z-2.000 F180.000
G1 X-77.441 Y-42.009 Z-2.000 F180.000
G3 X-76.799 Y-42.856 Z-2.000 I0.792 J-0.066 K0.000 F180.000
G2 X-75.349 Y-43.082 Z-2.000 I-3.737 J-28.752 K0.000 F180.000
G3 X-75.192 Y-43.093 Z-2.000 I0.131 J0.738 K0.000 F180.000
G3 X-74.438 Y-42.210 Z-2.000 I-0.027 J0.786 K0.000 F180.000
G1 X-74.459 Y-40.557 Z-2.000 F180.000
G3 X-75.609 Y-39.903 Z-2.000 I-0.768 J-0.014 K0.000 F180.000
G2 X-75.691 Y-39.868 Z-2.000 I-0.024 J0.057 K0.000 F180.000
G3 X-75.708 Y-39.694 Z-2.000 I-3.024 J-0.207 K0.000 F180.000
G2 X-75.781 Y-38.935 Z-2.000 I2.061 J0.579 K0.000 F180.000
G2 X-75.775 Y-38.919 Z-2.000 I0.007 J0.006 K0.000 F180.000
G2 X-75.095 Y-38.681 Z-2.000 I1.025 J-1.839 K0.000 F180.000
G3 X-74.505 Y-38.096 Z-2.000 I-0.145 J0.736 K0.000 F180.000
G3 X-74.484 Y-36.828 Z-2.000 I-6.486 J0.739 K0.000 F180.000
G3 X-75.210 Y-36.103 Z-2.000 I-0.787 J-0.061 K0.000 F180.000
G1 X-76.569 Y-35.886 Z-2.000 F180.000
G3 X-77.550 Y-36.742 Z-2.000 I-0.204 J-0.757 K0.000 F180.000
G1 X-77.444 Y-41.871 Z-2.000 F180.000
G0 Z5.000
G0 X-77.473 Y-40.502 Z5.000
G0 X-77.473 Y-40.502 Z3.000
G1 X-77.473 Y-40.502 Z-2.000 F180.000
G1 X-78.871 Y-41.900 Z-2.000 F180.000
G2 X-79.658 Y-42.687 Z-2.000 I-0.787 J0.000 K0.000 F180.000
G1 X-81.012 Y-44.042 Z-2.000 F180.000
G2 X-80.873 Y-44.012 Z-2.000 I0.178 J-0.495 K0.000 F180.000
G2 X-79.446 Y-44.133 Z-2.000 I0.065 J-7.740 K0.000 F180.000
G2 X-79.119 Y-44.270 Z-2.000 I-0.110 J-0.720 K0.000 F180.000
G1 X-77.332 Y-42.483 Z-2.000 F180.000
G3 X-76.799 Y-42.856 Z-2.000 I0.676 J0.399 K0.000 F180.000
G2 X-75.741 Y-43.013 Z-2.000 I-3.891 J-29.874 K0.000 F180.000
G1 X-78.748 Y-46.020 Z-2.000 F180.000
G1 X-78.743 Y-46.054 Z-2.000 F180.000
G3 X-77.922 Y-46.059 Z-2.000 I0.447 J6.054 K0.000 F180.000
G2 X-77.629 Y-46.037 Z-2.000 I0.614 J-6.130 K0.000 F180.000
G3 X-77.381 Y-46.015 Z-2.000 I0.064 J0.684 K0.000 F180.000
G3 X-77.355 Y-45.987 Z-2.000 I-0.008 J0.033 K0.000 F180.000
G2 X-77.384 Y-45.076 Z-2.000 I3.743 J0.575 K0.000 F180.000
G2 X-76.940 Y-44.444 Z-2.000 I0.748 J-0.053 K0.000 F180.000
G2 X-76.470 Y-44.387 Z-2.000 I0.344 J-0.877 K0.000 F180.000
G1 X-75.189 Y-44.583 Z-2.000 F180.000
G1 X-73.345 Y-42.739 Z-2.000 F180.000
G3 X-73.359 Y-44.837 Z-2.000 I296.389 J-3.045 K0.000 F180.000
G1 X-73.361 Y-44.860 Z-2.000 F180.000
G1 X-73.384 Y-44.858 Z-2.000 F180.000
G1 X-75.189 Y-44.583 Z-2.000 F180.000
G0 Z5.000
G0 X-74.445 Y-41.717 Z5.000
G0 X-74.445 Y-41.717 Z3.000
G1 X-74.445 Y-41.717 Z-2.000 F180.000
G1 X-73.322 Y-40.594 Z-2.000 F180.000
G2 X-73.290 Y-38.441 Z-2.000 I304.067 J-3.447 K0.000 F180.000
G1 X-74.789 Y-39.940 Z-2.000 F180.000
G0 Z5.000
G0 X-70.541 Y-39.934 Z5.000
G0 X-70.541 Y-39.934 Z3.000
G1 X-70.541 Y-39.934 Z-2.000 F180.000
G2 X-70.195 Y-39.904 Z-2.000 I0.614 J-5.105 K0.000 F180.000
G3 X-70.141 Y-39.535 Z-2.000 I-6.908 J1.198 K0.000 F180.000
G1 X-70.541 Y-39.934 Z-2.000 F180.000
G2 X-71.067 Y-39.950 Z-2.000 I-0.379 J3.851 K0.000 F180.000
G3 X-71.068 Y-38.340 Z-2.000 I-14.239 J0.795 K0.000 F180.000
G1 X-70.007 Y-37.279 Z-2.000 F180.000
G3 X-70.041 Y-36.450 Z-2.000 I-13.457 J-0.135 K0.000 F180.000
G3 X-70.515 Y-35.666 Z-2.000 I-1.567 J-0.412 K0.000 F180.000
G1 X-71.788 Y-36.939 Z-2.000 F180.000
G3 X-72.677 Y-36.783 Z-2.000 I-0.665 J-1.178 K0.000 F180.000
G3 X-73.276 Y-37.620 Z-2.000 I0.203 J-0.778 K0.000 F180.000
G1 X-73.290 Y-38.441 Z-2.000 F180.000
G1 X-74.789 Y-39.940 Z-2.000 F180.000
G3 X-75.616 Y-39.906 Z-2.000 I-0.440 J-0.620 K0.000 F180.000
G2 X-75.695 Y-39.853 Z-2.000 I-0.017 J0.059 K0.000 F180.000
G3 X-75.715 Y-39.660 Z-2.000 I-0.856 J0.007 K0.000 F180.000
G2 X-75.779 Y-38.921 Z-2.000 I1.951 J0.540 K0.000 F180.000
G3 X-75.606 Y-38.835 Z-2.000 I-1.144 J2.511 K0.000 F180.000
G2 X-75.095 Y-38.681 Z-2.000 I0.799 J-1.731 K0.000 F180.000
G3 X-74.491 Y-37.999 Z-2.000 I-0.145 J0.736 K0.000 F180.000
G3 X-74.465 Y-37.495 Z-2.000 I-6.007 J0.567 K0.000 F180.000
G1 X-72.046 Y-35.076 Z-2.000 F180.000
G3 X-72.445 Y-35.023 Z-2.000 I-0.793 J-4.444 K0.000 F180.000
G2 X-73.106 Y-34.214 Z-2.000 I0.085 J0.745 K0.000 F180.000
G1 X-73.088 Y-33.996 Z-2.000 F180.000
G1 X-75.196 Y-36.104 Z-2.000 F180.000
G1 X-75.210 Y-36.103 Z-2.000 F180.000
G1 X-76.569 Y-35.886 Z-2.000 F180.000
G3 X-77.197 Y-35.984 Z-2.000 I-0.204 J-0.758 K0.000 F180.000
G1 X-75.768 Y-34.555 Z-2.000 F180.000
G3 X-75.310 Y-34.599 Z-2.000 I1.351 J11.820 K0.000 F180.000
G3 X-74.661 Y-34.351 Z-2.000 I0.066 J0.801 K0.000 F180.000
G3 X-74.470 Y-33.915 Z-2.000 I-0.555 J0.504 K0.000 F180.000
G3 X-74.455 Y-33.242 Z-2.000 I-3.427 J0.411 K0.000 F180.000
G1 X-74.258 Y-33.045 Z-2.000 F180.000
G1 X-74.258 Y-33.045 Z-2.000 F180.000
G1 X-74.455 Y-33.242 Z-2.000 F180.000
G3 X-74.472 Y-33.079 Z-2.000 I-1.560 J-0.084 K0.000 F180.000
G2 X-74.450 Y-33.059 Z-2.000 I0.035 J-0.016 K0.000 F180.000
G1 X-74.258 Y-33.045 Z-2.000 F180.000
G0 Z5.000
G0 X-78.190 Y-32.734 Z5.000
G0 X-78.190 Y-32.734 Z3.000
G1 X-78.190 Y-32.734 Z-2.000 F180.000
G1 X-79.076 Y-33.620 Z-2.000 F180.000
G2 X-79.677 Y-34.221 Z-2.000 I-0.735 J0.134 K0.000 F180.000
G1 X-81.036 Y-35.580 Z-2.000 F180.000
G2 X-80.889 Y-35.543 Z-2.000 I0.417 J-1.349 K0.000 F180.000
G2 X-79.647 Y-35.575 Z-2.000 I0.498 J-4.867 K0.000 F180.000
G2 X-79.171 Y-35.836 Z-2.000 I-0.094 J-0.735 K0.000 F180.000
G1 X-77.468 Y-34.134 Z-2.000 F180.000
G3 X-76.834 Y-34.453 Z-2.000 I0.633 J0.467 K0.000 F180.000
G1 X-75.768 Y-34.555 Z-2.000 F180.000
G1 X-77.197 Y-35.984 Z-2.000 F180.000
G3 X-77.432 Y-36.219 Z-2.000 I0.431 J-0.667 K0.000 F180.000
G1 X-78.968 Y-37.755 Z-2.000 F180.000
G0 Z5.000
G0 Z5.000
G0 X-78.968 Y-37.755
G0 X-81.629 Y-48.859
G0 X-81.629 Y-48.859 Z3.000
G1 X-81.629 Y-48.859 Z-1.000 F180.000
G3 X-82.651 Y-50.072 Z-1.000 I7.135 J-7.053 K0.000 F180.000
G1 X-82.648 Y-50.077 Z-1.000 F180.000
G1 X-81.894 Y-51.245 Z-1.000 F180.000
G1 X-79.698 Y-49.050 Z-1.000 F180.000
G1 X-79.528 Y-49.328 Z-1.000 F180.000
G1 X-79.520 Y-49.345 Z-1.000 F180.000
G3 X-81.808 Y-51.376 Z-1.000 I12.328 J-16.194 K0.000 F180.000
G2 X-81.894 Y-51.245 Z-1.000 I0.944 J0.713 K0.000 F180.000
G3 X-81.808 Y-51.376 Z-1.000 I1.029 J0.582 K0.000 F180.000
G2 X-79.520 Y-49.345 Z-1.000 I14.617 J-14.162 K0.000 F180.000
G1 X-79.528 Y-49.328 Z-1.000 F180.000
G1 X-80.441 Y-47.834 Z-1.000 F180.000
G1 X-80.445 Y-47.829 Z-1.000 F180.000
G3 X-82.651 Y-50.072 Z-1.000 I6.110 J-8.216 K0.000 F180.000
G1 X-82.648 Y-50.077 Z-1.000 F180.000
G1 X-81.894 Y-51.245 Z-1.000 F180.000
G1 X-81.894 Y-51.245 Z-2.000 F180.000
G1 X-82.648 Y-50.077 Z-2.000 F180.000
G1 X-82.651 Y-50.072 Z-2.000 F180.000
G2 X-80.445 Y-47.829 Z-2.000 I8.317 J-5.973 K0.000 F180.000
G1 X-80.441 Y-47.834 Z-2.000 F180.000
G1 X-79.528 Y-49.328 Z-2.000 F180.000
G1 X-79.520 Y-49.345 Z-2.000 F180.000
G3 X-81.808 Y-51.376 Z-2.000 I12.328 J-16.194 K0.000 F180.000
G2 X-81.894 Y-51.245 Z-2.000 I0.944 J0.713 K0.000 F180.000
G3 X-81.808 Y-51.376 Z-2.000 I1.030 J0.582 K0.000 F180.000
G2 X-79.520 Y-49.345 Z-2.000 I14.617 J-14.162 K0.000 F180.000
G1 X-79.528 Y-49.328 Z-2.000 F180.000
G1 X-79.698 Y-49.050 Z-2.000 F180.000
G1 X-81.894 Y-51.245 Z-2.000 F180.000
G1 X-82.648 Y-50.077 Z-2.000 F180.000
G1 X-82.651 Y-50.072 Z-2.000 F180.000
G2 X-81.629 Y-48.859 Z-2.000 I8.158 J-5.840 K0.000 F180.000
G0 Z5.000
G0 Z5.000
G0 X-81.629 Y-48.859
G0 X-86.687 Y-48.068
G0 X-86.687 Y-48.068 Z3.000
G1 X-86.687 Y-48.068 Z-1.000 F180.000
G3 X-87.726 Y-49.362 Z-1.000 I5.589 J-5.551 K0.000 F180.000
G1 X-87.723 Y-49.368 Z-1.000 F180.000
G1 X-87.066 Y-50.569 Z-1.000 F180.000
G1 X-84.910 Y-48.412 Z-1.000 F180.000
G1 X-84.759 Y-48.657 Z-1.000 F180.000
G1 X-84.750 Y-48.674 Z-1.000 F180.000
G3 X-87.014 Y-50.662 Z-1.000 I18.119 J-22.922 K0.000 F180.000
G2 X-87.066 Y-50.569 Z-1.000 I0.658 J0.425 K0.000 F180.000
G3 X-87.014 Y-50.662 Z-1.000 I0.710 J0.331 K0.000 F180.000
G2 X-84.750 Y-48.674 Z-1.000 I20.383 J-20.934 K0.000 F180.000
G1 X-84.759 Y-48.657 Z-1.000 F180.000
G1 X-85.658 Y-47.203 Z-1.000 F180.000
G1 X-85.662 Y-47.197 Z-1.000 F180.000
G3 X-87.726 Y-49.362 Z-1.000 I4.609 J-6.459 K0.000 F180.000
G1 X-87.723 Y-49.368 Z-1.000 F180.000
G1 X-87.066 Y-50.569 Z-1.000 F180.000
G1 X-87.066 Y-50.569 Z-2.000 F180.000
G1 X-87.723 Y-49.368 Z-2.000 F180.000
G1 X-87.726 Y-49.362 Z-2.000 F180.000
G2 X-85.662 Y-47.197 Z-2.000 I6.673 J-4.293 K0.000 F180.000
G1 X-85.658 Y-47.203 Z-2.000 F180.000
G1 X-84.759 Y-48.657 Z-2.000 F180.000
G1 X-84.750 Y-48.674 Z-2.000 F180.000
G3 X-87.014 Y-50.662 Z-2.000 I18.119 J-22.922 K0.000 F180.000
G2 X-87.066 Y-50.569 Z-2.000 I0.658 J0.425 K0.000 F180.000
G3 X-87.014 Y-50.662 Z-2.000 I0.710 J0.331 K0.000 F180.000
G2 X-84.750 Y-48.674 Z-2.000 I20.383 J-20.934 K0.000 F180.000
G1 X-84.759 Y-48.657 Z-2.000 F180.000
G1 X-84.910 Y-48.412 Z-2.000 F180.000
G1 X-87.066 Y-50.569 Z-2.000 F180.000
G1 X-87.723 Y-49.368 Z-2.000 F180.000
G1 X-87.726 Y-49.362 Z-2.000 F180.000
G2 X-86.687 Y-48.068 Z-2.000 I6.628 J-4.257 K0.000 F180.000
G0 Z5.000
G0 Z5.000
(Finish operation: Pocket_Shape001)
(Begin operation: Pocket_Shape002)
(Path: Pocket_Shape002)
(Pocket_Shape002)
G0 Z5.000
G0 X-71.961 Y-10.927
G0 Z3.000
G1 X-71.961 Y-10.927 Z-1.000 F180.000
G1 X-70.840 Y-9.806 Z-1.000 F180.000
G1 X-71.975 Y-9.857 Z-1.000 F180.000
G1 X-71.998 Y-9.860 Z-1.000 F180.000
G1 X-71.998 Y-9.882 Z-1.000 F180.000
G1 X-71.961 Y-10.927 Z-1.000 F180.000
G1 X-71.889 Y-12.976 Z-1.000 F180.000
G1 X-70.422 Y-11.508 Z-1.000 F180.000
G1 X-70.343 Y-13.550 Z-1.000 F180.000
G1 X-73.276 Y-16.484 Z-1.000 F180.000
G3 X-73.648 Y-16.492 Z-1.000 I-0.062 J-5.402 K0.000 F180.000
G3 X-74.384 Y-17.384 Z-1.000 I0.038 J-0.781 K0.000 F180.000
G1 X-74.375 Y-17.583 Z-1.000 F180.000
G1 X-75.806 Y-19.014 Z-1.000 F180.000
G1 X-75.739 Y-20.919 Z-1.000 F180.000
G1 X-75.736 Y-20.942 Z-1.000 F180.000
G3 X-75.612 Y-20.941 Z-1.000 I0.059 J0.961 K0.000 F180.000
G1 X-74.281 Y-19.610 Z-1.000 F180.000
G1 X-74.221 Y-20.895 Z-1.000 F180.000
G1 X-74.222 Y-20.918 Z-1.000 F180.000
G1 X-74.245 Y-20.920 Z-1.000 F180.000
G1 X-75.612 Y-20.941 Z-1.000 F180.000
G0 Z5.000
G0 X-71.549 Y-21.755 Z5.000
G0 X-71.549 Y-21.755 Z3.000
G1 X-71.549 Y-21.755 Z-1.000 F180.000
G1 X-71.551 Y-21.732 Z-1.000 F180.000
G1 X-71.705 Y-17.292 Z-1.000 F180.000
G3 X-71.712 Y-17.214 Z-1.000 I-0.750 J-0.026 K0.000 F180.000
G3 X-72.305 Y-16.538 Z-1.000 I-0.757 J-0.066 K0.000 F180.000
G3 X-73.648 Y-16.492 Z-1.000 I-0.946 J-7.968 K0.000 F180.000
G3 X-74.384 Y-17.384 Z-1.000 I0.038 J-0.781 K0.000 F180.000
G1 X-74.221 Y-20.895 Z-1.000 F180.000
G1 X-74.222 Y-20.918 Z-1.000 F180.000
G1 X-74.245 Y-20.920 Z-1.000 F180.000
G1 X-75.714 Y-20.943 Z-1.000 F180.000
G1 X-75.736 Y-20.942 Z-1.000 F180.000
G1 X-75.739 Y-20.919 Z-1.000 F180.000
G1 X-75.869 Y-17.201 Z-1.000 F180.000
G3 X-75.876 Y-17.124 Z-1.000 I-0.750 J-0.026 K0.000 F180.000
G3 X-76.467 Y-16.448 Z-1.000 I-0.757 J-0.066 K0.000 F180.000
G3 X-77.764 Y-16.411 Z-1.000 I-0.835 J-6.576 K0.000 F180.000
G3 X-78.478 Y-17.192 Z-1.000 I0.035 J-0.749 K0.000 F180.000
G2 X-78.330 Y-20.953 Z-1.000 I-510.531 J-21.963 K0.000 F180.000
G1 X-78.331 Y-20.971 Z-1.000 F180.000
G3 X-87.752 Y-21.086 Z-1.000 I-0.382 J-354.020 K0.000 F180.000
G1 X-87.774 Y-21.085 Z-1.000 F180.000
G2 X-87.848 Y-19.788 Z-1.000 I6.586 J1.025 K0.000 F180.000
G3 X-87.295 Y-18.998 Z-1.000 I-0.198 J0.727 K0.000 F180.000
G2 X-87.746 Y-11.729 Z-1.000 I126.667 J11.504 K0.000 F180.000
G2 X-86.888 Y-10.585 Z-1.000 I1.235 J-0.032 K0.000 F180.000
G2 X-85.871 Y-10.373 Z-1.000 I1.001 J-2.265 K0.000 F180.000
G2 X-84.134 Y-10.371 Z-1.000 I1.052 J-139.473 K0.000 F180.000
G1 X-85.453 Y-11.690 Z-1.000 F180.000
G2 X-84.680 Y-11.705 Z-1.000 I0.333 J-2.730 K0.000 F180.000
G2 X-84.029 Y-12.388 Z-1.000 I-0.094 J-0.742 K0.000 F180.000
G1 X-82.027 Y-10.385 Z-1.000 F180.000
G2 X-79.937 Y-10.417 Z-1.000 I-1.283 J-150.901 K0.000 F180.000
G1 X-81.192 Y-11.672 Z-1.000 F180.000
G3 X-82.085 Y-11.695 Z-1.000 I-0.251 J-7.872 K0.000 F180.000
G3 X-82.805 Y-12.580 Z-1.000 I0.061 J-0.785 K0.000 F180.000
G1 X-82.780 Y-13.260 Z-1.000 F180.000
G1 X-83.901 Y-14.381 Z-1.000 F180.000
G0 Z5.000
G0 X-83.900 Y-14.381 Z5.000
G0 X-83.900 Y-14.381 Z3.000
G1 X-83.900 Y-14.381 Z-1.000 F180.000
G3 X-83.902 Y-14.292 Z-1.000 I-0.749 J0.031 K0.000 F180.000
G2 X-84.027 Y-12.407 Z-1.000 I68.740 J5.505 K0.000 F180.000
G3 X-84.587 Y-11.723 Z-1.000 I-0.749 J-0.042 K0.000 F180.000
G3 X-85.580 Y-11.706 Z-1.000 I-0.543 J-2.740 K0.000 F180.000
G3 X-86.750 Y-13.006 Z-1.000 I0.144 J-1.306 K0.000 F180.000
G3 X-86.788 Y-14.084 Z-1.000 I6.013 J-0.753 K0.000 F180.000
G3 X-86.679 Y-14.636 Z-1.000 I1.510 J0.010 K0.000 F180.000
G3 X-86.101 Y-15.115 Z-1.000 I0.703 J0.261 K0.000 F180.000
G3 X-85.644 Y-15.137 Z-1.000 I0.525 J6.040 K0.000 F180.000
G3 X-84.593 Y-15.097 Z-1.000 I0.156 J9.727 K0.000 F180.000
G3 X-83.900 Y-14.381 Z-1.000 I-0.056 J0.748 K0.000 F180.000
G0 Z5.000
G0 X-82.748 Y-14.328 Z5.000
G0 X-82.748 Y-14.328 Z3.000
G1 X-82.748 Y-14.328 Z-1.000 F180.000
G3 X-82.084 Y-15.071 Z-1.000 I0.788 J0.036 K0.000 F180.000
G3 X-81.274 Y-15.092 Z-1.000 I0.649 J9.268 K0.000 F180.000
G3 X-80.526 Y-15.057 Z-1.000 I-0.153 J11.349 K0.000 F180.000
G3 X-79.815 Y-14.153 Z-1.000 I-0.067 J0.784 K0.000 F180.000
G1 X-79.919 Y-12.448 Z-1.000 F180.000
G3 X-79.928 Y-12.372 Z-1.000 I-0.749 J-0.046 K0.000 F180.000
G3 X-80.532 Y-11.713 Z-1.000 I-0.755 J-0.085 K0.000 F180.000
G3 X-82.085 Y-11.695 Z-1.000 I-0.878 J-8.691 K0.000 F180.000
G3 X-82.805 Y-12.580 Z-1.000 I0.061 J-0.785 K0.000 F180.000
G1 X-82.746 Y-14.220 Z-1.000 F180.000
G3 X-82.748 Y-14.328 Z-1.000 I0.786 J-0.072 K0.000 F180.000
G0 Z5.000
G0 X-82.780 Y-13.260 Z5.000
G0 X-82.780 Y-13.260 Z3.000
G1 X-82.780 Y-13.260 Z-1.000 F180.000
G1 X-83.901 Y-14.381 Z-1.000 F180.000
G2 X-84.619 Y-15.099 Z-1.000 I-0.749 J0.030 K0.000 F180.000
G1 X-85.968 Y-16.448 Z-1.000 F180.000
G2 X-85.828 Y-16.399 Z-1.000 I0.249 J-0.490 K0.000 F180.000
G2 X-84.387 Y-16.364 Z-1.000 I0.887 J-6.777 K0.000 F180.000
G2 X-83.943 Y-16.545 Z-1.000 I-0.045 J-0.744 K0.000 F180.000
G1 X-82.366 Y-14.967 Z-1.000 F180.000
G3 X-82.084 Y-15.071 Z-1.000 I0.388 J0.618 K0.000 F180.000
G3 X-80.526 Y-15.057 Z-1.000 I0.687 J10.662 K0.000 F180.000
G3 X-80.270 Y-14.993 Z-1.000 I-0.043 J0.709 K0.000 F180.000
G1 X-81.625 Y-16.348 Z-1.000 F180.000
G1 X-81.811 Y-16.359 Z-1.000 F180.000
G3 X-82.530 Y-17.252 Z-1.000 I0.062 J-0.785 K0.000 F180.000
G1 X-83.617 Y-18.340 Z-1.000 F180.000
G1 X-83.617 Y-18.340 Z-1.000 F180.000
G1 X-83.674 Y-17.123 Z-1.000 F180.000
G3 X-83.682 Y-17.046 Z-1.000 I-0.749 J-0.035 K0.000 F180.000
G3 X-84.288 Y-16.377 Z-1.000 I-0.756 J-0.075 K0.000 F180.000
G3 X-85.728 Y-16.383 Z-1.000 I-0.688 J-6.820 K0.000 F180.000
G3 X-86.415 Y-17.304 Z-1.000 I0.087 J-0.782 K0.000 F180.000
G1 X-86.276 Y-18.974 Z-1.000 F180.000
G3 X-85.621 Y-19.779 Z-1.000 I0.781 J-0.033 K0.000 F180.000
G3 X-84.924 Y-19.809 Z-1.000 I0.671 J7.536 K0.000 F180.000
G3 X-84.314 Y-19.790 Z-1.000 I0.006 J9.320 K0.000 F180.000
G3 X-83.591 Y-18.894 Z-1.000 I-0.056 J0.785 K0.000 F180.000
G1 X-83.617 Y-18.340 Z-1.000 F180.000
G0 Z5.000
G0 X-82.468 Y-18.272 Z5.000
G0 X-82.468 Y-18.272 Z3.000
G1 X-82.468 Y-18.272 Z-1.000 F180.000
G1 X-82.429 Y-18.933 Z-1.000 F180.000
G3 X-81.777 Y-19.757 Z-1.000 I0.780 J-0.053 K0.000 F180.000
G3 X-81.044 Y-19.788 Z-1.000 I0.705 J7.940 K0.000 F180.000
G3 X-80.400 Y-19.767 Z-1.000 I0.005 J9.827 K0.000 F180.000
G3 X-79.672 Y-18.901 Z-1.000 I-0.056 J0.785 K0.000 F180.000
G1 X-79.693 Y-17.152 Z-1.000 F180.000
G3 X-79.698 Y-17.073 Z-1.000 I-0.750 J-0.009 K0.000 F180.000
G3 X-80.301 Y-16.378 Z-1.000 I-0.758 J-0.049 K0.000 F180.000
G3 X-81.811 Y-16.359 Z-1.000 I-0.860 J-8.303 K0.000 F180.000
G3 X-82.528 Y-17.263 Z-1.000 I0.062 J-0.785 K0.000 F180.000
G1 X-82.468 Y-18.272 Z-1.000 F180.000
G0 Z5.000
G0 X-79.675 Y-18.640 Z5.000
G0 X-79.675 Y-18.640 Z3.000
G1 X-79.675 Y-18.640 Z-1.000 F180.000
G1 X-78.468 Y-17.433 Z-1.000 F180.000
G2 X-78.476 Y-17.094 Z-1.000 I2.591 J0.230 K0.000 F180.000
G2 X-77.764 Y-16.411 Z-1.000 I0.747 J-0.066 K0.000 F180.000
G2 X-77.432 Y-16.397 Z-1.000 I0.346 J-4.286 K0.000 F180.000
G1 X-74.555 Y-13.520 Z-1.000 F180.000
G3 X-74.634 Y-11.478 Z-1.000 I-56.575 J-1.166 K0.000 F180.000
G1 X-76.090 Y-12.934 Z-1.000 F180.000
G1 X-76.181 Y-10.904 Z-1.000 F180.000
G1 X-75.705 Y-10.427 Z-1.000 F180.000
G1 X-76.177 Y-10.449 Z-1.000 F180.000
G1 X-76.200 Y-10.451 Z-1.000 F180.000
G1 X-76.200 Y-10.474 Z-1.000 F180.000
G1 X-76.181 Y-10.904 Z-1.000 F180.000
G0 Z5.000
G0 X-74.555 Y-13.520 Z5.000
G0 X-74.555 Y-13.520 Z3.000
G1 X-74.555 Y-13.520 Z-1.000 F180.000
G1 X-77.432 Y-16.397 Z-1.000 F180.000
G2 X-76.564 Y-16.433 Z-1.000 I0.149 J-6.888 K0.000 F180.000
G2 X-75.903 Y-16.990 Z-1.000 I-0.061 J-0.743 K0.000 F180.000
G1 X-73.949 Y-15.036 Z-1.000 F180.000
G0 Z5.000
G0 X-70.343 Y-13.550 Z5.000
G0 X-70.343 Y-13.550 Z3.000
G1 X-70.343 Y-13.550 Z-1.000 F180.000
G1 X-73.276 Y-16.484 Z-1.000 F180.000
G2 X-72.402 Y-16.524 Z-1.000 I0.059 J-8.219 K0.000 F180.000
G2 X-71.741 Y-17.071 Z-1.000 I-0.059 J-0.744 K0.000 F180.000
G1 X-70.263 Y-15.593 Z-1.000 F180.000
G1 X-70.184 Y-17.635 Z-1.000 F180.000
G1 X-71.643 Y-19.093 Z-1.000 F180.000
G1 X-71.572 Y-21.144 Z-1.000 F180.000
G1 X-70.105 Y-19.677 Z-1.000 F180.000
G1 X-70.026 Y-21.697 Z-1.000 F180.000
G1 X-70.027 Y-21.720 Z-1.000 F180.000
G0 Z5.000
G0 X-71.549 Y-21.755 Z5.000
G0 X-71.549 Y-21.755 Z3.000
G1 X-71.549 Y-21.755 Z-1.000 F180.000
G1 X-71.526 Y-21.756 Z-1.000 F180.000
G1 X-70.050 Y-21.722 Z-1.000 F180.000
G1 X-70.027 Y-21.720 Z-1.000 F180.000
G1 X-70.026 Y-21.697 Z-1.000 F180.000
G1 X-70.488 Y-9.814 Z-1.000 F180.000
G1 X-70.490 Y-9.791 Z-1.000 F180.000
G1 X-70.513 Y-9.791 Z-1.000 F180.000
G1 X-71.975 Y-9.857 Z-1.000 F180.000
G1 X-71.998 Y-9.860 Z-1.000 F180.000
G1 X-71.998 Y-9.882 Z-1.000 F180.000
G1 X-71.847 Y-14.172 Z-1.000 F180.000
G2 X-72.565 Y-15.057 Z-1.000 I-0.781 J-0.100 K0.000 F180.000
G2 X-73.943 Y-15.038 Z-1.000 I-0.588 J7.333 K0.000 F180.000
G2 X-74.543 Y-14.314 Z-1.000 I0.150 J0.735 K0.000 F180.000
G3 X-74.704 Y-10.382 Z-1.000 I-59.086 J-0.457 K0.000 F180.000
G1 X-76.177 Y-10.449 Z-1.000 F180.000
G1 X-76.200 Y-10.451 Z-1.000 F180.000
G1 X-76.200 Y-10.474 Z-1.000 F180.000
G1 X-76.036 Y-14.141 Z-1.000 F180.000
G2 X-76.752 Y-15.034 Z-1.000 I-0.780 J-0.108 K0.000 F180.000
G2 X-77.995 Y-15.014 Z-1.000 I-0.521 J6.403 K0.000 F180.000
G2 X-78.595 Y-14.325 Z-1.000 I0.157 J0.743 K0.000 F180.000
G2 X-78.600 Y-14.248 Z-1.000 I0.744 J0.092 K0.000 F180.000
G1 X-78.676 Y-10.470 Z-1.000 F180.000
G1 X-78.678 Y-10.447 Z-1.000 F180.000
G1 X-78.701 Y-10.445 Z-1.000 F180.000
G3 X-84.134 Y-10.371 Z-1.000 I-5.791 J-225.129 K0.000 F180.000
G0 Z5.000
G0 X-86.290 Y-10.406 Z5.000
G0 X-86.290 Y-10.406 Z3.000
G1 X-86.290 Y-10.406 Z-1.000 F180.000
G1 X-87.741 Y-11.857 Z-1.000 F180.000
G2 X-86.881 Y-10.582 Z-1.000 I1.231 J0.097 K0.000 F180.000
G2 X-86.290 Y-10.406 Z-1.000 I0.966 J-2.161 K0.000 F180.000
G2 X-85.871 Y-10.373 Z-1.000 I0.389 J-2.281 K0.000 F180.000
G2 X-84.134 Y-10.371 Z-1.000 I1.052 J-139.481 K0.000 F180.000
G1 X-85.453 Y-11.690 Z-1.000 F180.000
G3 X-85.580 Y-11.706 Z-1.000 I0.107 J-1.343 K0.000 F180.000
G3 X-86.750 Y-12.987 Z-1.000 I0.144 J-1.306 K0.000 F180.000
G1 X-87.655 Y-13.892 Z-1.000 F180.000
G3 X-87.537 Y-15.896 Z-1.000 I79.939 J3.677 K0.000 F180.000
G1 X-86.526 Y-14.885 Z-1.000 F180.000
G3 X-86.101 Y-15.115 Z-1.000 I0.550 J0.509 K0.000 F180.000
G3 X-84.619 Y-15.099 Z-1.000 I0.646 J8.973 K0.000 F180.000
G1 X-85.968 Y-16.448 Z-1.000 F180.000
G3 X-86.354 Y-16.834 Z-1.000 I0.326 J-0.712 K0.000 F180.000
G1 X-87.392 Y-17.872 Z-1.000 F180.000
G1 X-87.295 Y-18.998 Z-1.000 F180.000
G2 X-87.848 Y-19.788 Z-1.000 I-0.750 J-0.064 K0.000 F180.000
G3 X-87.841 Y-20.443 Z-1.000 I5.588 J-0.270 K0.000 F180.000
G1 X-86.283 Y-18.885 Z-1.000 F180.000
G1 X-86.276 Y-18.974 Z-1.000 F180.000
G3 X-85.621 Y-19.779 Z-1.000 I0.781 J-0.033 K0.000 F180.000
G3 X-85.084 Y-19.806 Z-1.000 I0.570 J5.945 K0.000 F180.000
G1 X-86.331 Y-21.054 Z-1.000 F180.000
G2 X-84.170 Y-21.014 Z-1.000 I4.845 J-201.772 K0.000 F180.000
G1 X-82.390 Y-19.234 Z-1.000 F180.000
G3 X-81.777 Y-19.757 Z-1.000 I0.739 J0.246 K0.000 F180.000
G3 X-80.819 Y-19.785 Z-1.000 I0.712 J8.072 K0.000 F180.000
G1 X-82.021 Y-20.986 Z-1.000 F180.000
G2 X-79.887 Y-20.973 Z-1.000 I2.293 J-199.421 K0.000 F180.000
G1 X-78.385 Y-19.472 Z-1.000 F180.000
G2 X-78.330 Y-20.953 Z-1.000 I-400.788 J-15.665 K0.000 F180.000
G1 X-78.331 Y-20.971 Z-1.000 F180.000
G1 X-79.887 Y-20.973 Z-1.000 F180.000
G0 Z5.000
G0 X-78.128 Y-14.972 Z5.000
G0 X-78.128 Y-14.972 Z3.000
G1 X-78.128 Y-14.972 Z-1.000 F180.000
G1 X-79.838 Y-16.682 Z-1.000 F180.000
G3 X-80.402 Y-16.364 Z-1.000 I-0.610 J-0.423 K0.000 F180.000
G3 X-81.625 Y-16.348 Z-1.000 I-0.725 J-8.471 K0.000 F180.000
G1 X-80.270 Y-14.993 Z-1.000 F180.000
G3 X-79.879 Y-14.601 Z-1.000 I-0.319 J0.710 K0.000 F180.000
G1 X-78.619 Y-13.341 Z-1.000 F180.000
G0 Z5.000
G0 X-79.879 Y-14.601 Z5.000
G0 X-79.879 Y-14.601 Z3.000
G1 X-79.879 Y-14.601 Z-1.000 F180.000
G1 X-78.619 Y-13.341 Z-1.000 F180.000
G1 X-78.660 Y-11.261 Z-1.000 F180.000
G1 X-79.915 Y-12.517 Z-1.000 F180.000
G3 X-80.054 Y-12.031 Z-1.000 I-0.963 J-0.013 K0.000 F180.000
G3 X-80.629 Y-11.700 Z-1.000 I-0.623 J-0.417 K0.000 F180.000
G3 X-81.192 Y-11.672 Z-1.000 I-0.637 J-7.219 K0.000 F180.000
G1 X-79.937 Y-10.417 Z-1.000 F180.000
G1 X-79.937 Y-10.417 Z-2.000 F180.000
G1 X-81.192 Y-11.672 Z-2.000 F180.000
G2 X-80.629 Y-11.700 Z-2.000 I-0.074 J-7.247 K0.000 F180.000
G2 X-80.054 Y-12.031 Z-2.000 I-0.048 J-0.748 K0.000 F180.000
G2 X-79.915 Y-12.517 Z-2.000 I-0.824 J-0.498 K0.000 F180.000
G1 X-78.660 Y-11.261 Z-2.000 F180.000
G1 X-78.619 Y-13.341 Z-2.000 F180.000
G1 X-79.879 Y-14.601 Z-2.000 F180.000
G0 Z5.000
G0 X-79.878 Y-14.602 Z5.000
G0 X-79.878 Y-14.602 Z3.000
G1 X-79.878 Y-14.602 Z-2.000 F180.000
G3 X-79.815 Y-14.153 Z-2.000 I-0.715 J0.329 K0.000 F180.000
G1 X-79.919 Y-12.448 Z-2.000 F180.000
G3 X-79.928 Y-12.372 Z-2.000 I-0.749 J-0.046 K0.000 F180.000
G3 X-80.532 Y-11.713 Z-2.000 I-0.755 J-0.085 K0.000 F180.000
G3 X-82.085 Y-11.695 Z-2.000 I-0.878 J-8.691 K0.000 F180.000
G3 X-82.805 Y-12.580 Z-2.000 I0.061 J-0.785 K0.000 F180.000
G1 X-82.746 Y-14.220 Z-2.000 F180.000
G3 X-82.084 Y-15.071 Z-2.000 I0.786 J-0.072 K0.000 F180.000
G3 X-81.274 Y-15.092 Z-2.000 I0.649 J9.268 K0.000 F180.000
G3 X-80.526 Y-15.057 Z-2.000 I-0.153 J11.349 K0.000 F180.000
G3 X-79.878 Y-14.602 Z-2.000 I-0.067 J0.784 K0.000 F180.000
G0 Z5.000
G0 X-78.619 Y-13.341 Z5.000
G0 X-78.619 Y-13.341 Z3.000
G1 X-78.619 Y-13.341 Z-2.000 F180.000
G1 X-79.879 Y-14.601 Z-2.000 F180.000
G2 X-80.270 Y-14.993 Z-2.000 I-0.710 J0.319 K0.000 F180.000
G1 X-81.625 Y-16.348 Z-2.000 F180.000
G2 X-80.402 Y-16.364 Z-2.000 I0.499 J-8.487 K0.000 F180.000
G2 X-79.838 Y-16.682 Z-2.000 I-0.046 J-0.741 K0.000 F180.000
G1 X-78.128 Y-14.972 Z-2.000 F180.000
G0 Z5.000
G0 X-79.898 Y-16.606 Z5.000
G0 X-79.898 Y-16.606 Z3.000
G1 X-79.898 Y-16.606 Z-2.000 F180.000
G3 X-80.301 Y-16.378 Z-2.000 I-0.558 J-0.516 K0.000 F180.000
G3 X-81.811 Y-16.359 Z-2.000 I-0.860 J-8.303 K0.000 F180.000
G3 X-82.528 Y-17.263 Z-2.000 I0.062 J-0.785 K0.000 F180.000
G1 X-82.429 Y-18.933 Z-2.000 F180.000
G3 X-81.777 Y-19.757 Z-2.000 I0.780 J-0.053 K0.000 F180.000
G3 X-81.044 Y-19.788 Z-2.000 I0.705 J7.940 K0.000 F180.000
G3 X-80.400 Y-19.767 Z-2.000 I0.005 J9.827 K0.000 F180.000
G3 X-79.672 Y-18.901 Z-2.000 I-0.056 J0.785 K0.000 F180.000
G1 X-79.693 Y-17.152 Z-2.000 F180.000
G3 X-79.698 Y-17.073 Z-2.000 I-0.750 J-0.009 K0.000 F180.000
G3 X-79.898 Y-16.606 Z-2.000 I-0.758 J-0.049 K0.000 F180.000
G0 Z5.000
G0 X-79.675 Y-18.640 Z5.000
G0 X-79.675 Y-18.640 Z3.000
G1 X-79.675 Y-18.640 Z-2.000 F180.000
G1 X-78.468 Y-17.433 Z-2.000 F180.000
G2 X-78.476 Y-17.094 Z-2.000 I2.591 J0.230 K0.000 F180.000
G2 X-77.764 Y-16.411 Z-2.000 I0.747 J-0.066 K0.000 F180.000
G2 X-77.432 Y-16.397 Z-2.000 I0.346 J-4.286 K0.000 F180.000
G1 X-74.555 Y-13.520 Z-2.000 F180.000
G3 X-74.634 Y-11.478 Z-2.000 I-56.575 J-1.166 K0.000 F180.000
G1 X-76.090 Y-12.934 Z-2.000 F180.000
G1 X-76.181 Y-10.904 Z-2.000 F180.000
G1 X-75.705 Y-10.427 Z-2.000 F180.000
G1 X-76.177 Y-10.449 Z-2.000 F180.000
G1 X-76.200 Y-10.451 Z-2.000 F180.000
G1 X-76.200 Y-10.474 Z-2.000 F180.000
G1 X-76.181 Y-10.904 Z-2.000 F180.000
G0 Z5.000
G0 X-74.555 Y-13.520 Z5.000
G0 X-74.555 Y-13.520 Z3.000
G1 X-74.555 Y-13.520 Z-2.000 F180.000
G1 X-77.432 Y-16.397 Z-2.000 F180.000
G2 X-76.564 Y-16.433 Z-2.000 I0.149 J-6.888 K0.000 F180.000
G2 X-75.903 Y-16.990 Z-2.000 I-0.061 J-0.743 K0.000 F180.000
G1 X-73.949 Y-15.036 Z-2.000 F180.000
G0 Z5.000
G0 X-70.343 Y-13.550 Z5.000
G0 X-70.343 Y-13.550 Z3.000
G1 X-70.343 Y-13.550 Z-2.000 F180.000
G1 X-73.276 Y-16.484 Z-2.000 F180.000
G2 X-72.402 Y-16.524 Z-2.000 I0.059 J-8.219 K0.000 F180.000
G2 X-71.741 Y-17.071 Z-2.000 I-0.059 J-0.744 K0.000 F180.000
G1 X-70.263 Y-15.593 Z-2.000 F180.000
G1 X-70.184 Y-17.635 Z-2.000 F180.000
G1 X-71.643 Y-19.093 Z-2.000 F180.000
G1 X-71.572 Y-21.144 Z-2.000 F180.000
G1 X-70.105 Y-19.677 Z-2.000 F180.000
G1 X-70.026 Y-21.697 Z-2.000 F180.000
G1 X-70.027 Y-21.720 Z-2.000 F180.000
G0 Z5.000
G0 X-71.549 Y-21.755 Z5.000
G0 X-71.549 Y-21.755 Z3.000
G1 X-71.549 Y-21.755 Z-2.000 F180.000
G1 X-71.526 Y-21.756 Z-2.000 F180.000
G1 X-70.050 Y-21.722 Z-2.000 F180.000
G1 X-70.027 Y-21.720 Z-2.000 F180.000
G1 X-70.026 Y-21.697 Z-2.000 F180.000
G1 X-70.488 Y-9.814 Z-2.000 F180.000
G1 X-70.490 Y-9.791 Z-2.000 F180.000
G1 X-70.513 Y-9.791 Z-2.000 F180.000
G1 X-71.975 Y-9.857 Z-2.000 F180.000
G1 X-71.998 Y-9.860 Z-2.000 F180.000
G1 X-71.998 Y-9.882 Z-2.000 F180.000
G1 X-71.847 Y-14.172 Z-2.000 F180.000
G2 X-72.565 Y-15.057 Z-2.000 I-0.781 J-0.100 K0.000 F180.000
G2 X-73.943 Y-15.038 Z-2.000 I-0.588 J7.333 K0.000 F180.000
G2 X-74.543 Y-14.314 Z-2.000 I0.150 J0.735 K0.000 F180.000
G3 X-74.704 Y-10.382 Z-2.000 I-59.086 J-0.457 K0.000 F180.000
G1 X-76.177 Y-10.449 Z-2.000 F180.000
G1 X-76.200 Y-10.451 Z-2.000 F180.000
G1 X-76.200 Y-10.474 Z-2.000 F180.000
G1 X-76.036 Y-14.141 Z-2.000 F180.000
G2 X-76.752 Y-15.034 Z-2.000 I-0.780 J-0.108 K0.000 F180.000
G2 X-77.995 Y-15.014 Z-2.000 I-0.521 J6.403 K0.000 F180.000
G2 X-78.595 Y-14.325 Z-2.000 I0.157 J0.743 K0.000 F180.000
G2 X-78.600 Y-14.248 Z-2.000 I0.744 J0.092 K0.000 F180.000
G1 X-78.676 Y-10.470 Z-2.000 F180.000
G1 X-78.678 Y-10.447 Z-2.000 F180.000
G1 X-78.701 Y-10.445 Z-2.000 F180.000
G3 X-84.134 Y-10.371 Z-2.000 I-5.791 J-225.129 K0.000 F180.000
G0 Z5.000
G0 X-84.554 Y-11.732 Z5.000
G0 X-84.554 Y-11.732 Z3.000
G1 X-84.554 Y-11.732 Z-2.000 F180.000
G3 X-84.587 Y-11.723 Z-2.000 I-0.221 J-0.717 K0.000 F180.000
G3 X-85.580 Y-11.706 Z-2.000 I-0.543 J-2.740 K0.000 F180.000
G3 X-86.750 Y-13.006 Z-2.000 I0.144 J-1.306 K0.000 F180.000
G3 X-86.788 Y-14.084 Z-2.000 I6.013 J-0.753 K0.000 F180.000
G3 X-86.679 Y-14.636 Z-2.000 I1.510 J0.010 K0.000 F180.000
G3 X-86.101 Y-15.115 Z-2.000 I0.703 J0.261 K0.000 F180.000
G3 X-85.644 Y-15.137 Z-2.000 I0.525 J6.040 K0.000 F180.000
G3 X-84.593 Y-15.097 Z-2.000 I0.156 J9.727 K0.000 F180.000
G3 X-83.902 Y-14.292 Z-2.000 I-0.056 J0.748 K0.000 F180.000
G2 X-84.027 Y-12.407 Z-2.000 I68.740 J5.505 K0.000 F180.000
G3 X-84.554 Y-11.732 Z-2.000 I-0.749 J-0.042 K0.000 F180.000
G0 Z5.000
G0 X-86.290 Y-10.406 Z5.000
G0 X-86.290 Y-10.406 Z3.000
G1 X-86.290 Y-10.406 Z-2.000 F180.000
G1 X-87.741 Y-11.857 Z-2.000 F180.000
G2 X-86.881 Y-10.582 Z-2.000 I1.231 J0.097 K0.000 F180.000
G2 X-86.290 Y-10.406 Z-2.000 I0.966 J-2.161 K0.000 F180.000
G2 X-85.871 Y-10.373 Z-2.000 I0.389 J-2.281 K0.000 F180.000
G2 X-84.134 Y-10.371 Z-2.000 I1.052 J-139.481 K0.000 F180.000
G1 X-85.453 Y-11.690 Z-2.000 F180.000
G3 X-85.580 Y-11.706 Z-2.000 I0.107 J-1.343 K0.000 F180.000
G3 X-86.750 Y-12.987 Z-2.000 I0.144 J-1.306 K0.000 F180.000
G1 X-87.655 Y-13.892 Z-2.000 F180.000
G3 X-87.537 Y-15.896 Z-2.000 I79.939 J3.677 K0.000 F180.000
G1 X-86.526 Y-14.885 Z-2.000 F180.000
G3 X-86.101 Y-15.115 Z-2.000 I0.550 J0.509 K0.000 F180.000
G3 X-84.619 Y-15.099 Z-2.000 I0.646 J8.973 K0.000 F180.000
G1 X-85.968 Y-16.448 Z-2.000 F180.000
G3 X-86.354 Y-16.834 Z-2.000 I0.326 J-0.712 K0.000 F180.000
G1 X-87.392 Y-17.872 Z-2.000 F180.000
G1 X-87.295 Y-18.998 Z-2.000 F180.000
G2 X-87.848 Y-19.788 Z-2.000 I-0.750 J-0.064 K0.000 F180.000
G3 X-87.841 Y-20.443 Z-2.000 I5.588 J-0.270 K0.000 F180.000
G1 X-86.283 Y-18.885 Z-2.000 F180.000
G1 X-86.276 Y-18.974 Z-2.000 F180.000
G3 X-85.621 Y-19.779 Z-2.000 I0.781 J-0.033 K0.000 F180.000
G3 X-85.084 Y-19.806 Z-2.000 I0.570 J5.945 K0.000 F180.000
G1 X-86.331 Y-21.054 Z-2.000 F180.000
G2 X-84.170 Y-21.014 Z-2.000 I4.845 J-201.772 K0.000 F180.000
G1 X-82.390 Y-19.234 Z-2.000 F180.000
G3 X-81.777 Y-19.757 Z-2.000 I0.739 J0.246 K0.000 F180.000
G3 X-80.819 Y-19.785 Z-2.000 I0.712 J8.072 K0.000 F180.000
G1 X-82.021 Y-20.986 Z-2.000 F180.000
G2 X-79.887 Y-20.973 Z-2.000 I2.293 J-199.421 K0.000 F180.000
G1 X-78.385 Y-19.472 Z-2.000 F180.000
G2 X-78.330 Y-20.953 Z-2.000 I-400.788 J-15.665 K0.000 F180.000
G1 X-78.331 Y-20.971 Z-2.000 F180.000
G1 X-79.887 Y-20.973 Z-2.000 F180.000
G0 Z5.000
G0 X-83.649 Y-19.321 Z5.000
G0 X-83.649 Y-19.321 Z3.000
G1 X-83.649 Y-19.321 Z-2.000 F180.000
G3 X-83.591 Y-18.894 Z-2.000 I-0.721 J0.316 K0.000 F180.000
G1 X-83.674 Y-17.123 Z-2.000 F180.000
G3 X-83.682 Y-17.046 Z-2.000 I-0.749 J-0.035 K0.000 F180.000
G3 X-84.288 Y-16.377 Z-2.000 I-0.756 J-0.075 K0.000 F180.000
G3 X-85.728 Y-16.383 Z-2.000 I-0.688 J-6.820 K0.000 F180.000
G3 X-86.415 Y-17.304 Z-2.000 I0.087 J-0.782 K0.000 F180.000
G1 X-86.276 Y-18.974 Z-2.000 F180.000
G3 X-85.621 Y-19.779 Z-2.000 I0.781 J-0.033 K0.000 F180.000
G3 X-84.924 Y-19.809 Z-2.000 I0.671 J7.536 K0.000 F180.000
G3 X-84.314 Y-19.790 Z-2.000 I0.006 J9.320 K0.000 F180.000
G3 X-83.649 Y-19.321 Z-2.000 I-0.056 J0.785 K0.000 F180.000
G0 Z5.000
G0 X-83.617 Y-18.340 Z5.000
G0 X-83.617 Y-18.340 Z3.000
G1 X-83.617 Y-18.340 Z-2.000 F180.000
G1 X-82.530 Y-17.252 Z-2.000 F180.000
G2 X-81.811 Y-16.359 Z-2.000 I0.780 J0.109 K0.000 F180.000
G1 X-81.625 Y-16.348 Z-2.000 F180.000
G1 X-80.270 Y-14.993 Z-2.000 F180.000
G2 X-80.526 Y-15.057 Z-2.000 I-0.298 J0.645 K0.000 F180.000
G2 X-82.084 Y-15.071 Z-2.000 I-0.871 J10.649 K0.000 F180.000
G2 X-82.366 Y-14.967 Z-2.000 I0.106 J0.721 K0.000 F180.000
G1 X-83.943 Y-16.545 Z-2.000 F180.000
G3 X-84.387 Y-16.364 Z-2.000 I-0.488 J-0.563 K0.000 F180.000
G3 X-85.828 Y-16.399 Z-2.000 I-0.555 J-6.812 K0.000 F180.000
G3 X-85.968 Y-16.448 Z-2.000 I0.109 J-0.538 K0.000 F180.000
G1 X-84.619 Y-15.099 Z-2.000 F180.000
G3 X-83.901 Y-14.381 Z-2.000 I-0.030 J0.749 K0.000 F180.000
G1 X-82.780 Y-13.260 Z-2.000 F180.000
G0 Z5.000
G0 X-83.901 Y-14.381 Z5.000
G0 X-83.901 Y-14.381 Z3.000
G1 X-83.901 Y-14.381 Z-2.000 F180.000
G1 X-82.780 Y-13.260 Z-2.000 F180.000
G1 X-82.805 Y-12.580 Z-2.000 F180.000
G2 X-82.085 Y-11.695 Z-2.000 I0.781 J0.101 K0.000 F180.000
G2 X-81.192 Y-11.672 Z-2.000 I0.642 J-7.850 K0.000 F180.000
G1 X-79.937 Y-10.417 Z-2.000 F180.000
G3 X-82.027 Y-10.385 Z-2.000 I-3.372 J-150.869 K0.000 F180.000
G1 X-84.029 Y-12.388 Z-2.000 F180.000
G3 X-84.680 Y-11.705 Z-2.000 I-0.746 J-0.060 K0.000 F180.000
G3 X-85.453 Y-11.690 Z-2.000 I-0.440 J-2.715 K0.000 F180.000
G1 X-84.134 Y-10.371 Z-2.000 F180.000
G3 X-85.871 Y-10.373 Z-2.000 I-0.685 J-139.475 K0.000 F180.000
G3 X-86.888 Y-10.585 Z-2.000 I-0.015 J-2.477 K0.000 F180.000
G3 X-87.746 Y-11.729 Z-2.000 I0.376 J-1.177 K0.000 F180.000
G3 X-87.295 Y-18.998 Z-2.000 I127.118 J4.235 K0.000 F180.000
G2 X-87.848 Y-19.788 Z-2.000 I-0.750 J-0.063 K0.000 F180.000
G3 X-87.774 Y-21.085 Z-2.000 I6.660 J-0.273 K0.000 F180.000
G1 X-87.752 Y-21.086 Z-2.000 F180.000
G2 X-78.331 Y-20.971 Z-2.000 I9.039 J-353.905 K0.000 F180.000
G1 X-78.330 Y-20.953 Z-2.000 F180.000
G3 X-78.478 Y-17.192 Z-2.000 I-510.679 J-18.203 K0.000 F180.000
G2 X-77.764 Y-16.411 Z-2.000 I0.749 J0.032 K0.000 F180.000
G2 X-76.467 Y-16.448 Z-2.000 I0.462 J-6.612 K0.000 F180.000
G2 X-75.876 Y-17.124 Z-2.000 I-0.166 J-0.742 K0.000 F180.000
G2 X-75.869 Y-17.201 Z-2.000 I-0.743 J-0.103 K0.000 F180.000
G1 X-75.739 Y-20.919 Z-2.000 F180.000
G1 X-75.736 Y-20.942 Z-2.000 F180.000
G1 X-75.714 Y-20.943 Z-2.000 F180.000
G1 X-74.245 Y-20.920 Z-2.000 F180.000
G1 X-74.222 Y-20.918 Z-2.000 F180.000
G1 X-74.221 Y-20.895 Z-2.000 F180.000
G1 X-74.384 Y-17.384 Z-2.000 F180.000
G2 X-73.648 Y-16.492 Z-2.000 I0.774 J0.111 K0.000 F180.000
G2 X-72.305 Y-16.538 Z-2.000 I0.397 J-8.014 K0.000 F180.000
G2 X-71.712 Y-17.214 Z-2.000 I-0.164 J-0.742 K0.000 F180.000
G2 X-71.705 Y-17.292 Z-2.000 I-0.743 J-0.103 K0.000 F180.000
G1 X-71.551 Y-21.732 Z-2.000 F180.000
G1 X-71.549 Y-21.755 Z-2.000 F180.000
G0 Z5.000
G0 X-75.612 Y-20.941 Z5.000
G0 X-75.612 Y-20.941 Z3.000
G1 X-75.612 Y-20.941 Z-2.000 F180.000
G1 X-74.245 Y-20.920 Z-2.000 F180.000
G1 X-74.222 Y-20.918 Z-2.000 F180.000
G1 X-74.221 Y-20.895 Z-2.000 F180.000
G1 X-74.281 Y-19.610 Z-2.000 F180.000
G1 X-75.612 Y-20.941 Z-2.000 F180.000
G2 X-75.736 Y-20.942 Z-2.000 I-0.066 J0.961 K0.000 F180.000
G1 X-75.739 Y-20.919 Z-2.000 F180.000
G1 X-75.806 Y-19.014 Z-2.000 F180.000
G1 X-74.375 Y-17.583 Z-2.000 F180.000
G1 X-74.384 Y-17.384 Z-2.000 F180.000
G2 X-73.648 Y-16.492 Z-2.000 I0.774 J0.111 K0.000 F180.000
G2 X-73.276 Y-16.484 Z-2.000 I0.310 J-5.393 K0.000 F180.000
G1 X-70.343 Y-13.550 Z-2.000 F180.000
G1 X-70.422 Y-11.508 Z-2.000 F180.000
G1 X-71.889 Y-12.976 Z-2.000 F180.000
G1 X-71.961 Y-10.927 Z-2.000 F180.000
G1 X-71.998 Y-9.882 Z-2.000 F180.000
G1 X-71.998 Y-9.860 Z-2.000 F180.000
G1 X-71.975 Y-9.857 Z-2.000 F180.000
G1 X-70.840 Y-9.806 Z-2.000 F180.000
G1 X-71.961 Y-10.927 Z-2.000 F180.000
G0 Z5.000
G0 Z5.000
G0 X-71.961 Y-10.927
G0 X-74.334 Y-25.007
G0 X-74.334 Y-25.007 Z3.000
G1 X-74.334 Y-25.007 Z-1.000 F180.000
G1 X-72.745 Y-23.419 Z-1.000 F180.000
G2 X-71.417 Y-23.629 Z-1.000 I-3.001 J-23.261 K0.000 F180.000
G2 X-71.004 Y-23.799 Z-1.000 I-0.452 J-1.686 K0.000 F180.000
G1 X-72.601 Y-25.395 Z-1.000 F180.000
G2 X-71.696 Y-26.611 Z-1.000 I-1.006 J-1.694 K0.000 F180.000
G1 X-70.093 Y-25.009 Z-1.000 F180.000
G2 X-70.043 Y-25.439 Z-1.000 I-1.980 J-0.448 K0.000 F180.000
G3 X-70.008 Y-25.783 Z-1.000 I6.795 J0.509 K0.000 F180.000
G2 X-70.012 Y-27.049 Z-1.000 I-7.288 J-0.611 K0.000 F180.000
G1 X-71.006 Y-28.043 Z-1.000 F180.000
G1 X-70.175 Y-28.049 Z-1.000 F180.000
G1 X-70.167 Y-28.048 Z-1.000 F180.000
G3 X-70.044 Y-25.429 Z-1.000 I-7.422 J1.663 K0.000 F180.000
G3 X-71.417 Y-23.629 Z-1.000 I-1.870 J-0.002 K0.000 F180.000
G3 X-79.509 Y-23.417 Z-1.000 I-4.711 J-25.334 K0.000 F180.000
G3 X-83.499 Y-24.610 Z-1.000 I1.824 J-13.366 K0.000 F180.000
G2 X-84.248 Y-24.538 Z-1.000 I-0.312 J0.682 K0.000 F180.000
G3 X-87.084 Y-22.907 Z-1.000 I-8.332 J-11.210 K0.000 F180.000
G1 X-87.085 Y-22.912 Z-1.000 F180.000
G1 X-87.619 Y-24.355 Z-1.000 F180.000
G1 X-87.625 Y-24.377 Z-1.000 F180.000
G1 X-87.610 Y-24.384 Z-1.000 F180.000
G2 X-86.118 Y-25.180 Z-1.000 I-2.740 J-6.937 K0.000 F180.000
G2 X-86.216 Y-26.398 Z-1.000 I-0.483 J-0.574 K0.000 F180.000
G3 X-87.498 Y-27.277 Z-1.000 I4.670 J-8.186 K0.000 F180.000
G3 X-86.815 Y-28.517 Z-1.000 I6.789 J2.932 K0.000 F180.000
G1 X-86.798 Y-28.506 Z-1.000 F180.000
G2 X-84.793 Y-27.049 Z-1.000 I13.343 J-16.256 K0.000 F180.000
G2 X-83.796 Y-27.207 Z-1.000 I0.412 J-0.627 K0.000 F180.000
G2 X-82.552 Y-28.878 Z-1.000 I-16.774 J-13.785 K0.000 F180.000
G3 X-80.926 Y-28.052 Z-1.000 I-12.151 J25.944 K0.000 F180.000
G3 X-81.868 Y-26.745 Z-1.000 I-6.983 J-4.039 K0.000 F180.000
G2 X-81.480 Y-25.532 Z-1.000 I0.572 J0.486 K0.000 F180.000
G2 X-79.428 Y-25.239 Z-1.000 I2.192 J-7.997 K0.000 F180.000
G2 X-78.905 Y-25.517 Z-1.000 I-0.062 J-0.747 K0.000 F180.000
G2 X-76.981 Y-28.679 Z-1.000 I-9.840 J-8.155 K0.000 F180.000
G1 X-76.966 Y-28.674 Z-1.000 F180.000
G1 X-75.477 Y-28.163 Z-1.000 F180.000
G1 X-75.472 Y-28.161 Z-1.000 F180.000
G3 X-76.661 Y-26.187 Z-1.000 I-8.773 J-3.937 K0.000 F180.000
G2 X-76.100 Y-24.989 Z-1.000 I0.601 J0.449 K0.000 F180.000
G2 X-73.031 Y-25.203 Z-1.000 I0.775 J-11.000 K0.000 F180.000
G2 X-71.640 Y-27.079 Z-1.000 I-0.575 J-1.880 K0.000 F180.000
G2 X-71.787 Y-28.037 Z-1.000 I-12.016 J1.354 K0.000 F180.000
G1 X-71.767 Y-28.038 Z-1.000 F180.000
G1 X-70.175 Y-28.049 Z-1.000 F180.000
G1 X-70.167 Y-28.048 Z-1.000 F180.000
G3 X-70.012 Y-27.049 Z-1.000 I-6.845 J1.573 K0.000 F180.000
G0 Z5.000
G0 X-77.304 Y-27.977 Z5.000
G0 X-77.304 Y-27.977 Z3.000
G1 X-77.304 Y-27.977 Z-1.000 F180.000
G1 X-76.184 Y-26.858 Z-1.000 F180.000
G2 X-75.472 Y-28.161 Z-1.000 I-7.673 J-5.040 K0.000 F180.000
G1 X-75.477 Y-28.163 Z-1.000 F180.000
G1 X-76.966 Y-28.674 Z-1.000 F180.000
G1 X-76.981 Y-28.679 Z-1.000 F180.000
G3 X-77.304 Y-27.977 Z-1.000 I-8.888 J-3.668 K0.000 F180.000
G3 X-78.080 Y-26.632 Z-1.000 I-11.062 J-5.490 K0.000 F180.000
G1 X-74.683 Y-23.235 Z-1.000 F180.000
G3 X-76.773 Y-23.204 Z-1.000 I-1.417 J-25.018 K0.000 F180.000
G1 X-78.994 Y-25.425 Z-1.000 F180.000
G3 X-79.428 Y-25.239 Z-1.000 I-0.491 J-0.544 K0.000 F180.000
G3 X-81.138 Y-25.447 Z-1.000 I0.120 J-8.093 K0.000 F180.000
G1 X-79.054 Y-23.363 Z-1.000 F180.000
G3 X-81.727 Y-23.915 Z-1.000 I1.349 J-13.285 K0.000 F180.000
G1 X-84.990 Y-27.178 Z-1.000 F180.000
G3 X-86.798 Y-28.506 Z-1.000 I11.110 J-17.028 K0.000 F180.000
G1 X-86.815 Y-28.517 Z-1.000 F180.000
G2 X-87.408 Y-27.475 Z-1.000 I6.065 J4.146 K0.000 F180.000
G1 X-86.502 Y-26.568 Z-1.000 F180.000
G1 X-86.216 Y-26.398 Z-1.000 F180.000
G3 X-85.877 Y-25.943 Z-1.000 I-0.378 J0.636 K0.000 F180.000
G1 X-84.378 Y-24.445 Z-1.000 F180.000
G3 X-85.667 Y-23.612 Z-1.000 I-7.923 J-10.850 K0.000 F180.000
G1 X-86.812 Y-24.757 Z-1.000 F180.000
G3 X-87.610 Y-24.384 Z-1.000 I-3.526 J-6.518 K0.000 F180.000
G1 X-87.625 Y-24.377 Z-1.000 F180.000
G1 X-87.619 Y-24.355 Z-1.000 F180.000
G1 X-87.085 Y-22.912 Z-1.000 F180.000
G1 X-87.084 Y-22.907 Z-1.000 F180.000
G0 Z5.000
G0 X-86.502 Y-26.568 Z5.000
G0 X-86.502 Y-26.568 Z3.000
G1 X-86.502 Y-26.568 Z-1.000 F180.000
G3 X-87.498 Y-27.277 Z-1.000 I4.900 J-7.948 K0.000 F180.000
G3 X-87.408 Y-27.475 Z-1.000 I2.868 J1.177 K0.000 F180.000
G1 X-86.502 Y-26.568 Z-1.000 F180.000
G0 Z5.000
G0 X-82.040 Y-26.349 Z5.000
G0 X-82.040 Y-26.349 Z3.000
G1 X-82.040 Y-26.349 Z-1.000 F180.000
G1 X-83.398 Y-27.707 Z-1.000 F180.000
G2 X-82.552 Y-28.878 Z-1.000 I-15.592 J-12.162 K0.000 F180.000
G1 X-82.352 Y-28.782 Z-1.000 F180.000
G1 X-81.193 Y-27.624 Z-1.000 F180.000
G2 X-80.926 Y-28.052 Z-1.000 I-4.862 J-3.326 K0.000 F180.000
G1 X-80.938 Y-28.059 Z-1.000 F180.000
G2 X-82.352 Y-28.782 Z-1.000 I-13.653 J24.957 K0.000 F180.000
G1 X-82.352 Y-28.782 Z-2.000 F180.000
G3 X-80.938 Y-28.059 Z-2.000 I-12.240 J25.680 K0.000 F180.000
G1 X-80.926 Y-28.052 Z-2.000 F180.000
G3 X-81.193 Y-27.624 Z-2.000 I-5.129 J-2.897 K0.000 F180.000
G1 X-82.352 Y-28.782 Z-2.000 F180.000
G1 X-82.552 Y-28.878 Z-2.000 F180.000
G3 X-83.398 Y-27.707 Z-2.000 I-16.439 J-10.992 K0.000 F180.000
G1 X-82.040 Y-26.349 Z-2.000 F180.000
G0 Z5.000
G0 X-86.502 Y-26.568 Z5.000
G0 X-86.502 Y-26.568 Z3.000
G1 X-86.502 Y-26.568 Z-2.000 F180.000
G3 X-87.498 Y-27.277 Z-2.000 I4.900 J-7.948 K0.000 F180.000
G3 X-87.408 Y-27.475 Z-2.000 I2.868 J1.177 K0.000 F180.000
G1 X-86.502 Y-26.568 Z-2.000 F180.000
G0 Z5.000
G0 X-87.084 Y-22.907 Z5.000
G0 X-87.084 Y-22.907 Z3.000
G1 X-87.084 Y-22.907 Z-2.000 F180.000
G1 X-87.085 Y-22.912 Z-2.000 F180.000
G1 X-87.619 Y-24.355 Z-2.000 F180.000
G1 X-87.625 Y-24.377 Z-2.000 F180.000
G1 X-87.610 Y-24.384 Z-2.000 F180.000
G2 X-86.812 Y-24.757 Z-2.000 I-2.727 J-6.891 K0.000 F180.000
G1 X-85.667 Y-23.612 Z-2.000 F180.000
G2 X-84.378 Y-24.445 Z-2.000 I-6.635 J-11.683 K0.000 F180.000
G1 X-85.877 Y-25.943 Z-2.000 F180.000
G2 X-86.216 Y-26.398 Z-2.000 I-0.717 J0.182 K0.000 F180.000
G1 X-86.502 Y-26.568 Z-2.000 F180.000
G1 X-87.408 Y-27.475 Z-2.000 F180.000
G3 X-86.815 Y-28.517 Z-2.000 I6.659 J3.104 K0.000 F180.000
G1 X-86.798 Y-28.506 Z-2.000 F180.000
G2 X-84.990 Y-27.178 Z-2.000 I12.918 J-15.700 K0.000 F180.000
G1 X-81.727 Y-23.915 Z-2.000 F180.000
G2 X-79.054 Y-23.363 Z-2.000 I4.022 J-12.733 K0.000 F180.000
G1 X-81.138 Y-25.447 Z-2.000 F180.000
G2 X-79.428 Y-25.239 Z-2.000 I1.829 J-7.885 K0.000 F180.000
G2 X-78.994 Y-25.425 Z-2.000 I-0.057 J-0.730 K0.000 F180.000
G1 X-76.773 Y-23.204 Z-2.000 F180.000
G2 X-74.683 Y-23.235 Z-2.000 I0.673 J-25.049 K0.000 F180.000
G1 X-78.080 Y-26.632 Z-2.000 F180.000
G2 X-77.304 Y-27.977 Z-2.000 I-10.286 J-6.835 K0.000 F180.000
G2 X-76.981 Y-28.679 Z-2.000 I-8.565 J-4.369 K0.000 F180.000
G1 X-76.966 Y-28.674 Z-2.000 F180.000
G1 X-75.477 Y-28.163 Z-2.000 F180.000
G1 X-75.472 Y-28.161 Z-2.000 F180.000
G3 X-76.184 Y-26.858 Z-2.000 I-8.386 J-3.736 K0.000 F180.000
G1 X-77.304 Y-27.977 Z-2.000 F180.000
G0 Z5.000
G0 X-74.334 Y-25.007 Z5.000
G0 X-74.334 Y-25.007 Z3.000
G1 X-74.334 Y-25.007 Z-2.000 F180.000
G1 X-72.745 Y-23.419 Z-2.000 F180.000
G2 X-71.417 Y-23.629 Z-2.000 I-3.001 J-23.261 K0.000 F180.000
G2 X-71.004 Y-23.799 Z-2.000 I-0.452 J-1.686 K0.000 F180.000
G1 X-72.601 Y-25.395 Z-2.000 F180.000
G2 X-71.696 Y-26.611 Z-2.000 I-1.006 J-1.694 K0.000 F180.000
G1 X-70.093 Y-25.009 Z-2.000 F180.000
G2 X-70.043 Y-25.439 Z-2.000 I-1.980 J-0.448 K0.000 F180.000
G3 X-70.008 Y-25.783 Z-2.000 I6.795 J0.509 K0.000 F180.000
G2 X-70.012 Y-27.049 Z-2.000 I-7.288 J-0.611 K0.000 F180.000
G1 X-71.006 Y-28.043 Z-2.000 F180.000
G1 X-70.175 Y-28.049 Z-2.000 F180.000
G1 X-70.167 Y-28.048 Z-2.000 F180.000
G3 X-70.044 Y-25.429 Z-2.000 I-7.422 J1.663 K0.000 F180.000
G3 X-71.417 Y-23.629 Z-2.000 I-1.870 J-0.002 K0.000 F180.000
G3 X-79.509 Y-23.417 Z-2.000 I-4.711 J-25.334 K0.000 F180.000
G3 X-83.499 Y-24.610 Z-2.000 I1.824 J-13.366 K0.000 F180.000
G2 X-84.248 Y-24.538 Z-2.000 I-0.312 J0.682 K0.000 F180.000
G3 X-87.084 Y-22.907 Z-2.000 I-8.332 J-11.210 K0.000 F180.000
G1 X-87.085 Y-22.912 Z-2.000 F180.000
G1 X-87.619 Y-24.355 Z-2.000 F180.000
G1 X-87.625 Y-24.377 Z-2.000 F180.000
G1 X-87.610 Y-24.384 Z-2.000 F180.000
G2 X-86.118 Y-25.180 Z-2.000 I-2.740 J-6.937 K0.000 F180.000
G2 X-86.216 Y-26.398 Z-2.000 I-0.483 J-0.574 K0.000 F180.000
G3 X-87.498 Y-27.277 Z-2.000 I4.670 J-8.186 K0.000 F180.000
G3 X-86.815 Y-28.517 Z-2.000 I6.789 J2.932 K0.000 F180.000
G1 X-86.798 Y-28.506 Z-2.000 F180.000
G2 X-84.793 Y-27.049 Z-2.000 I13.343 J-16.256 K0.000 F180.000
G2 X-83.796 Y-27.207 Z-2.000 I0.412 J-0.627 K0.000 F180.000
G2 X-82.552 Y-28.878 Z-2.000 I-16.774 J-13.785 K0.000 F180.000
G3 X-80.926 Y-28.052 Z-2.000 I-12.151 J25.944 K0.000 F180.000
G3 X-81.868 Y-26.745 Z-2.000 I-6.983 J-4.039 K0.000 F180.000
G2 X-81.480 Y-25.532 Z-2.000 I0.572 J0.486 K0.000 F180.000
G2 X-79.428 Y-25.239 Z-2.000 I2.192 J-7.997 K0.000 F180.000
G2 X-78.905 Y-25.517 Z-2.000 I-0.062 J-0.747 K0.000 F180.000
G2 X-76.981 Y-28.679 Z-2.000 I-9.840 J-8.155 K0.000 F180.000
G1 X-76.966 Y-28.674 Z-2.000 F180.000
G1 X-75.477 Y-28.163 Z-2.000 F180.000
G1 X-75.472 Y-28.161 Z-2.000 F180.000
G3 X-76.661 Y-26.187 Z-2.000 I-8.773 J-3.937 K0.000 F180.000
G2 X-76.100 Y-24.989 Z-2.000 I0.601 J0.449 K0.000 F180.000
G2 X-73.031 Y-25.203 Z-2.000 I0.775 J-11.000 K0.000 F180.000
G2 X-71.640 Y-27.079 Z-2.000 I-0.575 J-1.880 K0.000 F180.000
G2 X-71.787 Y-28.037 Z-2.000 I-12.016 J1.354 K0.000 F180.000
G1 X-71.767 Y-28.038 Z-2.000 F180.000
G1 X-70.175 Y-28.049 Z-2.000 F180.000
G1 X-70.167 Y-28.048 Z-2.000 F180.000
G3 X-70.012 Y-27.049 Z-2.000 I-6.845 J1.573 K0.000 F180.000
G0 Z5.000
G0 Z5.000
(Finish operation: Pocket_Shape002)
(Begin operation: Pocket_Shape003)
(Path: Pocket_Shape003)
(Pocket_Shape003)
G0 Z5.000
G0 X-73.383 Y2.884
G0 Z3.000
G1 X-73.383 Y2.884 Z-1.000 F180.000
G3 X-75.877 Y2.745 Z-1.000 I-1.173 J-1.396 K0.000 F180.000
G3 X-78.431 Y-0.910 Z-1.000 I13.219 J-11.957 K0.000 F180.000
G3 X-78.376 Y-1.713 Z-1.000 I0.659 J-0.358 K0.000 F180.000
G3 X-76.238 Y-3.616 Z-1.000 I9.669 J8.713 K0.000 F180.000
G3 X-74.921 Y-4.260 Z-1.000 I3.359 J5.199 K0.000 F180.000
G3 X-74.626 Y-4.321 Z-1.000 I0.646 J2.349 K0.000 F180.000
G3 X-74.364 Y-4.338 Z-1.000 I0.204 J1.175 K0.000 F180.000
G3 X-72.961 Y-3.572 Z-1.000 I-0.045 J1.751 K0.000 F180.000
G3 X-72.423 Y-2.304 Z-1.000 I-2.142 J1.658 K0.000 F180.000
G3 X-73.123 Y2.616 Z-1.000 I-6.488 J1.586 K0.000 F180.000
G3 X-73.383 Y2.884 Z-1.000 I-1.433 J-1.128 K0.000 F180.000
G0 Z5.000
G0 X-76.093 Y5.116 Z5.000
G0 X-76.093 Y5.116 Z3.000
G1 X-76.093 Y5.116 Z-1.000 F180.000
G3 X-77.665 Y3.854 Z-1.000 I1.385 J-3.334 K0.000 F180.000
G3 X-78.383 Y2.826 Z-1.000 I195.669 J-137.575 K0.000 F180.000
G1 X-76.093 Y5.116 Z-1.000 F180.000
G2 X-75.253 Y5.355 Z-1.000 I1.372 J-3.231 K0.000 F180.000
G2 X-73.758 Y5.330 Z-1.000 I0.688 J-3.573 K0.000 F180.000
G1 X-84.808 Y-5.719 Z-1.000 F180.000
G3 X-82.495 Y-5.528 Z-1.000 I0.828 J4.059 K0.000 F180.000
G1 X-78.480 Y-1.513 Z-1.000 F180.000
G2 X-78.431 Y-0.910 Z-1.000 I0.697 J0.247 K0.000 F180.000
G2 X-75.916 Y2.703 Z-1.000 I15.863 J-8.358 K0.000 F180.000
G2 X-73.813 Y3.154 Z-1.000 I1.362 J-1.221 K0.000 F180.000
G1 X-72.316 Y4.651 Z-1.000 F180.000
G2 X-71.366 Y3.479 Z-1.000 I-2.232 J-2.781 K0.000 F180.000
G1 X-72.819 Y2.026 Z-1.000 F180.000
G2 X-72.327 Y0.398 Z-1.000 I-6.031 J-2.714 K0.000 F180.000
G1 X-70.797 Y1.927 Z-1.000 F180.000
G2 X-70.477 Y0.126 Z-1.000 I-9.487 J-2.614 K0.000 F180.000
G1 X-72.305 Y-1.702 Z-1.000 F180.000
G0 Z5.000
G0 X-71.884 Y-5.524 Z5.000
G0 X-71.884 Y-5.524 Z3.000
G1 X-71.884 Y-5.524 Z-1.000 F180.000
G3 X-71.119 Y-4.341 Z-1.000 I-2.076 J2.180 K0.000 F180.000
G3 X-70.532 Y-2.050 Z-1.000 I-9.273 J3.599 K0.000 F180.000
G1 X-74.799 Y-6.318 Z-1.000 F180.000
G2 X-76.026 Y-5.849 Z-1.000 I0.729 J3.745 K0.000 F180.000
G1 X-76.300 Y-5.697 Z-1.000 F180.000
G1 X-74.874 Y-4.271 Z-1.000 F180.000
G2 X-74.982 Y-4.239 Z-1.000 I0.152 J0.699 K0.000 F180.000
G2 X-76.238 Y-3.616 Z-1.000 I2.133 J5.875 K0.000 F180.000
G1 X-76.297 Y-3.572 Z-1.000 F180.000
G1 X-77.577 Y-4.852 Z-1.000 F180.000
G2 X-78.706 Y-3.860 Z-1.000 I6.476 J8.507 K0.000 F180.000
G1 X-77.470 Y-2.624 Z-1.000 F180.000
G2 X-78.376 Y-1.713 Z-1.000 I8.189 J9.052 K0.000 F180.000
G2 X-78.480 Y-1.513 Z-1.000 I0.472 J0.370 K0.000 F180.000
G1 X-82.495 Y-5.528 Z-1.000 F180.000
G0 Z5.000
G0 X-83.346 Y-3.592 Z5.000
G0 X-83.346 Y-3.592 Z3.000
G1 X-83.346 Y-3.592 Z-1.000 F180.000
G3 X-82.924 Y-3.342 Z-1.000 I-0.821 J1.870 K0.000 F180.000
G3 X-81.573 Y-2.010 Z-1.000 I-2.774 J4.162 K0.000 F180.000
G2 X-81.367 Y-1.721 Z-1.000 I1.624 J-0.943 K0.000 F180.000
G3 X-81.339 Y-0.824 Z-1.000 I-0.587 J0.467 K0.000 F180.000
G2 X-83.521 Y2.528 Z-1.000 I39.822 J28.311 K0.000 F180.000
G3 X-84.376 Y2.859 Z-1.000 I-0.642 J-0.388 K0.000 F180.000
G3 X-86.044 Y1.177 Z-1.000 I0.968 J-2.629 K0.000 F180.000
G3 X-85.749 Y-2.874 Z-1.000 I4.208 J-1.730 K0.000 F180.000
G3 X-84.093 Y-3.763 Z-1.000 I1.642 J1.073 K0.000 F180.000
G3 X-83.346 Y-3.592 Z-1.000 I-0.074 J2.041 K0.000 F180.000
G0 Z5.000
G0 X-84.832 Y-3.622 Z5.000
G0 X-84.832 Y-3.622 Z3.000
G1 X-84.832 Y-3.622 Z-1.000 F180.000
G1 X-86.262 Y-5.052 Z-1.000 F180.000
G2 X-87.309 Y-3.979 Z-1.000 I2.434 J3.421 K0.000 F180.000
G1 X-85.909 Y-2.578 Z-1.000 F180.000
G2 X-86.371 Y-0.919 Z-1.000 I4.037 J2.017 K0.000 F180.000
G1 X-87.948 Y-2.496 Z-1.000 F180.000
G2 X-88.186 Y-0.612 Z-1.000 I7.296 J1.877 K0.000 F180.000
G1 X-85.594 Y1.980 Z-1.000 F180.000
G2 X-85.151 Y2.423 Z-1.000 I2.073 J-1.631 K0.000 F180.000
G1 X-82.579 Y4.994 Z-1.000 F180.000
G2 X-83.055 Y6.386 Z-1.000 I19.255 J7.358 K0.000 F180.000
G1 X-83.076 Y6.378 Z-1.000 F180.000
G1 X-83.483 Y6.212 Z-1.000 F180.000
G1 X-87.706 Y1.989 Z-1.000 F180.000
G2 X-85.306 Y4.654 Z-1.000 I5.508 J-2.548 K0.000 F180.000
G3 X-85.011 Y5.580 Z-1.000 I-0.416 J0.642 K0.000 F180.000
G2 X-84.986 Y5.597 Z-1.000 I0.026 J-0.012 K0.000 F180.000
G1 X-83.483 Y6.212 Z-1.000 F180.000
G0 Z5.000
G0 X-82.579 Y4.994 Z5.000
G0 X-82.579 Y4.994 Z3.000
G1 X-82.579 Y4.994 Z-1.000 F180.000
G3 X-80.699 Y1.311 Z-1.000 I18.104 J6.920 K0.000 F180.000
G3 X-79.448 Y1.287 Z-1.000 I0.633 J0.402 K0.000 F180.000
G2 X-77.665 Y3.854 Z-1.000 I246.075 J-169.075 K0.000 F180.000
G2 X-75.253 Y5.355 Z-1.000 I2.971 J-2.085 K0.000 F180.000
G2 X-72.418 Y4.728 Z-1.000 I0.691 J-3.601 K0.000 F180.000
G2 X-71.301 Y3.348 Z-1.000 I-2.136 J-2.869 K0.000 F180.000
G2 X-71.119 Y-4.341 Z-1.000 I-9.177 J-4.064 K0.000 F180.000
G2 X-72.165 Y-5.763 Z-1.000 I-2.871 J1.015 K0.000 F180.000
G2 X-74.269 Y-6.383 Z-1.000 I-1.884 J2.509 K0.000 F180.000
G1 X-74.269 Y-6.383 Z-1.000 F180.000
G2 X-76.024 Y-5.850 Z-1.000 I0.191 J3.781 K0.000 F180.000
G2 X-79.034 Y-3.518 Z-1.000 I5.222 J9.847 K0.000 F180.000
G3 X-80.143 Y-3.540 Z-1.000 I-0.545 J-0.516 K0.000 F180.000
G3 X-81.034 Y-4.584 Z-1.000 I32.304 J-28.464 K0.000 F180.000
G2 X-84.905 Y-5.700 Z-1.000 I-2.947 J2.952 K0.000 F180.000
G2 X-87.966 Y-2.419 Z-1.000 I1.130 J4.124 K0.000 F180.000
G2 X-87.773 Y1.842 Z-1.000 I7.267 J1.805 K0.000 F180.000
G2 X-85.306 Y4.654 Z-1.000 I5.581 J-2.408 K0.000 F180.000
G3 X-84.995 Y5.527 Z-1.000 I-0.400 J0.634 K0.000 F180.000
G2 X-85.012 Y5.579 Z-1.000 I0.069 J0.050 K0.000 F180.000
G2 X-84.986 Y5.597 Z-1.000 I0.024 J-0.007 K0.000 F180.000
G1 X-83.076 Y6.378 Z-1.000 F180.000
G1 X-83.055 Y6.386 Z-1.000 F180.000
G3 X-82.579 Y4.994 Z-1.000 I19.730 J5.966 K0.000 F180.000
G1 X-85.151 Y2.423 Z-1.000 F180.000
G2 X-84.468 Y2.825 Z-1.000 I1.720 J-2.140 K0.000 F180.000
G2 X-83.521 Y2.528 Z-1.000 I0.305 J-0.685 K0.000 F180.000
G1 X-83.296 Y2.156 Z-1.000 F180.000
G1 X-81.940 Y3.512 Z-1.000 F180.000
G3 X-81.203 Y2.127 Z-1.000 I17.081 J8.206 K0.000 F180.000
G1 X-82.478 Y0.853 Z-1.000 F180.000
G3 X-81.625 Y-0.415 Z-1.000 I30.807 J19.801 K0.000 F180.000
G1 X-80.229 Y0.981 Z-1.000 F180.000
G1 X-80.229 Y0.981 Z-2.000 F180.000
G1 X-81.625 Y-0.415 Z-2.000 F180.000
G2 X-82.478 Y0.853 Z-2.000 I29.954 J21.070 K0.000 F180.000
G1 X-81.203 Y2.127 Z-2.000 F180.000
G2 X-81.940 Y3.512 Z-2.000 I16.344 J9.590 K0.000 F180.000
G1 X-83.296 Y2.156 Z-2.000 F180.000
G1 X-83.521 Y2.528 Z-2.000 F180.000
G3 X-84.468 Y2.825 Z-2.000 I-0.642 J-0.388 K0.000 F180.000
G3 X-85.151 Y2.423 Z-2.000 I1.037 J-2.542 K0.000 F180.000
G1 X-82.579 Y4.994 Z-2.000 F180.000
G2 X-83.055 Y6.386 Z-2.000 I19.255 J7.358 K0.000 F180.000
G1 X-83.076 Y6.378 Z-2.000 F180.000
G1 X-84.986 Y5.597 Z-2.000 F180.000
G3 X-85.012 Y5.579 Z-2.000 I-0.002 J-0.025 K0.000 F180.000
G3 X-84.995 Y5.527 Z-2.000 I0.086 J-0.002 K0.000 F180.000
G2 X-85.306 Y4.654 Z-2.000 I-0.711 J-0.239 K0.000 F180.000
G3 X-87.773 Y1.842 Z-2.000 I3.115 J-5.220 K0.000 F180.000
G3 X-87.966 Y-2.419 Z-2.000 I7.073 J-2.456 K0.000 F180.000
G3 X-84.905 Y-5.700 Z-2.000 I4.192 J0.844 K0.000 F180.000
G3 X-81.034 Y-4.584 Z-2.000 I0.923 J4.068 K0.000 F180.000
G2 X-80.143 Y-3.540 Z-2.000 I33.195 J-27.420 K0.000 F180.000
G2 X-79.034 Y-3.518 Z-2.000 I0.565 J-0.493 K0.000 F180.000
G3 X-76.024 Y-5.850 Z-2.000 I8.232 J7.515 K0.000 F180.000
G3 X-74.269 Y-6.383 Z-2.000 I1.946 J3.247 K0.000 F180.000
G1 X-74.269 Y-6.383 Z-2.000 F180.000
G3 X-72.165 Y-5.763 Z-2.000 I0.220 J3.130 K0.000 F180.000
G3 X-71.119 Y-4.341 Z-2.000 I-1.826 J2.437 K0.000 F180.000
G3 X-71.301 Y3.348 Z-2.000 I-9.359 J3.625 K0.000 F180.000
G3 X-72.418 Y4.728 Z-2.000 I-3.252 J-1.489 K0.000 F180.000
G3 X-75.253 Y5.355 Z-2.000 I-2.145 J-2.974 K0.000 F180.000
G3 X-77.665 Y3.854 Z-2.000 I0.560 J-3.587 K0.000 F180.000
G3 X-79.448 Y1.287 Z-2.000 I244.291 J-171.642 K0.000 F180.000
G2 X-80.699 Y1.311 Z-2.000 I-0.618 J0.426 K0.000 F180.000
G2 X-82.579 Y4.994 Z-2.000 I16.223 J10.603 K0.000 F180.000
G0 Z5.000
G0 X-83.483 Y6.212 Z5.000
G0 X-83.483 Y6.212 Z3.000
G1 X-83.483 Y6.212 Z-2.000 F180.000
G1 X-84.986 Y5.597 Z-2.000 F180.000
G3 X-85.011 Y5.580 Z-2.000 I0.000 J-0.029 K0.000 F180.000
G2 X-85.306 Y4.654 Z-2.000 I-0.711 J-0.284 K0.000 F180.000
G3 X-87.706 Y1.989 Z-2.000 I3.108 J-5.212 K0.000 F180.000
G1 X-83.483 Y6.212 Z-2.000 F180.000
G1 X-83.076 Y6.378 Z-2.000 F180.000
G1 X-83.055 Y6.386 Z-2.000 F180.000
G3 X-82.579 Y4.994 Z-2.000 I19.730 J5.966 K0.000 F180.000
G1 X-85.151 Y2.423 Z-2.000 F180.000
G3 X-85.594 Y1.980 Z-2.000 I1.631 J-2.073 K0.000 F180.000
G1 X-88.186 Y-0.612 Z-2.000 F180.000
G3 X-87.948 Y-2.496 Z-2.000 I7.534 J-0.007 K0.000 F180.000
G1 X-86.371 Y-0.919 Z-2.000 F180.000
G3 X-85.909 Y-2.578 Z-2.000 I4.499 J0.358 K0.000 F180.000
G1 X-87.309 Y-3.979 Z-2.000 F180.000
G3 X-86.262 Y-5.052 Z-2.000 I3.481 J2.347 K0.000 F180.000
G1 X-84.832 Y-3.622 Z-2.000 F180.000
G0 Z5.000
G0 X-84.833 Y-3.624 Z5.000
G0 X-84.833 Y-3.624 Z3.000
G1 X-84.833 Y-3.624 Z-2.000 F180.000
G3 X-84.093 Y-3.763 Z-2.000 I0.726 J1.823 K0.000 F180.000
G3 X-82.924 Y-3.342 Z-2.000 I-0.074 J2.041 K0.000 F180.000
G3 X-81.573 Y-2.010 Z-2.000 I-2.774 J4.162 K0.000 F180.000
G2 X-81.367 Y-1.721 Z-2.000 I1.624 J-0.943 K0.000 F180.000
G3 X-81.339 Y-0.824 Z-2.000 I-0.587 J0.467 K0.000 F180.000
G2 X-83.521 Y2.528 Z-2.000 I39.822 J28.311 K0.000 F180.000
G3 X-84.376 Y2.859 Z-2.000 I-0.642 J-0.388 K0.000 F180.000
G3 X-86.044 Y1.177 Z-2.000 I0.968 J-2.629 K0.000 F180.000
G3 X-85.749 Y-2.874 Z-2.000 I4.208 J-1.730 K0.000 F180.000
G3 X-84.833 Y-3.624 Z-2.000 I1.642 J1.073 K0.000 F180.000
G0 Z5.000
G0 X-82.495 Y-5.528 Z5.000
G0 X-82.495 Y-5.528 Z3.000
G1 X-82.495 Y-5.528 Z-2.000 F180.000
G1 X-78.480 Y-1.513 Z-2.000 F180.000
G3 X-78.376 Y-1.713 Z-2.000 I0.576 J0.170 K0.000 F180.000
G3 X-77.470 Y-2.624 Z-2.000 I9.095 J8.141 K0.000 F180.000
G1 X-78.706 Y-3.860 Z-2.000 F180.000
G3 X-77.577 Y-4.852 Z-2.000 I7.605 J7.515 K0.000 F180.000
G1 X-76.297 Y-3.572 Z-2.000 F180.000
G1 X-76.238 Y-3.616 Z-2.000 F180.000
G3 X-74.982 Y-4.239 Z-2.000 I3.389 J5.251 K0.000 F180.000
G3 X-74.874 Y-4.271 Z-2.000 I0.259 J0.667 K0.000 F180.000
G1 X-76.300 Y-5.697 Z-2.000 F180.000
G1 X-76.026 Y-5.849 Z-2.000 F180.000
G3 X-74.799 Y-6.318 Z-2.000 I1.955 J3.276 K0.000 F180.000
G1 X-70.532 Y-2.050 Z-2.000 F180.000
G2 X-71.119 Y-4.341 Z-2.000 I-9.861 J1.309 K0.000 F180.000
G2 X-71.884 Y-5.524 Z-2.000 I-2.840 J0.997 K0.000 F180.000
G0 Z5.000
G0 X-73.267 Y-3.915 Z5.000
G0 X-73.267 Y-3.915 Z3.000
G1 X-73.267 Y-3.915 Z-2.000 F180.000
G3 X-72.961 Y-3.572 Z-2.000 I-1.142 J1.328 K0.000 F180.000
G3 X-72.423 Y-2.304 Z-2.000 I-2.142 J1.658 K0.000 F180.000
G3 X-73.123 Y2.616 Z-2.000 I-6.488 J1.586 K0.000 F180.000
G3 X-75.877 Y2.745 Z-2.000 I-1.433 J-1.128 K0.000 F180.000
G3 X-78.431 Y-0.910 Z-2.000 I13.219 J-11.957 K0.000 F180.000
G3 X-78.376 Y-1.713 Z-2.000 I0.659 J-0.358 K0.000 F180.000
G3 X-76.238 Y-3.616 Z-2.000 I9.669 J8.713 K0.000 F180.000
G3 X-74.921 Y-4.260 Z-2.000 I3.359 J5.199 K0.000 F180.000
G3 X-74.626 Y-4.321 Z-2.000 I0.646 J2.349 K0.000 F180.000
G3 X-74.364 Y-4.338 Z-2.000 I0.204 J1.175 K0.000 F180.000
G3 X-73.267 Y-3.915 Z-2.000 I-0.045 J1.751 K0.000 F180.000
G0 Z5.000
G0 X-72.305 Y-1.702 Z5.000
G0 X-72.305 Y-1.702 Z3.000
G1 X-72.305 Y-1.702 Z-2.000 F180.000
G1 X-70.477 Y0.126 Z-2.000 F180.000
G3 X-70.797 Y1.927 Z-2.000 I-9.807 J-0.813 K0.000 F180.000
G1 X-72.327 Y0.398 Z-2.000 F180.000
G3 X-72.819 Y2.026 Z-2.000 I-6.524 J-1.086 K0.000 F180.000
G1 X-71.366 Y3.479 Z-2.000 F180.000
G3 X-72.316 Y4.651 Z-2.000 I-3.182 J-1.610 K0.000 F180.000
G1 X-73.813 Y3.154 Z-2.000 F180.000
G3 X-75.916 Y2.703 Z-2.000 I-0.741 J-1.672 K0.000 F180.000
G3 X-78.431 Y-0.910 Z-2.000 I13.348 J-11.971 K0.000 F180.000
G3 X-78.480 Y-1.513 Z-2.000 I0.649 J-0.356 K0.000 F180.000
G1 X-82.495 Y-5.528 Z-2.000 F180.000
G2 X-84.808 Y-5.719 Z-2.000 I-1.484 J3.867 K0.000 F180.000
G1 X-73.758 Y5.330 Z-2.000 F180.000
G3 X-75.253 Y5.355 Z-2.000 I-0.807 J-3.548 K0.000 F180.000
G3 X-76.093 Y5.116 Z-2.000 I0.532 J-3.470 K0.000 F180.000
G1 X-78.383 Y2.826 Z-2.000 F180.000
G2 X-77.665 Y3.854 Z-2.000 I196.387 J-136.547 K0.000 F180.000
G2 X-76.093 Y5.116 Z-2.000 I2.957 J-2.071 K0.000 F180.000
G0 Z5.000
G0 Z5.000
(Finish operation: Pocket_Shape003)
(Begin operation: Pocket_Shape004)
(Path: Pocket_Shape004)
(Pocket_Shape004)
G0 Z5.000
G0 X-72.072 Y25.757
G0 Z3.000
G1 X-72.072 Y25.757 Z-1.000 F180.000
G1 X-70.160 Y27.669 Z-1.000 F180.000
G3 X-70.902 Y28.613 Z-1.000 I-1.778 J-0.634 K0.000 F180.000
G3 X-71.198 Y28.752 Z-1.000 I-1.523 J-2.850 K0.000 F180.000
G1 X-72.968 Y26.982 Z-1.000 F180.000
G3 X-73.170 Y27.044 Z-1.000 I-0.406 J-0.963 K0.000 F180.000
G3 X-74.379 Y27.164 Z-1.000 I-0.865 J-2.569 K0.000 F180.000
G1 X-74.910 Y27.162 Z-1.000 F180.000
G1 X-72.972 Y29.099 Z-1.000 F180.000
G3 X-75.038 Y29.155 Z-1.000 I-1.630 J-22.121 K0.000 F180.000
G1 X-77.042 Y27.151 Z-1.000 F180.000
G1 X-79.174 Y27.141 Z-1.000 F180.000
G1 X-77.196 Y29.118 Z-1.000 F180.000
G3 X-79.376 Y29.059 Z-1.000 I2.083 J-117.178 K0.000 F180.000
G1 X-81.305 Y27.130 Z-1.000 F180.000
G1 X-83.437 Y27.120 Z-1.000 F180.000
G1 X-81.583 Y28.974 Z-1.000 F180.000
G0 Z5.000
G0 X-79.158 Y25.035 Z5.000
G0 X-79.158 Y25.035 Z3.000
G1 X-79.158 Y25.035 Z-1.000 F180.000
G1 X-79.662 Y24.531 Z-1.000 F180.000
G1 X-79.673 Y24.958 Z-1.000 F180.000
G1 X-79.673 Y24.980 Z-1.000 F180.000
G2 X-79.158 Y25.035 Z-1.000 I0.645 J-3.660 K0.000 F180.000
G2 X-78.548 Y25.035 Z-1.000 I0.305 J-4.848 K0.000 F180.000
G1 X-78.548 Y25.030 Z-1.000 F180.000
G1 X-78.519 Y23.553 Z-1.000 F180.000
G1 X-79.605 Y22.467 Z-1.000 F180.000
G0 Z5.000
G0 X-76.028 Y21.801 Z5.000
G0 X-76.028 Y21.801 Z3.000
G1 X-76.028 Y21.801 Z-1.000 F180.000
G2 X-75.950 Y23.160 Z-1.000 I39.202 J-1.557 K0.000 F180.000
G2 X-75.246 Y23.984 Z-1.000 I1.032 J-0.169 K0.000 F180.000
G2 X-73.787 Y24.042 Z-1.000 I1.019 J-7.272 K0.000 F180.000
G1 X-76.028 Y21.801 Z-1.000 F180.000
G3 X-76.060 Y19.647 Z-1.000 I40.342 J-1.687 K0.000 F180.000
G1 X-75.361 Y20.346 Z-1.000 F180.000
G2 X-75.283 Y21.489 Z-1.000 I14.655 J-0.430 K0.000 F180.000
G2 X-74.282 Y22.475 Z-1.000 I1.269 J-0.288 K0.000 F180.000
G2 X-73.226 Y22.481 Z-1.000 I0.552 J-3.978 K0.000 F180.000
G1 X-71.670 Y24.038 Z-1.000 F180.000
G2 X-71.240 Y24.468 Z-1.000 I0.692 J-0.262 K0.000 F180.000
G1 X-69.960 Y25.748 Z-1.000 F180.000
G2 X-70.098 Y24.839 Z-1.000 I-5.182 J0.326 K0.000 F180.000
G2 X-70.125 Y24.817 Z-1.000 I-0.072 J0.062 K0.000 F180.000
G2 X-70.231 Y24.788 Z-1.000 I-0.133 J0.274 K0.000 F180.000
G2 X-71.240 Y24.468 Z-1.000 I-12.676 J38.233 K0.000 F180.000
G0 Z5.000
G0 X-72.893 Y22.336 Z5.000
G0 X-72.893 Y22.336 Z3.000
G1 X-72.893 Y22.336 Z-1.000 F180.000
G3 X-73.197 Y22.477 Z-1.000 I-0.460 J-0.593 K0.000 F180.000
G3 X-74.175 Y22.491 Z-1.000 I-0.549 J-4.165 K0.000 F180.000
G3 X-75.283 Y21.489 Z-1.000 I0.160 J-1.290 K0.000 F180.000
G3 X-75.295 Y18.172 Z-1.000 I16.438 J-1.716 K0.000 F180.000
G3 X-74.644 Y17.483 Z-1.000 I0.764 J0.070 K0.000 F180.000
G3 X-74.225 Y17.464 Z-1.000 I0.472 J5.666 K0.000 F180.000
G3 X-73.261 Y17.504 Z-1.000 I0.124 J8.621 K0.000 F180.000
G3 X-72.571 Y18.230 Z-1.000 I-0.060 J0.748 K0.000 F180.000
G3 X-72.603 Y21.778 Z-1.000 I-38.245 J1.428 K0.000 F180.000
G3 X-72.893 Y22.336 Z-1.000 I-0.749 J-0.035 K0.000 F180.000
G0 Z5.000
G0 X-73.226 Y22.481 Z5.000
G0 X-73.226 Y22.481 Z3.000
G1 X-73.226 Y22.481 Z-1.000 F180.000
G1 X-71.670 Y24.038 Z-1.000 F180.000
G3 X-71.719 Y23.744 Z-1.000 I0.692 J-0.267 K0.000 F180.000
G2 X-71.660 Y21.927 Z-1.000 I-115.082 J-4.649 K0.000 F180.000
G1 X-72.569 Y21.017 Z-1.000 F180.000
G2 X-72.552 Y18.913 Z-1.000 I-37.486 J-1.358 K0.000 F180.000
G1 X-71.616 Y19.850 Z-1.000 F180.000
G2 X-71.600 Y17.744 Z-1.000 I-133.336 J-2.066 K0.000 F180.000
G1 X-73.165 Y16.178 Z-1.000 F180.000
G2 X-71.605 Y16.195 Z-1.000 I1.778 J-93.276 K0.000 F180.000
G1 X-71.604 Y16.214 Z-1.000 F180.000
G3 X-71.600 Y17.744 Z-1.000 I-96.928 J1.062 K0.000 F180.000
G0 Z5.000
G0 X-74.000 Y17.465 Z5.000
G0 X-74.000 Y17.465 Z3.000
G1 X-74.000 Y17.465 Z-1.000 F180.000
G1 X-75.340 Y16.125 Z-1.000 F180.000
G1 X-75.871 Y16.108 Z-1.000 F180.000
G1 X-75.873 Y16.108 Z-1.000 F180.000
G2 X-75.988 Y17.598 Z-1.000 I29.949 J3.062 K0.000 F180.000
G1 X-75.304 Y18.282 Z-1.000 F180.000
G2 X-75.361 Y20.346 Z-1.000 I15.948 J1.476 K0.000 F180.000
G1 X-76.060 Y19.647 Z-1.000 F180.000
G0 Z5.000
G0 X-78.307 Y15.279 Z5.000
G0 X-78.307 Y15.279 Z3.000
G1 X-78.307 Y15.279 Z-1.000 F180.000
G2 X-78.304 Y15.109 Z-1.000 I-1.308 J-0.113 K0.000 F180.000
G1 X-78.497 Y15.089 Z-1.000 F180.000
G1 X-78.307 Y15.279 Z-1.000 F180.000
G1 X-78.368 Y17.339 Z-1.000 F180.000
G1 X-79.444 Y16.263 Z-1.000 F180.000
G3 X-79.496 Y18.333 Z-1.000 I-139.554 J-2.428 K0.000 F180.000
G1 X-78.424 Y19.405 Z-1.000 F180.000
G2 X-78.474 Y21.476 Z-1.000 I310.339 J8.538 K0.000 F180.000
G1 X-80.869 Y19.082 Z-1.000 F180.000
G3 X-81.457 Y19.050 Z-1.000 I-0.016 J-5.104 K0.000 F180.000
G3 X-82.079 Y18.188 Z-1.000 I0.166 J-0.775 K0.000 F180.000
G1 X-82.072 Y17.878 Z-1.000 F180.000
G1 X-83.160 Y16.790 Z-1.000 F180.000
G3 X-83.205 Y18.334 Z-1.000 I-78.688 J-1.550 K0.000 F180.000
G3 X-83.339 Y18.733 Z-1.000 I-0.724 J-0.021 K0.000 F180.000
G1 X-81.320 Y20.751 Z-1.000 F180.000
G2 X-81.702 Y20.822 Z-1.000 I-0.033 J0.880 K0.000 F180.000
G2 X-82.142 Y21.496 Z-1.000 I0.310 J0.683 K0.000 F180.000
G1 X-82.149 Y22.044 Z-1.000 F180.000
G1 X-85.177 Y19.016 Z-1.000 F180.000
G3 X-85.877 Y18.316 Z-1.000 I0.079 J-0.778 K0.000 F180.000
G1 X-87.409 Y16.784 Z-1.000 F180.000
G3 X-87.484 Y18.831 Z-1.000 I-111.174 J-2.998 K0.000 F180.000
G1 X-85.656 Y20.658 Z-1.000 F180.000
G2 X-85.988 Y21.262 Z-1.000 I0.411 J0.619 K0.000 F180.000
G2 X-86.010 Y22.426 Z-1.000 I57.343 J1.663 K0.000 F180.000
G1 X-87.586 Y20.850 Z-1.000 F180.000
G2 X-87.663 Y22.894 Z-1.000 I28.330 J2.096 K0.000 F180.000
G1 X-86.004 Y24.553 Z-1.000 F180.000
G2 X-85.675 Y25.770 Z-1.000 I2.980 J-0.153 K0.000 F180.000
G2 X-83.537 Y27.119 Z-1.000 I2.094 J-0.948 K0.000 F180.000
G1 X-83.437 Y27.120 Z-1.000 F180.000
G1 X-81.583 Y28.974 Z-1.000 F180.000
G3 X-83.814 Y28.864 Z-1.000 I4.752 J-119.482 K0.000 F180.000
G1 X-87.604 Y25.074 Z-1.000 F180.000
G2 X-87.457 Y26.812 Z-1.000 I32.223 J-1.845 K0.000 F180.000
G2 X-87.050 Y27.749 Z-1.000 I2.210 J-0.403 K0.000 F180.000
G2 X-86.577 Y28.222 Z-1.000 I1.774 J-1.301 K0.000 F180.000
G1 X-87.050 Y27.749 Z-1.000 F180.000
G0 Z5.000
G0 X-83.318 Y22.997 Z5.000
G0 X-83.318 Y22.997 Z3.000
G1 X-83.318 Y22.997 Z-1.000 F180.000
G1 X-83.356 Y24.213 Z-1.000 F180.000
G1 X-83.355 Y24.236 Z-1.000 F180.000
G2 X-82.246 Y24.305 Z-1.000 I0.931 J-5.940 K0.000 F180.000
G2 X-82.142 Y21.496 Z-1.000 I-41.882 J-2.950 K0.000 F180.000
G3 X-81.522 Y20.767 Z-1.000 I0.750 J0.009 K0.000 F180.000
G3 X-80.285 Y20.775 Z-1.000 I0.577 J6.430 K0.000 F180.000
G3 X-79.583 Y21.653 Z-1.000 I-0.080 J0.783 K0.000 F180.000
G1 X-79.673 Y24.958 Z-1.000 F180.000
G1 X-79.673 Y24.980 Z-1.000 F180.000
G2 X-78.548 Y25.035 Z-1.000 I0.814 J-5.199 K0.000 F180.000
G3 X-78.303 Y15.132 Z-1.000 I751.116 J13.661 K0.000 F180.000
G1 X-78.304 Y15.109 Z-1.000 F180.000
G2 X-79.426 Y15.093 Z-1.000 I-0.632 J5.223 K0.000 F180.000
G3 X-79.495 Y18.330 Z-1.000 I-158.648 J-1.761 K0.000 F180.000
G3 X-80.094 Y19.043 Z-1.000 I-0.750 J-0.022 K0.000 F180.000
G3 X-81.359 Y19.062 Z-1.000 I-0.732 J-6.574 K0.000 F180.000
G3 X-82.079 Y18.188 Z-1.000 I0.063 J-0.785 K0.000 F180.000
G1 X-82.029 Y15.844 Z-1.000 F180.000
G1 X-82.030 Y15.821 Z-1.000 F180.000
G2 X-83.144 Y15.813 Z-1.000 I-0.597 J5.567 K0.000 F180.000
G3 X-83.205 Y18.334 Z-1.000 I-90.569 J-0.943 K0.000 F180.000
G3 X-83.839 Y19.048 Z-1.000 I-0.750 J-0.027 K0.000 F180.000
G3 X-85.188 Y19.015 Z-1.000 I-0.497 J-7.171 K0.000 F180.000
G3 X-85.871 Y18.103 Z-1.000 I0.093 J-0.782 K0.000 F180.000
G1 X-85.569 Y13.955 Z-1.000 F180.000
G3 X-84.708 Y13.148 Z-1.000 I0.795 J-0.015 K0.000 F180.000
G2 X-77.434 Y13.052 Z-1.000 I0.877 J-209.072 K0.000 F180.000
G2 X-70.150 Y12.451 Z-1.000 I-4.280 J-96.379 K0.000 F180.000
G1 X-70.126 Y12.447 Z-1.000 F180.000
G1 X-70.129 Y12.425 Z-1.000 F180.000
G1 X-70.577 Y10.290 Z-1.000 F180.000
G1 X-70.580 Y10.278 Z-1.000 F180.000
G1 X-72.336 Y10.558 Z-1.000 F180.000
G1 X-72.336 Y10.558 Z-1.000 F180.000
G3 X-87.587 Y11.198 Z-1.000 I-12.528 J-116.542 K0.000 F180.000
G1 X-87.606 Y11.199 Z-1.000 F180.000
G1 X-87.608 Y11.222 Z-1.000 F180.000
G1 X-87.715 Y13.186 Z-1.000 F180.000
G2 X-87.705 Y13.233 Z-1.000 I0.053 J0.013 K0.000 F180.000
G3 X-87.354 Y13.882 Z-1.000 I-0.416 J0.644 K0.000 F180.000
G3 X-87.638 Y21.738 Z-1.000 I-142.276 J-1.217 K0.000 F180.000
G2 X-87.457 Y26.812 Z-1.000 I33.949 J1.329 K0.000 F180.000
G2 X-86.171 Y28.463 Z-1.000 I2.228 J-0.409 K0.000 F180.000
G2 X-85.042 Y28.794 Z-1.000 I1.922 J-4.477 K0.000 F180.000
G2 X-74.820 Y29.158 Z-1.000 I12.260 J-200.384 K0.000 F180.000
G2 X-72.216 Y29.033 Z-1.000 I0.227 J-22.527 K0.000 F180.000
G2 X-70.902 Y28.613 Z-1.000 I-0.542 J-3.962 K0.000 F180.000
G2 X-70.053 Y27.199 Z-1.000 I-1.049 J-1.592 K0.000 F180.000
G2 X-70.098 Y24.839 Z-1.000 I-5.408 J-1.076 K0.000 F180.000
G2 X-70.125 Y24.817 Z-1.000 I-0.072 J0.062 K0.000 F180.000
G2 X-70.250 Y24.783 Z-1.000 I-0.160 J0.338 K0.000 F180.000
G2 X-71.181 Y24.490 Z-1.000 I-7.262 J21.433 K0.000 F180.000
G3 X-71.719 Y23.744 Z-1.000 I0.212 J-0.719 K0.000 F180.000
G2 X-71.604 Y16.214 Z-1.000 I-159.147 J-6.189 K0.000 F180.000
G1 X-71.605 Y16.195 Z-1.000 F180.000
G3 X-75.871 Y16.108 Z-1.000 I0.512 J-129.297 K0.000 F180.000
G2 X-75.950 Y23.160 Z-1.000 I41.119 J3.989 K0.000 F180.000
G2 X-75.246 Y23.984 Z-1.000 I1.032 J-0.169 K0.000 F180.000
G2 X-72.960 Y23.950 Z-1.000 I1.031 J-7.439 K0.000 F180.000
G3 X-72.136 Y24.466 Z-1.000 I0.109 J0.742 K0.000 F180.000
G3 X-72.101 Y25.934 Z-1.000 I-3.389 J0.815 K0.000 F180.000
G3 X-73.170 Y27.044 Z-1.000 I-1.373 J-0.253 K0.000 F180.000
G3 X-74.379 Y27.164 Z-1.000 I-0.865 J-2.569 K0.000 F180.000
G1 X-83.537 Y27.119 Z-1.000 F180.000
G3 X-85.675 Y25.770 Z-1.000 I-0.044 J-2.298 K0.000 F180.000
G3 X-86.001 Y24.612 Z-1.000 I2.680 J-1.380 K0.000 F180.000
G3 X-85.988 Y21.262 Z-1.000 I62.816 J-1.421 K0.000 F180.000
G3 X-85.331 Y20.535 Z-1.000 I0.750 J0.017 K0.000 F180.000
G3 X-83.932 Y20.619 Z-1.000 I0.258 J7.413 K0.000 F180.000
G3 X-83.270 Y21.492 Z-1.000 I-0.120 J0.778 K0.000 F180.000
G1 X-83.356 Y24.213 Z-1.000 F180.000
G1 X-83.355 Y24.236 Z-1.000 F180.000
G2 X-82.246 Y24.305 Z-1.000 I0.931 J-5.940 K0.000 F180.000
