(Exported by FreeCAD)
(Post Processor: script_module)
(Output Time:2026-07-03 18:43:27.799829)
(Begin preamble)
G17 G90
G21
(Begin operation: Fixture)
(Path: Fixture)
G54
(Finish operation: Fixture)
(Begin operation: 12001)
(Path: 12001)
(12001)
(Begin toolchange)
( M6 T4 )
M3 S10000
(Finish operation: 12001)
(Begin operation: Pocket_Shape)
(Path: Pocket_Shape)
(Pocket_Shape)
G0 Z5.000
G0 X-34.480 Y-48.609
G0 Z3.000
G1 X-34.480 Y-48.609 Z-1.000 F300.000
G3 X-34.871 Y-48.445 Z-1.000 I-0.413 J-0.435 K0.000 F300.000
G3 X-42.100 Y-48.195 Z-1.000 I-31.114 J-796.032 K0.000 F300.000
G3 X-45.508 Y-48.173 Z-1.000 I-1.928 J-34.363 K0.000 F300.000
G3 X-46.727 Y-49.645 Z-1.000 I0.184 J-1.394 K0.000 F300.000
G3 X-46.736 Y-52.152 Z-1.000 I19.161 J-1.320 K0.000 F300.000
G3 X-46.333 Y-60.405 Z-1.000 I276.476 J9.354 K0.000 F300.000
G3 X-45.674 Y-60.969 Z-1.000 I0.599 J0.032 K0.000 F300.000
G2 X-44.386 Y-60.875 Z-1.000 I1.811 J-15.897 K0.000 F300.000
G2 X-34.547 Y-60.750 Z-1.000 I7.504 J-202.910 K0.000 F300.000
G3 X-33.949 Y-60.147 Z-1.000 I-0.002 J0.600 K0.000 F300.000
G3 X-34.295 Y-49.004 Z-1.000 I-147.187 J1.010 K0.000 F300.000
G3 X-34.480 Y-48.609 Z-1.000 I-0.599 J-0.041 K0.000 F300.000
G0 Z5.000
G0 X-43.563 Y-46.436 Z5.000
G0 X-43.563 Y-46.436 Z3.000
G1 X-43.563 Y-46.436 Z-1.000 F300.000
G1 X-45.279 Y-48.152 Z-1.000 F300.000
G2 X-43.589 Y-48.159 Z-1.000 I0.766 J-20.191 K0.000 F300.000
G1 X-41.873 Y-46.444 Z-1.000 F300.000
G2 X-40.199 Y-46.466 Z-1.000 I-0.069 J-67.953 K0.000 F300.000
G1 X-41.933 Y-48.200 Z-1.000 F300.000
G2 X-40.286 Y-48.251 Z-1.000 I-5.834 J-216.694 K0.000 F300.000
G1 X-38.529 Y-46.494 Z-1.000 F300.000
G2 X-36.870 Y-46.532 Z-1.000 I-0.400 J-54.095 K0.000 F300.000
G1 X-38.645 Y-48.307 Z-1.000 F300.000
G2 X-37.007 Y-48.366 Z-1.000 I-8.896 J-270.063 K0.000 F300.000
G1 X-35.233 Y-46.592 Z-1.000 F300.000
G2 X-33.622 Y-46.678 Z-1.000 I-0.563 J-25.691 K0.000 F300.000
G1 X-35.371 Y-48.426 Z-1.000 F300.000
G1 X-34.871 Y-48.445 Z-1.000 F300.000
G2 X-34.292 Y-49.045 Z-1.000 I-0.024 J-0.602 K0.000 F300.000
G1 X-32.745 Y-47.498 Z-1.000 F300.000
G1 X-32.698 Y-49.148 Z-1.000 F300.000
G1 X-34.184 Y-50.634 Z-1.000 F300.000
G2 X-34.107 Y-52.254 Z-1.000 I-27.908 J-2.140 K0.000 F300.000
G1 X-32.650 Y-50.797 Z-1.000 F300.000
G1 X-32.603 Y-52.447 Z-1.000 F300.000
G1 X-34.044 Y-53.888 Z-1.000 F300.000
G2 X-33.997 Y-55.538 Z-1.000 I-39.551 J-1.964 K0.000 F300.000
G1 X-32.569 Y-54.110 Z-1.000 F300.000
G1 X-32.537 Y-55.775 Z-1.000 F300.000
G1 X-33.967 Y-57.205 Z-1.000 F300.000
G2 X-33.955 Y-58.890 Z-1.000 I-68.135 J-1.328 K0.000 F300.000
G1 X-32.505 Y-57.440 Z-1.000 F300.000
G1 X-32.473 Y-59.106 Z-1.000 F300.000
G1 X-35.799 Y-62.431 Z-1.000 F300.000
G1 X-34.094 Y-62.423 Z-1.000 F300.000
G1 X-32.442 Y-60.771 Z-1.000 F300.000
G1 X-32.410 Y-62.436 Z-1.000 F300.000
G0 Z5.000
G0 X-35.819 Y-60.754 Z5.000
G0 X-35.819 Y-60.754 Z3.000
G1 X-35.819 Y-60.754 Z-1.000 F300.000
G1 X-37.504 Y-62.439 Z-1.000 F300.000
G1 X-39.209 Y-62.447 Z-1.000 F300.000
G1 X-37.521 Y-60.759 Z-1.000 F300.000
G3 X-39.229 Y-60.770 Z-1.000 I-0.334 J-81.616 K0.000 F300.000
G1 X-40.916 Y-62.457 Z-1.000 F300.000
G3 X-42.640 Y-62.484 Z-1.000 I0.297 J-76.073 K0.000 F300.000
G1 X-40.950 Y-60.794 Z-1.000 F300.000
G3 X-42.672 Y-60.819 Z-1.000 I0.069 J-63.587 K0.000 F300.000
G1 X-44.379 Y-62.526 Z-1.000 F300.000
G1 X-46.118 Y-62.568 Z-1.000 F300.000
G1 X-44.427 Y-60.877 Z-1.000 F300.000
G2 X-45.867 Y-60.957 Z-1.000 I-4.634 J70.199 K0.000 F300.000
G2 X-46.092 Y-60.845 Z-1.000 I0.055 J0.392 K0.000 F300.000
G1 X-47.896 Y-62.649 Z-1.000 F300.000
G1 X-48.189 Y-62.668 Z-1.000 F300.000
G1 X-48.318 Y-61.374 Z-1.000 F300.000
G1 X-46.386 Y-59.441 Z-1.000 F300.000
G1 X-46.473 Y-57.831 Z-1.000 F300.000
G1 X-47.800 Y-59.159 Z-1.000 F300.000
G1 X-47.874 Y-57.536 Z-1.000 F300.000
G1 X-46.560 Y-56.221 Z-1.000 F300.000
G2 X-46.640 Y-54.605 Z-1.000 I54.406 J3.511 K0.000 F300.000
G1 X-47.948 Y-55.913 Z-1.000 F300.000
G2 X-48.009 Y-54.276 Z-1.000 I75.494 J3.610 K0.000 F300.000
G1 X-46.704 Y-52.972 Z-1.000 F300.000
G2 X-46.750 Y-51.320 Z-1.000 I36.557 J1.839 K0.000 F300.000
G1 X-48.065 Y-52.636 Z-1.000 F300.000
G2 X-48.104 Y-50.978 Z-1.000 I44.864 J1.885 K0.000 F300.000
G1 X-46.723 Y-49.596 Z-1.000 F300.000
G2 X-45.279 Y-48.152 Z-1.000 I1.394 J0.049 K0.000 F300.000
G1 X-43.563 Y-46.436 Z-1.000 F300.000
G1 X-45.253 Y-46.429 Z-1.000 F300.000
G1 X-48.132 Y-49.308 Z-1.000 F300.000
G1 X-48.148 Y-48.297 Z-1.000 F300.000
G2 X-47.881 Y-47.360 Z-1.000 I1.802 J-0.007 K0.000 F300.000
G1 X-47.406 Y-46.885 Z-1.000 F300.000
G3 X-48.072 Y-47.802 Z-1.000 I0.784 J-1.270 K0.000 F300.000
G1 X-48.148 Y-48.297 Z-1.000 F300.000
G3 X-47.744 Y-60.385 Z-1.000 I299.628 J3.952 K0.000 F300.000
G2 X-48.354 Y-61.016 Z-1.000 I-0.606 J-0.025 K0.000 F300.000
G1 X-48.354 Y-61.016 Z-1.000 F300.000
G1 X-48.189 Y-62.668 Z-1.000 F300.000
G2 X-42.268 Y-62.475 Z-1.000 I6.503 J-108.386 K0.000 F300.000
G2 X-33.754 Y-62.422 Z-1.000 I7.478 J-518.993 K0.000 F300.000
G1 X-32.410 Y-62.436 Z-1.000 F300.000
G3 X-32.767 Y-46.747 Z-1.000 I-821.971 J-10.862 K0.000 F300.000
G3 X-37.525 Y-46.511 Z-1.000 I-6.446 J-81.656 K0.000 F300.000
G3 X-45.294 Y-46.429 Z-1.000 I-7.203 J-315.145 K0.000 F300.000
G3 X-46.606 Y-46.561 Z-1.000 I-0.099 J-5.586 K0.000 F300.000
G3 X-47.606 Y-47.033 Z-1.000 I0.403 J-2.153 K0.000 F300.000
G3 X-47.881 Y-47.360 Z-1.000 I0.520 J-0.714 K0.000 F300.000
G1 X-47.881 Y-47.360 Z-2.000 F300.000
G2 X-47.606 Y-47.033 Z-2.000 I0.795 J-0.387 K0.000 F300.000
G2 X-46.606 Y-46.561 Z-2.000 I1.403 J-1.682 K0.000 F300.000
G2 X-45.294 Y-46.429 Z-2.000 I1.214 J-5.454 K0.000 F300.000
G2 X-37.525 Y-46.511 Z-2.000 I0.566 J-315.227 K0.000 F300.000
G2 X-32.767 Y-46.747 Z-2.000 I-1.688 J-81.893 K0.000 F300.000
G2 X-32.410 Y-62.436 Z-2.000 I-821.614 J-26.551 K0.000 F300.000
G1 X-33.754 Y-62.422 Z-2.000 F300.000
G3 X-42.268 Y-62.475 Z-2.000 I-1.036 J-519.046 K0.000 F300.000
G3 X-48.189 Y-62.668 Z-2.000 I0.582 J-108.579 K0.000 F300.000
G1 X-48.354 Y-61.016 Z-2.000 F300.000
G1 X-48.354 Y-61.016 Z-2.000 F300.000
G3 X-47.744 Y-60.385 Z-2.000 I0.004 J0.606 K0.000 F300.000
G2 X-48.148 Y-48.297 Z-2.000 I299.224 J16.041 K0.000 F300.000
G1 X-48.072 Y-47.802 Z-2.000 F300.000
G2 X-47.406 Y-46.885 Z-2.000 I1.450 J-0.353 K0.000 F300.000
G1 X-47.881 Y-47.360 Z-2.000 F300.000
G3 X-48.148 Y-48.297 Z-2.000 I1.534 J-0.944 K0.000 F300.000
G1 X-48.132 Y-49.308 Z-2.000 F300.000
G1 X-45.253 Y-46.429 Z-2.000 F300.000
G1 X-43.563 Y-46.436 Z-2.000 F300.000
G1 X-45.279 Y-48.152 Z-2.000 F300.000
G3 X-46.723 Y-49.596 Z-2.000 I-0.049 J-1.394 K0.000 F300.000
G1 X-48.104 Y-50.978 Z-2.000 F300.000
G3 X-48.065 Y-52.636 Z-2.000 I44.903 J0.227 K0.000 F300.000
G1 X-46.750 Y-51.320 Z-2.000 F300.000
G3 X-46.704 Y-52.972 Z-2.000 I36.602 J0.187 K0.000 F300.000
G1 X-48.009 Y-54.276 Z-2.000 F300.000
G3 X-47.948 Y-55.913 Z-2.000 I75.554 J1.973 K0.000 F300.000
G1 X-46.640 Y-54.605 Z-2.000 F300.000
G3 X-46.560 Y-56.221 Z-2.000 I54.486 J1.894 K0.000 F300.000
G1 X-47.874 Y-57.536 Z-2.000 F300.000
G1 X-47.800 Y-59.159 Z-2.000 F300.000
G1 X-46.473 Y-57.831 Z-2.000 F300.000
G1 X-46.386 Y-59.441 Z-2.000 F300.000
G1 X-48.318 Y-61.374 Z-2.000 F300.000
G1 X-48.189 Y-62.668 Z-2.000 F300.000
G1 X-47.896 Y-62.649 Z-2.000 F300.000
G1 X-46.092 Y-60.845 Z-2.000 F300.000
G3 X-45.867 Y-60.957 Z-2.000 I0.280 J0.280 K0.000 F300.000
G3 X-44.427 Y-60.877 Z-2.000 I-3.194 J70.280 K0.000 F300.000
G1 X-46.118 Y-62.568 Z-2.000 F300.000
G1 X-44.379 Y-62.526 Z-2.000 F300.000
G1 X-42.672 Y-60.819 Z-2.000 F300.000
G2 X-40.950 Y-60.794 Z-2.000 I1.791 J-63.562 K0.000 F300.000
G1 X-42.640 Y-62.484 Z-2.000 F300.000
G2 X-40.916 Y-62.457 Z-2.000 I2.021 J-76.046 K0.000 F300.000
G1 X-39.229 Y-60.770 Z-2.000 F300.000
G2 X-37.521 Y-60.759 Z-2.000 I1.374 J-81.606 K0.000 F300.000
G1 X-39.209 Y-62.447 Z-2.000 F300.000
G1 X-37.504 Y-62.439 Z-2.000 F300.000
G1 X-35.819 Y-60.754 Z-2.000 F300.000
G0 Z5.000
G0 X-35.819 Y-60.739 Z5.000
G0 X-35.819 Y-60.739 Z3.000
G1 X-35.819 Y-60.739 Z-2.000 F300.000
G2 X-34.547 Y-60.750 Z-2.000 I-1.064 J-203.046 K0.000 F300.000
G3 X-33.949 Y-60.147 Z-2.000 I-0.002 J0.600 K0.000 F300.000
G3 X-34.295 Y-49.004 Z-2.000 I-147.187 J1.010 K0.000 F300.000
G3 X-34.871 Y-48.445 Z-2.000 I-0.599 J-0.041 K0.000 F300.000
G3 X-42.100 Y-48.195 Z-2.000 I-31.114 J-796.032 K0.000 F300.000
G3 X-45.508 Y-48.173 Z-2.000 I-1.928 J-34.363 K0.000 F300.000
G3 X-46.727 Y-49.645 Z-2.000 I0.184 J-1.394 K0.000 F300.000
G3 X-46.736 Y-52.152 Z-2.000 I19.161 J-1.320 K0.000 F300.000
G3 X-46.333 Y-60.405 Z-2.000 I276.476 J9.354 K0.000 F300.000
G3 X-45.674 Y-60.969 Z-2.000 I0.599 J0.032 K0.000 F300.000
G2 X-44.386 Y-60.875 Z-2.000 I1.811 J-15.897 K0.000 F300.000
G2 X-35.819 Y-60.739 Z-2.000 I7.504 J-202.910 K0.000 F300.000
G0 Z5.000
G0 X-32.410 Y-62.436 Z5.000
G0 X-32.410 Y-62.436 Z3.000
G1 X-32.410 Y-62.436 Z-2.000 F300.000
G1 X-32.442 Y-60.771 Z-2.000 F300.000
G1 X-34.094 Y-62.423 Z-2.000 F300.000
G1 X-35.799 Y-62.431 Z-2.000 F300.000
G1 X-32.473 Y-59.106 Z-2.000 F300.000
G1 X-32.505 Y-57.440 Z-2.000 F300.000
G1 X-33.955 Y-58.890 Z-2.000 F300.000
G3 X-33.967 Y-57.205 Z-2.000 I-68.147 J0.357 K0.000 F300.000
G1 X-32.537 Y-55.775 Z-2.000 F300.000
G1 X-32.569 Y-54.110 Z-2.000 F300.000
G1 X-33.997 Y-55.538 Z-2.000 F300.000
G3 X-34.044 Y-53.888 Z-2.000 I-39.599 J-0.314 K0.000 F300.000
G1 X-32.603 Y-52.447 Z-2.000 F300.000
G1 X-32.650 Y-50.797 Z-2.000 F300.000
G1 X-34.107 Y-52.254 Z-2.000 F300.000
G3 X-34.184 Y-50.634 Z-2.000 I-27.985 J-0.520 K0.000 F300.000
G1 X-32.698 Y-49.148 Z-2.000 F300.000
G1 X-32.745 Y-47.498 Z-2.000 F300.000
G1 X-34.292 Y-49.045 Z-2.000 F300.000
G3 X-34.871 Y-48.445 Z-2.000 I-0.603 J-0.003 K0.000 F300.000
G1 X-35.371 Y-48.426 Z-2.000 F300.000
G1 X-33.622 Y-46.678 Z-2.000 F300.000
G3 X-35.233 Y-46.592 Z-2.000 I-2.174 J-25.605 K0.000 F300.000
G1 X-37.007 Y-48.366 Z-2.000 F300.000
G3 X-38.645 Y-48.307 Z-2.000 I-10.534 J-270.004 K0.000 F300.000
G1 X-36.870 Y-46.532 Z-2.000 F300.000
G3 X-38.529 Y-46.494 Z-2.000 I-2.059 J-54.058 K0.000 F300.000
G1 X-40.286 Y-48.251 Z-2.000 F300.000
G3 X-41.933 Y-48.200 Z-2.000 I-7.481 J-216.643 K0.000 F300.000
G1 X-40.199 Y-46.466 Z-2.000 F300.000
G3 X-41.873 Y-46.444 Z-2.000 I-1.744 J-67.930 K0.000 F300.000
G1 X-43.589 Y-48.159 Z-2.000 F300.000
G3 X-45.279 Y-48.152 Z-2.000 I-0.924 J-20.185 K0.000 F300.000
G1 X-43.563 Y-46.436 Z-2.000 F300.000
G0 Z5.000
G0 Z5.000
G0 X-43.563 Y-46.436
G0 X-43.242 Y-50.053
G0 X-43.242 Y-50.053 Z3.000
G1 X-43.242 Y-50.053 Z-1.000 F300.000
G1 X-41.988 Y-49.942 Z-1.000 F300.000
G2 X-41.945 Y-51.809 Z-1.000 I-577.571 J-14.368 K0.000 F300.000
G3 X-41.324 Y-52.395 Z-1.000 I0.600 J0.013 K0.000 F300.000
G2 X-38.812 Y-52.320 Z-1.000 I5.521 J-142.471 K0.000 F300.000
G2 X-36.364 Y-52.514 Z-1.000 I0.604 J-7.901 K0.000 F300.000
G2 X-35.755 Y-53.355 Z-1.000 I-0.574 J-1.057 K0.000 F300.000
G2 X-35.769 Y-55.195 Z-1.000 I-3.688 J-0.891 K0.000 F300.000
G1 X-37.048 Y-55.393 Z-1.000 F300.000
G3 X-37.024 Y-54.577 Z-1.000 I-7.962 J0.643 K0.000 F300.000
G3 X-37.978 Y-53.700 Z-1.000 I-0.911 J-0.033 K0.000 F300.000
G3 X-40.591 Y-53.724 Z-1.000 I-0.997 J-33.046 K0.000 F300.000
G3 X-40.884 Y-54.840 Z-1.000 I0.014 J-0.600 K0.000 F300.000
G1 X-39.757 Y-55.510 Z-1.000 F300.000
G2 X-37.281 Y-57.725 Z-1.000 I-5.524 J-8.667 K0.000 F300.000
G1 X-38.088 Y-58.812 Z-1.000 F300.000
G3 X-40.842 Y-56.258 Z-1.000 I-8.025 J-5.892 K0.000 F300.000
G3 X-41.783 Y-56.778 Z-1.000 I-0.342 J-0.493 K0.000 F300.000
G2 X-41.712 Y-58.820 Z-1.000 I-36.190 J-2.267 K0.000 F300.000
G1 X-43.060 Y-58.863 Z-1.000 F300.000
G3 X-43.132 Y-54.354 Z-1.000 I-829.427 J-11.088 K0.000 F300.000
G3 X-43.758 Y-53.765 Z-1.000 I-0.600 J-0.010 K0.000 F300.000
G1 X-45.050 Y-53.820 Z-1.000 F300.000
G1 X-45.080 Y-52.626 Z-1.000 F300.000
G2 X-43.799 Y-52.516 Z-1.000 I1.419 J-9.068 K0.000 F300.000
G1 X-43.637 Y-52.482 Z-1.000 F300.000
G1 X-43.799 Y-52.516 Z-1.000 F300.000
G3 X-45.080 Y-52.626 Z-1.000 I0.138 J-9.177 K0.000 F300.000
G1 X-45.050 Y-53.820 Z-1.000 F300.000
G1 X-44.973 Y-53.817 Z-1.000 F300.000
G1 X-43.637 Y-52.482 Z-1.000 F300.000
G3 X-43.234 Y-51.897 Z-1.000 I-0.184 J0.559 K0.000 F300.000
G1 X-43.296 Y-50.058 Z-1.000 F300.000
G1 X-43.242 Y-50.053 Z-1.000 F300.000
G0 Z5.000
G0 X-43.283 Y-50.430 Z5.000
G0 X-43.283 Y-50.430 Z3.000
G1 X-43.283 Y-50.430 Z-1.000 F300.000
G1 X-42.873 Y-50.020 Z-1.000 F300.000
G1 X-43.296 Y-50.058 Z-1.000 F300.000
G1 X-43.283 Y-50.430 Z-1.000 F300.000
G1 X-43.234 Y-51.897 Z-1.000 F300.000
G2 X-43.273 Y-52.117 Z-1.000 I-0.363 J-0.049 K0.000 F300.000
G1 X-41.968 Y-50.812 Z-1.000 F300.000
G2 X-41.945 Y-51.809 Z-1.000 I-558.885 J-13.253 K0.000 F300.000
G3 X-41.717 Y-52.259 Z-1.000 I0.577 J0.009 K0.000 F300.000
G1 X-43.360 Y-53.901 Z-1.000 F300.000
G2 X-43.132 Y-54.354 Z-1.000 I-0.322 J-0.446 K0.000 F300.000
G1 X-43.115 Y-55.353 Z-1.000 F300.000
G1 X-40.116 Y-52.354 Z-1.000 F300.000
G2 X-38.379 Y-52.315 Z-1.000 I2.347 J-64.818 K0.000 F300.000
G1 X-39.769 Y-53.705 Z-1.000 F300.000
G1 X-40.591 Y-53.724 Z-1.000 F300.000
G3 X-40.895 Y-54.830 Z-1.000 I0.013 J-0.598 K0.000 F300.000
G1 X-43.087 Y-57.023 Z-1.000 F300.000
G2 X-43.062 Y-58.694 Z-1.000 I-398.506 J-6.853 K0.000 F300.000
G1 X-41.756 Y-57.388 Z-1.000 F300.000
G1 X-41.783 Y-56.778 Z-1.000 F300.000
G2 X-40.714 Y-56.347 Z-1.000 I0.615 J0.016 K0.000 F300.000
G1 X-39.832 Y-55.465 Z-1.000 F300.000
G2 X-38.843 Y-56.173 Z-1.000 I-3.384 J-5.773 K0.000 F300.000
G1 X-39.739 Y-57.068 Z-1.000 F300.000
G2 X-38.863 Y-57.890 Z-1.000 I-4.230 J-5.383 K0.000 F300.000
G1 X-37.949 Y-56.976 Z-1.000 F300.000
G2 X-37.281 Y-57.725 Z-1.000 I-5.504 J-5.582 K0.000 F300.000
G1 X-38.088 Y-58.812 Z-1.000 F300.000
G0 Z5.000
G0 X-41.712 Y-58.820 Z5.000
G0 X-41.712 Y-58.820 Z3.000
G1 X-41.712 Y-58.820 Z-1.000 F300.000
G1 X-43.060 Y-58.863 Z-1.000 F300.000
G1 X-43.062 Y-58.694 Z-1.000 F300.000
G1 X-41.756 Y-57.388 Z-1.000 F300.000
G2 X-41.712 Y-58.820 Z-1.000 I-25.384 J-1.482 K0.000 F300.000
G0 Z5.000
G0 X-36.241 Y-55.268 Z5.000
G0 X-36.241 Y-55.268 Z3.000
G1 X-36.241 Y-55.268 Z-1.000 F300.000
G1 X-35.769 Y-55.195 Z-1.000 F300.000
G1 X-35.705 Y-54.731 Z-1.000 F300.000
G1 X-36.241 Y-55.268 Z-1.000 F300.000
G1 X-37.048 Y-55.393 Z-1.000 F300.000
G3 X-37.054 Y-54.384 Z-1.000 I-4.699 J0.475 K0.000 F300.000
G1 X-35.823 Y-53.152 Z-1.000 F300.000
G3 X-36.787 Y-52.420 Z-1.000 I-0.966 J-0.270 K0.000 F300.000
G1 X-38.063 Y-53.695 Z-1.000 F300.000
G3 X-39.769 Y-53.705 Z-1.000 I-0.706 J-25.720 K0.000 F300.000
G1 X-38.379 Y-52.315 Z-1.000 F300.000
G1 X-38.379 Y-52.315 Z-2.000 F300.000
G1 X-39.769 Y-53.705 Z-2.000 F300.000
G2 X-38.063 Y-53.695 Z-2.000 I1.001 J-25.710 K0.000 F300.000
G1 X-36.787 Y-52.420 Z-2.000 F300.000
G2 X-35.823 Y-53.152 Z-2.000 I-0.001 J-1.003 K0.000 F300.000
G1 X-37.054 Y-54.384 Z-2.000 F300.000
G2 X-37.048 Y-55.393 Z-2.000 I-4.692 J-0.534 K0.000 F300.000
G1 X-36.241 Y-55.268 Z-2.000 F300.000
G1 X-35.705 Y-54.731 Z-2.000 F300.000
G1 X-35.769 Y-55.195 Z-2.000 F300.000
G1 X-36.241 Y-55.268 Z-2.000 F300.000
G1 X-36.241 Y-55.268 Z-2.000 F300.000
G1 X-37.048 Y-55.393 Z-2.000 F300.000
G3 X-37.024 Y-54.577 Z-2.000 I-7.962 J0.643 K0.000 F300.000
G3 X-37.978 Y-53.700 Z-2.000 I-0.911 J-0.033 K0.000 F300.000
G3 X-40.591 Y-53.724 Z-2.000 I-0.997 J-33.046 K0.000 F300.000
G3 X-40.884 Y-54.840 Z-2.000 I0.014 J-0.600 K0.000 F300.000
G1 X-39.757 Y-55.510 Z-2.000 F300.000
G2 X-37.281 Y-57.725 Z-2.000 I-5.524 J-8.667 K0.000 F300.000
G1 X-38.088 Y-58.812 Z-2.000 F300.000
G3 X-40.842 Y-56.258 Z-2.000 I-8.025 J-5.892 K0.000 F300.000
G3 X-41.783 Y-56.778 Z-2.000 I-0.342 J-0.493 K0.000 F300.000
G2 X-41.712 Y-58.820 Z-2.000 I-36.190 J-2.267 K0.000 F300.000
G1 X-43.060 Y-58.863 Z-2.000 F300.000
G3 X-43.132 Y-54.354 Z-2.000 I-829.427 J-11.088 K0.000 F300.000
G3 X-43.758 Y-53.765 Z-2.000 I-0.600 J-0.010 K0.000 F300.000
G1 X-45.050 Y-53.820 Z-2.000 F300.000
G1 X-45.080 Y-52.626 Z-2.000 F300.000
G2 X-43.799 Y-52.516 Z-2.000 I1.419 J-9.068 K0.000 F300.000
G1 X-43.637 Y-52.482 Z-2.000 F300.000
G1 X-43.799 Y-52.516 Z-2.000 F300.000
G3 X-45.080 Y-52.626 Z-2.000 I0.138 J-9.177 K0.000 F300.000
G1 X-45.050 Y-53.820 Z-2.000 F300.000
G1 X-44.973 Y-53.817 Z-2.000 F300.000
G1 X-43.637 Y-52.482 Z-2.000 F300.000
G3 X-43.234 Y-51.897 Z-2.000 I-0.184 J0.559 K0.000 F300.000
G1 X-43.296 Y-50.058 Z-2.000 F300.000
G1 X-41.988 Y-49.942 Z-2.000 F300.000
G2 X-41.945 Y-51.809 Z-2.000 I-577.571 J-14.368 K0.000 F300.000
G3 X-41.324 Y-52.395 Z-2.000 I0.600 J0.013 K0.000 F300.000
G2 X-38.812 Y-52.320 Z-2.000 I5.521 J-142.471 K0.000 F300.000
G2 X-36.364 Y-52.514 Z-2.000 I0.604 J-7.901 K0.000 F300.000
G2 X-35.755 Y-53.355 Z-2.000 I-0.574 J-1.057 K0.000 F300.000
G2 X-35.769 Y-55.195 Z-2.000 I-3.688 J-0.891 K0.000 F300.000
G1 X-36.241 Y-55.268 Z-2.000 F300.000
G0 Z5.000
G0 X-38.088 Y-58.812 Z5.000
G0 X-38.088 Y-58.812 Z3.000
G1 X-38.088 Y-58.812 Z-2.000 F300.000
G1 X-37.281 Y-57.725 Z-2.000 F300.000
G3 X-37.949 Y-56.976 Z-2.000 I-6.172 J-4.833 K0.000 F300.000
G1 X-38.863 Y-57.890 Z-2.000 F300.000
G3 X-39.739 Y-57.068 Z-2.000 I-5.106 J-4.561 K0.000 F300.000
G1 X-38.843 Y-56.173 Z-2.000 F300.000
G3 X-39.832 Y-55.465 Z-2.000 I-4.373 J-5.065 K0.000 F300.000
G1 X-40.714 Y-56.347 Z-2.000 F300.000
G3 X-41.783 Y-56.778 Z-2.000 I-0.454 J-0.415 K0.000 F300.000
G1 X-41.756 Y-57.388 Z-2.000 F300.000
G1 X-43.062 Y-58.694 Z-2.000 F300.000
G3 X-43.087 Y-57.023 Z-2.000 I-398.531 J-5.181 K0.000 F300.000
G1 X-40.895 Y-54.830 Z-2.000 F300.000
G2 X-40.591 Y-53.724 Z-2.000 I0.317 J0.508 K0.000 F300.000
G1 X-39.769 Y-53.705 Z-2.000 F300.000
G1 X-38.379 Y-52.315 Z-2.000 F300.000
G3 X-40.116 Y-52.354 Z-2.000 I0.610 J-64.858 K0.000 F300.000
G1 X-43.115 Y-55.353 Z-2.000 F300.000
G1 X-43.132 Y-54.354 Z-2.000 F300.000
G3 X-43.360 Y-53.901 Z-2.000 I-0.550 J0.007 K0.000 F300.000
G1 X-41.717 Y-52.259 Z-2.000 F300.000
G2 X-41.945 Y-51.809 Z-2.000 I0.349 J0.459 K0.000 F300.000
G3 X-41.968 Y-50.812 Z-2.000 I-558.907 J-12.256 K0.000 F300.000
G1 X-43.273 Y-52.117 Z-2.000 F300.000
G3 X-43.234 Y-51.897 Z-2.000 I-0.324 J0.171 K0.000 F300.000
G1 X-43.283 Y-50.430 Z-2.000 F300.000
G1 X-43.296 Y-50.058 Z-2.000 F300.000
G1 X-42.873 Y-50.020 Z-2.000 F300.000
G1 X-43.283 Y-50.430 Z-2.000 F300.000
G0 Z5.000
G0 X-41.756 Y-57.388 Z5.000
G0 X-41.756 Y-57.388 Z3.000
G1 X-41.756 Y-57.388 Z-2.000 F300.000
G2 X-41.712 Y-58.820 Z-2.000 I-25.384 J-1.482 K0.000 F300.000
G1 X-43.060 Y-58.863 Z-2.000 F300.000
G1 X-43.062 Y-58.694 Z-2.000 F300.000
G1 X-41.756 Y-57.388 Z-2.000 F300.000
G0 Z5.000
G0 Z5.000
(Finish operation: Pocket_Shape)
(Begin operation: Pocket_Shape001)
(Path: Pocket_Shape001)
(Pocket_Shape001)
G0 Z5.000
G0 X-33.175 Y-29.069
G0 Z3.000
G1 X-33.175 Y-29.069 Z-1.000 F300.000
G1 X-32.771 Y-29.049 Z-1.000 F300.000
G3 X-32.642 Y-28.536 Z-1.000 I-13.094 J3.565 K0.000 F300.000
G1 X-33.175 Y-29.069 Z-1.000 F300.000
G1 X-34.750 Y-29.148 Z-1.000 F300.000
G3 X-34.687 Y-28.884 Z-1.000 I-0.727 J0.314 K0.000 F300.000
G1 X-32.675 Y-26.872 Z-1.000 F300.000
G3 X-33.642 Y-26.142 Z-1.000 I-1.430 J-0.889 K0.000 F300.000
G1 X-34.922 Y-27.422 Z-1.000 F300.000
G3 X-36.169 Y-26.972 Z-1.000 I-1.252 J-1.516 K0.000 F300.000
G1 X-35.088 Y-25.891 Z-1.000 F300.000
G3 X-36.674 Y-25.780 Z-1.000 I-3.282 J-35.442 K0.000 F300.000
G1 X-37.754 Y-26.859 Z-1.000 F300.000
G3 X-39.383 Y-26.792 Z-1.000 I-3.784 J-71.604 K0.000 F300.000
G1 X-38.290 Y-25.698 Z-1.000 F300.000
G3 X-39.919 Y-25.631 Z-1.000 I-4.344 J-85.066 K0.000 F300.000
G1 X-41.022 Y-26.734 Z-1.000 F300.000
G3 X-42.712 Y-26.727 Z-1.000 I-0.962 J-28.340 K0.000 F300.000
G1 X-41.567 Y-25.581 Z-1.000 F300.000
G0 Z5.000
G0 X-40.280 Y-29.386 Z5.000
G0 X-40.280 Y-29.386 Z3.000
G1 X-40.280 Y-29.386 Z-1.000 F300.000
G1 X-40.475 Y-29.440 Z-1.000 F300.000
G1 X-40.419 Y-29.525 Z-1.000 F300.000
G1 X-40.280 Y-29.386 Z-1.000 F300.000
G2 X-37.994 Y-28.797 Z-1.000 I9.141 J-30.738 K0.000 F300.000
G1 X-39.433 Y-30.236 Z-1.000 F300.000
G1 X-38.321 Y-30.028 Z-1.000 F300.000
G2 X-37.747 Y-30.247 Z-1.000 I0.113 J-0.563 K0.000 F300.000
G1 X-36.181 Y-28.681 Z-1.000 F300.000
G1 X-35.795 Y-29.254 Z-1.000 F300.000
G3 X-35.315 Y-29.512 Z-1.000 I0.481 J0.319 K0.000 F300.000
G2 X-35.736 Y-29.581 Z-1.000 I-4.396 J25.608 K0.000 F300.000
G3 X-36.204 Y-30.401 Z-1.000 I0.102 J-0.602 K0.000 F300.000
G1 X-37.415 Y-31.612 Z-1.000 F300.000
G0 Z5.000
G0 X-36.065 Y-33.654 Z5.000
G0 X-36.065 Y-33.654 Z3.000
G1 X-36.065 Y-33.654 Z-1.000 F300.000
G3 X-35.720 Y-32.750 Z-1.000 I-0.750 J0.805 K0.000 F300.000
G1 X-35.892 Y-31.786 Z-1.000 F300.000
G1 X-37.952 Y-33.846 Z-1.000 F300.000
G2 X-39.279 Y-33.476 Z-1.000 I3.441 J14.870 K0.000 F300.000
G1 X-38.361 Y-32.558 Z-1.000 F300.000
G2 X-39.683 Y-32.183 Z-1.000 I2.123 J9.976 K0.000 F300.000
G1 X-40.564 Y-33.064 Z-1.000 F300.000
G1 X-41.382 Y-32.798 Z-1.000 F300.000
G3 X-42.104 Y-33.616 Z-1.000 I-0.190 J-0.560 K0.000 F300.000
G1 X-43.290 Y-34.511 Z-1.000 F300.000
G1 X-43.555 Y-34.358 Z-1.000 F300.000
G1 X-40.947 Y-31.750 Z-1.000 F300.000
G2 X-41.840 Y-31.431 Z-1.000 I24.594 J70.302 K0.000 F300.000
G1 X-42.212 Y-32.547 Z-1.000 F300.000
G2 X-43.010 Y-32.912 Z-1.000 I-0.569 J0.190 K0.000 F300.000
G1 X-43.574 Y-32.680 Z-1.000 F300.000
G1 X-44.702 Y-33.808 Z-1.000 F300.000
G3 X-45.931 Y-33.340 Z-1.000 I-5.169 J-11.716 K0.000 F300.000
G1 X-44.591 Y-32.000 Z-1.000 F300.000
G1 X-44.613 Y-31.902 Z-1.000 F300.000
G1 X-44.736 Y-30.448 Z-1.000 F300.000
G1 X-47.246 Y-32.957 Z-1.000 F300.000
G3 X-48.517 Y-32.679 Z-1.000 I-3.936 J-14.914 K0.000 F300.000
G1 X-48.484 Y-32.498 Z-1.000 F300.000
G1 X-47.533 Y-31.547 Z-1.000 F300.000
G3 X-48.282 Y-31.411 Z-1.000 I-1.399 J-5.578 K0.000 F300.000
G1 X-48.484 Y-32.498 Z-1.000 F300.000
G0 Z5.000
G0 X-46.349 Y-30.363 Z5.000
G0 X-46.349 Y-30.363 Z3.000
G1 X-46.349 Y-30.363 Z-1.000 F300.000
G1 X-44.849 Y-28.863 Z-1.000 F300.000
G2 X-44.701 Y-27.503 Z-1.000 I3.839 J0.271 K0.000 F300.000
G2 X-43.800 Y-26.840 Z-1.000 I1.118 J-0.576 K0.000 F300.000
G2 X-42.712 Y-26.727 Z-1.000 I1.258 J-6.787 K0.000 F300.000
G1 X-41.567 Y-25.581 Z-1.000 F300.000
G3 X-43.237 Y-25.554 Z-1.000 I-1.994 J-72.204 K0.000 F300.000
G1 X-46.436 Y-28.753 Z-1.000 F300.000
G2 X-46.435 Y-27.056 Z-1.000 I13.233 J0.844 K0.000 F300.000
G1 X-45.020 Y-25.641 Z-1.000 F300.000
G3 X-46.057 Y-25.962 Z-1.000 I0.005 J-1.852 K0.000 F300.000
G3 X-46.311 Y-26.357 Z-1.000 I0.462 J-0.578 K0.000 F300.000
G3 X-46.446 Y-28.520 Z-1.000 I7.645 J-1.562 K0.000 F300.000
G3 X-46.309 Y-31.027 Z-1.000 I115.222 J5.060 K0.000 F300.000
G2 X-47.028 Y-31.650 Z-1.000 I-0.599 J-0.036 K0.000 F300.000
G3 X-48.282 Y-31.411 Z-1.000 I-2.429 J-9.325 K0.000 F300.000
G1 X-48.517 Y-32.679 Z-1.000 F300.000
G2 X-43.290 Y-34.511 Z-1.000 I-2.642 J-15.908 K0.000 F300.000
G1 X-42.104 Y-33.616 Z-1.000 F300.000
G2 X-41.382 Y-32.798 Z-1.000 I0.534 J0.256 K0.000 F300.000
G3 X-37.730 Y-33.900 Z-1.000 I14.397 J41.098 K0.000 F300.000
G3 X-36.265 Y-33.785 Z-1.000 I0.565 J2.186 K0.000 F300.000
G3 X-35.720 Y-32.750 Z-1.000 I-0.507 J0.928 K0.000 F300.000
G3 X-36.225 Y-30.311 Z-1.000 I-22.473 J-3.387 K0.000 F300.000
G2 X-35.736 Y-29.581 Z-1.000 I0.584 J0.138 K0.000 F300.000
G2 X-35.280 Y-29.516 Z-1.000 I1.102 J-6.136 K0.000 F300.000
G2 X-35.795 Y-29.254 Z-1.000 I-0.023 J0.592 K0.000 F300.000
G1 X-36.327 Y-28.464 Z-1.000 F300.000
G3 X-40.475 Y-29.440 Z-1.000 I6.040 J-34.976 K0.000 F300.000
G1 X-39.882 Y-30.347 Z-1.000 F300.000
G2 X-38.140 Y-30.022 Z-1.000 I2.588 J-9.026 K0.000 F300.000
G2 X-37.628 Y-30.475 Z-1.000 I-0.071 J-0.596 K0.000 F300.000
G2 X-37.441 Y-31.996 Z-1.000 I-3.338 J-1.182 K0.000 F300.000
G2 X-38.520 Y-32.528 Z-1.000 I-0.801 J0.264 K0.000 F300.000
G2 X-41.840 Y-31.431 Z-1.000 I9.221 J33.471 K0.000 F300.000
G1 X-42.212 Y-32.547 Z-1.000 F300.000
G2 X-43.010 Y-32.912 Z-1.000 I-0.569 J0.190 K0.000 F300.000
G2 X-44.383 Y-32.326 Z-1.000 I4.521 J12.489 K0.000 F300.000
G2 X-44.613 Y-31.902 Z-1.000 I0.367 J0.474 K0.000 F300.000
G2 X-44.856 Y-28.508 Z-1.000 I42.331 J4.740 K0.000 F300.000
G2 X-44.785 Y-27.745 Z-1.000 I2.980 J0.106 K0.000 F300.000
G2 X-43.800 Y-26.840 Z-1.000 I1.166 J-0.281 K0.000 F300.000
G2 X-40.989 Y-26.734 Z-1.000 I1.915 J-13.470 K0.000 F300.000
G2 X-36.303 Y-26.958 Z-1.000 I-0.541 J-60.436 K0.000 F300.000
G2 X-34.901 Y-27.446 Z-1.000 I0.068 J-2.064 K0.000 F300.000
G2 X-34.629 Y-28.466 Z-1.000 I-0.955 J-0.801 K0.000 F300.000
G2 X-34.750 Y-29.148 Z-1.000 I-2.022 J0.007 K0.000 F300.000
G1 X-32.771 Y-29.049 Z-1.000 F300.000
G3 X-32.570 Y-27.140 Z-1.000 I-4.099 J1.396 K0.000 F300.000
G3 X-33.585 Y-26.158 Z-1.000 I-1.414 J-0.446 K0.000 F300.000
G3 X-35.628 Y-25.845 Z-1.000 I-2.340 J-8.448 K0.000 F300.000
G3 X-44.372 Y-25.583 Z-1.000 I-7.426 J-101.813 K0.000 F300.000
G3 X-45.824 Y-25.822 Z-1.000 I-0.008 J-4.489 K0.000 F300.000
G3 X-46.311 Y-26.357 Z-1.000 I0.269 J-0.735 K0.000 F300.000
G3 X-46.435 Y-27.056 Z-1.000 I2.369 J-0.779 K0.000 F300.000
G0 Z5.000
G0 X-35.325 Y-29.522 Z5.000
G0 X-35.325 Y-29.522 Z3.000
G1 X-35.325 Y-29.522 Z-1.000 F300.000
G3 X-35.280 Y-29.516 Z-1.000 I0.021 J0.012 K0.000 F300.000
G3 X-35.325 Y-29.522 Z-1.000 I-0.020 J-0.021 K0.000 F300.000
G1 X-35.325 Y-29.522 Z-2.000 F300.000
G3 X-35.280 Y-29.516 Z-2.000 I0.021 J0.012 K0.000 F300.000
G3 X-35.325 Y-29.522 Z-2.000 I-0.020 J-0.021 K0.000 F300.000
G0 Z5.000
G0 X-33.175 Y-29.069 Z5.000
G0 X-33.175 Y-29.069 Z3.000
G1 X-33.175 Y-29.069 Z-2.000 F300.000
G1 X-32.771 Y-29.049 Z-2.000 F300.000
G3 X-32.642 Y-28.536 Z-2.000 I-13.094 J3.565 K0.000 F300.000
G1 X-33.175 Y-29.069 Z-2.000 F300.000
G1 X-34.750 Y-29.148 Z-2.000 F300.000
G3 X-34.687 Y-28.884 Z-2.000 I-0.727 J0.314 K0.000 F300.000
G1 X-32.675 Y-26.872 Z-2.000 F300.000
G3 X-33.642 Y-26.142 Z-2.000 I-1.430 J-0.889 K0.000 F300.000
G1 X-34.922 Y-27.422 Z-2.000 F300.000
G3 X-36.169 Y-26.972 Z-2.000 I-1.252 J-1.516 K0.000 F300.000
G1 X-35.088 Y-25.891 Z-2.000 F300.000
G3 X-36.674 Y-25.780 Z-2.000 I-3.282 J-35.442 K0.000 F300.000
G1 X-37.754 Y-26.859 Z-2.000 F300.000
G3 X-39.383 Y-26.792 Z-2.000 I-3.784 J-71.604 K0.000 F300.000
G1 X-38.290 Y-25.698 Z-2.000 F300.000
G3 X-39.919 Y-25.631 Z-2.000 I-4.344 J-85.066 K0.000 F300.000
G1 X-41.022 Y-26.734 Z-2.000 F300.000
G3 X-42.712 Y-26.727 Z-2.000 I-0.962 J-28.340 K0.000 F300.000
G1 X-41.567 Y-25.581 Z-2.000 F300.000
G0 Z5.000
G0 X-40.280 Y-29.386 Z5.000
G0 X-40.280 Y-29.386 Z3.000
G1 X-40.280 Y-29.386 Z-2.000 F300.000
G1 X-40.475 Y-29.440 Z-2.000 F300.000
G1 X-40.419 Y-29.525 Z-2.000 F300.000
G1 X-40.280 Y-29.386 Z-2.000 F300.000
G2 X-37.994 Y-28.797 Z-2.000 I9.141 J-30.738 K0.000 F300.000
G1 X-39.433 Y-30.236 Z-2.000 F300.000
G1 X-38.321 Y-30.028 Z-2.000 F300.000
G2 X-37.747 Y-30.247 Z-2.000 I0.113 J-0.563 K0.000 F300.000
G1 X-36.181 Y-28.681 Z-2.000 F300.000
G1 X-35.795 Y-29.254 Z-2.000 F300.000
G3 X-35.315 Y-29.512 Z-2.000 I0.481 J0.319 K0.000 F300.000
G2 X-35.736 Y-29.581 Z-2.000 I-4.396 J25.608 K0.000 F300.000
G3 X-36.204 Y-30.401 Z-2.000 I0.102 J-0.602 K0.000 F300.000
G1 X-37.415 Y-31.612 Z-2.000 F300.000
G0 Z5.000
G0 X-36.065 Y-33.654 Z5.000
G0 X-36.065 Y-33.654 Z3.000
G1 X-36.065 Y-33.654 Z-2.000 F300.000
G3 X-35.720 Y-32.750 Z-2.000 I-0.750 J0.805 K0.000 F300.000
G1 X-35.892 Y-31.786 Z-2.000 F300.000
G1 X-37.952 Y-33.846 Z-2.000 F300.000
G2 X-39.279 Y-33.476 Z-2.000 I3.441 J14.870 K0.000 F300.000
G1 X-38.361 Y-32.558 Z-2.000 F300.000
G2 X-39.683 Y-32.183 Z-2.000 I2.123 J9.976 K0.000 F300.000
G1 X-40.564 Y-33.064 Z-2.000 F300.000
G1 X-41.382 Y-32.798 Z-2.000 F300.000
G3 X-42.104 Y-33.616 Z-2.000 I-0.190 J-0.560 K0.000 F300.000
G1 X-43.290 Y-34.511 Z-2.000 F300.000
G1 X-43.555 Y-34.358 Z-2.000 F300.000
G1 X-40.947 Y-31.750 Z-2.000 F300.000
G2 X-41.840 Y-31.431 Z-2.000 I24.594 J70.302 K0.000 F300.000
G1 X-42.212 Y-32.547 Z-2.000 F300.000
G2 X-43.010 Y-32.912 Z-2.000 I-0.569 J0.190 K0.000 F300.000
G1 X-43.574 Y-32.680 Z-2.000 F300.000
G1 X-44.702 Y-33.808 Z-2.000 F300.000
G3 X-45.931 Y-33.340 Z-2.000 I-5.169 J-11.716 K0.000 F300.000
G1 X-44.591 Y-32.000 Z-2.000 F300.000
G1 X-44.613 Y-31.902 Z-2.000 F300.000
G1 X-44.736 Y-30.448 Z-2.000 F300.000
G1 X-47.246 Y-32.957 Z-2.000 F300.000
G3 X-48.517 Y-32.679 Z-2.000 I-3.936 J-14.914 K0.000 F300.000
G1 X-48.484 Y-32.498 Z-2.000 F300.000
G1 X-47.533 Y-31.547 Z-2.000 F300.000
G3 X-48.282 Y-31.411 Z-2.000 I-1.399 J-5.578 K0.000 F300.000
G1 X-48.484 Y-32.498 Z-2.000 F300.000
G0 Z5.000
G0 X-46.349 Y-30.363 Z5.000
G0 X-46.349 Y-30.363 Z3.000
G1 X-46.349 Y-30.363 Z-2.000 F300.000
G1 X-44.849 Y-28.863 Z-2.000 F300.000
G2 X-44.701 Y-27.503 Z-2.000 I3.839 J0.271 K0.000 F300.000
G2 X-43.800 Y-26.840 Z-2.000 I1.118 J-0.576 K0.000 F300.000
G2 X-42.712 Y-26.727 Z-2.000 I1.258 J-6.787 K0.000 F300.000
G1 X-41.567 Y-25.581 Z-2.000 F300.000
G3 X-43.237 Y-25.554 Z-2.000 I-1.994 J-72.204 K0.000 F300.000
G1 X-46.436 Y-28.753 Z-2.000 F300.000
G2 X-46.435 Y-27.056 Z-2.000 I13.233 J0.844 K0.000 F300.000
G1 X-45.020 Y-25.641 Z-2.000 F300.000
G3 X-46.057 Y-25.962 Z-2.000 I0.005 J-1.852 K0.000 F300.000
G3 X-46.311 Y-26.357 Z-2.000 I0.462 J-0.578 K0.000 F300.000
G3 X-46.446 Y-28.520 Z-2.000 I7.645 J-1.562 K0.000 F300.000
G3 X-46.309 Y-31.027 Z-2.000 I115.222 J5.060 K0.000 F300.000
G2 X-47.028 Y-31.650 Z-2.000 I-0.599 J-0.036 K0.000 F300.000
G3 X-48.282 Y-31.411 Z-2.000 I-2.429 J-9.325 K0.000 F300.000
G1 X-48.517 Y-32.679 Z-2.000 F300.000
G2 X-43.290 Y-34.511 Z-2.000 I-2.642 J-15.908 K0.000 F300.000
G1 X-42.104 Y-33.616 Z-2.000 F300.000
G2 X-41.382 Y-32.798 Z-2.000 I0.534 J0.256 K0.000 F300.000
G3 X-37.730 Y-33.900 Z-2.000 I14.397 J41.098 K0.000 F300.000
G3 X-36.265 Y-33.785 Z-2.000 I0.565 J2.186 K0.000 F300.000
G3 X-35.720 Y-32.750 Z-2.000 I-0.507 J0.928 K0.000 F300.000
G3 X-36.225 Y-30.311 Z-2.000 I-22.473 J-3.387 K0.000 F300.000
G2 X-35.736 Y-29.581 Z-2.000 I0.584 J0.138 K0.000 F300.000
G2 X-35.280 Y-29.516 Z-2.000 I1.102 J-6.136 K0.000 F300.000
G2 X-35.795 Y-29.254 Z-2.000 I-0.023 J0.592 K0.000 F300.000
G1 X-36.327 Y-28.464 Z-2.000 F300.000
G3 X-40.475 Y-29.440 Z-2.000 I6.040 J-34.976 K0.000 F300.000
G1 X-39.882 Y-30.347 Z-2.000 F300.000
G2 X-38.140 Y-30.022 Z-2.000 I2.588 J-9.026 K0.000 F300.000
G2 X-37.628 Y-30.475 Z-2.000 I-0.071 J-0.596 K0.000 F300.000
G2 X-37.441 Y-31.996 Z-2.000 I-3.338 J-1.182 K0.000 F300.000
G2 X-38.520 Y-32.528 Z-2.000 I-0.801 J0.264 K0.000 F300.000
G2 X-41.840 Y-31.431 Z-2.000 I9.221 J33.471 K0.000 F300.000
G1 X-42.212 Y-32.547 Z-2.000 F300.000
G2 X-43.010 Y-32.912 Z-2.000 I-0.569 J0.190 K0.000 F300.000
G2 X-44.383 Y-32.326 Z-2.000 I4.521 J12.489 K0.000 F300.000
G2 X-44.613 Y-31.902 Z-2.000 I0.367 J0.474 K0.000 F300.000
G2 X-44.856 Y-28.508 Z-2.000 I42.331 J4.740 K0.000 F300.000
G2 X-44.785 Y-27.745 Z-2.000 I2.980 J0.106 K0.000 F300.000
G2 X-43.800 Y-26.840 Z-2.000 I1.166 J-0.281 K0.000 F300.000
G2 X-40.989 Y-26.734 Z-2.000 I1.915 J-13.470 K0.000 F300.000
G2 X-36.303 Y-26.958 Z-2.000 I-0.541 J-60.436 K0.000 F300.000
G2 X-34.901 Y-27.446 Z-2.000 I0.068 J-2.064 K0.000 F300.000
G2 X-34.629 Y-28.466 Z-2.000 I-0.955 J-0.801 K0.000 F300.000
G2 X-34.750 Y-29.148 Z-2.000 I-2.022 J0.007 K0.000 F300.000
G1 X-32.771 Y-29.049 Z-2.000 F300.000
G3 X-32.570 Y-27.140 Z-2.000 I-4.099 J1.396 K0.000 F300.000
G3 X-33.585 Y-26.158 Z-2.000 I-1.414 J-0.446 K0.000 F300.000
G3 X-35.628 Y-25.845 Z-2.000 I-2.340 J-8.448 K0.000 F300.000
G3 X-44.372 Y-25.583 Z-2.000 I-7.426 J-101.813 K0.000 F300.000
G3 X-45.824 Y-25.822 Z-2.000 I-0.008 J-4.489 K0.000 F300.000
G3 X-46.311 Y-26.357 Z-2.000 I0.269 J-0.735 K0.000 F300.000
G3 X-46.435 Y-27.056 Z-2.000 I2.369 J-0.779 K0.000 F300.000
G0 Z5.000
G0 Z5.000
G0 X-46.435 Y-27.056
G0 X-33.522 Y-35.425
G0 X-33.522 Y-35.425 Z3.000
G1 X-33.522 Y-35.425 Z-1.000 F300.000
G1 X-33.658 Y-35.168 Z-1.000 F300.000
G3 X-36.147 Y-36.824 Z-1.000 I3.449 J-7.881 K0.000 F300.000
G1 X-35.661 Y-37.564 Z-1.000 F300.000
G1 X-33.522 Y-35.425 Z-1.000 F300.000
G1 X-32.935 Y-36.535 Z-1.000 F300.000
G3 X-35.419 Y-37.932 Z-1.000 I3.906 J-9.856 K0.000 F300.000
G1 X-36.147 Y-36.824 Z-1.000 F300.000
G2 X-33.658 Y-35.168 Z-1.000 I5.938 J-6.224 K0.000 F300.000
G1 X-33.522 Y-35.425 Z-1.000 F300.000
G1 X-32.935 Y-36.535 Z-1.000 F300.000
G1 X-32.935 Y-36.535 Z-2.000 F300.000
G1 X-33.522 Y-35.425 Z-2.000 F300.000
G1 X-33.658 Y-35.168 Z-2.000 F300.000
G3 X-36.147 Y-36.824 Z-2.000 I3.449 J-7.881 K0.000 F300.000
G1 X-35.419 Y-37.932 Z-2.000 F300.000
G2 X-32.935 Y-36.535 Z-2.000 I6.391 J-8.460 K0.000 F300.000
G1 X-33.522 Y-35.425 Z-2.000 F300.000
G1 X-35.661 Y-37.564 Z-2.000 F300.000
G1 X-36.147 Y-36.824 Z-2.000 F300.000
G2 X-33.658 Y-35.168 Z-2.000 I5.938 J-6.224 K0.000 F300.000
G1 X-33.522 Y-35.425 Z-2.000 F300.000
G0 Z5.000
G0 Z5.000
G0 X-33.522 Y-35.425
G0 X-37.844 Y-36.772
G0 X-37.844 Y-36.772 Z3.000
G1 X-37.844 Y-36.772 Z-1.000 F300.000
G1 X-37.873 Y-37.145 Z-1.000 F300.000
G1 X-38.198 Y-37.126 Z-1.000 F300.000
G1 X-37.844 Y-36.772 Z-1.000 F300.000
G1 X-37.784 Y-36.005 Z-1.000 F300.000
G1 X-38.734 Y-35.965 Z-1.000 F300.000
G1 X-39.803 Y-37.034 Z-1.000 F300.000
G3 X-41.444 Y-36.978 Z-1.000 I-1.587 J-22.648 K0.000 F300.000
G1 X-40.384 Y-35.918 Z-1.000 F300.000
G1 X-42.058 Y-35.895 Z-1.000 F300.000
G1 X-43.106 Y-36.943 Z-1.000 F300.000
G3 X-44.823 Y-36.963 Z-1.000 I-0.617 J-20.957 K0.000 F300.000
G1 X-43.764 Y-35.904 Z-1.000 F300.000
G3 X-46.582 Y-35.970 Z-1.000 I0.370 J-75.387 K0.000 F300.000
G3 X-47.629 Y-36.145 Z-1.000 I0.014 J-3.319 K0.000 F300.000
G3 X-48.209 Y-36.812 Z-1.000 I0.196 J-0.755 K0.000 F300.000
G3 X-47.892 Y-40.867 Z-1.000 I23.395 J-0.211 K0.000 F300.000
G2 X-48.425 Y-41.543 Z-1.000 I-0.577 J-0.093 K0.000 F300.000
G1 X-48.378 Y-42.575 Z-1.000 F300.000
G2 X-39.891 Y-42.563 Z-1.000 I4.695 J-326.757 K0.000 F300.000
G1 X-39.891 Y-42.563 Z-1.000 F300.000
G1 X-37.886 Y-42.622 Z-1.000 F300.000
G1 X-37.896 Y-41.473 Z-1.000 F300.000
G3 X-45.748 Y-41.534 Z-1.000 I0.024 J-511.025 K0.000 F300.000
G2 X-46.353 Y-40.985 Z-1.000 I-0.007 J0.600 K0.000 F300.000
G2 X-46.576 Y-38.330 Z-1.000 I128.459 J12.160 K0.000 F300.000
G2 X-45.736 Y-37.018 Z-1.000 I1.260 J0.118 K0.000 F300.000
G2 X-45.463 Y-36.976 Z-1.000 I0.336 J-1.280 K0.000 F300.000
G2 X-37.873 Y-37.145 Z-1.000 I2.187 J-72.250 K0.000 F300.000
G1 X-37.784 Y-36.005 Z-1.000 F300.000
G3 X-43.764 Y-35.904 Z-1.000 I-4.449 J-86.073 K0.000 F300.000
G0 Z5.000
G0 X-43.686 Y-38.673 Z5.000
G0 X-43.686 Y-38.673 Z3.000
G1 X-43.686 Y-38.673 Z-1.000 F300.000
G1 X-42.558 Y-38.642 Z-1.000 F300.000
G2 X-36.820 Y-39.236 Z-1.000 I0.410 J-24.034 K0.000 F300.000
G2 X-32.631 Y-41.279 Z-1.000 I-2.020 J-9.459 K0.000 F300.000
G1 X-33.523 Y-42.633 Z-1.000 F300.000
G3 X-37.062 Y-40.484 Z-1.000 I-7.282 J-8.001 K0.000 F300.000
G1 X-37.254 Y-40.436 Z-1.000 F300.000
G2 X-37.421 Y-40.381 Z-1.000 I-0.061 J0.097 K0.000 F300.000
G3 X-38.927 Y-39.977 Z-1.000 I-3.305 J-9.297 K0.000 F300.000
G3 X-44.397 Y-39.639 Z-1.000 I-4.275 J-24.812 K0.000 F300.000
G1 X-44.353 Y-38.692 Z-1.000 F300.000
G1 X-43.686 Y-38.673 Z-1.000 F300.000
G0 Z5.000
G0 X-44.102 Y-39.637 Z5.000
G0 X-44.102 Y-39.637 Z3.000
G1 X-44.102 Y-39.637 Z-1.000 F300.000
G1 X-43.123 Y-38.657 Z-1.000 F300.000
G1 X-44.353 Y-38.692 Z-1.000 F300.000
G1 X-44.397 Y-39.639 Z-1.000 F300.000
G1 X-44.102 Y-39.637 Z-1.000 F300.000
G2 X-42.409 Y-39.640 Z-1.000 I0.794 J-24.247 K0.000 F300.000
G1 X-41.440 Y-38.671 Z-1.000 F300.000
G2 X-39.835 Y-38.763 Z-1.000 I-0.049 J-14.818 K0.000 F300.000
G1 X-40.800 Y-39.728 Z-1.000 F300.000
G2 X-39.295 Y-39.920 Z-1.000 I-0.661 J-11.175 K0.000 F300.000
G1 X-38.316 Y-38.941 Z-1.000 F300.000
G2 X-36.898 Y-39.220 Z-1.000 I-1.690 J-12.341 K0.000 F300.000
G1 X-37.898 Y-40.220 Z-1.000 F300.000
G2 X-37.421 Y-40.381 Z-1.000 I-0.203 J-1.385 K0.000 F300.000
G3 X-37.254 Y-40.436 Z-1.000 I0.106 J0.041 K0.000 F300.000
G2 X-36.644 Y-40.664 Z-1.000 I-0.375 J-1.939 K0.000 F300.000
G1 X-35.582 Y-39.602 Z-1.000 F300.000
G2 X-34.396 Y-40.112 Z-1.000 I-2.579 J-7.625 K0.000 F300.000
G1 X-35.502 Y-41.218 Z-1.000 F300.000
G2 X-34.462 Y-41.875 Z-1.000 I-3.224 J-6.254 K0.000 F300.000
G1 X-33.322 Y-40.736 Z-1.000 F300.000
G2 X-32.631 Y-41.279 Z-1.000 I-2.345 J-3.696 K0.000 F300.000
G1 X-33.523 Y-42.633 Z-1.000 F300.000
G0 Z5.000
G0 X-38.582 Y-42.601 Z5.000
G0 X-38.582 Y-42.601 Z3.000
G1 X-38.582 Y-42.601 Z-1.000 F300.000
G1 X-37.886 Y-42.622 Z-1.000 F300.000
G1 X-37.892 Y-41.911 Z-1.000 F300.000
G1 X-38.582 Y-42.601 Z-1.000 F300.000
G3 X-40.237 Y-42.560 Z-1.000 I-1.840 J-40.248 K0.000 F300.000
G1 X-39.156 Y-41.478 Z-1.000 F300.000
G1 X-40.859 Y-41.485 Z-1.000 F300.000
G1 X-41.920 Y-42.545 Z-1.000 F300.000
G3 X-43.612 Y-42.541 Z-1.000 I-1.042 J-76.188 K0.000 F300.000
G1 X-42.569 Y-41.497 Z-1.000 F300.000
G1 X-44.286 Y-41.517 Z-1.000 F300.000
G1 X-45.319 Y-42.550 Z-1.000 F300.000
G3 X-47.029 Y-42.564 Z-1.000 I3.167 J-514.829 K0.000 F300.000
G1 X-45.959 Y-41.493 Z-1.000 F300.000
G2 X-46.353 Y-40.985 Z-1.000 I0.190 J0.554 K0.000 F300.000
G1 X-46.415 Y-40.252 Z-1.000 F300.000
G1 X-48.393 Y-42.231 Z-1.000 F300.000
G1 X-48.425 Y-41.543 Z-1.000 F300.000
G3 X-47.892 Y-40.867 Z-1.000 I-0.049 J0.587 K0.000 F300.000
G1 X-47.998 Y-40.138 Z-1.000 F300.000
G1 X-46.550 Y-38.690 Z-1.000 F300.000
G2 X-46.133 Y-37.231 Z-1.000 I1.566 J0.341 K0.000 F300.000
G2 X-45.463 Y-36.976 Z-1.000 I0.687 J-0.797 K0.000 F300.000
G1 X-44.823 Y-36.963 Z-1.000 F300.000
G1 X-43.764 Y-35.904 Z-1.000 F300.000
G3 X-45.497 Y-35.940 Z-1.000 I0.088 J-46.356 K0.000 F300.000
G1 X-48.148 Y-38.591 Z-1.000 F300.000
G2 X-48.207 Y-36.953 Z-1.000 I21.369 J1.580 K0.000 F300.000
G2 X-48.117 Y-36.506 Z-1.000 I0.755 J0.081 K0.000 F300.000
G2 X-47.308 Y-36.054 Z-1.000 I0.877 J-0.621 K0.000 F300.000
G1 X-48.207 Y-36.953 Z-1.000 F300.000
G1 X-48.207 Y-36.953 Z-2.000 F300.000
G1 X-47.308 Y-36.054 Z-2.000 F300.000
G3 X-48.117 Y-36.506 Z-2.000 I0.068 J-1.072 K0.000 F300.000
G3 X-48.207 Y-36.953 Z-2.000 I0.666 J-0.366 K0.000 F300.000
G3 X-48.148 Y-38.591 Z-2.000 I21.427 J-0.059 K0.000 F300.000
G1 X-45.497 Y-35.940 Z-2.000 F300.000
G2 X-43.764 Y-35.904 Z-2.000 I1.820 J-46.321 K0.000 F300.000
G1 X-44.823 Y-36.963 Z-2.000 F300.000
G1 X-45.463 Y-36.976 Z-2.000 F300.000
G3 X-46.133 Y-37.231 Z-2.000 I0.018 J-1.052 K0.000 F300.000
G3 X-46.550 Y-38.690 Z-2.000 I1.149 J-1.118 K0.000 F300.000
G1 X-47.998 Y-40.138 Z-2.000 F300.000
G1 X-47.892 Y-40.867 Z-2.000 F300.000
G2 X-48.425 Y-41.543 Z-2.000 I-0.583 J-0.089 K0.000 F300.000
G1 X-48.393 Y-42.231 Z-2.000 F300.000
G1 X-46.415 Y-40.252 Z-2.000 F300.000
G1 X-46.353 Y-40.985 Z-2.000 F300.000
G3 X-45.959 Y-41.493 Z-2.000 I0.584 J0.045 K0.000 F300.000
G1 X-47.029 Y-42.564 Z-2.000 F300.000
G2 X-45.319 Y-42.550 Z-2.000 I4.878 J-514.816 K0.000 F300.000
G1 X-44.286 Y-41.517 Z-2.000 F300.000
G1 X-42.569 Y-41.497 Z-2.000 F300.000
G1 X-43.612 Y-42.541 Z-2.000 F300.000
G2 X-41.920 Y-42.545 Z-2.000 I0.650 J-76.193 K0.000 F300.000
G1 X-40.859 Y-41.485 Z-2.000 F300.000
G1 X-39.156 Y-41.478 Z-2.000 F300.000
G1 X-40.237 Y-42.560 Z-2.000 F300.000
G2 X-38.582 Y-42.601 Z-2.000 I-0.185 J-40.290 K0.000 F300.000
G1 X-37.892 Y-41.911 Z-2.000 F300.000
G1 X-37.886 Y-42.622 Z-2.000 F300.000
G1 X-38.582 Y-42.601 Z-2.000 F300.000
G0 Z5.000
G0 X-39.891 Y-42.563 Z5.000
G0 X-39.891 Y-42.563 Z3.000
G1 X-39.891 Y-42.563 Z-2.000 F300.000
G1 X-37.886 Y-42.622 Z-2.000 F300.000
G1 X-37.896 Y-41.473 Z-2.000 F300.000
G3 X-45.748 Y-41.534 Z-2.000 I0.024 J-511.025 K0.000 F300.000
G2 X-46.353 Y-40.985 Z-2.000 I-0.007 J0.600 K0.000 F300.000
G2 X-46.576 Y-38.330 Z-2.000 I128.459 J12.160 K0.000 F300.000
G2 X-45.736 Y-37.018 Z-2.000 I1.260 J0.118 K0.000 F300.000
G2 X-45.463 Y-36.976 Z-2.000 I0.336 J-1.280 K0.000 F300.000
G2 X-37.873 Y-37.145 Z-2.000 I2.187 J-72.250 K0.000 F300.000
G1 X-37.784 Y-36.005 Z-2.000 F300.000
G3 X-43.764 Y-35.904 Z-2.000 I-4.449 J-86.073 K0.000 F300.000
G0 Z5.000
G0 X-43.686 Y-38.673 Z5.000
G0 X-43.686 Y-38.673 Z3.000
G1 X-43.686 Y-38.673 Z-2.000 F300.000
G1 X-42.558 Y-38.642 Z-2.000 F300.000
G2 X-36.820 Y-39.236 Z-2.000 I0.410 J-24.034 K0.000 F300.000
G2 X-32.631 Y-41.279 Z-2.000 I-2.020 J-9.459 K0.000 F300.000
G1 X-33.523 Y-42.633 Z-2.000 F300.000
G3 X-37.062 Y-40.484 Z-2.000 I-7.282 J-8.001 K0.000 F300.000
G1 X-37.254 Y-40.436 Z-2.000 F300.000
G2 X-37.421 Y-40.381 Z-2.000 I-0.061 J0.097 K0.000 F300.000
G3 X-38.927 Y-39.977 Z-2.000 I-3.305 J-9.297 K0.000 F300.000
G3 X-44.397 Y-39.639 Z-2.000 I-4.275 J-24.812 K0.000 F300.000
G1 X-44.353 Y-38.692 Z-2.000 F300.000
G1 X-43.686 Y-38.673 Z-2.000 F300.000
G0 Z5.000
G0 X-44.102 Y-39.637 Z5.000
G0 X-44.102 Y-39.637 Z3.000
G1 X-44.102 Y-39.637 Z-2.000 F300.000
G1 X-43.123 Y-38.657 Z-2.000 F300.000
G1 X-44.353 Y-38.692 Z-2.000 F300.000
G1 X-44.397 Y-39.639 Z-2.000 F300.000
G1 X-44.102 Y-39.637 Z-2.000 F300.000
G2 X-42.409 Y-39.640 Z-2.000 I0.794 J-24.247 K0.000 F300.000
G1 X-41.440 Y-38.671 Z-2.000 F300.000
G2 X-39.835 Y-38.763 Z-2.000 I-0.049 J-14.818 K0.000 F300.000
G1 X-40.800 Y-39.728 Z-2.000 F300.000
G2 X-39.295 Y-39.920 Z-2.000 I-0.661 J-11.175 K0.000 F300.000
G1 X-38.316 Y-38.941 Z-2.000 F300.000
G2 X-36.898 Y-39.220 Z-2.000 I-1.690 J-12.341 K0.000 F300.000
G1 X-37.898 Y-40.220 Z-2.000 F300.000
G2 X-37.421 Y-40.381 Z-2.000 I-0.203 J-1.385 K0.000 F300.000
G3 X-37.254 Y-40.436 Z-2.000 I0.106 J0.041 K0.000 F300.000
G2 X-36.644 Y-40.664 Z-2.000 I-0.375 J-1.939 K0.000 F300.000
G1 X-35.582 Y-39.602 Z-2.000 F300.000
G2 X-34.396 Y-40.112 Z-2.000 I-2.579 J-7.625 K0.000 F300.000
G1 X-35.502 Y-41.218 Z-2.000 F300.000
G2 X-34.462 Y-41.875 Z-2.000 I-3.224 J-6.254 K0.000 F300.000
G1 X-33.322 Y-40.736 Z-2.000 F300.000
G2 X-32.631 Y-41.279 Z-2.000 I-2.345 J-3.696 K0.000 F300.000
G1 X-33.523 Y-42.633 Z-2.000 F300.000
G0 Z5.000
G0 X-39.891 Y-42.563 Z5.000
G0 X-39.891 Y-42.563 Z3.000
G1 X-39.891 Y-42.563 Z-2.000 F300.000
G3 X-48.378 Y-42.575 Z-2.000 I-3.791 J-326.769 K0.000 F300.000
G1 X-48.425 Y-41.543 Z-2.000 F300.000
G3 X-47.892 Y-40.867 Z-2.000 I-0.044 J0.583 K0.000 F300.000
G2 X-48.209 Y-36.812 Z-2.000 I23.078 J3.844 K0.000 F300.000
G2 X-47.629 Y-36.145 Z-2.000 I0.775 J-0.088 K0.000 F300.000
G2 X-46.582 Y-35.970 Z-2.000 I1.062 J-3.144 K0.000 F300.000
G2 X-43.764 Y-35.904 Z-2.000 I3.187 J-75.320 K0.000 F300.000
G1 X-44.823 Y-36.963 Z-2.000 F300.000
G2 X-43.106 Y-36.943 Z-2.000 I1.100 J-20.938 K0.000 F300.000
G1 X-42.058 Y-35.895 Z-2.000 F300.000
G1 X-40.384 Y-35.918 Z-2.000 F300.000
G1 X-41.444 Y-36.978 Z-2.000 F300.000
G2 X-39.803 Y-37.034 Z-2.000 I0.054 J-22.703 K0.000 F300.000
G1 X-38.734 Y-35.965 Z-2.000 F300.000
G1 X-37.784 Y-36.005 Z-2.000 F300.000
G1 X-37.844 Y-36.772 Z-2.000 F300.000
G1 X-38.198 Y-37.126 Z-2.000 F300.000
G1 X-37.873 Y-37.145 Z-2.000 F300.000
G1 X-37.844 Y-36.772 Z-2.000 F300.000
G0 Z5.000
G0 Z5.000
(Finish operation: Pocket_Shape001)
(Begin operation: Pocket_Shape002)
(Path: Pocket_Shape002)
(Pocket_Shape002)
G0 Z5.000
G0 X-39.568 Y-5.496
G0 Z3.000
G1 X-39.568 Y-5.496 Z-1.000 F300.000
G1 X-40.083 Y-6.012 Z-1.000 F300.000
G1 X-40.090 Y-5.531 Z-1.000 F300.000
G1 X-39.568 Y-5.496 Z-1.000 F300.000
G1 X-38.203 Y-5.407 Z-1.000 F300.000
G2 X-38.192 Y-5.818 Z-1.000 I-115.637 J-3.341 K0.000 F300.000
G1 X-40.060 Y-7.686 Z-1.000 F300.000
G3 X-40.014 Y-9.337 Z-1.000 I51.813 J0.609 K0.000 F300.000
G1 X-38.152 Y-7.475 Z-1.000 F300.000
G2 X-38.115 Y-9.135 Z-1.000 I-923.212 J-21.457 K0.000 F300.000
G1 X-39.965 Y-10.985 Z-1.000 F300.000
G1 X-39.916 Y-12.618 Z-1.000 F300.000
G1 X-39.919 Y-12.636 Z-1.000 F300.000
G1 X-38.079 Y-10.796 Z-1.000 F300.000
G1 X-38.044 Y-12.458 Z-1.000 F300.000
G1 X-40.555 Y-14.969 Z-1.000 F300.000
G2 X-39.827 Y-15.374 Z-1.000 I0.120 J-0.642 K0.000 F300.000
G2 X-39.787 Y-15.898 Z-1.000 I-1.660 J-0.391 K0.000 F300.000
G1 X-37.078 Y-13.189 Z-1.000 F300.000
G2 X-35.371 Y-13.179 Z-1.000 I1.124 J-46.293 K0.000 F300.000
G1 X-37.162 Y-14.970 Z-1.000 F300.000
G3 X-37.956 Y-15.764 Z-1.000 I-0.156 J-0.639 K0.000 F300.000
G1 X-39.750 Y-17.558 Z-1.000 F300.000
G2 X-39.722 Y-19.227 Z-1.000 I-88.653 J-2.319 K0.000 F300.000
G1 X-37.920 Y-17.425 Z-1.000 F300.000
G1 X-37.884 Y-19.086 Z-1.000 F300.000
G1 X-39.701 Y-20.903 Z-1.000 F300.000
G1 X-39.681 Y-22.457 Z-1.000 F300.000
G1 X-39.555 Y-22.454 Z-1.000 F300.000
G1 X-37.848 Y-20.747 Z-1.000 F300.000
G1 X-37.812 Y-22.408 Z-1.000 F300.000
G0 Z5.000
G0 X-46.358 Y-20.772 Z5.000
G0 X-46.358 Y-20.772 Z3.000
G1 X-46.358 Y-20.772 Z-1.000 F300.000
G1 X-46.347 Y-21.312 Z-1.000 F300.000
G1 X-46.909 Y-21.323 Z-1.000 F300.000
G1 X-46.358 Y-20.772 Z-1.000 F300.000
G3 X-46.395 Y-19.112 Z-1.000 I-134.567 J-2.204 K0.000 F300.000
G1 X-48.165 Y-20.882 Z-1.000 F300.000
G1 X-48.191 Y-19.211 Z-1.000 F300.000
G1 X-46.439 Y-17.459 Z-1.000 F300.000
G3 X-46.489 Y-15.812 Z-1.000 I-228.019 J-6.054 K0.000 F300.000
G1 X-48.230 Y-17.553 Z-1.000 F300.000
G0 Z5.000
G0 X-40.519 Y-13.236 Z5.000
G0 X-40.519 Y-13.236 Z3.000
G1 X-40.519 Y-13.236 Z-1.000 F300.000
G1 X-42.252 Y-14.969 Z-1.000 F300.000
G1 X-43.949 Y-14.969 Z-1.000 F300.000
G1 X-42.233 Y-13.253 Z-1.000 F300.000
G2 X-43.942 Y-13.265 Z-1.000 I-5.750 J707.312 K0.000 F300.000
G1 X-45.646 Y-14.969 Z-1.000 F300.000
G3 X-46.388 Y-15.225 Z-1.000 I-0.172 J-0.705 K0.000 F300.000
G3 X-46.489 Y-15.812 Z-1.000 I0.834 J-0.446 K0.000 F300.000
G1 X-48.230 Y-17.553 Z-1.000 F300.000
G3 X-48.279 Y-15.904 Z-1.000 I-121.178 J-2.720 K0.000 F300.000
G1 X-45.649 Y-13.275 Z-1.000 F300.000
G2 X-46.178 Y-13.249 Z-1.000 I-0.182 J1.702 K0.000 F300.000
G2 X-46.601 Y-12.530 Z-1.000 I0.221 J0.614 K0.000 F300.000
G1 X-48.334 Y-14.263 Z-1.000 F300.000
G3 X-48.393 Y-12.624 Z-1.000 I-470.135 J-15.906 K0.000 F300.000
G1 X-46.638 Y-10.870 Z-1.000 F300.000
G3 X-46.677 Y-9.211 Z-1.000 I-702.124 J-15.421 K0.000 F300.000
G1 X-48.447 Y-10.982 Z-1.000 F300.000
G1 X-48.500 Y-9.338 Z-1.000 F300.000
G1 X-46.719 Y-7.556 Z-1.000 F300.000
G3 X-46.737 Y-6.937 Z-1.000 I-145.416 J-3.914 K0.000 F300.000
G1 X-47.856 Y-6.997 Z-1.000 F300.000
G1 X-48.559 Y-7.035 Z-1.000 F300.000
G2 X-48.198 Y-18.728 Z-1.000 I-1292.029 J-45.666 K0.000 F300.000
G1 X-48.158 Y-21.348 Z-1.000 F300.000
G1 X-46.347 Y-21.312 Z-1.000 F300.000
G3 X-46.496 Y-15.587 Z-1.000 I-459.448 J-9.129 K0.000 F300.000
G2 X-45.896 Y-14.969 Z-1.000 I0.600 J0.018 K0.000 F300.000
G1 X-40.394 Y-14.969 Z-1.000 F300.000
G2 X-39.795 Y-15.556 Z-1.000 I-0.000 J-0.600 K0.000 F300.000
G2 X-39.681 Y-22.457 Z-1.000 I-366.089 J-9.472 K0.000 F300.000
G1 X-37.812 Y-22.408 Z-1.000 F300.000
G1 X-37.960 Y-15.582 Z-1.000 F300.000
G2 X-37.357 Y-14.969 Z-1.000 I0.600 J0.013 K0.000 F300.000
G2 X-32.634 Y-15.109 Z-1.000 I-1.106 J-117.083 K0.000 F300.000
G1 X-32.547 Y-13.192 Z-1.000 F300.000
G3 X-37.430 Y-13.195 Z-1.000 I-2.374 J-113.570 K0.000 F300.000
G2 X-38.041 Y-12.608 Z-1.000 I-0.011 J0.600 K0.000 F300.000
G3 X-38.203 Y-5.407 Z-1.000 I-886.633 J-16.368 K0.000 F300.000
G1 X-40.090 Y-5.531 Z-1.000 F300.000
G3 X-39.916 Y-12.618 Z-1.000 I222.354 J1.901 K0.000 F300.000
G2 X-40.509 Y-13.236 Z-1.000 I-0.600 J-0.018 K0.000 F300.000
G2 X-45.994 Y-13.276 Z-1.000 I-7.580 J649.522 K0.000 F300.000
G2 X-46.598 Y-12.690 Z-1.000 I-0.003 J0.600 K0.000 F300.000
G3 X-46.737 Y-6.937 Z-1.000 I-627.462 J-12.299 K0.000 F300.000
G1 X-47.856 Y-6.997 Z-1.000 F300.000
G1 X-48.542 Y-7.683 Z-1.000 F300.000
G1 X-48.559 Y-7.035 Z-1.000 F300.000
G1 X-47.856 Y-6.997 Z-1.000 F300.000
G0 Z5.000
G0 X-35.371 Y-13.179 Z5.000
G0 X-35.371 Y-13.179 Z3.000
G1 X-35.371 Y-13.179 Z-1.000 F300.000
G1 X-37.162 Y-14.970 Z-1.000 F300.000
G2 X-35.502 Y-15.007 Z-1.000 I-0.598 J-64.189 K0.000 F300.000
G1 X-33.682 Y-13.187 Z-1.000 F300.000
G1 X-32.547 Y-13.192 Z-1.000 F300.000
G1 X-32.574 Y-13.776 Z-1.000 F300.000
G1 X-33.862 Y-15.064 Z-1.000 F300.000
G1 X-32.634 Y-15.109 Z-1.000 F300.000
G1 X-32.574 Y-13.776 Z-1.000 F300.000
G1 X-32.574 Y-13.776 Z-2.000 F300.000
G1 X-32.634 Y-15.109 Z-2.000 F300.000
G1 X-33.862 Y-15.064 Z-2.000 F300.000
G1 X-32.574 Y-13.776 Z-2.000 F300.000
G1 X-32.547 Y-13.192 Z-2.000 F300.000
G1 X-33.682 Y-13.187 Z-2.000 F300.000
G1 X-35.502 Y-15.007 Z-2.000 F300.000
G3 X-37.162 Y-14.970 Z-2.000 I-2.259 J-64.152 K0.000 F300.000
G1 X-35.371 Y-13.179 Z-2.000 F300.000
G0 Z5.000
G0 X-40.519 Y-13.236 Z5.000
G0 X-40.519 Y-13.236 Z3.000
G1 X-40.519 Y-13.236 Z-2.000 F300.000
G1 X-42.252 Y-14.969 Z-2.000 F300.000
G1 X-43.949 Y-14.969 Z-2.000 F300.000
G1 X-42.233 Y-13.253 Z-2.000 F300.000
G2 X-43.942 Y-13.265 Z-2.000 I-5.750 J707.312 K0.000 F300.000
G1 X-45.646 Y-14.969 Z-2.000 F300.000
G3 X-46.388 Y-15.225 Z-2.000 I-0.172 J-0.705 K0.000 F300.000
G3 X-46.489 Y-15.812 Z-2.000 I0.834 J-0.446 K0.000 F300.000
G1 X-48.230 Y-17.553 Z-2.000 F300.000
G3 X-48.279 Y-15.904 Z-2.000 I-121.178 J-2.720 K0.000 F300.000
G1 X-45.649 Y-13.275 Z-2.000 F300.000
G2 X-46.178 Y-13.249 Z-2.000 I-0.182 J1.702 K0.000 F300.000
G2 X-46.601 Y-12.530 Z-2.000 I0.221 J0.614 K0.000 F300.000
G1 X-48.334 Y-14.263 Z-2.000 F300.000
G3 X-48.393 Y-12.624 Z-2.000 I-470.135 J-15.906 K0.000 F300.000
G1 X-46.638 Y-10.870 Z-2.000 F300.000
G3 X-46.677 Y-9.211 Z-2.000 I-702.124 J-15.421 K0.000 F300.000
G1 X-48.447 Y-10.982 Z-2.000 F300.000
G1 X-48.500 Y-9.338 Z-2.000 F300.000
G1 X-46.719 Y-7.556 Z-2.000 F300.000
G3 X-46.737 Y-6.937 Z-2.000 I-145.416 J-3.914 K0.000 F300.000
G1 X-47.856 Y-6.997 Z-2.000 F300.000
G1 X-48.559 Y-7.035 Z-2.000 F300.000
G2 X-48.198 Y-18.728 Z-2.000 I-1292.029 J-45.666 K0.000 F300.000
G1 X-48.158 Y-21.348 Z-2.000 F300.000
G1 X-46.347 Y-21.312 Z-2.000 F300.000
G3 X-46.496 Y-15.587 Z-2.000 I-459.448 J-9.129 K0.000 F300.000
G2 X-45.896 Y-14.969 Z-2.000 I0.600 J0.018 K0.000 F300.000
G1 X-40.394 Y-14.969 Z-2.000 F300.000
G2 X-39.795 Y-15.556 Z-2.000 I-0.000 J-0.600 K0.000 F300.000
G2 X-39.681 Y-22.457 Z-2.000 I-366.089 J-9.472 K0.000 F300.000
G1 X-37.812 Y-22.408 Z-2.000 F300.000
G1 X-37.960 Y-15.582 Z-2.000 F300.000
G2 X-37.357 Y-14.969 Z-2.000 I0.600 J0.013 K0.000 F300.000
G2 X-32.634 Y-15.109 Z-2.000 I-1.106 J-117.083 K0.000 F300.000
G1 X-32.547 Y-13.192 Z-2.000 F300.000
G3 X-37.430 Y-13.195 Z-2.000 I-2.374 J-113.570 K0.000 F300.000
G2 X-38.041 Y-12.608 Z-2.000 I-0.011 J0.600 K0.000 F300.000
G3 X-38.203 Y-5.407 Z-2.000 I-886.633 J-16.368 K0.000 F300.000
G1 X-40.090 Y-5.531 Z-2.000 F300.000
G3 X-39.916 Y-12.618 Z-2.000 I222.354 J1.901 K0.000 F300.000
G2 X-40.509 Y-13.236 Z-2.000 I-0.600 J-0.018 K0.000 F300.000
G2 X-45.994 Y-13.276 Z-2.000 I-7.580 J649.522 K0.000 F300.000
G2 X-46.598 Y-12.690 Z-2.000 I-0.003 J0.600 K0.000 F300.000
G3 X-46.737 Y-6.937 Z-2.000 I-627.462 J-12.299 K0.000 F300.000
G1 X-47.856 Y-6.997 Z-2.000 F300.000
G1 X-48.542 Y-7.683 Z-2.000 F300.000
G1 X-48.559 Y-7.035 Z-2.000 F300.000
G1 X-47.856 Y-6.997 Z-2.000 F300.000
G0 Z5.000
G0 X-39.568 Y-5.496 Z5.000
G0 X-39.568 Y-5.496 Z3.000
G1 X-39.568 Y-5.496 Z-2.000 F300.000
G1 X-40.083 Y-6.012 Z-2.000 F300.000
G1 X-40.090 Y-5.531 Z-2.000 F300.000
G1 X-39.568 Y-5.496 Z-2.000 F300.000
G1 X-38.203 Y-5.407 Z-2.000 F300.000
G2 X-38.192 Y-5.818 Z-2.000 I-115.637 J-3.341 K0.000 F300.000
G1 X-40.060 Y-7.686 Z-2.000 F300.000
G3 X-40.014 Y-9.337 Z-2.000 I51.813 J0.609 K0.000 F300.000
G1 X-38.152 Y-7.475 Z-2.000 F300.000
G2 X-38.115 Y-9.135 Z-2.000 I-923.212 J-21.457 K0.000 F300.000
G1 X-39.965 Y-10.985 Z-2.000 F300.000
G1 X-39.916 Y-12.618 Z-2.000 F300.000
G1 X-39.919 Y-12.636 Z-2.000 F300.000
G1 X-38.079 Y-10.796 Z-2.000 F300.000
G1 X-38.044 Y-12.458 Z-2.000 F300.000
G1 X-40.555 Y-14.969 Z-2.000 F300.000
G2 X-39.827 Y-15.374 Z-2.000 I0.120 J-0.642 K0.000 F300.000
G2 X-39.787 Y-15.898 Z-2.000 I-1.660 J-0.391 K0.000 F300.000
G1 X-37.078 Y-13.189 Z-2.000 F300.000
G2 X-35.371 Y-13.179 Z-2.000 I1.124 J-46.293 K0.000 F300.000
G1 X-37.162 Y-14.970 Z-2.000 F300.000
G3 X-37.956 Y-15.764 Z-2.000 I-0.156 J-0.639 K0.000 F300.000
G1 X-39.750 Y-17.558 Z-2.000 F300.000
G2 X-39.722 Y-19.227 Z-2.000 I-88.653 J-2.319 K0.000 F300.000
G1 X-37.920 Y-17.425 Z-2.000 F300.000
G1 X-37.884 Y-19.086 Z-2.000 F300.000
G1 X-39.701 Y-20.903 Z-2.000 F300.000
G1 X-39.681 Y-22.457 Z-2.000 F300.000
G1 X-39.555 Y-22.454 Z-2.000 F300.000
G1 X-37.848 Y-20.747 Z-2.000 F300.000
G1 X-37.812 Y-22.408 Z-2.000 F300.000
G0 Z5.000
G0 X-46.358 Y-20.772 Z5.000
G0 X-46.358 Y-20.772 Z3.000
G1 X-46.358 Y-20.772 Z-2.000 F300.000
G1 X-46.347 Y-21.312 Z-2.000 F300.000
G1 X-46.909 Y-21.323 Z-2.000 F300.000
G1 X-46.358 Y-20.772 Z-2.000 F300.000
G3 X-46.395 Y-19.112 Z-2.000 I-134.567 J-2.204 K0.000 F300.000
G1 X-48.165 Y-20.882 Z-2.000 F300.000
G1 X-48.191 Y-19.211 Z-2.000 F300.000
G1 X-46.439 Y-17.459 Z-2.000 F300.000
G3 X-46.489 Y-15.812 Z-2.000 I-228.019 J-6.054 K0.000 F300.000
G1 X-48.230 Y-17.553 Z-2.000 F300.000
G0 Z5.000
G0 Z5.000
(Finish operation: Pocket_Shape002)
(Begin operation: Pocket_Shape003)
(Path: Pocket_Shape003)
(Pocket_Shape003)
G0 Z5.000
G0 X-41.615 Y-19.128
G0 Z3.000
G1 X-41.615 Y-19.128 Z-1.000 F300.000
G2 X-41.569 Y-19.327 Z-1.000 I-1.366 J-0.422 K0.000 F300.000
G3 X-44.164 Y-20.129 Z-1.000 I3.209 J-15.000 K0.000 F300.000
G1 X-44.212 Y-20.138 Z-1.000 F300.000
G1 X-44.216 Y-20.125 Z-1.000 F300.000
G1 X-44.584 Y-18.711 Z-1.000 F300.000
G1 X-44.585 Y-18.705 Z-1.000 F300.000
G2 X-41.952 Y-17.711 Z-1.000 I3.833 J-6.173 K0.000 F300.000
G2 X-41.569 Y-19.327 Z-1.000 I-156.603 J-37.963 K0.000 F300.000
G3 X-41.884 Y-19.398 Z-1.000 I1.408 J-7.041 K0.000 F300.000
G1 X-41.615 Y-19.128 Z-1.000 F300.000
G1 X-41.940 Y-17.757 Z-1.000 F300.000
G1 X-44.235 Y-20.052 Z-1.000 F300.000
G1 X-44.584 Y-18.711 Z-1.000 F300.000
G1 X-44.585 Y-18.705 Z-1.000 F300.000
G1 X-44.585 Y-18.705 Z-2.000 F300.000
G1 X-44.584 Y-18.711 Z-2.000 F300.000
G1 X-44.235 Y-20.052 Z-2.000 F300.000
G1 X-41.940 Y-17.757 Z-2.000 F300.000
G1 X-41.615 Y-19.128 Z-2.000 F300.000
G1 X-41.884 Y-19.398 Z-2.000 F300.000
G2 X-41.569 Y-19.327 Z-2.000 I1.723 J-6.971 K0.000 F300.000
G3 X-41.952 Y-17.711 Z-2.000 I-156.986 J-36.347 K0.000 F300.000
G3 X-44.585 Y-18.705 Z-2.000 I1.200 J-7.167 K0.000 F300.000
G1 X-44.584 Y-18.711 Z-2.000 F300.000
G1 X-44.216 Y-20.125 Z-2.000 F300.000
G1 X-44.212 Y-20.138 Z-2.000 F300.000
G1 X-44.164 Y-20.129 Z-2.000 F300.000
G2 X-41.569 Y-19.327 Z-2.000 I5.805 J-14.199 K0.000 F300.000
G3 X-41.615 Y-19.128 Z-2.000 I-1.412 J-0.223 K0.000 F300.000
G0 Z5.000
G0 Z5.000
(Finish operation: Pocket_Shape003)
(Begin operation: Pocket_Shape004)
(Path: Pocket_Shape004)
(Pocket_Shape004)
G0 Z5.000
G0 X-42.128 Y-10.415
G0 Z3.000
G1 X-42.128 Y-10.415 Z-1.000 F300.000
G1 X-41.628 Y-8.812 Z-1.000 F300.000
G1 X-42.073 Y-8.664 Z-1.000 F300.000
G1 X-43.380 Y-9.971 Z-1.000 F300.000
G3 X-44.747 Y-9.640 Z-1.000 I-2.893 J-8.974 K0.000 F300.000
G1 X-43.395 Y-8.288 Z-1.000 F300.000
G3 X-44.467 Y-8.078 Z-1.000 I-2.257 J-8.662 K0.000 F300.000
G1 X-44.826 Y-9.626 Z-1.000 F300.000
G2 X-42.128 Y-10.415 Z-1.000 I-2.226 J-12.617 K0.000 F300.000
G1 X-41.628 Y-8.812 Z-1.000 F300.000
G3 X-44.467 Y-8.078 Z-1.000 I-4.975 J-13.383 K0.000 F300.000
G1 X-44.826 Y-9.626 Z-1.000 F300.000
G1 X-44.747 Y-9.640 Z-1.000 F300.000
G1 X-44.747 Y-9.640 Z-2.000 F300.000
G1 X-44.826 Y-9.626 Z-2.000 F300.000
G1 X-44.467 Y-8.078 Z-2.000 F300.000
G2 X-41.628 Y-8.812 Z-2.000 I-2.136 J-14.117 K0.000 F300.000
G1 X-42.128 Y-10.415 Z-2.000 F300.000
G3 X-44.826 Y-9.626 Z-2.000 I-4.923 J-11.828 K0.000 F300.000
G1 X-44.467 Y-8.078 Z-2.000 F300.000
G2 X-43.395 Y-8.288 Z-2.000 I-1.185 J-8.873 K0.000 F300.000
G1 X-44.747 Y-9.640 Z-2.000 F300.000
G2 X-43.380 Y-9.971 Z-2.000 I-1.527 J-9.304 K0.000 F300.000
G1 X-42.073 Y-8.664 Z-2.000 F300.000
G1 X-41.628 Y-8.812 Z-2.000 F300.000
G1 X-42.128 Y-10.415 Z-2.000 F300.000
G0 Z5.000
G0 Z5.000
(Finish operation: Pocket_Shape004)
(Begin operation: Pocket_Shape005)
(Path: Pocket_Shape005)
(Pocket_Shape005)
G0 Z5.000
G0 X-34.397 Y10.913
G0 Z3.000
G1 X-34.397 Y10.913 Z-1.000 F300.000
G3 X-34.774 Y11.073 Z-1.000 I-0.451 J-0.539 K0.000 F300.000
G3 X-36.676 Y11.145 Z-1.000 I-1.275 J-8.543 K0.000 F300.000
G3 X-37.713 Y10.761 Z-1.000 I-0.057 J-1.439 K0.000 F300.000
G3 X-38.116 Y9.420 Z-1.000 I1.412 J-1.156 K0.000 F300.000
G3 X-37.838 Y2.295 Z-1.000 I89.937 J-0.056 K0.000 F300.000
G3 X-37.228 Y1.732 Z-1.000 I0.599 J0.037 K0.000 F300.000
G2 X-34.566 Y1.773 Z-1.000 I3.886 J-166.953 K0.000 F300.000
G3 X-33.969 Y2.374 Z-1.000 I-0.003 J0.600 K0.000 F300.000
G3 X-34.152 Y10.472 Z-1.000 I-123.561 J1.258 K0.000 F300.000
G3 X-34.397 Y10.913 Z-1.000 I-0.696 J-0.097 K0.000 F300.000
G0 Z5.000
G0 X-38.097 Y13.021 Z5.000
G0 X-38.097 Y13.021 Z3.000
G1 X-38.097 Y13.021 Z-1.000 F300.000
G1 X-39.297 Y11.821 Z-1.000 F300.000
G2 X-38.097 Y13.021 Z-1.000 I1.519 J-0.319 K0.000 F300.000
G2 X-36.277 Y13.144 Z-1.000 I1.252 J-4.994 K0.000 F300.000
G1 X-39.378 Y10.043 Z-1.000 F300.000
G3 X-39.357 Y8.367 Z-1.000 I37.075 J-0.367 K0.000 F300.000
G1 X-38.104 Y9.620 Z-1.000 F300.000
G2 X-37.940 Y10.434 Z-1.000 I1.878 J0.046 K0.000 F300.000
G2 X-36.579 Y11.145 Z-1.000 I1.205 J-0.648 K0.000 F300.000
G1 X-34.646 Y13.078 Z-1.000 F300.000
G2 X-33.083 Y12.944 Z-1.000 I-1.412 J-25.718 K0.000 F300.000
G1 X-34.930 Y11.097 Z-1.000 F300.000
G2 X-34.358 Y10.896 Z-1.000 I-0.070 J-1.112 K0.000 F300.000
G2 X-34.139 Y10.191 Z-1.000 I-0.552 J-0.558 K0.000 F300.000
G1 X-32.636 Y11.693 Z-1.000 F300.000
G1 X-32.612 Y10.020 Z-1.000 F300.000
G1 X-34.062 Y8.570 Z-1.000 F300.000
G2 X-34.010 Y6.926 Z-1.000 I-49.789 J-2.411 K0.000 F300.000
G1 X-32.588 Y8.347 Z-1.000 F300.000
G1 X-32.564 Y6.674 Z-1.000 F300.000
G1 X-33.976 Y5.263 Z-1.000 F300.000
G1 X-33.972 Y3.570 Z-1.000 F300.000
G1 X-32.548 Y4.993 Z-1.000 F300.000
G1 X-32.534 Y3.311 Z-1.000 F300.000
G1 X-35.922 Y-0.077 Z-1.000 F300.000
G1 X-34.197 Y-0.050 Z-1.000 F300.000
G1 X-32.519 Y1.628 Z-1.000 F300.000
G1 X-32.505 Y-0.054 Z-1.000 F300.000
G0 Z5.000
G0 X-35.783 Y1.758 Z5.000
G0 X-35.783 Y1.758 Z3.000
G1 X-35.783 Y1.758 Z-1.000 F300.000
G1 X-37.708 Y-0.166 Z-1.000 F300.000
G3 X-39.388 Y-0.291 Z-1.000 I1.075 J-25.833 K0.000 F300.000
G1 X-39.404 Y-0.166 Z-1.000 F300.000
G1 X-37.459 Y1.780 Z-1.000 F300.000
G2 X-37.838 Y2.295 Z-1.000 I0.200 J0.545 K0.000 F300.000
G1 X-37.884 Y3.051 Z-1.000 F300.000
G1 X-39.597 Y1.338 Z-1.000 F300.000
G1 X-39.646 Y1.717 Z-1.000 F300.000
G3 X-39.128 Y2.341 Z-1.000 I-0.082 J0.595 K0.000 F300.000
G1 X-39.182 Y3.450 Z-1.000 F300.000
G1 X-37.977 Y4.656 Z-1.000 F300.000
G2 X-38.056 Y6.273 Z-1.000 I88.579 J5.169 K0.000 F300.000
G1 X-39.261 Y5.069 Z-1.000 F300.000
G2 X-39.327 Y6.700 Z-1.000 I52.050 J2.922 K0.000 F300.000
G1 X-38.115 Y7.911 Z-1.000 F300.000
G2 X-38.104 Y9.620 Z-1.000 I14.028 J0.757 K0.000 F300.000
G1 X-39.357 Y8.367 Z-1.000 F300.000
G3 X-39.128 Y2.341 Z-1.000 I116.907 J1.415 K0.000 F300.000
G2 X-39.646 Y1.717 Z-1.000 I-0.600 J-0.029 K0.000 F300.000
G1 X-39.646 Y1.717 Z-1.000 F300.000
G1 X-39.388 Y-0.291 Z-1.000 F300.000
G2 X-32.505 Y-0.054 Z-1.000 I5.541 J-60.869 K0.000 F300.000
G3 X-32.654 Y12.898 Z-1.000 I-1141.338 J-6.656 K0.000 F300.000
G3 X-37.472 Y13.137 Z-1.000 I-4.013 J-32.115 K0.000 F300.000
G3 X-38.743 Y12.718 Z-1.000 I0.037 J-2.249 K0.000 F300.000
G3 X-39.370 Y11.295 Z-1.000 I1.146 J-1.355 K0.000 F300.000
G3 X-39.357 Y8.367 Z-1.000 I64.765 J-1.168 K0.000 F300.000
G1 X-39.357 Y8.367 Z-2.000 F300.000
G2 X-39.370 Y11.295 Z-2.000 I64.752 J1.760 K0.000 F300.000
G2 X-38.743 Y12.718 Z-2.000 I1.773 J0.068 K0.000 F300.000
G2 X-37.472 Y13.137 Z-2.000 I1.308 J-1.829 K0.000 F300.000
G2 X-32.654 Y12.898 Z-2.000 I0.805 J-32.355 K0.000 F300.000
G2 X-32.505 Y-0.054 Z-2.000 I-1141.189 J-19.608 K0.000 F300.000
G3 X-39.388 Y-0.291 Z-2.000 I-1.343 J-61.106 K0.000 F300.000
G1 X-39.646 Y1.717 Z-2.000 F300.000
G1 X-39.646 Y1.717 Z-2.000 F300.000
G3 X-39.128 Y2.341 Z-2.000 I-0.083 J0.595 K0.000 F300.000
G2 X-39.357 Y8.367 Z-2.000 I116.679 J7.441 K0.000 F300.000
G1 X-38.104 Y9.620 Z-2.000 F300.000
G3 X-38.115 Y7.911 Z-2.000 I14.016 J-0.952 K0.000 F300.000
G1 X-39.327 Y6.700 Z-2.000 F300.000
G3 X-39.261 Y5.069 Z-2.000 I52.116 J1.291 K0.000 F300.000
G1 X-38.056 Y6.273 Z-2.000 F300.000
G3 X-37.977 Y4.656 Z-2.000 I88.659 J3.551 K0.000 F300.000
G1 X-39.182 Y3.450 Z-2.000 F300.000
G1 X-39.128 Y2.341 Z-2.000 F300.000
G2 X-39.646 Y1.717 Z-2.000 I-0.600 J-0.029 K0.000 F300.000
G1 X-39.597 Y1.338 Z-2.000 F300.000
G1 X-37.884 Y3.051 Z-2.000 F300.000
G1 X-37.838 Y2.295 Z-2.000 F300.000
G3 X-37.459 Y1.780 Z-2.000 I0.580 J0.029 K0.000 F300.000
G1 X-39.404 Y-0.166 Z-2.000 F300.000
G1 X-39.388 Y-0.291 Z-2.000 F300.000
G2 X-37.708 Y-0.166 Z-2.000 I2.755 J-25.708 K0.000 F300.000
G1 X-35.783 Y1.758 Z-2.000 F300.000
G0 Z5.000
G0 X-35.783 Y1.759 Z5.000
G0 X-35.783 Y1.759 Z3.000
G1 X-35.783 Y1.759 Z-2.000 F300.000
G2 X-34.566 Y1.773 Z-2.000 I2.441 J-166.981 K0.000 F300.000
G3 X-33.969 Y2.374 Z-2.000 I-0.003 J0.600 K0.000 F300.000
G3 X-34.152 Y10.472 Z-2.000 I-123.561 J1.258 K0.000 F300.000
G3 X-34.774 Y11.073 Z-2.000 I-0.696 J-0.097 K0.000 F300.000
G3 X-36.676 Y11.145 Z-2.000 I-1.275 J-8.543 K0.000 F300.000
G3 X-37.713 Y10.761 Z-2.000 I-0.057 J-1.439 K0.000 F300.000
G3 X-38.116 Y9.420 Z-2.000 I1.412 J-1.156 K0.000 F300.000
G3 X-37.838 Y2.295 Z-2.000 I89.937 J-0.056 K0.000 F300.000
G3 X-37.228 Y1.732 Z-2.000 I0.599 J0.037 K0.000 F300.000
G2 X-35.783 Y1.759 Z-2.000 I3.886 J-166.953 K0.000 F300.000
G0 Z5.000
G0 X-32.505 Y-0.054 Z5.000
G0 X-32.505 Y-0.054 Z3.000
G1 X-32.505 Y-0.054 Z-2.000 F300.000
G1 X-32.519 Y1.628 Z-2.000 F300.000
G1 X-34.197 Y-0.050 Z-2.000 F300.000
G1 X-35.922 Y-0.077 Z-2.000 F300.000
G1 X-32.534 Y3.311 Z-2.000 F300.000
G1 X-32.548 Y4.993 Z-2.000 F300.000
G1 X-33.972 Y3.570 Z-2.000 F300.000
G1 X-33.976 Y5.263 Z-2.000 F300.000
G1 X-32.564 Y6.674 Z-2.000 F300.000
G1 X-32.588 Y8.347 Z-2.000 F300.000
G1 X-34.010 Y6.926 Z-2.000 F300.000
G3 X-34.062 Y8.570 Z-2.000 I-49.841 J-0.766 K0.000 F300.000
G1 X-32.612 Y10.020 Z-2.000 F300.000
G1 X-32.636 Y11.693 Z-2.000 F300.000
G1 X-34.139 Y10.191 Z-2.000 F300.000
G3 X-34.358 Y10.896 Z-2.000 I-0.771 J0.147 K0.000 F300.000
G3 X-34.930 Y11.097 Z-2.000 I-0.641 J-0.911 K0.000 F300.000
G1 X-33.083 Y12.944 Z-2.000 F300.000
G3 X-34.646 Y13.078 Z-2.000 I-2.976 J-25.584 K0.000 F300.000
G1 X-36.579 Y11.145 Z-2.000 F300.000
G3 X-37.940 Y10.434 Z-2.000 I-0.157 J-1.359 K0.000 F300.000
G3 X-38.104 Y9.620 Z-2.000 I1.714 J-0.768 K0.000 F300.000
G1 X-39.357 Y8.367 Z-2.000 F300.000
G2 X-39.378 Y10.043 Z-2.000 I37.054 J1.309 K0.000 F300.000
G1 X-36.277 Y13.144 Z-2.000 F300.000
G3 X-38.097 Y13.021 Z-2.000 I-0.568 J-5.117 K0.000 F300.000
G3 X-39.297 Y11.821 Z-2.000 I0.319 J-1.519 K0.000 F300.000
G1 X-38.097 Y13.021 Z-2.000 F300.000
G0 Z5.000
G0 Z5.000
G0 X-38.097 Y13.021
G0 X-46.832 Y10.706
G0 X-46.832 Y10.706 Z3.000
G1 X-46.832 Y10.706 Z-1.000 F300.000
G1 X-47.078 Y11.695 Z-1.000 F300.000
G2 X-43.580 Y13.958 Z-1.000 I14.520 J-18.611 K0.000 F300.000
G1 X-46.832 Y10.706 Z-1.000 F300.000
G1 X-46.600 Y9.771 Z-1.000 F300.000
G2 X-45.254 Y10.662 Z-1.000 I10.200 J-13.936 K0.000 F300.000
G1 X-45.119 Y10.722 Z-1.000 F300.000
G1 X-42.339 Y13.502 Z-1.000 F300.000
G1 X-42.073 Y12.100 Z-1.000 F300.000
G3 X-42.619 Y11.891 Z-1.000 I1.760 J-5.424 K0.000 F300.000
G3 X-42.981 Y11.163 Z-1.000 I0.231 J-0.569 K0.000 F300.000
G1 X-44.259 Y9.885 Z-1.000 F300.000
G2 X-44.008 Y8.439 Z-1.000 I-17.477 J-3.784 K0.000 F300.000
G1 X-42.795 Y9.652 Z-1.000 F300.000
G1 X-42.609 Y8.141 Z-1.000 F300.000
G1 X-43.825 Y6.924 Z-1.000 F300.000
G2 X-43.698 Y5.355 Z-1.000 I-23.912 J-2.738 K0.000 F300.000
G1 X-42.440 Y6.613 Z-1.000 F300.000
G2 X-42.298 Y5.058 Z-1.000 I-38.236 J-4.285 K0.000 F300.000
G1 X-43.598 Y3.757 Z-1.000 F300.000
G2 X-43.518 Y2.141 Z-1.000 I-49.695 J-3.294 K0.000 F300.000
G1 X-42.165 Y3.493 Z-1.000 F300.000
G2 X-42.072 Y1.890 Z-1.000 I-29.085 J-2.499 K0.000 F300.000
G1 X-45.258 Y-1.297 Z-1.000 F300.000
G3 X-44.187 Y-1.922 Z-1.000 I2.736 J3.454 K0.000 F300.000
G1 X-42.007 Y0.258 Z-1.000 F300.000
G2 X-42.135 Y-1.292 Z-1.000 I-7.046 J-0.197 K0.000 F300.000
G2 X-42.393 Y-1.826 Z-1.000 I-1.017 J0.162 K0.000 F300.000
G0 Z5.000
G0 X-44.829 Y0.830 Z5.000
G0 X-44.829 Y0.830 Z3.000
G1 X-44.829 Y0.830 Z-1.000 F300.000
G1 X-46.204 Y-0.545 Z-1.000 F300.000
G2 X-47.082 Y0.273 Z-1.000 I6.262 J7.606 K0.000 F300.000
G1 X-45.860 Y1.496 Z-1.000 F300.000
G2 X-46.716 Y2.337 Z-1.000 I3.389 J4.306 K0.000 F300.000
G1 X-47.850 Y1.203 Z-1.000 F300.000
G2 X-48.444 Y2.005 Z-1.000 I9.857 J7.927 K0.000 F300.000
G1 X-48.284 Y2.466 Z-1.000 F300.000
G1 X-47.490 Y3.260 Z-1.000 F300.000
G3 X-47.858 Y3.694 Z-1.000 I-93.015 J-78.374 K0.000 F300.000
G1 X-48.444 Y2.005 Z-1.000 F300.000
G3 X-46.798 Y-0.014 Z-1.000 I10.645 J6.997 K0.000 F300.000
G3 X-44.253 Y-1.899 Z-1.000 I7.265 J7.147 K0.000 F300.000
G3 X-42.607 Y-1.976 Z-1.000 I0.913 J1.913 K0.000 F300.000
G3 X-42.135 Y-1.292 Z-1.000 I-0.401 J0.782 K0.000 F300.000
G3 X-42.066 Y1.779 Z-1.000 I-12.494 J1.816 K0.000 F300.000
G3 X-42.993 Y11.260 Z-1.000 I-110.102 J-5.973 K0.000 F300.000
G2 X-42.619 Y11.891 Z-1.000 I0.596 J0.073 K0.000 F300.000
G2 X-42.073 Y12.100 Z-1.000 I2.305 J-5.216 K0.000 F300.000
G1 X-42.524 Y14.472 Z-1.000 F300.000
G3 X-47.078 Y11.695 Z-1.000 I9.094 J-20.039 K0.000 F300.000
G1 X-46.600 Y9.771 Z-1.000 F300.000
G2 X-45.076 Y10.741 Z-1.000 I8.095 J-11.034 K0.000 F300.000
G2 X-44.337 Y10.277 Z-1.000 I0.150 J-0.581 K0.000 F300.000
G2 X-43.607 Y3.903 Z-1.000 I-39.612 J-7.767 K0.000 F300.000
G2 X-43.529 Y1.643 Z-1.000 I-18.241 J-1.759 K0.000 F300.000
G2 X-45.127 Y0.964 Z-1.000 I-1.013 J0.166 K0.000 F300.000
G2 X-47.172 Y2.882 Z-1.000 I4.031 J6.348 K0.000 F300.000
G3 X-47.858 Y3.694 Z-1.000 I-106.456 J-89.129 K0.000 F300.000
G1 X-48.284 Y2.466 Z-1.000 F300.000
G1 X-48.284 Y2.466 Z-2.000 F300.000
G1 X-47.858 Y3.694 Z-2.000 F300.000
G2 X-47.172 Y2.882 Z-2.000 I-105.771 J-89.941 K0.000 F300.000
G3 X-45.127 Y0.964 Z-2.000 I6.076 J4.430 K0.000 F300.000
G3 X-43.529 Y1.643 Z-2.000 I0.584 J0.845 K0.000 F300.000
G3 X-43.607 Y3.903 Z-2.000 I-18.319 J0.501 K0.000 F300.000
G3 X-44.337 Y10.277 Z-2.000 I-40.342 J-1.393 K0.000 F300.000
G3 X-45.076 Y10.741 Z-2.000 I-0.588 J-0.117 K0.000 F300.000
G3 X-46.600 Y9.771 Z-2.000 I6.571 J-12.004 K0.000 F300.000
G1 X-47.078 Y11.695 Z-2.000 F300.000
G2 X-42.524 Y14.472 Z-2.000 I13.649 J-17.263 K0.000 F300.000
G1 X-42.073 Y12.100 Z-2.000 F300.000
G3 X-42.619 Y11.891 Z-2.000 I1.760 J-5.424 K0.000 F300.000
G3 X-42.993 Y11.260 Z-2.000 I0.221 J-0.558 K0.000 F300.000
G2 X-42.066 Y1.779 Z-2.000 I-109.176 J-15.455 K0.000 F300.000
G2 X-42.135 Y-1.292 Z-2.000 I-12.563 J-1.255 K0.000 F300.000
G2 X-42.607 Y-1.976 Z-2.000 I-0.874 J0.098 K0.000 F300.000
G2 X-44.253 Y-1.899 Z-2.000 I-0.732 J1.989 K0.000 F300.000
G2 X-46.798 Y-0.014 Z-2.000 I4.719 J9.033 K0.000 F300.000
G2 X-48.444 Y2.005 Z-2.000 I8.999 J9.016 K0.000 F300.000
G1 X-47.858 Y3.694 Z-2.000 F300.000
G2 X-47.490 Y3.260 Z-2.000 I-92.648 J-78.809 K0.000 F300.000
G1 X-48.284 Y2.466 Z-2.000 F300.000
G1 X-48.444 Y2.005 Z-2.000 F300.000
G3 X-47.850 Y1.203 Z-2.000 I10.451 J7.125 K0.000 F300.000
G1 X-46.716 Y2.337 Z-2.000 F300.000
G3 X-45.860 Y1.496 Z-2.000 I4.245 J3.465 K0.000 F300.000
G1 X-47.082 Y0.273 Z-2.000 F300.000
G3 X-46.204 Y-0.545 Z-2.000 I7.140 J6.787 K0.000 F300.000
G1 X-44.829 Y0.830 Z-2.000 F300.000
G0 Z5.000
G0 X-42.393 Y-1.826 Z5.000
G0 X-42.393 Y-1.826 Z3.000
G1 X-42.393 Y-1.826 Z-2.000 F300.000
G3 X-42.135 Y-1.292 Z-2.000 I-0.759 J0.696 K0.000 F300.000
G3 X-42.007 Y0.258 Z-2.000 I-6.918 J1.352 K0.000 F300.000
G1 X-44.187 Y-1.922 Z-2.000 F300.000
G2 X-45.258 Y-1.297 Z-2.000 I1.664 J4.080 K0.000 F300.000
G1 X-42.072 Y1.890 Z-2.000 F300.000
G3 X-42.165 Y3.493 Z-2.000 I-29.178 J-0.895 K0.000 F300.000
G1 X-43.518 Y2.141 Z-2.000 F300.000
G3 X-43.598 Y3.757 Z-2.000 I-49.776 J-1.677 K0.000 F300.000
G1 X-42.298 Y5.058 Z-2.000 F300.000
G3 X-42.440 Y6.613 Z-2.000 I-38.379 J-2.730 K0.000 F300.000
G1 X-43.698 Y5.355 Z-2.000 F300.000
G3 X-43.825 Y6.924 Z-2.000 I-24.040 J-1.169 K0.000 F300.000
G1 X-42.609 Y8.141 Z-2.000 F300.000
G1 X-42.795 Y9.652 Z-2.000 F300.000
G1 X-44.008 Y8.439 Z-2.000 F300.000
G3 X-44.259 Y9.885 Z-2.000 I-17.728 J-2.338 K0.000 F300.000
G1 X-42.981 Y11.163 Z-2.000 F300.000
G2 X-42.619 Y11.891 Z-2.000 I0.593 J0.159 K0.000 F300.000
G2 X-42.073 Y12.100 Z-2.000 I2.305 J-5.216 K0.000 F300.000
G1 X-42.339 Y13.502 Z-2.000 F300.000
G1 X-45.119 Y10.722 Z-2.000 F300.000
G1 X-45.254 Y10.662 Z-2.000 F300.000
G3 X-46.600 Y9.771 Z-2.000 I8.854 J-14.828 K0.000 F300.000
G1 X-46.832 Y10.706 Z-2.000 F300.000
G1 X-43.580 Y13.958 Z-2.000 F300.000
G3 X-47.078 Y11.695 Z-2.000 I11.022 J-20.874 K0.000 F300.000
G1 X-46.832 Y10.706 Z-2.000 F300.000
G0 Z5.000
G0 Z5.000
G0 X-46.832 Y10.706
G0 X-43.293 Y21.423
G0 X-43.293 Y21.423 Z3.000
G1 X-43.293 Y21.423 Z-1.000 F300.000
G3 X-43.271 Y21.416 Z-1.000 I0.188 J0.570 K0.000 F300.000
G1 X-39.953 Y20.465 Z-1.000 F300.000
G1 X-39.769 Y20.442 Z-1.000 F300.000
G3 X-39.294 Y20.701 Z-1.000 I-0.019 J0.600 K0.000 F300.000
G2 X-38.606 Y21.645 Z-1.000 I8.913 J-5.772 K0.000 F300.000
G3 X-38.837 Y22.562 Z-1.000 I-0.474 J0.368 K0.000 F300.000
G3 X-42.807 Y23.483 Z-1.000 I-3.932 J-7.932 K0.000 F300.000
G3 X-43.483 Y23.162 Z-1.000 I0.002 J-0.878 K0.000 F300.000
G3 X-43.704 Y21.953 Z-1.000 I1.275 J-0.858 K0.000 F300.000
G3 X-43.293 Y21.423 Z-1.000 I0.599 J0.040 K0.000 F300.000
G0 Z5.000
G0 X-45.339 Y23.322 Z5.000
G0 X-45.339 Y23.322 Z3.000
G1 X-45.339 Y23.322 Z-1.000 F300.000
G1 X-43.574 Y25.086 Z-1.000 F300.000
G3 X-45.072 Y24.648 Z-1.000 I-0.341 J-1.614 K0.000 F300.000
G3 X-45.319 Y24.076 Z-1.000 I0.886 J-0.720 K0.000 F300.000
G1 X-45.357 Y22.624 Z-1.000 F300.000
G2 X-46.056 Y22.048 Z-1.000 I-0.600 J0.016 K0.000 F300.000
G1 X-48.319 Y22.426 Z-1.000 F300.000
G1 X-48.435 Y20.810 Z-1.000 F300.000
G1 X-45.791 Y20.338 Z-1.000 F300.000
G2 X-45.297 Y19.780 Z-1.000 I-0.105 J-0.591 K0.000 F300.000
G3 X-45.191 Y18.192 Z-1.000 I28.162 J1.077 K0.000 F300.000
G1 X-43.758 Y18.215 Z-1.000 F300.000
G1 X-43.745 Y19.129 Z-1.000 F300.000
G2 X-42.998 Y19.702 Z-1.000 I0.600 J-0.008 K0.000 F300.000
G2 X-38.827 Y18.505 Z-1.000 I-8.643 J-37.967 K0.000 F300.000
G1 X-37.316 Y20.532 Z-1.000 F300.000
G2 X-36.463 Y20.644 Z-1.000 I0.481 J-0.359 K0.000 F300.000
G2 X-34.171 Y18.499 Z-1.000 I-10.709 J-13.740 K0.000 F300.000
G1 X-34.171 Y18.499 Z-1.000 F300.000
G1 X-33.772 Y18.049 Z-1.000 F300.000
G1 X-32.478 Y19.212 Z-1.000 F300.000
G3 X-35.625 Y22.085 Z-1.000 I-13.708 J-11.855 K0.000 F300.000
G2 X-35.701 Y22.963 Z-1.000 I0.368 J0.474 K0.000 F300.000
G2 X-34.527 Y24.147 Z-1.000 I8.585 J-7.340 K0.000 F300.000
G1 X-35.721 Y25.483 Z-1.000 F300.000
G3 X-37.316 Y23.759 Z-1.000 I17.590 J-17.881 K0.000 F300.000
G2 X-38.093 Y23.655 Z-1.000 I-0.449 J0.398 K0.000 F300.000
G3 X-40.005 Y24.549 Z-1.000 I-3.455 J-4.898 K0.000 F300.000
G3 X-44.004 Y25.112 Z-1.000 I-4.434 J-17.003 K0.000 F300.000
G3 X-44.919 Y24.796 Z-1.000 I0.103 J-1.784 K0.000 F300.000
G3 X-45.319 Y24.076 Z-1.000 I0.685 J-0.851 K0.000 F300.000
G1 X-45.339 Y23.322 Z-1.000 F300.000
G0 Z5.000
G0 X-47.987 Y22.370 Z5.000
G0 X-47.987 Y22.370 Z3.000
G1 X-47.987 Y22.370 Z-1.000 F300.000
G1 X-48.319 Y22.426 Z-1.000 F300.000
G1 X-48.349 Y22.009 Z-1.000 F300.000
G1 X-47.987 Y22.370 Z-1.000 F300.000
G1 X-46.533 Y22.128 Z-1.000 F300.000
G1 X-47.939 Y20.722 Z-1.000 F300.000
G1 X-46.499 Y20.465 Z-1.000 F300.000
G1 X-42.015 Y24.949 Z-1.000 F300.000
G2 X-40.580 Y24.686 Z-1.000 I-0.951 J-9.260 K0.000 F300.000
G1 X-41.843 Y23.424 Z-1.000 F300.000
G1 X-42.307 Y23.469 Z-1.000 F300.000
G3 X-43.220 Y23.386 Z-1.000 I-0.311 J-1.639 K0.000 F300.000
G3 X-43.725 Y22.280 Z-1.000 I0.640 J-0.960 K0.000 F300.000
G3 X-43.601 Y21.666 Z-1.000 I1.136 J-0.090 K0.000 F300.000
G1 X-45.332 Y19.935 Z-1.000 F300.000
G1 X-45.297 Y19.780 Z-1.000 F300.000
G3 X-45.206 Y18.364 Z-1.000 I25.110 J0.913 K0.000 F300.000
G1 X-42.402 Y21.167 Z-1.000 F300.000
G1 X-41.083 Y20.789 Z-1.000 F300.000
G1 X-42.338 Y19.535 Z-1.000 F300.000
G2 X-40.996 Y19.180 Z-1.000 I-5.364 J-23.001 K0.000 F300.000
G1 X-39.725 Y20.451 Z-1.000 F300.000
G0 Z5.000
G0 X-40.580 Y24.686 Z5.000
G0 X-40.580 Y24.686 Z3.000
G1 X-40.580 Y24.686 Z-1.000 F300.000
G1 X-41.843 Y23.424 Z-1.000 F300.000
G2 X-40.412 Y23.157 Z-1.000 I-0.478 J-6.531 K0.000 F300.000
G1 X-39.272 Y24.297 Z-1.000 F300.000
G2 X-38.169 Y23.704 Z-1.000 I-1.602 J-4.305 K0.000 F300.000
G1 X-39.165 Y22.707 Z-1.000 F300.000
G1 X-38.837 Y22.562 Z-1.000 F300.000
G2 X-38.506 Y21.838 Z-1.000 I-0.243 J-0.549 K0.000 F300.000
G2 X-38.869 Y21.306 Z-1.000 I-1.630 J0.723 K0.000 F300.000
G1 X-35.236 Y24.940 Z-1.000 F300.000
G1 X-34.527 Y24.147 Z-1.000 F300.000
G3 X-35.701 Y22.963 Z-1.000 I7.411 J-8.524 K0.000 F300.000
G3 X-35.850 Y22.629 Z-1.000 I0.414 J-0.384 K0.000 F300.000
G1 X-39.689 Y18.789 Z-1.000 F300.000
G2 X-38.827 Y18.505 Z-1.000 I-4.300 J-14.477 K0.000 F300.000
G1 X-37.316 Y20.532 Z-1.000 F300.000
G1 X-37.179 Y20.665 Z-1.000 F300.000
G2 X-36.281 Y20.500 Z-1.000 I0.362 J-0.554 K0.000 F300.000
G1 X-35.102 Y21.679 Z-1.000 F300.000
G2 X-34.173 Y20.911 Z-1.000 I-5.924 J-8.102 K0.000 F300.000
G1 X-35.373 Y19.711 Z-1.000 F300.000
G2 X-34.523 Y18.864 Z-1.000 I-8.541 J-9.418 K0.000 F300.000
G1 X-33.298 Y20.089 Z-1.000 F300.000
G2 X-32.478 Y19.212 Z-1.000 I-6.039 J-6.463 K0.000 F300.000
G1 X-32.478 Y19.212 Z-2.000 F300.000
G3 X-33.298 Y20.089 Z-2.000 I-6.859 J-5.585 K0.000 F300.000
G1 X-34.523 Y18.864 Z-2.000 F300.000
G3 X-35.373 Y19.711 Z-2.000 I-9.390 J-8.571 K0.000 F300.000
G1 X-34.173 Y20.911 Z-2.000 F300.000
G3 X-35.102 Y21.679 Z-2.000 I-6.852 J-7.333 K0.000 F300.000
G1 X-36.281 Y20.500 Z-2.000 F300.000
G3 X-37.179 Y20.665 Z-2.000 I-0.535 J-0.389 K0.000 F300.000
G1 X-37.316 Y20.532 Z-2.000 F300.000
G1 X-38.827 Y18.505 Z-2.000 F300.000
G3 X-39.689 Y18.789 Z-2.000 I-5.162 J-14.192 K0.000 F300.000
G1 X-35.850 Y22.629 Z-2.000 F300.000
G2 X-35.701 Y22.963 Z-2.000 I0.562 J-0.050 K0.000 F300.000
G2 X-34.527 Y24.147 Z-2.000 I8.585 J-7.340 K0.000 F300.000
G1 X-35.236 Y24.940 Z-2.000 F300.000
G1 X-38.869 Y21.306 Z-2.000 F300.000
G3 X-38.506 Y21.838 Z-2.000 I-1.267 J1.255 K0.000 F300.000
G3 X-38.837 Y22.562 Z-2.000 I-0.574 J0.176 K0.000 F300.000
G1 X-39.165 Y22.707 Z-2.000 F300.000
G1 X-38.169 Y23.704 Z-2.000 F300.000
G3 X-39.272 Y24.297 Z-2.000 I-2.706 J-3.712 K0.000 F300.000
G1 X-40.412 Y23.157 Z-2.000 F300.000
G3 X-41.843 Y23.424 Z-2.000 I-1.908 J-6.265 K0.000 F300.000
G1 X-40.580 Y24.686 Z-2.000 F300.000
G0 Z5.000
G0 X-40.886 Y23.280 Z5.000
G0 X-40.886 Y23.280 Z3.000
G1 X-40.886 Y23.280 Z-2.000 F300.000
G3 X-42.807 Y23.483 Z-2.000 I-1.883 J-8.651 K0.000 F300.000
G3 X-43.483 Y23.162 Z-2.000 I0.002 J-0.878 K0.000 F300.000
G3 X-43.704 Y21.953 Z-2.000 I1.275 J-0.858 K0.000 F300.000
G3 X-43.271 Y21.416 Z-2.000 I0.599 J0.040 K0.000 F300.000
G1 X-39.953 Y20.465 Z-2.000 F300.000
G1 X-39.769 Y20.442 Z-2.000 F300.000
G3 X-39.294 Y20.701 Z-2.000 I-0.019 J0.600 K0.000 F300.000
G2 X-38.606 Y21.645 Z-2.000 I8.913 J-5.772 K0.000 F300.000
G3 X-38.837 Y22.562 Z-2.000 I-0.474 J0.368 K0.000 F300.000
G3 X-40.886 Y23.280 Z-2.000 I-3.932 J-7.932 K0.000 F300.000
G0 Z5.000
G0 X-39.725 Y20.451 Z5.000
G0 X-39.725 Y20.451 Z3.000
G1 X-39.725 Y20.451 Z-2.000 F300.000
G1 X-40.996 Y19.180 Z-2.000 F300.000
G3 X-42.338 Y19.535 Z-2.000 I-6.706 J-22.646 K0.000 F300.000
G1 X-41.083 Y20.789 Z-2.000 F300.000
G1 X-42.402 Y21.167 Z-2.000 F300.000
G1 X-45.206 Y18.364 Z-2.000 F300.000
G2 X-45.297 Y19.780 Z-2.000 I25.018 J2.329 K0.000 F300.000
G1 X-45.332 Y19.935 Z-2.000 F300.000
G1 X-43.601 Y21.666 Z-2.000 F300.000
G2 X-43.725 Y22.280 Z-2.000 I1.011 J0.525 K0.000 F300.000
G2 X-43.220 Y23.386 Z-2.000 I1.145 J0.145 K0.000 F300.000
G2 X-42.307 Y23.469 Z-2.000 I0.602 J-1.556 K0.000 F300.000
G1 X-41.843 Y23.424 Z-2.000 F300.000
G1 X-40.580 Y24.686 Z-2.000 F300.000
G3 X-42.015 Y24.949 Z-2.000 I-2.386 J-8.998 K0.000 F300.000
G1 X-46.499 Y20.465 Z-2.000 F300.000
G1 X-47.939 Y20.722 Z-2.000 F300.000
G1 X-46.533 Y22.128 Z-2.000 F300.000
G1 X-47.987 Y22.370 Z-2.000 F300.000
G1 X-48.349 Y22.009 Z-2.000 F300.000
G1 X-48.319 Y22.426 Z-2.000 F300.000
G1 X-47.987 Y22.370 Z-2.000 F300.000
G0 Z5.000
G0 X-45.339 Y23.322 Z5.000
G0 X-45.339 Y23.322 Z3.000
G1 X-45.339 Y23.322 Z-2.000 F300.000
G1 X-45.319 Y24.076 Z-2.000 F300.000
G2 X-44.919 Y24.796 Z-2.000 I1.085 J-0.131 K0.000 F300.000
G2 X-44.004 Y25.112 Z-2.000 I1.018 J-1.468 K0.000 F300.000
G2 X-40.005 Y24.549 Z-2.000 I-0.435 J-17.566 K0.000 F300.000
G2 X-38.093 Y23.655 Z-2.000 I-1.544 J-5.792 K0.000 F300.000
G3 X-37.316 Y23.759 Z-2.000 I0.328 J0.502 K0.000 F300.000
G2 X-35.721 Y25.483 Z-2.000 I19.185 J-16.157 K0.000 F300.000
G1 X-34.527 Y24.147 Z-2.000 F300.000
G3 X-35.701 Y22.963 Z-2.000 I7.411 J-8.524 K0.000 F300.000
G3 X-35.625 Y22.085 Z-2.000 I0.444 J-0.404 K0.000 F300.000
G2 X-32.478 Y19.212 Z-2.000 I-10.562 J-14.728 K0.000 F300.000
G1 X-33.772 Y18.049 Z-2.000 F300.000
G1 X-34.171 Y18.499 Z-2.000 F300.000
G1 X-34.171 Y18.499 Z-2.000 F300.000
G3 X-36.463 Y20.644 Z-2.000 I-13.000 J-11.595 K0.000 F300.000
G3 X-37.316 Y20.532 Z-2.000 I-0.372 J-0.471 K0.000 F300.000
G1 X-38.827 Y18.505 Z-2.000 F300.000
G3 X-42.998 Y19.702 Z-2.000 I-12.813 J-36.770 K0.000 F300.000
G3 X-43.745 Y19.129 Z-2.000 I-0.148 J-0.582 K0.000 F300.000
G1 X-43.758 Y18.215 Z-2.000 F300.000
G1 X-45.191 Y18.192 Z-2.000 F300.000
G2 X-45.297 Y19.780 Z-2.000 I28.056 J2.665 K0.000 F300.000
G3 X-45.791 Y20.338 Z-2.000 I-0.599 J-0.032 K0.000 F300.000
G1 X-48.435 Y20.810 Z-2.000 F300.000
G1 X-48.319 Y22.426 Z-2.000 F300.000
G1 X-46.056 Y22.048 Z-2.000 F300.000
G3 X-45.357 Y22.624 Z-2.000 I0.099 J0.592 K0.000 F300.000
G1 X-45.319 Y24.076 Z-2.000 F300.000
G2 X-45.072 Y24.648 Z-2.000 I1.132 J-0.148 K0.000 F300.000
G2 X-43.574 Y25.086 Z-2.000 I1.157 J-1.176 K0.000 F300.000
G1 X-45.339 Y23.322 Z-2.000 F300.000
G0 Z5.000
G0 Z5.000
G0 X-45.339 Y23.322
G0 X-46.028 Y27.855
G0 X-46.028 Y27.855 Z3.000
G1 X-46.028 Y27.855 Z-1.000 F300.000
G1 X-45.911 Y26.983 Z-1.000 F300.000
G1 X-46.930 Y26.953 Z-1.000 F300.000
G1 X-46.028 Y27.855 Z-1.000 F300.000
G2 X-46.181 Y29.400 Z-1.000 I15.495 J2.313 K0.000 F300.000
G1 X-47.560 Y28.020 Z-1.000 F300.000
G2 X-47.699 Y29.579 Z-1.000 I40.623 J4.383 K0.000 F300.000
G1 X-46.273 Y31.004 Z-1.000 F300.000
G2 X-45.450 Y31.828 Z-1.000 I0.918 J-0.094 K0.000 F300.000
G1 X-44.120 Y33.157 Z-1.000 F300.000
G3 X-45.155 Y33.820 Z-1.000 I-3.926 J-4.994 K0.000 F300.000
G1 X-47.800 Y31.174 Z-1.000 F300.000
G2 X-47.872 Y32.799 Z-1.000 I39.093 J2.556 K0.000 F300.000
G2 X-47.849 Y33.480 Z-1.000 I2.616 J0.250 K0.000 F300.000
G2 X-47.429 Y34.152 Z-1.000 I0.734 J0.009 K0.000 F300.000
G2 X-46.499 Y34.173 Z-1.000 I0.508 J-1.934 K0.000 F300.000
G1 X-47.872 Y32.799 Z-1.000 F300.000
G0 Z5.000
G0 X-44.120 Y33.157 Z5.000
G0 X-44.120 Y33.157 Z3.000
G1 X-44.120 Y33.157 Z-1.000 F300.000
G1 X-45.450 Y31.828 Z-1.000 F300.000
G2 X-45.272 Y31.834 Z-1.000 I0.114 J-0.762 K0.000 F300.000
G2 X-44.237 Y31.343 Z-1.000 I-0.295 J-1.961 K0.000 F300.000
G1 X-43.187 Y32.394 Z-1.000 F300.000
G2 X-42.500 Y31.705 Z-1.000 I-3.964 J-4.639 K0.000 F300.000
G3 X-42.306 Y31.578 Z-1.000 I0.271 J0.204 K0.000 F300.000
G1 X-43.318 Y30.566 Z-1.000 F300.000
G2 X-42.709 Y30.006 Z-1.000 I-13.410 J-15.194 K0.000 F300.000
G1 X-42.159 Y30.027 Z-1.000 F300.000
G1 X-39.640 Y32.547 Z-1.000 F300.000
G1 X-39.618 Y32.191 Z-1.000 F300.000
G3 X-38.854 Y31.635 Z-1.000 I0.620 J0.049 K0.000 F300.000
G1 X-41.314 Y29.175 Z-1.000 F300.000
G1 X-41.333 Y27.459 Z-1.000 F300.000
G1 X-39.567 Y29.225 Z-1.000 F300.000
G1 X-39.578 Y29.558 Z-1.000 F300.000
G2 X-39.196 Y30.137 Z-1.000 I0.600 J0.020 K0.000 F300.000
G2 X-38.588 Y30.204 Z-1.000 I0.519 J-1.923 K0.000 F300.000
G1 X-37.076 Y31.716 Z-1.000 F300.000
G2 X-35.316 Y31.780 Z-1.000 I4.550 J-101.563 K0.000 F300.000
G1 X-36.824 Y30.271 Z-1.000 F300.000
G1 X-35.747 Y30.279 Z-1.000 F300.000
G2 X-35.220 Y30.178 Z-1.000 I0.016 J-1.329 K0.000 F300.000
G1 X-33.609 Y31.790 Z-1.000 F300.000
G2 X-33.183 Y31.736 Z-1.000 I0.033 J-1.451 K0.000 F300.000
G2 X-32.540 Y31.161 Z-1.000 I-0.148 J-0.812 K0.000 F300.000
G1 X-34.553 Y29.148 Z-1.000 F300.000
G1 X-34.541 Y29.050 Z-1.000 F300.000
G2 X-34.640 Y27.469 Z-1.000 I-8.231 J-0.275 K0.000 F300.000
G1 X-34.529 Y27.475 Z-1.000 F300.000
G1 X-32.502 Y29.502 Z-1.000 F300.000
G2 X-32.727 Y27.580 Z-1.000 I-20.144 J1.386 K0.000 F300.000
G0 Z5.000
G0 X-39.512 Y27.583 Z5.000
G0 X-39.512 Y27.583 Z3.000
G1 X-39.512 Y27.583 Z-1.000 F300.000
G2 X-39.487 Y26.347 Z-1.000 I-34.210 J-1.327 K0.000 F300.000
G1 X-40.765 Y26.331 Z-1.000 F300.000
G1 X-39.512 Y27.583 Z-1.000 F300.000
G1 X-39.567 Y29.225 Z-1.000 F300.000
G1 X-41.333 Y27.459 Z-1.000 F300.000
G0 Z5.000
G0 X-41.492 Y32.391 Z5.000
G0 X-41.492 Y32.391 Z3.000
G1 X-41.492 Y32.391 Z-1.000 F300.000
G1 X-39.738 Y34.145 Z-1.000 F300.000
G1 X-39.785 Y34.910 Z-1.000 F300.000
G1 X-40.694 Y34.887 Z-1.000 F300.000
G1 X-41.617 Y33.963 Z-1.000 F300.000
G1 X-41.689 Y34.861 Z-1.000 F300.000
G1 X-40.694 Y34.887 Z-1.000 F300.000
G1 X-41.689 Y34.861 Z-1.000 F300.000
G1 X-41.475 Y32.174 Z-1.000 F300.000
G2 X-42.500 Y31.705 Z-1.000 I-0.598 J-0.047 K0.000 F300.000
G3 X-45.329 Y33.920 Z-1.000 I-7.627 J-6.824 K0.000 F300.000
G3 X-47.436 Y34.150 Z-1.000 I-1.488 J-3.870 K0.000 F300.000
G3 X-47.849 Y33.480 Z-1.000 I0.324 J-0.662 K0.000 F300.000
G1 X-47.884 Y33.084 Z-1.000 F300.000
G3 X-47.456 Y26.938 Z-1.000 I79.402 J2.438 K0.000 F300.000
G1 X-45.911 Y26.983 Z-1.000 F300.000
G2 X-46.290 Y30.862 Z-1.000 I35.494 J5.422 K0.000 F300.000
G2 X-44.680 Y31.635 Z-1.000 I0.999 J-0.018 K0.000 F300.000
G2 X-43.332 Y30.578 Z-1.000 I-3.630 J-6.019 K0.000 F300.000
G2 X-42.709 Y30.006 Z-1.000 I-13.715 J-15.547 K0.000 F300.000
G1 X-41.935 Y30.036 Z-1.000 F300.000
G2 X-41.311 Y29.430 Z-1.000 I0.023 J-0.600 K0.000 F300.000
G1 X-41.346 Y26.323 Z-1.000 F300.000
G1 X-39.487 Y26.347 Z-1.000 F300.000
G3 X-39.578 Y29.558 Z-1.000 I-88.965 J-0.938 K0.000 F300.000
G2 X-39.017 Y30.177 Z-1.000 I0.600 J0.020 K0.000 F300.000
G2 X-35.434 Y30.247 Z-1.000 I2.382 J-30.106 K0.000 F300.000
G2 X-34.536 Y28.997 Z-1.000 I-0.295 J-1.159 K0.000 F300.000
G2 X-34.640 Y27.469 Z-1.000 I-8.236 J-0.206 K0.000 F300.000
G1 X-32.727 Y27.580 Z-1.000 F300.000
G3 X-32.459 Y30.757 Z-1.000 I-16.303 J2.974 K0.000 F300.000
G3 X-32.769 Y31.528 Z-1.000 I-1.070 J0.018 K0.000 F300.000
G3 X-33.542 Y31.790 Z-1.000 I-0.766 J-0.993 K0.000 F300.000
G3 X-38.991 Y31.629 Z-1.000 I-0.450 J-77.225 K0.000 F300.000
G2 X-39.618 Y32.191 Z-1.000 I-0.028 J0.599 K0.000 F300.000
G1 X-39.785 Y34.910 Z-1.000 F300.000
G1 X-40.694 Y34.887 Z-1.000 F300.000
G1 X-40.694 Y34.887 Z-2.000 F300.000
G1 X-39.785 Y34.910 Z-2.000 F300.000
G1 X-39.618 Y32.191 Z-2.000 F300.000
G3 X-38.991 Y31.629 Z-2.000 I0.599 J0.037 K0.000 F300.000
G2 X-33.542 Y31.790 Z-2.000 I4.999 J-77.064 K0.000 F300.000
G2 X-32.769 Y31.528 Z-2.000 I0.007 J-1.255 K0.000 F300.000
G2 X-32.459 Y30.757 Z-2.000 I-0.760 J-0.753 K0.000 F300.000
G2 X-32.727 Y27.580 Z-2.000 I-16.570 J-0.203 K0.000 F300.000
G1 X-34.640 Y27.469 Z-2.000 F300.000
G3 X-34.536 Y28.997 Z-2.000 I-8.131 J1.322 K0.000 F300.000
G3 X-35.434 Y30.247 Z-2.000 I-1.193 J0.091 K0.000 F300.000
G3 X-39.017 Y30.177 Z-2.000 I-1.200 J-30.176 K0.000 F300.000
G3 X-39.578 Y29.558 Z-2.000 I0.038 J-0.599 K0.000 F300.000
G2 X-39.487 Y26.347 Z-2.000 I-88.873 J-4.149 K0.000 F300.000
G1 X-41.346 Y26.323 Z-2.000 F300.000
G1 X-41.311 Y29.430 Z-2.000 F300.000
G3 X-41.935 Y30.036 Z-2.000 I-0.600 J0.007 K0.000 F300.000
G1 X-42.709 Y30.006 Z-2.000 F300.000
G3 X-43.332 Y30.578 Z-2.000 I-14.338 J-14.974 K0.000 F300.000
G3 X-44.680 Y31.635 Z-2.000 I-4.978 J-4.962 K0.000 F300.000
G3 X-46.290 Y30.862 Z-2.000 I-0.611 J-0.791 K0.000 F300.000
G3 X-45.911 Y26.983 Z-2.000 I35.873 J1.543 K0.000 F300.000
G1 X-47.456 Y26.938 Z-2.000 F300.000
G2 X-47.884 Y33.084 Z-2.000 I78.974 J8.584 K0.000 F300.000
G1 X-47.849 Y33.480 Z-2.000 F300.000
G2 X-47.436 Y34.150 Z-2.000 I0.737 J0.008 K0.000 F300.000
G2 X-45.329 Y33.920 Z-2.000 I0.619 J-4.099 K0.000 F300.000
G2 X-42.500 Y31.705 Z-2.000 I-4.797 J-9.040 K0.000 F300.000
G3 X-41.475 Y32.174 Z-2.000 I0.426 J0.422 K0.000 F300.000
G1 X-41.689 Y34.861 Z-2.000 F300.000
G1 X-40.694 Y34.887 Z-2.000 F300.000
G1 X-41.689 Y34.861 Z-2.000 F300.000
G1 X-41.617 Y33.963 Z-2.000 F300.000
G1 X-40.694 Y34.887 Z-2.000 F300.000
G1 X-39.785 Y34.910 Z-2.000 F300.000
G1 X-39.738 Y34.145 Z-2.000 F300.000
G1 X-41.492 Y32.391 Z-2.000 F300.000
G0 Z5.000
G0 X-44.120 Y33.157 Z5.000
G0 X-44.120 Y33.157 Z3.000
G1 X-44.120 Y33.157 Z-2.000 F300.000
G1 X-45.450 Y31.828 Z-2.000 F300.000
G2 X-45.272 Y31.834 Z-2.000 I0.114 J-0.762 K0.000 F300.000
G2 X-44.237 Y31.343 Z-2.000 I-0.295 J-1.961 K0.000 F300.000
G1 X-43.187 Y32.394 Z-2.000 F300.000
G2 X-42.500 Y31.705 Z-2.000 I-3.964 J-4.639 K0.000 F300.000
G3 X-42.306 Y31.578 Z-2.000 I0.271 J0.204 K0.000 F300.000
G1 X-43.318 Y30.566 Z-2.000 F300.000
G2 X-42.709 Y30.006 Z-2.000 I-13.410 J-15.194 K0.000 F300.000
G1 X-42.159 Y30.027 Z-2.000 F300.000
G1 X-39.640 Y32.547 Z-2.000 F300.000
G1 X-39.618 Y32.191 Z-2.000 F300.000
G3 X-38.854 Y31.635 Z-2.000 I0.620 J0.049 K0.000 F300.000
G1 X-41.314 Y29.175 Z-2.000 F300.000
G1 X-41.333 Y27.459 Z-2.000 F300.000
G1 X-39.567 Y29.225 Z-2.000 F300.000
G1 X-39.578 Y29.558 Z-2.000 F300.000
G2 X-39.196 Y30.137 Z-2.000 I0.600 J0.020 K0.000 F300.000
G2 X-38.588 Y30.204 Z-2.000 I0.519 J-1.923 K0.000 F300.000
G1 X-37.076 Y31.716 Z-2.000 F300.000
G2 X-35.316 Y31.780 Z-2.000 I4.550 J-101.563 K0.000 F300.000
G1 X-36.824 Y30.271 Z-2.000 F300.000
G1 X-35.747 Y30.279 Z-2.000 F300.000
G2 X-35.220 Y30.178 Z-2.000 I0.016 J-1.329 K0.000 F300.000
G1 X-33.609 Y31.790 Z-2.000 F300.000
G2 X-33.183 Y31.736 Z-2.000 I0.033 J-1.451 K0.000 F300.000
G2 X-32.540 Y31.161 Z-2.000 I-0.148 J-0.812 K0.000 F300.000
G1 X-34.553 Y29.148 Z-2.000 F300.000
G1 X-34.541 Y29.050 Z-2.000 F300.000
G2 X-34.640 Y27.469 Z-2.000 I-8.231 J-0.275 K0.000 F300.000
G1 X-34.529 Y27.475 Z-2.000 F300.000
G1 X-32.502 Y29.502 Z-2.000 F300.000
G2 X-32.727 Y27.580 Z-2.000 I-20.144 J1.386 K0.000 F300.000
G0 Z5.000
G0 X-39.512 Y27.583 Z5.000
G0 X-39.512 Y27.583 Z3.000
G1 X-39.512 Y27.583 Z-2.000 F300.000
G2 X-39.487 Y26.347 Z-2.000 I-34.210 J-1.327 K0.000 F300.000
G1 X-40.765 Y26.331 Z-2.000 F300.000
G1 X-39.512 Y27.583 Z-2.000 F300.000
G1 X-39.567 Y29.225 Z-2.000 F300.000
G1 X-41.333 Y27.459 Z-2.000 F300.000
G0 Z5.000
G0 X-46.028 Y27.855 Z5.000
G0 X-46.028 Y27.855 Z3.000
G1 X-46.028 Y27.855 Z-2.000 F300.000
G1 X-45.911 Y26.983 Z-2.000 F300.000
G1 X-46.930 Y26.953 Z-2.000 F300.000
G1 X-46.028 Y27.855 Z-2.000 F300.000
G2 X-46.181 Y29.400 Z-2.000 I15.495 J2.313 K0.000 F300.000
G1 X-47.560 Y28.020 Z-2.000 F300.000
G2 X-47.699 Y29.579 Z-2.000 I40.623 J4.383 K0.000 F300.000
G1 X-46.273 Y31.004 Z-2.000 F300.000
G2 X-45.450 Y31.828 Z-2.000 I0.918 J-0.094 K0.000 F300.000
G1 X-44.120 Y33.157 Z-2.000 F300.000
G3 X-45.155 Y33.820 Z-2.000 I-3.926 J-4.994 K0.000 F300.000
G1 X-47.800 Y31.174 Z-2.000 F300.000
G2 X-47.872 Y32.799 Z-2.000 I39.093 J2.556 K0.000 F300.000
G2 X-47.849 Y33.480 Z-2.000 I2.616 J0.250 K0.000 F300.000
G2 X-47.429 Y34.152 Z-2.000 I0.734 J0.009 K0.000 F300.000
G2 X-46.499 Y34.173 Z-2.000 I0.508 J-1.934 K0.000 F300.000
G1 X-47.872 Y32.799 Z-2.000 F300.000
G0 Z5.000
G0 Z5.000
G0 X-47.872 Y32.799
G0 X-42.961 Y40.391
G0 X-42.961 Y40.391 Z3.000
G1 X-42.961 Y40.391 Z-1.000 F300.000
G1 X-41.666 Y41.687 Z-1.000 F300.000
G3 X-42.806 Y41.237 Z-1.000 I-0.087 J-1.450 K0.000 F300.000
G3 X-42.961 Y40.391 Z-1.000 I0.987 J-0.618 K0.000 F300.000
G3 X-42.883 Y38.773 Z-1.000 I19.764 J0.149 K0.000 F300.000
G1 X-39.954 Y41.701 Z-1.000 F300.000
G2 X-38.298 Y41.661 Z-1.000 I-3.653 J-182.801 K0.000 F300.000
G1 X-39.790 Y40.169 Z-1.000 F300.000
G3 X-40.401 Y40.114 Z-1.000 I-0.163 J-1.630 K0.000 F300.000
G3 X-41.075 Y38.883 Z-1.000 I0.480 J-1.064 K0.000 F300.000
G1 X-41.871 Y38.087 Z-1.000 F300.000
G1 X-40.965 Y38.087 Z-1.000 F300.000
G2 X-41.075 Y38.883 Z-1.000 I3.349 J0.871 K0.000 F300.000
G0 Z5.000
G0 X-38.298 Y41.661 Z5.000
G0 X-38.298 Y41.661 Z3.000
G1 X-38.298 Y41.661 Z-1.000 F300.000
G3 X-36.321 Y41.643 Z-1.000 I1.106 J13.107 K0.000 F300.000
G3 X-35.442 Y42.264 Z-1.000 I0.020 J0.905 K0.000 F300.000
G3 X-35.828 Y43.562 Z-1.000 I-2.337 J0.010 K0.000 F300.000
G1 X-33.983 Y43.681 Z-1.000 F300.000
G2 X-33.498 Y42.849 Z-1.000 I-6.837 J-4.536 K0.000 F300.000
G2 X-32.924 Y40.543 Z-1.000 I-3.833 J-2.180 K0.000 F300.000
G2 X-33.140 Y40.040 Z-1.000 I-0.552 J-0.061 K0.000 F300.000
G2 X-33.667 Y39.912 Z-1.000 I-0.510 J0.952 K0.000 F300.000
G2 X-39.667 Y40.169 Z-1.000 I0.253 J75.967 K0.000 F300.000
G3 X-40.156 Y40.160 Z-1.000 I-0.175 J-3.651 K0.000 F300.000
G3 X-40.869 Y39.759 Z-1.000 I0.021 J-0.872 K0.000 F300.000
G3 X-40.965 Y38.087 Z-1.000 I2.102 J-0.959 K0.000 F300.000
G1 X-42.831 Y38.087 Z-1.000 F300.000
G2 X-42.969 Y40.623 Z-1.000 I30.836 J2.945 K0.000 F300.000
G2 X-42.272 Y41.587 Z-1.000 I0.885 J0.094 K0.000 F300.000
G2 X-41.204 Y41.721 Z-1.000 I0.958 J-3.309 K0.000 F300.000
G2 X-38.298 Y41.661 Z-1.000 I-1.107 J-122.988 K0.000 F300.000
G1 X-39.790 Y40.169 Z-1.000 F300.000
G2 X-39.708 Y40.170 Z-1.000 I0.121 J-3.597 K0.000 F300.000
G2 X-38.191 Y40.070 Z-1.000 I-0.343 J-16.725 K0.000 F300.000
G1 X-36.634 Y41.627 Z-1.000 F300.000
G0 Z5.000
G0 X-34.621 Y43.640 Z5.000
G0 X-34.621 Y43.640 Z3.000
G1 X-34.621 Y43.640 Z-1.000 F300.000
G1 X-35.828 Y43.562 Z-1.000 F300.000
G2 X-35.489 Y42.772 Z-1.000 I-4.976 J-2.602 K0.000 F300.000
G1 X-34.621 Y43.640 Z-1.000 F300.000
G1 X-33.983 Y43.681 Z-1.000 F300.000
G2 X-33.574 Y42.991 Z-1.000 I-5.670 J-3.825 K0.000 F300.000
G1 X-36.581 Y39.984 Z-1.000 F300.000
G3 X-34.935 Y39.933 Z-1.000 I1.728 J29.073 K0.000 F300.000
G1 X-33.070 Y41.797 Z-1.000 F300.000
G2 X-32.924 Y40.543 Z-1.000 I-3.238 J-1.013 K0.000 F300.000
G2 X-33.051 Y40.119 Z-1.000 I-0.621 J-0.045 K0.000 F300.000
G1 X-33.051 Y40.119 Z-2.000 F300.000
G3 X-32.924 Y40.543 Z-2.000 I-0.494 J0.379 K0.000 F300.000
G3 X-33.070 Y41.797 Z-2.000 I-3.384 J0.241 K0.000 F300.000
G1 X-34.935 Y39.933 Z-2.000 F300.000
G2 X-36.581 Y39.984 Z-2.000 I0.082 J29.124 K0.000 F300.000
G1 X-33.574 Y42.991 Z-2.000 F300.000
G3 X-33.983 Y43.681 Z-2.000 I-6.079 J-3.134 K0.000 F300.000
G1 X-34.621 Y43.640 Z-2.000 F300.000
G1 X-35.489 Y42.772 Z-2.000 F300.000
G3 X-35.828 Y43.562 Z-2.000 I-5.315 J-1.812 K0.000 F300.000
G1 X-34.621 Y43.640 Z-2.000 F300.000
G0 Z5.000
G0 X-36.634 Y41.627 Z5.000
G0 X-36.634 Y41.627 Z3.000
G1 X-36.634 Y41.627 Z-2.000 F300.000
G1 X-38.191 Y40.070 Z-2.000 F300.000
G3 X-39.708 Y40.170 Z-2.000 I-1.860 J-16.625 K0.000 F300.000
G3 X-39.790 Y40.169 Z-2.000 I0.039 J-3.599 K0.000 F300.000
G1 X-38.298 Y41.661 Z-2.000 F300.000
G3 X-41.204 Y41.721 Z-2.000 I-4.013 J-122.927 K0.000 F300.000
G3 X-42.272 Y41.587 Z-2.000 I-0.111 J-3.443 K0.000 F300.000
G3 X-42.969 Y40.623 Z-2.000 I0.189 J-0.870 K0.000 F300.000
G3 X-42.831 Y38.087 Z-2.000 I30.974 J0.409 K0.000 F300.000
G1 X-40.965 Y38.087 Z-2.000 F300.000
G2 X-40.869 Y39.759 Z-2.000 I2.198 J0.712 K0.000 F300.000
G2 X-40.156 Y40.160 Z-2.000 I0.734 J-0.471 K0.000 F300.000
G2 X-39.667 Y40.169 Z-2.000 I0.314 J-3.642 K0.000 F300.000
G3 X-33.667 Y39.912 Z-2.000 I6.253 J75.710 K0.000 F300.000
G3 X-33.140 Y40.040 Z-2.000 I0.016 J1.080 K0.000 F300.000
G3 X-32.924 Y40.543 Z-2.000 I-0.336 J0.442 K0.000 F300.000
G3 X-33.498 Y42.849 Z-2.000 I-4.408 J0.126 K0.000 F300.000
G3 X-33.983 Y43.681 Z-2.000 I-7.322 J-3.704 K0.000 F300.000
G1 X-35.828 Y43.562 Z-2.000 F300.000
G2 X-35.442 Y42.264 Z-2.000 I-1.950 J-1.288 K0.000 F300.000
G2 X-36.321 Y41.643 Z-2.000 I-0.859 J0.283 K0.000 F300.000
G2 X-38.298 Y41.661 Z-2.000 I-0.871 J13.124 K0.000 F300.000
G0 Z5.000
G0 X-41.075 Y38.883 Z5.000
G0 X-41.075 Y38.883 Z3.000
G1 X-41.075 Y38.883 Z-2.000 F300.000
G3 X-40.965 Y38.087 Z-2.000 I3.459 J0.075 K0.000 F300.000
G1 X-41.871 Y38.087 Z-2.000 F300.000
G1 X-41.075 Y38.883 Z-2.000 F300.000
G2 X-40.401 Y40.114 Z-2.000 I1.155 J0.168 K0.000 F300.000
G2 X-39.790 Y40.169 Z-2.000 I0.448 J-1.575 K0.000 F300.000
G1 X-38.298 Y41.661 Z-2.000 F300.000
G3 X-39.954 Y41.701 Z-2.000 I-5.309 J-182.760 K0.000 F300.000
G1 X-42.883 Y38.773 Z-2.000 F300.000
G2 X-42.961 Y40.391 Z-2.000 I19.686 J1.768 K0.000 F300.000
G2 X-42.806 Y41.237 Z-2.000 I1.142 J0.228 K0.000 F300.000
G2 X-41.666 Y41.687 Z-2.000 I1.053 J-1.000 K0.000 F300.000
G1 X-42.961 Y40.391 Z-2.000 F300.000
G0 Z5.000
G0 Z5.000
G0 X-42.961 Y40.391
G0 X-42.005 Y45.133
G0 X-42.005 Y45.133 Z3.000
G1 X-42.005 Y45.133 Z-1.000 F300.000
G1 X-42.302 Y46.533 Z-1.000 F300.000
G1 X-44.136 Y44.699 Z-1.000 F300.000
G3 X-44.317 Y44.655 Z-1.000 I1.202 J-5.307 K0.000 F300.000
G1 X-44.599 Y45.933 Z-1.000 F300.000
G1 X-44.481 Y46.051 Z-1.000 F300.000
G1 X-44.614 Y45.998 Z-1.000 F300.000
G1 X-44.317 Y44.655 Z-1.000 F300.000
G2 X-42.005 Y45.133 Z-1.000 I4.553 J-16.199 K0.000 F300.000
G1 X-42.321 Y46.622 Z-1.000 F300.000
G3 X-44.614 Y45.998 Z-1.000 I1.359 J-9.525 K0.000 F300.000
G1 X-44.599 Y45.933 Z-1.000 F300.000
G1 X-44.599 Y45.933 Z-2.000 F300.000
G1 X-44.614 Y45.998 Z-2.000 F300.000
G2 X-42.321 Y46.622 Z-2.000 I3.651 J-8.902 K0.000 F300.000
G1 X-42.005 Y45.133 Z-2.000 F300.000
G3 X-44.317 Y44.655 Z-2.000 I2.242 J-16.677 K0.000 F300.000
G1 X-44.614 Y45.998 Z-2.000 F300.000
G1 X-44.481 Y46.051 Z-2.000 F300.000
G1 X-44.599 Y45.933 Z-2.000 F300.000
G1 X-44.317 Y44.655 Z-2.000 F300.000
G2 X-44.136 Y44.699 Z-2.000 I1.383 J-5.263 K0.000 F300.000
G1 X-42.302 Y46.533 Z-2.000 F300.000
G1 X-42.005 Y45.133 Z-2.000 F300.000
G0 Z5.000
G0 Z5.000
G0 X-42.005 Y45.133
G0 X-45.703 Y41.676
G0 X-45.703 Y41.676 Z3.000
G1 X-45.703 Y41.676 Z-1.000 F300.000
G1 X-45.913 Y42.159 Z-1.000 F300.000
G3 X-48.491 Y40.524 Z-1.000 I3.460 J-8.306 K0.000 F300.000
G1 X-47.995 Y39.384 Z-1.000 F300.000
G1 X-45.703 Y41.676 Z-1.000 F300.000
G1 X-45.189 Y40.494 Z-1.000 F300.000
G3 X-47.859 Y39.070 Z-1.000 I2.641 J-8.173 K0.000 F300.000
G1 X-48.491 Y40.524 Z-1.000 F300.000
G2 X-45.913 Y42.159 Z-1.000 I6.038 J-6.671 K0.000 F300.000
G1 X-45.703 Y41.676 Z-1.000 F300.000
G1 X-45.189 Y40.494 Z-1.000 F300.000
G1 X-45.189 Y40.494 Z-2.000 F300.000
G1 X-45.703 Y41.676 Z-2.000 F300.000
G1 X-45.913 Y42.159 Z-2.000 F300.000
G3 X-48.491 Y40.524 Z-2.000 I3.460 J-8.306 K0.000 F300.000
G1 X-47.859 Y39.070 Z-2.000 F300.000
G2 X-45.189 Y40.494 Z-2.000 I5.312 J-6.750 K0.000 F300.000
G1 X-45.703 Y41.676 Z-2.000 F300.000
G1 X-47.995 Y39.384 Z-2.000 F300.000
G1 X-48.491 Y40.524 Z-2.000 F300.000
G2 X-45.913 Y42.159 Z-2.000 I6.038 J-6.671 K0.000 F300.000
G1 X-45.703 Y41.676 Z-2.000 F300.000
G0 Z5.000
G0 Z5.000
G0 X-45.703 Y41.676
G0 X-46.360 Y44.845
G0 X-46.360 Y44.845 Z3.000
G1 X-46.360 Y44.845 Z-1.000 F300.000
G1 X-46.357 Y44.753 Z-1.000 F300.000
G1 X-46.454 Y44.752 Z-1.000 F300.000
G1 X-46.360 Y44.845 Z-1.000 F300.000
G1 X-46.421 Y46.481 Z-1.000 F300.000
G1 X-48.101 Y44.801 Z-1.000 F300.000
G3 X-48.154 Y46.446 Z-1.000 I-93.393 J-2.178 K0.000 F300.000
G1 X-46.439 Y48.161 Z-1.000 F300.000
G2 X-46.066 Y48.533 Z-1.000 I0.552 J-0.180 K0.000 F300.000
G1 X-44.477 Y50.123 Z-1.000 F300.000
G3 X-46.015 Y50.116 Z-1.000 I7.546 J-1713.627 K0.000 F300.000
G1 X-46.159 Y50.138 Z-1.000 F300.000
G1 X-48.221 Y48.076 Z-1.000 F300.000
G3 X-48.295 Y49.699 Z-1.000 I-191.160 J-7.916 K0.000 F300.000
G1 X-46.638 Y51.356 Z-1.000 F300.000
G3 X-46.692 Y52.999 Z-1.000 I-155.031 J-4.261 K0.000 F300.000
G1 X-48.374 Y51.317 Z-1.000 F300.000
G1 X-48.455 Y52.933 Z-1.000 F300.000
G1 X-47.046 Y54.343 Z-1.000 F300.000
G1 X-48.523 Y54.272 Z-1.000 F300.000
G1 X-48.455 Y52.933 Z-1.000 F300.000
G0 Z5.000
G0 X-44.477 Y50.123 Z5.000
G0 X-44.477 Y50.123 Z3.000
G1 X-44.477 Y50.123 Z-1.000 F300.000
G1 X-46.066 Y48.533 Z-1.000 F300.000
G1 X-45.881 Y48.565 Z-1.000 F300.000
G1 X-44.326 Y48.577 Z-1.000 F300.000
G1 X-42.772 Y50.130 Z-1.000 F300.000
G2 X-41.071 Y50.135 Z-1.000 I2.255 J-495.759 K0.000 F300.000
G1 X-42.615 Y48.590 Z-1.000 F300.000
G1 X-40.905 Y48.604 Z-1.000 F300.000
G1 X-38.455 Y51.053 Z-1.000 F300.000
G1 X-38.446 Y50.738 Z-1.000 F300.000
G3 X-37.656 Y50.156 Z-1.000 I0.638 J0.038 K0.000 F300.000
G1 X-40.126 Y47.685 Z-1.000 F300.000
G1 X-40.066 Y46.049 Z-1.000 F300.000
G1 X-38.337 Y47.778 Z-1.000 F300.000
G2 X-38.321 Y48.174 Z-1.000 I1.228 J0.148 K0.000 F300.000
G2 X-37.511 Y48.604 Z-1.000 I0.628 J-0.206 K0.000 F300.000
G1 X-35.959 Y50.156 Z-1.000 F300.000
G1 X-34.262 Y50.156 Z-1.000 F300.000
G1 X-35.839 Y48.578 Z-1.000 F300.000
G2 X-34.180 Y48.541 Z-1.000 I-6.559 J-329.545 K0.000 F300.000
G1 X-32.565 Y50.156 Z-1.000 F300.000
G1 X-32.535 Y50.156 Z-1.000 F300.000
G1 X-32.524 Y48.499 Z-1.000 F300.000
G0 Z5.000
G0 X-40.066 Y46.049 Z5.000
G0 X-40.066 Y46.049 Z3.000
G1 X-40.066 Y46.049 Z-1.000 F300.000
G1 X-38.337 Y47.778 Z-1.000 F300.000
G1 X-38.277 Y46.141 Z-1.000 F300.000
G1 X-40.011 Y44.407 Z-1.000 F300.000
G2 X-39.993 Y43.754 Z-1.000 I-57.533 J-1.934 K0.000 F300.000
G1 X-38.959 Y43.761 Z-1.000 F300.000
G1 X-38.222 Y44.498 Z-1.000 F300.000
G1 X-38.201 Y43.767 Z-1.000 F300.000
G1 X-38.959 Y43.761 Z-1.000 F300.000
G0 Z5.000
G0 X-40.248 Y50.958 Z5.000
G0 X-40.248 Y50.958 Z3.000
G1 X-40.248 Y50.958 Z-1.000 F300.000
G1 X-38.505 Y52.701 Z-1.000 F300.000
G3 X-38.558 Y54.344 Z-1.000 I-165.894 J-4.608 K0.000 F300.000
G1 X-40.314 Y52.589 Z-1.000 F300.000
G1 X-40.381 Y54.219 Z-1.000 F300.000
G1 X-39.412 Y55.188 Z-1.000 F300.000
G1 X-40.418 Y55.141 Z-1.000 F300.000
G1 X-40.240 Y50.760 Z-1.000 F300.000
G2 X-40.839 Y50.136 Z-1.000 I-0.600 J-0.024 K0.000 F300.000
G3 X-46.015 Y50.116 Z-1.000 I2.848 J-1425.142 K0.000 F300.000
G2 X-46.618 Y50.697 Z-1.000 I-0.003 J0.600 K0.000 F300.000
G3 X-46.753 Y54.357 Z-1.000 I-107.805 J-2.160 K0.000 F300.000
G1 X-48.523 Y54.272 Z-1.000 F300.000
G2 X-48.100 Y44.730 Z-1.000 I-316.857 J-18.836 K0.000 F300.000
G1 X-46.357 Y44.753 Z-1.000 F300.000
G1 X-46.476 Y47.942 Z-1.000 F300.000
G2 X-45.881 Y48.565 Z-1.000 I0.600 J0.022 K0.000 F300.000
G1 X-40.743 Y48.605 Z-1.000 F300.000
G2 X-40.139 Y48.027 Z-1.000 I0.005 J-0.600 K0.000 F300.000
G2 X-39.993 Y43.754 Z-1.000 I-241.287 J-10.419 K0.000 F300.000
G1 X-38.201 Y43.767 Z-1.000 F300.000
G3 X-38.344 Y47.983 Z-1.000 I-413.420 J-11.990 K0.000 F300.000
G2 X-37.742 Y48.605 Z-1.000 I0.600 J0.022 K0.000 F300.000
G2 X-32.524 Y48.499 Z-1.000 I-2.578 J-256.607 K0.000 F300.000
G1 X-32.535 Y50.156 Z-1.000 F300.000
G1 X-37.846 Y50.156 Z-1.000 F300.000
G2 X-38.446 Y50.738 Z-1.000 I-0.000 J0.600 K0.000 F300.000
G3 X-38.594 Y55.226 Z-1.000 I-212.954 J-4.765 K0.000 F300.000
G1 X-40.418 Y55.141 Z-1.000 F300.000
G1 X-40.381 Y54.219 Z-1.000 F300.000
G1 X-40.381 Y54.219 Z-2.000 F300.000
G1 X-40.418 Y55.141 Z-2.000 F300.000
G1 X-38.594 Y55.226 Z-2.000 F300.000
G2 X-38.446 Y50.738 Z-2.000 I-212.806 J-9.254 K0.000 F300.000
G3 X-37.846 Y50.156 Z-2.000 I0.600 J0.018 K0.000 F300.000
G1 X-32.535 Y50.156 Z-2.000 F300.000
G1 X-32.524 Y48.499 Z-2.000 F300.000
G3 X-37.742 Y48.605 Z-2.000 I-7.797 J-256.501 K0.000 F300.000
G3 X-38.344 Y47.983 Z-2.000 I-0.003 J-0.600 K0.000 F300.000
G2 X-38.201 Y43.767 Z-2.000 I-413.276 J-16.207 K0.000 F300.000
G1 X-39.993 Y43.754 Z-2.000 F300.000
G3 X-40.139 Y48.027 Z-2.000 I-241.434 J-6.146 K0.000 F300.000
G3 X-40.743 Y48.605 Z-2.000 I-0.600 J-0.022 K0.000 F300.000
G1 X-45.881 Y48.565 Z-2.000 F300.000
G3 X-46.476 Y47.942 Z-2.000 I0.005 J-0.600 K0.000 F300.000
G1 X-46.357 Y44.753 Z-2.000 F300.000
G1 X-48.100 Y44.730 Z-2.000 F300.000
G3 X-48.523 Y54.272 Z-2.000 I-317.280 J-9.294 K0.000 F300.000
G1 X-46.753 Y54.357 Z-2.000 F300.000
G2 X-46.618 Y50.697 Z-2.000 I-107.670 J-5.820 K0.000 F300.000
G3 X-46.015 Y50.116 Z-2.000 I0.600 J0.018 K0.000 F300.000
G2 X-40.839 Y50.136 Z-2.000 I8.025 J-1425.123 K0.000 F300.000
G3 X-40.240 Y50.760 Z-2.000 I-0.001 J0.600 K0.000 F300.000
G1 X-40.418 Y55.141 Z-2.000 F300.000
G1 X-39.412 Y55.188 Z-2.000 F300.000
G1 X-40.381 Y54.219 Z-2.000 F300.000
G1 X-40.314 Y52.589 Z-2.000 F300.000
G1 X-38.558 Y54.344 Z-2.000 F300.000
G2 X-38.505 Y52.701 Z-2.000 I-165.840 J-6.251 K0.000 F300.000
G1 X-40.248 Y50.958 Z-2.000 F300.000
G0 Z5.000
G0 X-44.477 Y50.123 Z5.000
G0 X-44.477 Y50.123 Z3.000
G1 X-44.477 Y50.123 Z-2.000 F300.000
G1 X-46.066 Y48.533 Z-2.000 F300.000
G1 X-45.881 Y48.565 Z-2.000 F300.000
G1 X-44.326 Y48.577 Z-2.000 F300.000
G1 X-42.772 Y50.130 Z-2.000 F300.000
G2 X-41.071 Y50.135 Z-2.000 I2.255 J-495.759 K0.000 F300.000
G1 X-42.615 Y48.590 Z-2.000 F300.000
G1 X-40.905 Y48.604 Z-2.000 F300.000
G1 X-38.455 Y51.053 Z-2.000 F300.000
G1 X-38.446 Y50.738 Z-2.000 F300.000
G3 X-37.656 Y50.156 Z-2.000 I0.638 J0.038 K0.000 F300.000
G1 X-40.126 Y47.685 Z-2.000 F300.000
G1 X-40.066 Y46.049 Z-2.000 F300.000
G1 X-38.337 Y47.778 Z-2.000 F300.000
G2 X-38.321 Y48.174 Z-2.000 I1.228 J0.148 K0.000 F300.000
G2 X-37.511 Y48.604 Z-2.000 I0.628 J-0.206 K0.000 F300.000
G1 X-35.959 Y50.156 Z-2.000 F300.000
G1 X-34.262 Y50.156 Z-2.000 F300.000
G1 X-35.839 Y48.578 Z-2.000 F300.000
G2 X-34.180 Y48.541 Z-2.000 I-6.559 J-329.545 K0.000 F300.000
G1 X-32.565 Y50.156 Z-2.000 F300.000
G1 X-32.535 Y50.156 Z-2.000 F300.000
G1 X-32.524 Y48.499 Z-2.000 F300.000
G0 Z5.000
G0 X-40.066 Y46.049 Z5.000
G0 X-40.066 Y46.049 Z3.000
G1 X-40.066 Y46.049 Z-2.000 F300.000
G1 X-38.337 Y47.778 Z-2.000 F300.000
G1 X-38.277 Y46.141 Z-2.000 F300.000
G1 X-40.011 Y44.407 Z-2.000 F300.000
G2 X-39.993 Y43.754 Z-2.000 I-57.533 J-1.934 K0.000 F300.000
G1 X-38.959 Y43.761 Z-2.000 F300.000
G1 X-38.222 Y44.498 Z-2.000 F300.000
G1 X-38.201 Y43.767 Z-2.000 F300.000
G1 X-38.959 Y43.761 Z-2.000 F300.000
G0 Z5.000
G0 X-46.360 Y44.845 Z5.000
G0 X-46.360 Y44.845 Z3.000
G1 X-46.360 Y44.845 Z-2.000 F300.000
G1 X-46.357 Y44.753 Z-2.000 F300.000
G1 X-46.454 Y44.752 Z-2.000 F300.000
G1 X-46.360 Y44.845 Z-2.000 F300.000
G1 X-46.421 Y46.481 Z-2.000 F300.000
G1 X-48.101 Y44.801 Z-2.000 F300.000
G3 X-48.154 Y46.446 Z-2.000 I-93.393 J-2.178 K0.000 F300.000
G1 X-46.439 Y48.161 Z-2.000 F300.000
G2 X-46.066 Y48.533 Z-2.000 I0.552 J-0.180 K0.000 F300.000
