(Exported by FreeCAD)
(Post Processor: script_module)
(Output Time:2026-07-03 18:51:18.936225)
(Begin preamble)
G17 G90
G21
(Begin operation: Fixture)
(Path: Fixture)
G54
(Finish operation: Fixture)
(Begin operation: 12001)
(Path: 12001)
(12001)
(Begin toolchange)
( M6 T4 )
M3 S10000
(Finish operation: 12001)
(Begin operation: Pocket_Shape)
(Path: Pocket_Shape)
(Pocket_Shape)
G0 Z5.000
G0 X-7.091 Y-6.098
G0 Z3.000
G1 X-7.091 Y-6.098 Z-1.000 F300.000
G1 X-7.026 Y-4.336 Z-1.000 F300.000
G1 X-8.696 Y-6.006 Z-1.000 F300.000
G3 X-10.327 Y-5.939 Z-1.000 I-3.860 J-74.142 K0.000 F300.000
G1 X-8.451 Y-4.063 Z-1.000 F300.000
G3 X-10.152 Y-4.068 Z-1.000 I-0.706 J-55.852 K0.000 F300.000
G1 X-12.018 Y-5.933 Z-1.000 F300.000
G3 X-12.480 Y-6.396 Z-1.000 I0.098 J-0.560 K0.000 F300.000
G1 X-13.763 Y-7.679 Z-1.000 F300.000
G3 X-14.501 Y-6.719 Z-1.000 I-5.386 J-3.377 K0.000 F300.000
G1 X-11.876 Y-4.095 Z-1.000 F300.000
G1 X-12.954 Y-4.120 Z-1.000 F300.000
G2 X-13.400 Y-3.922 Z-1.000 I-0.057 J0.476 K0.000 F300.000
G1 X-15.338 Y-5.860 Z-1.000 F300.000
G3 X-16.287 Y-5.112 Z-1.000 I-4.741 J-5.040 K0.000 F300.000
G1 X-12.779 Y-1.603 Z-1.000 F300.000
G1 X-13.104 Y-1.229 Z-1.000 F300.000
G3 X-15.689 Y-3.122 Z-1.000 I51.929 J-73.582 K0.000 F300.000
G2 X-16.031 Y-3.159 Z-1.000 I-0.231 J0.553 K0.000 F300.000
G1 X-17.352 Y-4.479 Z-1.000 F300.000
G3 X-18.610 Y-4.116 Z-1.000 I-1.340 J-2.279 K0.000 F300.000
G3 X-18.699 Y-4.130 Z-1.000 I0.155 J-1.293 K0.000 F300.000
G1 X-17.171 Y-2.601 Z-1.000 F300.000
G0 Z5.000
G0 X-20.846 Y-2.882 Z5.000
G0 X-20.846 Y-2.882 Z3.000
G1 X-20.846 Y-2.882 Z-1.000 F300.000
G2 X-20.041 Y-1.988 Z-1.000 I1.083 J-0.166 K0.000 F300.000
G2 X-18.265 Y-2.185 Z-1.000 I0.422 J-4.310 K0.000 F300.000
G2 X-16.196 Y-3.102 Z-1.000 I-2.574 J-8.598 K0.000 F300.000
G3 X-15.689 Y-3.122 Z-1.000 I0.276 J0.533 K0.000 F300.000
G2 X-13.104 Y-1.229 Z-1.000 I54.514 J-71.688 K0.000 F300.000
G1 X-12.219 Y-2.248 Z-1.000 F300.000
G3 X-13.340 Y-3.050 Z-1.000 I4.017 J-6.807 K0.000 F300.000
G3 X-12.954 Y-4.120 Z-1.000 I0.373 J-0.470 K0.000 F300.000
G2 X-7.016 Y-4.074 Z-1.000 I3.955 J-129.190 K0.000 F300.000
G1 X-7.091 Y-6.098 Z-1.000 F300.000
G3 X-11.885 Y-5.913 Z-1.000 I-5.658 J-84.261 K0.000 F300.000
G3 X-12.321 Y-6.936 Z-1.000 I-0.010 J-0.600 K0.000 F300.000
G2 X-11.838 Y-7.460 Z-1.000 I-1.957 J-2.287 K0.000 F300.000
G1 X-13.324 Y-8.356 Z-1.000 F300.000
G3 X-13.547 Y-7.981 Z-1.000 I-3.393 J-1.764 K0.000 F300.000
G3 X-17.104 Y-4.614 Z-1.000 I-8.103 J-4.999 K0.000 F300.000
G3 X-18.568 Y-4.113 Z-1.000 I-1.712 J-2.615 K0.000 F300.000
G3 X-19.455 Y-5.084 Z-1.000 I0.130 J-1.010 K0.000 F300.000
G3 X-19.318 Y-8.184 Z-1.000 I14.662 J-0.905 K0.000 F300.000
G1 X-20.723 Y-8.195 Z-1.000 F300.000
G2 X-20.803 Y-6.892 Z-1.000 I17.533 J1.726 K0.000 F300.000
G3 X-21.414 Y-6.318 Z-1.000 I-0.599 J-0.026 K0.000 F300.000
G3 X-22.717 Y-6.757 Z-1.000 I1.024 J-5.188 K0.000 F300.000
G1 X-22.981 Y-5.117 Z-1.000 F300.000
G2 X-21.393 Y-4.534 Z-1.000 I4.060 J-8.604 K0.000 F300.000
G3 X-20.985 Y-4.006 Z-1.000 I-0.191 J0.569 K0.000 F300.000
G2 X-20.774 Y-2.666 Z-1.000 I3.395 J0.150 K0.000 F300.000
G2 X-19.943 Y-1.979 Z-1.000 I0.924 J-0.270 K0.000 F300.000
G1 X-20.846 Y-2.882 Z-1.000 F300.000
G1 X-20.848 Y-2.890 Z-1.000 F300.000
G3 X-20.985 Y-4.006 Z-1.000 I4.314 J-1.096 K0.000 F300.000
G2 X-21.393 Y-4.534 Z-1.000 I-0.599 J0.041 K0.000 F300.000
G3 X-22.981 Y-5.117 Z-1.000 I2.472 J-9.187 K0.000 F300.000
G1 X-22.760 Y-6.493 Z-1.000 F300.000
G1 X-18.415 Y-2.148 Z-1.000 F300.000
G1 X-18.265 Y-2.185 Z-1.000 F300.000
G2 X-17.171 Y-2.601 Z-1.000 I-2.215 J-7.461 K0.000 F300.000
G1 X-18.699 Y-4.130 Z-1.000 F300.000
G3 X-19.399 Y-4.830 Z-1.000 I0.215 J-0.915 K0.000 F300.000
G1 X-21.027 Y-6.457 Z-1.000 F300.000
G2 X-20.803 Y-6.892 Z-1.000 I-0.322 J-0.441 K0.000 F300.000
G3 X-20.749 Y-7.876 Z-1.000 I13.299 J0.236 K0.000 F300.000
G1 X-19.459 Y-6.587 Z-1.000 F300.000
G3 X-19.322 Y-8.147 Z-1.000 I24.020 J1.320 K0.000 F300.000
G1 X-19.360 Y-8.184 Z-1.000 F300.000
G1 X-19.318 Y-8.184 Z-1.000 F300.000
G1 X-19.322 Y-8.147 Z-1.000 F300.000
G0 Z5.000
G0 X-13.763 Y-7.679 Z5.000
G0 X-13.763 Y-7.679 Z3.000
G1 X-13.763 Y-7.679 Z-1.000 F300.000
G1 X-12.480 Y-6.396 Z-1.000 F300.000
G3 X-12.437 Y-6.770 Z-1.000 I0.554 J-0.126 K0.000 F300.000
G3 X-11.976 Y-7.283 Z-1.000 I1.731 J1.092 K0.000 F300.000
G2 X-11.861 Y-7.474 Z-1.000 I-0.137 J-0.213 K0.000 F300.000
G1 X-11.838 Y-7.460 Z-1.000 F300.000
G1 X-11.842 Y-7.454 Z-1.000 F300.000
G1 X-11.842 Y-7.454 Z-2.000 F300.000
G1 X-11.838 Y-7.460 Z-2.000 F300.000
G1 X-11.861 Y-7.474 Z-2.000 F300.000
G3 X-11.976 Y-7.283 Z-2.000 I-0.252 J-0.022 K0.000 F300.000
G2 X-12.437 Y-6.770 Z-2.000 I1.270 J1.605 K0.000 F300.000
G2 X-12.480 Y-6.396 Z-2.000 I0.511 J0.248 K0.000 F300.000
G1 X-13.763 Y-7.679 Z-2.000 F300.000
G0 Z5.000
G0 X-19.322 Y-8.147 Z5.000
G0 X-19.322 Y-8.147 Z3.000
G1 X-19.322 Y-8.147 Z-2.000 F300.000
G1 X-19.318 Y-8.184 Z-2.000 F300.000
G1 X-19.360 Y-8.184 Z-2.000 F300.000
G1 X-19.322 Y-8.147 Z-2.000 F300.000
G2 X-19.459 Y-6.587 Z-2.000 I23.883 J2.880 K0.000 F300.000
G1 X-20.749 Y-7.876 Z-2.000 F300.000
G2 X-20.803 Y-6.892 Z-2.000 I13.245 J1.220 K0.000 F300.000
G3 X-21.027 Y-6.457 Z-2.000 I-0.546 J-0.006 K0.000 F300.000
G1 X-19.399 Y-4.830 Z-2.000 F300.000
G2 X-18.699 Y-4.130 Z-2.000 I0.915 J-0.215 K0.000 F300.000
G1 X-17.171 Y-2.601 Z-2.000 F300.000
G3 X-18.265 Y-2.185 Z-2.000 I-3.309 J-7.044 K0.000 F300.000
G1 X-18.415 Y-2.148 Z-2.000 F300.000
G1 X-22.760 Y-6.493 Z-2.000 F300.000
G1 X-22.981 Y-5.117 Z-2.000 F300.000
G2 X-21.393 Y-4.534 Z-2.000 I4.060 J-8.604 K0.000 F300.000
G3 X-20.985 Y-4.006 Z-2.000 I-0.191 J0.569 K0.000 F300.000
G2 X-20.848 Y-2.890 Z-2.000 I4.451 J0.021 K0.000 F300.000
G1 X-20.846 Y-2.882 Z-2.000 F300.000
G1 X-19.943 Y-1.979 Z-2.000 F300.000
G3 X-20.774 Y-2.666 Z-2.000 I0.093 J-0.958 K0.000 F300.000
G3 X-20.985 Y-4.006 Z-2.000 I3.184 J-1.189 K0.000 F300.000
G2 X-21.393 Y-4.534 Z-2.000 I-0.599 J0.041 K0.000 F300.000
G3 X-22.981 Y-5.117 Z-2.000 I2.472 J-9.187 K0.000 F300.000
G1 X-22.717 Y-6.757 Z-2.000 F300.000
G2 X-21.414 Y-6.318 Z-2.000 I2.327 J-4.748 K0.000 F300.000
G2 X-20.803 Y-6.892 Z-2.000 I0.012 J-0.600 K0.000 F300.000
G3 X-20.723 Y-8.195 Z-2.000 I17.612 J0.423 K0.000 F300.000
G1 X-19.318 Y-8.184 Z-2.000 F300.000
G2 X-19.455 Y-5.084 Z-2.000 I14.525 J2.195 K0.000 F300.000
G2 X-18.568 Y-4.113 Z-2.000 I1.017 J-0.039 K0.000 F300.000
G2 X-17.104 Y-4.614 Z-2.000 I-0.248 J-3.115 K0.000 F300.000
G2 X-13.547 Y-7.981 Z-2.000 I-4.546 J-8.366 K0.000 F300.000
G2 X-13.324 Y-8.356 Z-2.000 I-3.170 J-2.139 K0.000 F300.000
G1 X-11.838 Y-7.460 Z-2.000 F300.000
G3 X-12.321 Y-6.936 Z-2.000 I-2.440 J-1.763 K0.000 F300.000
G2 X-11.885 Y-5.913 Z-2.000 I0.426 J0.423 K0.000 F300.000
G2 X-7.091 Y-6.098 Z-2.000 I-0.865 J-84.446 K0.000 F300.000
G1 X-7.016 Y-4.074 Z-2.000 F300.000
G3 X-12.954 Y-4.120 Z-2.000 I-1.982 J-129.236 K0.000 F300.000
G2 X-13.340 Y-3.050 Z-2.000 I-0.014 J0.600 K0.000 F300.000
G2 X-12.219 Y-2.248 Z-2.000 I5.138 J-6.005 K0.000 F300.000
G1 X-13.104 Y-1.229 Z-2.000 F300.000
G3 X-15.689 Y-3.122 Z-2.000 I51.929 J-73.582 K0.000 F300.000
G2 X-16.196 Y-3.102 Z-2.000 I-0.231 J0.554 K0.000 F300.000
G3 X-18.265 Y-2.185 Z-2.000 I-4.642 J-7.681 K0.000 F300.000
G3 X-20.041 Y-1.988 Z-2.000 I-1.354 J-4.114 K0.000 F300.000
G3 X-20.846 Y-2.882 Z-2.000 I0.278 J-1.059 K0.000 F300.000
G0 Z5.000
G0 X-17.171 Y-2.601 Z5.000
G0 X-17.171 Y-2.601 Z3.000
G1 X-17.171 Y-2.601 Z-2.000 F300.000
G1 X-18.699 Y-4.130 Z-2.000 F300.000
G2 X-18.610 Y-4.116 Z-2.000 I0.244 J-1.279 K0.000 F300.000
G2 X-17.352 Y-4.479 Z-2.000 I-0.083 J-2.643 K0.000 F300.000
G1 X-16.031 Y-3.159 Z-2.000 F300.000
G3 X-15.689 Y-3.122 Z-2.000 I0.111 J0.589 K0.000 F300.000
G2 X-13.104 Y-1.229 Z-2.000 I54.514 J-71.688 K0.000 F300.000
G1 X-12.779 Y-1.603 Z-2.000 F300.000
G1 X-16.287 Y-5.112 Z-2.000 F300.000
G2 X-15.338 Y-5.860 Z-2.000 I-3.792 J-5.788 K0.000 F300.000
G1 X-13.400 Y-3.922 Z-2.000 F300.000
G3 X-12.954 Y-4.120 Z-2.000 I0.390 J0.279 K0.000 F300.000
G1 X-11.876 Y-4.095 Z-2.000 F300.000
G1 X-14.501 Y-6.719 Z-2.000 F300.000
G2 X-13.763 Y-7.679 Z-2.000 I-4.648 J-4.336 K0.000 F300.000
G1 X-12.480 Y-6.396 Z-2.000 F300.000
G2 X-12.018 Y-5.933 Z-2.000 I0.560 J-0.098 K0.000 F300.000
G1 X-10.152 Y-4.068 Z-2.000 F300.000
G2 X-8.451 Y-4.063 Z-2.000 I0.996 J-55.847 K0.000 F300.000
G1 X-10.327 Y-5.939 Z-2.000 F300.000
G2 X-8.696 Y-6.006 Z-2.000 I-2.230 J-74.209 K0.000 F300.000
G1 X-7.026 Y-4.336 Z-2.000 F300.000
G1 X-7.091 Y-6.098 Z-2.000 F300.000
G0 Z5.000
G0 Z5.000
G0 X-7.091 Y-6.098
G0 X-8.059 Y1.671
G0 X-8.059 Y1.671 Z3.000
G1 X-8.059 Y1.671 Z-1.000 F300.000
G3 X-7.406 Y3.080 Z-1.000 I-1.982 J1.774 K0.000 F300.000
G3 X-7.315 Y4.112 Z-1.000 I-10.479 J1.443 K0.000 F300.000
G1 X-10.390 Y1.037 Z-1.000 F300.000
G2 X-12.132 Y0.992 Z-1.000 I-2.645 J69.074 K0.000 F300.000
G1 X-10.074 Y3.050 Z-1.000 F300.000
G2 X-10.999 Y2.839 Z-1.000 I-0.900 J1.805 K0.000 F300.000
G1 X-11.992 Y2.829 Z-1.000 F300.000
G1 X-13.857 Y0.964 Z-1.000 F300.000
G1 X-15.575 Y0.943 Z-1.000 F300.000
G1 X-13.706 Y2.813 Z-1.000 F300.000
G1 X-15.419 Y2.796 Z-1.000 F300.000
G1 X-17.290 Y0.925 Z-1.000 F300.000
G1 X-18.999 Y0.914 Z-1.000 F300.000
G1 X-17.133 Y2.780 Z-1.000 F300.000
G1 X-18.846 Y2.763 Z-1.000 F300.000
G1 X-20.707 Y0.902 Z-1.000 F300.000
G1 X-22.416 Y0.891 Z-1.000 F300.000
G1 X-20.560 Y2.747 Z-1.000 F300.000
G1 X-22.273 Y2.730 Z-1.000 F300.000
G1 X-22.933 Y2.071 Z-1.000 F300.000
G1 X-22.950 Y2.723 Z-1.000 F300.000
G1 X-22.273 Y2.730 Z-1.000 F300.000
G0 Z5.000
G0 X-9.525 Y3.599 Z5.000
G0 X-9.525 Y3.599 Z3.000
G1 X-9.525 Y3.599 Z-1.000 F300.000
G1 X-7.402 Y5.722 Z-1.000 F300.000
G3 X-7.679 Y7.143 Z-1.000 I-9.707 J-1.154 K0.000 F300.000
G1 X-9.381 Y5.440 Z-1.000 F300.000
G3 X-9.682 Y6.836 Z-1.000 I-9.794 J-1.382 K0.000 F300.000
G1 X-8.222 Y8.296 Z-1.000 F300.000
G1 X-9.929 Y8.286 Z-1.000 F300.000
G1 X-10.134 Y8.285 Z-1.000 F300.000
G1 X-10.085 Y8.130 Z-1.000 F300.000
G1 X-9.929 Y8.286 Z-1.000 F300.000
G1 X-10.134 Y8.285 Z-1.000 F300.000
G2 X-9.325 Y4.977 Z-1.000 I-12.288 J-4.759 K0.000 F300.000
G2 X-9.699 Y3.345 Z-1.000 I-2.118 J-0.374 K0.000 F300.000
G2 X-10.999 Y2.839 Z-1.000 I-1.219 J1.208 K0.000 F300.000
G1 X-22.950 Y2.723 Z-1.000 F300.000
G1 X-22.901 Y0.887 Z-1.000 F300.000
G3 X-10.136 Y1.045 Z-1.000 I1.553 J390.217 K0.000 F300.000
G3 X-8.383 Y1.420 Z-1.000 I0.160 J3.542 K0.000 F300.000
G3 X-7.406 Y3.080 Z-1.000 I-1.284 J1.873 K0.000 F300.000
G3 X-7.738 Y7.399 Z-1.000 I-10.139 J1.393 K0.000 F300.000
G1 X-8.010 Y8.297 Z-1.000 F300.000
G1 X-9.929 Y8.286 Z-1.000 F300.000
G1 X-9.929 Y8.286 Z-2.000 F300.000
G1 X-8.010 Y8.297 Z-2.000 F300.000
G1 X-7.738 Y7.399 Z-2.000 F300.000
G2 X-7.406 Y3.080 Z-2.000 I-9.807 J-2.926 K0.000 F300.000
G2 X-8.383 Y1.420 Z-2.000 I-2.261 J0.214 K0.000 F300.000
G2 X-10.136 Y1.045 Z-2.000 I-1.594 J3.167 K0.000 F300.000
G2 X-22.901 Y0.887 Z-2.000 I-11.212 J390.059 K0.000 F300.000
G1 X-22.950 Y2.723 Z-2.000 F300.000
G1 X-10.999 Y2.839 Z-2.000 F300.000
G3 X-9.699 Y3.345 Z-2.000 I0.082 J1.714 K0.000 F300.000
G3 X-9.325 Y4.977 Z-2.000 I-1.744 J1.258 K0.000 F300.000
G3 X-10.134 Y8.285 Z-2.000 I-13.097 J-1.451 K0.000 F300.000
G1 X-9.929 Y8.286 Z-2.000 F300.000
G1 X-10.085 Y8.130 Z-2.000 F300.000
G1 X-10.134 Y8.285 Z-2.000 F300.000
G1 X-9.929 Y8.286 Z-2.000 F300.000
G1 X-8.222 Y8.296 Z-2.000 F300.000
G1 X-9.682 Y6.836 Z-2.000 F300.000
G2 X-9.381 Y5.440 Z-2.000 I-9.493 J-2.778 K0.000 F300.000
G1 X-7.679 Y7.143 Z-2.000 F300.000
G2 X-7.402 Y5.722 Z-2.000 I-9.430 J-2.574 K0.000 F300.000
G1 X-9.525 Y3.599 Z-2.000 F300.000
G0 Z5.000
G0 X-8.059 Y1.671 Z5.000
G0 X-8.059 Y1.671 Z3.000
G1 X-8.059 Y1.671 Z-2.000 F300.000
G3 X-7.406 Y3.080 Z-2.000 I-1.982 J1.774 K0.000 F300.000
G3 X-7.315 Y4.112 Z-2.000 I-10.479 J1.443 K0.000 F300.000
G1 X-10.390 Y1.037 Z-2.000 F300.000
G2 X-12.132 Y0.992 Z-2.000 I-2.645 J69.074 K0.000 F300.000
G1 X-10.074 Y3.050 Z-2.000 F300.000
G2 X-10.999 Y2.839 Z-2.000 I-0.900 J1.805 K0.000 F300.000
G1 X-11.992 Y2.829 Z-2.000 F300.000
G1 X-13.857 Y0.964 Z-2.000 F300.000
G1 X-15.575 Y0.943 Z-2.000 F300.000
G1 X-13.706 Y2.813 Z-2.000 F300.000
G1 X-15.419 Y2.796 Z-2.000 F300.000
G1 X-17.290 Y0.925 Z-2.000 F300.000
G1 X-18.999 Y0.914 Z-2.000 F300.000
G1 X-17.133 Y2.780 Z-2.000 F300.000
G1 X-18.846 Y2.763 Z-2.000 F300.000
G1 X-20.707 Y0.902 Z-2.000 F300.000
G1 X-22.416 Y0.891 Z-2.000 F300.000
G1 X-20.560 Y2.747 Z-2.000 F300.000
G1 X-22.273 Y2.730 Z-2.000 F300.000
G1 X-22.933 Y2.071 Z-2.000 F300.000
G1 X-22.950 Y2.723 Z-2.000 F300.000
G1 X-22.273 Y2.730 Z-2.000 F300.000
G0 Z5.000
G0 Z5.000
G0 X-22.273 Y2.730
G0 X-22.022 Y12.209
G0 X-22.022 Y12.209 Z3.000
G1 X-22.022 Y12.209 Z-1.000 F300.000
G1 X-20.828 Y13.403 Z-1.000 F300.000
G3 X-22.308 Y13.449 Z-1.000 I-2.161 J-45.189 K0.000 F300.000
G1 X-22.370 Y12.224 Z-1.000 F300.000
G1 X-22.022 Y12.209 Z-1.000 F300.000
G0 Z5.000
G0 X-22.022 Y12.211 Z5.000
G0 X-22.022 Y12.211 Z3.000
G1 X-22.022 Y12.211 Z-1.000 F300.000
G3 X-22.370 Y12.224 Z-1.000 I-2.521 J-65.072 K0.000 F300.000
G1 X-22.308 Y13.449 Z-1.000 F300.000
G2 X-20.023 Y13.358 Z-1.000 I-0.694 J-45.870 K0.000 F300.000
G3 X-19.417 Y13.764 Z-1.000 I0.038 J0.599 K0.000 F300.000
G3 X-19.386 Y14.665 Z-1.000 I-2.718 J0.547 K0.000 F300.000
G3 X-19.992 Y15.265 Z-1.000 I-0.600 J0.000 K0.000 F300.000
G1 X-23.031 Y15.231 Z-1.000 F300.000
G1 X-23.043 Y16.778 Z-1.000 F300.000
G1 X-19.882 Y16.796 Z-1.000 F300.000
G3 X-19.307 Y17.603 Z-1.000 I-0.013 J0.618 K0.000 F300.000
G1 X-17.765 Y17.645 Z-1.000 F300.000
G1 X-17.663 Y17.666 Z-1.000 F300.000
G1 X-17.629 Y17.352 Z-1.000 F300.000
G3 X-17.033 Y16.815 Z-1.000 I0.597 J0.064 K0.000 F300.000
G1 X-14.727 Y16.815 Z-1.000 F300.000
G3 X-14.127 Y17.400 Z-1.000 I-0.000 J0.600 K0.000 F300.000
G3 X-14.329 Y18.192 Z-1.000 I-2.642 J-0.252 K0.000 F300.000
G1 X-12.823 Y18.316 Z-1.000 F300.000
G1 X-12.465 Y17.228 Z-1.000 F300.000
G3 X-11.895 Y16.815 Z-1.000 I0.570 J0.187 K0.000 F300.000
G1 X-7.049 Y16.815 Z-1.000 F300.000
G1 X-7.141 Y15.210 Z-1.000 F300.000
G3 X-11.207 Y15.224 Z-1.000 I-3.374 J-375.304 K0.000 F300.000
G3 X-11.793 Y14.493 Z-1.000 I-0.001 J-0.600 K0.000 F300.000
G2 X-11.309 Y12.107 Z-1.000 I-22.042 J-5.709 K0.000 F300.000
G1 X-12.997 Y11.774 Z-1.000 F300.000
G3 X-13.531 Y14.756 Z-1.000 I-48.042 J-7.064 K0.000 F300.000
G3 X-14.116 Y15.245 Z-1.000 I-0.590 J-0.111 K0.000 F300.000
G1 X-17.109 Y15.265 Z-1.000 F300.000
G3 X-17.713 Y14.653 Z-1.000 I-0.004 J-0.600 K0.000 F300.000
G1 X-17.693 Y13.601 Z-1.000 F300.000
G3 X-17.189 Y13.021 Z-1.000 I0.600 J0.012 K0.000 F300.000
G1 X-16.178 Y12.856 Z-1.000 F300.000
G1 X-16.386 Y11.747 Z-1.000 F300.000
G3 X-22.022 Y12.211 Z-1.000 I-8.156 J-64.608 K0.000 F300.000
G0 Z5.000
G0 X-23.039 Y16.283 Z5.000
G0 X-23.039 Y16.283 Z3.000
G1 X-23.039 Y16.283 Z-1.000 F300.000
G1 X-22.540 Y16.781 Z-1.000 F300.000
G1 X-23.043 Y16.778 Z-1.000 F300.000
G1 X-23.039 Y16.283 Z-1.000 F300.000
G1 X-23.031 Y15.231 Z-1.000 F300.000
G1 X-22.386 Y15.238 Z-1.000 F300.000
G1 X-20.834 Y16.790 Z-1.000 F300.000
G1 X-19.882 Y16.796 Z-1.000 F300.000
G3 X-19.307 Y17.603 Z-1.000 I-0.013 J0.618 K0.000 F300.000
G1 X-18.297 Y17.631 Z-1.000 F300.000
G1 X-20.670 Y15.257 Z-1.000 F300.000
G1 X-19.992 Y15.265 Z-1.000 F300.000
G2 X-19.410 Y14.820 Z-1.000 I0.010 J-0.590 K0.000 F300.000
G1 X-17.331 Y16.900 Z-1.000 F300.000
G3 X-17.033 Y16.815 Z-1.000 I0.289 J0.452 K0.000 F300.000
G1 X-15.718 Y16.815 Z-1.000 F300.000
G1 X-17.297 Y15.236 Z-1.000 F300.000
G3 X-17.683 Y14.851 Z-1.000 I0.181 J-0.566 K0.000 F300.000
G1 X-20.415 Y12.119 Z-1.000 F300.000
G2 X-18.829 Y12.008 Z-1.000 I-1.401 J-31.478 K0.000 F300.000
G1 X-17.573 Y13.264 Z-1.000 F300.000
G3 X-17.189 Y13.021 Z-1.000 I0.403 J0.212 K0.000 F300.000
G1 X-16.268 Y12.871 Z-1.000 F300.000
G1 X-17.284 Y11.855 Z-1.000 F300.000
G1 X-16.386 Y11.747 Z-1.000 F300.000
G1 X-16.178 Y12.856 Z-1.000 F300.000
G1 X-16.268 Y12.871 Z-1.000 F300.000
G0 Z5.000
G0 X-15.718 Y16.815 Z5.000
G0 X-15.718 Y16.815 Z3.000
G1 X-15.718 Y16.815 Z-1.000 F300.000
G1 X-17.297 Y15.236 Z-1.000 F300.000
G1 X-17.109 Y15.265 Z-1.000 F300.000
G1 X-15.582 Y15.255 Z-1.000 F300.000
G1 X-12.748 Y18.088 Z-1.000 F300.000
G1 X-12.465 Y17.228 Z-1.000 F300.000
G3 X-12.222 Y16.917 Z-1.000 I0.544 J0.174 K0.000 F300.000
G1 X-13.929 Y15.211 Z-1.000 F300.000
G2 X-13.531 Y14.756 Z-1.000 I-0.181 J-0.560 K0.000 F300.000
G1 X-13.397 Y14.046 Z-1.000 F300.000
G1 X-10.627 Y16.815 Z-1.000 F300.000
G1 X-8.930 Y16.815 Z-1.000 F300.000
G1 X-10.522 Y15.224 Z-1.000 F300.000
G1 X-11.207 Y15.224 Z-1.000 F300.000
G3 X-11.802 Y14.707 Z-1.000 I-0.001 J-0.600 K0.000 F300.000
G3 X-11.694 Y14.051 Z-1.000 I1.863 J-0.030 K0.000 F300.000
G1 X-13.129 Y12.616 Z-1.000 F300.000
G1 X-12.997 Y11.774 Z-1.000 F300.000
G1 X-12.097 Y11.951 Z-1.000 F300.000
G1 X-11.400 Y12.648 Z-1.000 F300.000
G1 X-11.309 Y12.107 Z-1.000 F300.000
G1 X-12.097 Y11.951 Z-1.000 F300.000
G0 Z5.000
G0 X-8.930 Y16.815 Z5.000
G0 X-8.930 Y16.815 Z3.000
G1 X-8.930 Y16.815 Z-1.000 F300.000
G1 X-10.522 Y15.224 Z-1.000 F300.000
G2 X-8.828 Y15.220 Z-1.000 I0.094 J-397.993 K0.000 F300.000
G1 X-7.233 Y16.815 Z-1.000 F300.000
G1 X-7.049 Y16.815 Z-1.000 F300.000
G1 X-7.141 Y15.210 Z-1.000 F300.000
G0 Z5.000
G0 X-11.302 Y19.534 Z5.000
G0 X-11.302 Y19.534 Z3.000
G1 X-11.302 Y19.534 Z-1.000 F300.000
G2 X-10.420 Y18.953 Z-1.000 I-3.420 J-6.160 K0.000 F300.000
G1 X-9.748 Y20.377 Z-1.000 F300.000
G3 X-10.201 Y20.635 Z-1.000 I-2.130 J-3.216 K0.000 F300.000
G1 X-11.302 Y19.534 Z-1.000 F300.000
G3 X-12.391 Y20.142 Z-1.000 I-4.947 J-7.573 K0.000 F300.000
G1 X-11.328 Y21.205 Z-1.000 F300.000
G3 X-12.527 Y21.703 Z-1.000 I-4.462 J-9.042 K0.000 F300.000
G1 X-13.540 Y20.691 Z-1.000 F300.000
G3 X-14.742 Y21.186 Z-1.000 I-5.790 J-12.351 K0.000 F300.000
G1 X-13.772 Y22.156 Z-1.000 F300.000
G1 X-15.065 Y22.560 Z-1.000 F300.000
G1 X-15.988 Y21.637 Z-1.000 F300.000
G1 X-17.283 Y22.038 Z-1.000 F300.000
G1 X-16.394 Y22.927 Z-1.000 F300.000
G0 Z5.000
G0 X-16.777 Y25.939 Z5.000
G0 X-16.777 Y25.939 Z3.000
G1 X-16.777 Y25.939 Z-1.000 F300.000
G1 X-17.624 Y25.092 Z-1.000 F300.000
G2 X-16.235 Y24.783 Z-1.000 I-4.288 J-22.585 K0.000 F300.000
G1 X-15.324 Y25.695 Z-1.000 F300.000
G2 X-13.927 Y25.395 Z-1.000 I-4.202 J-22.999 K0.000 F300.000
G1 X-14.877 Y24.444 Z-1.000 F300.000
G2 X-13.563 Y24.062 Z-1.000 I-4.313 J-17.269 K0.000 F300.000
G1 X-12.561 Y25.064 Z-1.000 F300.000
G2 X-11.252 Y24.675 Z-1.000 I-4.308 J-16.905 K0.000 F300.000
G1 X-12.286 Y23.642 Z-1.000 F300.000
G2 X-11.050 Y23.181 Z-1.000 I-4.219 J-13.195 K0.000 F300.000
G1 X-9.987 Y24.243 Z-1.000 F300.000
G2 X-8.782 Y23.752 Z-1.000 I-4.148 J-11.888 K0.000 F300.000
G1 X-9.859 Y22.675 Z-1.000 F300.000
G1 X-8.721 Y22.115 Z-1.000 F300.000
G1 X-7.632 Y23.204 Z-1.000 F300.000
G1 X-7.384 Y23.068 Z-1.000 F300.000
G1 X-7.917 Y21.681 Z-1.000 F300.000
G3 X-8.721 Y22.115 Z-1.000 I-3.982 J-6.420 K0.000 F300.000
G0 Z5.000
G0 X-8.298 Y25.932 Z5.000
G0 X-8.298 Y25.932 Z3.000
G1 X-8.298 Y25.932 Z-1.000 F300.000
G1 X-7.072 Y26.087 Z-1.000 F300.000
G3 X-7.039 Y27.191 Z-1.000 I-8.675 J0.812 K0.000 F300.000
G1 X-8.298 Y25.932 Z-1.000 F300.000
G1 X-8.986 Y25.846 Z-1.000 F300.000
G3 X-9.275 Y26.653 Z-1.000 I-1.564 J-0.103 K0.000 F300.000
G1 X-7.448 Y28.480 Z-1.000 F300.000
G3 X-8.861 Y28.764 Z-1.000 I-1.228 J-2.452 K0.000 F300.000
G1 X-10.425 Y27.200 Z-1.000 F300.000
G3 X-12.075 Y27.247 Z-1.000 I-2.512 J-59.521 K0.000 F300.000
G1 X-10.535 Y28.786 Z-1.000 F300.000
G3 X-12.246 Y28.772 Z-1.000 I-0.227 J-77.324 K0.000 F300.000
G1 X-13.763 Y27.256 Z-1.000 F300.000
G1 X-15.468 Y27.248 Z-1.000 F300.000
G1 X-13.983 Y28.732 Z-1.000 F300.000
G2 X-15.694 Y28.719 Z-1.000 I-1.151 J38.449 K0.000 F300.000
G1 X-17.173 Y27.240 Z-1.000 F300.000
G3 X-17.934 Y26.588 Z-1.000 I-0.135 J-0.613 K0.000 F300.000
G1 X-17.912 Y26.501 Z-1.000 F300.000
G1 X-20.288 Y24.125 Z-1.000 F300.000
G2 X-20.394 Y25.716 Z-1.000 I28.338 J2.683 K0.000 F300.000
G1 X-17.408 Y28.702 Z-1.000 F300.000
G3 X-19.202 Y28.471 Z-1.000 I-0.150 J-5.906 K0.000 F300.000
G1 X-19.467 Y28.340 Z-1.000 F300.000
G3 X-20.100 Y27.707 Z-1.000 I0.883 J-1.516 K0.000 F300.000
G1 X-19.467 Y28.340 Z-1.000 F300.000
G0 Z5.000
G0 X-20.288 Y24.125 Z5.000
G0 X-20.288 Y24.125 Z3.000
G1 X-20.288 Y24.125 Z-1.000 F300.000
G2 X-20.370 Y26.616 Z-1.000 I16.899 J1.802 K0.000 F300.000
G2 X-19.921 Y27.954 Z-1.000 I1.807 J0.138 K0.000 F300.000
G2 X-18.341 Y28.663 Z-1.000 I1.622 J-1.497 K0.000 F300.000
G2 X-14.069 Y28.730 Z-1.000 I3.145 J-64.912 K0.000 F300.000
G2 X-8.652 Y28.757 Z-1.000 I3.164 J-90.560 K0.000 F300.000
G2 X-7.695 Y28.610 Z-1.000 I-0.252 J-4.827 K0.000 F300.000
G2 X-7.179 Y28.145 Z-1.000 I-0.234 J-0.778 K0.000 F300.000
G2 X-7.072 Y26.087 Z-1.000 I-5.003 J-1.293 K0.000 F300.000
G1 X-8.986 Y25.846 Z-1.000 F300.000
G3 X-10.336 Y27.195 Z-1.000 I-1.381 J-0.031 K0.000 F300.000
G3 X-17.339 Y27.239 Z-1.000 I-4.207 J-112.141 K0.000 F300.000
G3 X-17.434 Y26.047 Z-1.000 I0.003 J-0.600 K0.000 F300.000
G2 X-14.794 Y25.591 Z-1.000 I-6.517 J-45.607 K0.000 F300.000
G2 X-7.384 Y23.068 Z-1.000 I-4.753 J-26.095 K0.000 F300.000
G1 X-7.917 Y21.681 Z-1.000 F300.000
G3 X-9.898 Y22.694 Z-1.000 I-9.261 J-15.673 K0.000 F300.000
G3 X-18.290 Y25.225 Z-1.000 I-14.890 J-34.190 K0.000 F300.000
G3 X-18.994 Y24.765 Z-1.000 I-0.118 J-0.588 K0.000 F300.000
G3 X-18.945 Y23.952 Z-1.000 I2.619 J-0.248 K0.000 F300.000
G3 X-18.487 Y23.426 Z-1.000 I0.597 J0.058 K0.000 F300.000
G2 X-12.001 Y21.507 Z-1.000 I-8.130 J-39.394 K0.000 F300.000
G2 X-9.748 Y20.377 Z-1.000 I-5.523 J-13.825 K0.000 F300.000
G1 X-10.420 Y18.953 Z-1.000 F300.000
G3 X-13.288 Y20.584 Z-1.000 I-8.749 J-12.053 K0.000 F300.000
G3 X-17.988 Y22.256 Z-1.000 I-12.944 J-28.930 K0.000 F300.000
G3 X-18.755 Y21.569 Z-1.000 I-0.178 J-0.573 K0.000 F300.000
G1 X-18.613 Y20.841 Z-1.000 F300.000
G3 X-18.204 Y20.383 Z-1.000 I0.589 J0.114 K0.000 F300.000
G2 X-15.909 Y19.605 Z-1.000 I-5.396 J-19.710 K0.000 F300.000
G1 X-16.441 Y18.364 Z-1.000 F300.000
G1 X-16.866 Y18.538 Z-1.000 F300.000
G1 X-16.866 Y18.538 Z-1.000 F300.000
G3 X-17.271 Y18.555 Z-1.000 I-0.227 J-0.555 K0.000 F300.000
G3 X-17.613 Y18.821 Z-1.000 I-0.397 J-0.158 K0.000 F300.000
G3 X-22.933 Y19.869 Z-1.000 I-7.811 J-25.614 K0.000 F300.000
G1 X-22.861 Y21.056 Z-1.000 F300.000
G2 X-20.739 Y20.850 Z-1.000 I-0.416 J-15.335 K0.000 F300.000
G3 X-20.046 Y21.318 Z-1.000 I0.106 J0.591 K0.000 F300.000
G3 X-20.288 Y24.125 Z-1.000 I-64.369 J-4.149 K0.000 F300.000
G1 X-17.912 Y26.501 Z-1.000 F300.000
G3 X-17.620 Y26.111 Z-1.000 I0.506 J0.074 K0.000 F300.000
G3 X-16.777 Y25.939 Z-1.000 I0.937 J2.445 K0.000 F300.000
G1 X-17.624 Y25.092 Z-1.000 F300.000
G1 X-18.290 Y25.225 Z-1.000 F300.000
G3 X-18.994 Y24.765 Z-1.000 I-0.118 J-0.588 K0.000 F300.000
G3 X-18.908 Y23.808 Z-1.000 I2.601 J-0.247 K0.000 F300.000
G1 X-20.144 Y22.572 Z-1.000 F300.000
G0 Z5.000
G0 X-22.855 Y19.860 Z5.000
G0 X-22.855 Y19.860 Z3.000
G1 X-22.855 Y19.860 Z-1.000 F300.000
G1 X-21.734 Y20.982 Z-1.000 F300.000
G3 X-22.861 Y21.056 Z-1.000 I-1.974 J-21.272 K0.000 F300.000
G1 X-22.933 Y19.869 Z-1.000 F300.000
G1 X-22.855 Y19.860 Z-1.000 F300.000
G2 X-21.363 Y19.656 Z-1.000 I-2.385 J-22.930 K0.000 F300.000
G1 X-17.765 Y23.254 Z-1.000 F300.000
G2 X-16.394 Y22.927 Z-1.000 I-4.328 J-21.200 K0.000 F300.000
G1 X-17.283 Y22.038 Z-1.000 F300.000
G1 X-17.988 Y22.256 Z-1.000 F300.000
G3 X-18.755 Y21.569 Z-1.000 I-0.178 J-0.573 K0.000 F300.000
G3 X-18.580 Y20.742 Z-1.000 I3.148 J0.234 K0.000 F300.000
G1 X-19.914 Y19.407 Z-1.000 F300.000
G2 X-18.535 Y19.090 Z-1.000 I-2.928 J-15.894 K0.000 F300.000
G1 X-17.472 Y20.153 Z-1.000 F300.000
G2 X-16.208 Y19.719 Z-1.000 I-3.016 J-10.856 K0.000 F300.000
G1 X-17.316 Y18.612 Z-1.000 F300.000
G2 X-17.271 Y18.555 Z-1.000 I-0.055 J-0.088 K0.000 F300.000
G2 X-17.067 Y18.582 Z-1.000 I0.139 J-0.272 K0.000 F300.000
G2 X-16.441 Y18.364 Z-1.000 I-0.313 J-1.909 K0.000 F300.000
G1 X-15.909 Y19.605 Z-1.000 F300.000
G1 X-16.208 Y19.719 Z-1.000 F300.000
G1 X-16.208 Y19.719 Z-2.000 F300.000
G1 X-15.909 Y19.605 Z-2.000 F300.000
G1 X-16.441 Y18.364 Z-2.000 F300.000
G3 X-17.067 Y18.582 Z-2.000 I-0.939 J-1.691 K0.000 F300.000
G3 X-17.271 Y18.555 Z-2.000 I-0.065 J-0.298 K0.000 F300.000
G3 X-17.316 Y18.612 Z-2.000 I-0.099 J-0.031 K0.000 F300.000
G1 X-16.208 Y19.719 Z-2.000 F300.000
G3 X-17.472 Y20.153 Z-2.000 I-4.280 J-10.423 K0.000 F300.000
G1 X-18.535 Y19.090 Z-2.000 F300.000
G3 X-19.914 Y19.407 Z-2.000 I-4.308 J-15.577 K0.000 F300.000
G1 X-18.580 Y20.742 Z-2.000 F300.000
G2 X-18.755 Y21.569 Z-2.000 I2.973 J1.061 K0.000 F300.000
G2 X-17.988 Y22.256 Z-2.000 I0.589 J0.114 K0.000 F300.000
G1 X-17.283 Y22.038 Z-2.000 F300.000
G1 X-16.394 Y22.927 Z-2.000 F300.000
G3 X-17.765 Y23.254 Z-2.000 I-5.698 J-20.874 K0.000 F300.000
G1 X-21.363 Y19.656 Z-2.000 F300.000
G3 X-22.855 Y19.860 Z-2.000 I-3.877 J-22.725 K0.000 F300.000
G1 X-22.933 Y19.869 Z-2.000 F300.000
G1 X-22.861 Y21.056 Z-2.000 F300.000
G2 X-21.734 Y20.982 Z-2.000 I-0.846 J-21.347 K0.000 F300.000
G1 X-22.855 Y19.860 Z-2.000 F300.000
G0 Z5.000
G0 X-22.839 Y16.780 Z5.000
G0 X-22.839 Y16.780 Z3.000
G1 X-22.839 Y16.780 Z-2.000 F300.000
G1 X-19.882 Y16.796 Z-2.000 F300.000
G3 X-19.307 Y17.603 Z-2.000 I-0.013 J0.618 K0.000 F300.000
G1 X-17.765 Y17.645 Z-2.000 F300.000
G1 X-17.663 Y17.666 Z-2.000 F300.000
G1 X-17.629 Y17.352 Z-2.000 F300.000
G3 X-17.033 Y16.815 Z-2.000 I0.597 J0.064 K0.000 F300.000
G1 X-14.727 Y16.815 Z-2.000 F300.000
G3 X-14.127 Y17.400 Z-2.000 I-0.000 J0.600 K0.000 F300.000
G3 X-14.329 Y18.192 Z-2.000 I-2.642 J-0.252 K0.000 F300.000
G1 X-12.823 Y18.316 Z-2.000 F300.000
G1 X-12.465 Y17.228 Z-2.000 F300.000
G3 X-11.895 Y16.815 Z-2.000 I0.570 J0.187 K0.000 F300.000
G1 X-7.049 Y16.815 Z-2.000 F300.000
G1 X-7.141 Y15.210 Z-2.000 F300.000
G3 X-11.207 Y15.224 Z-2.000 I-3.374 J-375.304 K0.000 F300.000
G3 X-11.793 Y14.493 Z-2.000 I-0.001 J-0.600 K0.000 F300.000
G2 X-11.309 Y12.107 Z-2.000 I-22.042 J-5.709 K0.000 F300.000
G1 X-12.997 Y11.774 Z-2.000 F300.000
G3 X-13.531 Y14.756 Z-2.000 I-48.042 J-7.064 K0.000 F300.000
G3 X-14.116 Y15.245 Z-2.000 I-0.590 J-0.111 K0.000 F300.000
G1 X-17.109 Y15.265 Z-2.000 F300.000
G3 X-17.713 Y14.653 Z-2.000 I-0.004 J-0.600 K0.000 F300.000
G1 X-17.693 Y13.601 Z-2.000 F300.000
G3 X-17.189 Y13.021 Z-2.000 I0.600 J0.012 K0.000 F300.000
G1 X-16.178 Y12.856 Z-2.000 F300.000
G1 X-16.386 Y11.747 Z-2.000 F300.000
G3 X-22.370 Y12.224 Z-2.000 I-8.156 J-64.608 K0.000 F300.000
G1 X-22.308 Y13.449 Z-2.000 F300.000
G2 X-20.023 Y13.358 Z-2.000 I-0.694 J-45.870 K0.000 F300.000
G3 X-19.417 Y13.764 Z-2.000 I0.038 J0.599 K0.000 F300.000
G3 X-19.386 Y14.665 Z-2.000 I-2.718 J0.547 K0.000 F300.000
G3 X-19.992 Y15.265 Z-2.000 I-0.600 J0.000 K0.000 F300.000
G1 X-23.031 Y15.231 Z-2.000 F300.000
G1 X-23.043 Y16.778 Z-2.000 F300.000
G1 X-22.839 Y16.780 Z-2.000 F300.000
G0 Z5.000
G0 X-23.039 Y16.283 Z5.000
G0 X-23.039 Y16.283 Z3.000
G1 X-23.039 Y16.283 Z-2.000 F300.000
G1 X-22.540 Y16.781 Z-2.000 F300.000
G1 X-23.043 Y16.778 Z-2.000 F300.000
G1 X-23.039 Y16.283 Z-2.000 F300.000
G1 X-23.031 Y15.231 Z-2.000 F300.000
G1 X-22.386 Y15.238 Z-2.000 F300.000
G1 X-20.834 Y16.790 Z-2.000 F300.000
G1 X-19.882 Y16.796 Z-2.000 F300.000
G3 X-19.307 Y17.603 Z-2.000 I-0.013 J0.618 K0.000 F300.000
G1 X-18.297 Y17.631 Z-2.000 F300.000
G1 X-20.670 Y15.257 Z-2.000 F300.000
G1 X-19.992 Y15.265 Z-2.000 F300.000
G2 X-19.410 Y14.820 Z-2.000 I0.010 J-0.590 K0.000 F300.000
G1 X-17.331 Y16.900 Z-2.000 F300.000
G3 X-17.033 Y16.815 Z-2.000 I0.289 J0.452 K0.000 F300.000
G1 X-15.718 Y16.815 Z-2.000 F300.000
G1 X-17.297 Y15.236 Z-2.000 F300.000
G3 X-17.683 Y14.851 Z-2.000 I0.181 J-0.566 K0.000 F300.000
G1 X-20.415 Y12.119 Z-2.000 F300.000
G2 X-18.829 Y12.008 Z-2.000 I-1.401 J-31.478 K0.000 F300.000
G1 X-17.573 Y13.264 Z-2.000 F300.000
G3 X-17.189 Y13.021 Z-2.000 I0.403 J0.212 K0.000 F300.000
G1 X-16.268 Y12.871 Z-2.000 F300.000
G1 X-17.284 Y11.855 Z-2.000 F300.000
G1 X-16.386 Y11.747 Z-2.000 F300.000
G1 X-16.178 Y12.856 Z-2.000 F300.000
G1 X-16.268 Y12.871 Z-2.000 F300.000
G0 Z5.000
G0 X-15.718 Y16.815 Z5.000
G0 X-15.718 Y16.815 Z3.000
G1 X-15.718 Y16.815 Z-2.000 F300.000
G1 X-17.297 Y15.236 Z-2.000 F300.000
G1 X-17.109 Y15.265 Z-2.000 F300.000
G1 X-15.582 Y15.255 Z-2.000 F300.000
G1 X-12.748 Y18.088 Z-2.000 F300.000
G1 X-12.465 Y17.228 Z-2.000 F300.000
G3 X-12.222 Y16.917 Z-2.000 I0.544 J0.174 K0.000 F300.000
G1 X-13.929 Y15.211 Z-2.000 F300.000
G2 X-13.531 Y14.756 Z-2.000 I-0.181 J-0.560 K0.000 F300.000
G1 X-13.397 Y14.046 Z-2.000 F300.000
G1 X-10.627 Y16.815 Z-2.000 F300.000
G1 X-8.930 Y16.815 Z-2.000 F300.000
G1 X-10.522 Y15.224 Z-2.000 F300.000
G1 X-11.207 Y15.224 Z-2.000 F300.000
G3 X-11.802 Y14.707 Z-2.000 I-0.001 J-0.600 K0.000 F300.000
G3 X-11.694 Y14.051 Z-2.000 I1.863 J-0.030 K0.000 F300.000
G1 X-13.129 Y12.616 Z-2.000 F300.000
G1 X-12.997 Y11.774 Z-2.000 F300.000
G1 X-12.097 Y11.951 Z-2.000 F300.000
G1 X-11.400 Y12.648 Z-2.000 F300.000
G1 X-11.309 Y12.107 Z-2.000 F300.000
G1 X-12.097 Y11.951 Z-2.000 F300.000
G0 Z5.000
G0 X-8.930 Y16.815 Z5.000
G0 X-8.930 Y16.815 Z3.000
G1 X-8.930 Y16.815 Z-2.000 F300.000
G1 X-10.522 Y15.224 Z-2.000 F300.000
G2 X-8.828 Y15.220 Z-2.000 I0.094 J-397.993 K0.000 F300.000
G1 X-7.233 Y16.815 Z-2.000 F300.000
G1 X-7.049 Y16.815 Z-2.000 F300.000
G1 X-7.141 Y15.210 Z-2.000 F300.000
G0 Z5.000
G0 X-11.302 Y19.534 Z5.000
G0 X-11.302 Y19.534 Z3.000
G1 X-11.302 Y19.534 Z-2.000 F300.000
G2 X-10.420 Y18.953 Z-2.000 I-3.420 J-6.160 K0.000 F300.000
G1 X-9.748 Y20.377 Z-2.000 F300.000
G3 X-10.201 Y20.635 Z-2.000 I-2.130 J-3.216 K0.000 F300.000
G1 X-11.302 Y19.534 Z-2.000 F300.000
G3 X-12.391 Y20.142 Z-2.000 I-4.947 J-7.573 K0.000 F300.000
G1 X-11.328 Y21.205 Z-2.000 F300.000
G3 X-12.527 Y21.703 Z-2.000 I-4.462 J-9.042 K0.000 F300.000
G1 X-13.540 Y20.691 Z-2.000 F300.000
G3 X-14.742 Y21.186 Z-2.000 I-5.790 J-12.351 K0.000 F300.000
G1 X-13.772 Y22.156 Z-2.000 F300.000
G1 X-15.065 Y22.560 Z-2.000 F300.000
G1 X-15.988 Y21.637 Z-2.000 F300.000
G1 X-17.283 Y22.038 Z-2.000 F300.000
G1 X-16.394 Y22.927 Z-2.000 F300.000
G0 Z5.000
G0 X-16.777 Y25.939 Z5.000
G0 X-16.777 Y25.939 Z3.000
G1 X-16.777 Y25.939 Z-2.000 F300.000
G1 X-17.624 Y25.092 Z-2.000 F300.000
G2 X-16.235 Y24.783 Z-2.000 I-4.288 J-22.585 K0.000 F300.000
G1 X-15.324 Y25.695 Z-2.000 F300.000
G2 X-13.927 Y25.395 Z-2.000 I-4.202 J-22.999 K0.000 F300.000
G1 X-14.877 Y24.444 Z-2.000 F300.000
G2 X-13.563 Y24.062 Z-2.000 I-4.313 J-17.269 K0.000 F300.000
G1 X-12.561 Y25.064 Z-2.000 F300.000
G2 X-11.252 Y24.675 Z-2.000 I-4.308 J-16.905 K0.000 F300.000
G1 X-12.286 Y23.642 Z-2.000 F300.000
G2 X-11.050 Y23.181 Z-2.000 I-4.219 J-13.195 K0.000 F300.000
G1 X-9.987 Y24.243 Z-2.000 F300.000
G2 X-8.782 Y23.752 Z-2.000 I-4.148 J-11.888 K0.000 F300.000
G1 X-9.859 Y22.675 Z-2.000 F300.000
G1 X-8.721 Y22.115 Z-2.000 F300.000
G1 X-7.632 Y23.204 Z-2.000 F300.000
G1 X-7.384 Y23.068 Z-2.000 F300.000
G1 X-7.917 Y21.681 Z-2.000 F300.000
G3 X-8.721 Y22.115 Z-2.000 I-3.982 J-6.420 K0.000 F300.000
G0 Z5.000
G0 X-8.298 Y25.932 Z5.000
G0 X-8.298 Y25.932 Z3.000
G1 X-8.298 Y25.932 Z-2.000 F300.000
G1 X-7.072 Y26.087 Z-2.000 F300.000
G3 X-7.039 Y27.191 Z-2.000 I-8.675 J0.812 K0.000 F300.000
G1 X-8.298 Y25.932 Z-2.000 F300.000
G1 X-8.986 Y25.846 Z-2.000 F300.000
G3 X-9.275 Y26.653 Z-2.000 I-1.564 J-0.103 K0.000 F300.000
G1 X-7.448 Y28.480 Z-2.000 F300.000
G3 X-8.861 Y28.764 Z-2.000 I-1.228 J-2.452 K0.000 F300.000
G1 X-10.425 Y27.200 Z-2.000 F300.000
G3 X-12.075 Y27.247 Z-2.000 I-2.512 J-59.521 K0.000 F300.000
G1 X-10.535 Y28.786 Z-2.000 F300.000
G3 X-12.246 Y28.772 Z-2.000 I-0.227 J-77.324 K0.000 F300.000
G1 X-13.763 Y27.256 Z-2.000 F300.000
G1 X-15.468 Y27.248 Z-2.000 F300.000
G1 X-13.983 Y28.732 Z-2.000 F300.000
G2 X-15.694 Y28.719 Z-2.000 I-1.151 J38.449 K0.000 F300.000
G1 X-17.173 Y27.240 Z-2.000 F300.000
G3 X-17.934 Y26.588 Z-2.000 I-0.135 J-0.613 K0.000 F300.000
G1 X-17.912 Y26.501 Z-2.000 F300.000
G1 X-20.288 Y24.125 Z-2.000 F300.000
G2 X-20.394 Y25.716 Z-2.000 I28.338 J2.683 K0.000 F300.000
G1 X-17.408 Y28.702 Z-2.000 F300.000
G3 X-19.202 Y28.471 Z-2.000 I-0.150 J-5.906 K0.000 F300.000
G1 X-19.467 Y28.340 Z-2.000 F300.000
G3 X-20.100 Y27.707 Z-2.000 I0.883 J-1.516 K0.000 F300.000
G1 X-19.467 Y28.340 Z-2.000 F300.000
G0 Z5.000
G0 X-20.288 Y24.125 Z5.000
G0 X-20.288 Y24.125 Z3.000
G1 X-20.288 Y24.125 Z-2.000 F300.000
G2 X-20.370 Y26.616 Z-2.000 I16.899 J1.802 K0.000 F300.000
G2 X-19.921 Y27.954 Z-2.000 I1.807 J0.138 K0.000 F300.000
G2 X-18.341 Y28.663 Z-2.000 I1.622 J-1.497 K0.000 F300.000
G2 X-14.069 Y28.730 Z-2.000 I3.145 J-64.912 K0.000 F300.000
G2 X-8.652 Y28.757 Z-2.000 I3.164 J-90.560 K0.000 F300.000
G2 X-7.695 Y28.610 Z-2.000 I-0.252 J-4.827 K0.000 F300.000
G2 X-7.179 Y28.145 Z-2.000 I-0.234 J-0.778 K0.000 F300.000
G2 X-7.072 Y26.087 Z-2.000 I-5.003 J-1.293 K0.000 F300.000
G1 X-8.986 Y25.846 Z-2.000 F300.000
G3 X-10.336 Y27.195 Z-2.000 I-1.381 J-0.031 K0.000 F300.000
G3 X-17.339 Y27.239 Z-2.000 I-4.207 J-112.141 K0.000 F300.000
G3 X-17.434 Y26.047 Z-2.000 I0.003 J-0.600 K0.000 F300.000
G2 X-14.794 Y25.591 Z-2.000 I-6.517 J-45.607 K0.000 F300.000
G2 X-7.384 Y23.068 Z-2.000 I-4.753 J-26.095 K0.000 F300.000
G1 X-7.917 Y21.681 Z-2.000 F300.000
G3 X-9.898 Y22.694 Z-2.000 I-9.261 J-15.673 K0.000 F300.000
G3 X-18.290 Y25.225 Z-2.000 I-14.890 J-34.190 K0.000 F300.000
G3 X-18.994 Y24.765 Z-2.000 I-0.118 J-0.588 K0.000 F300.000
G3 X-18.945 Y23.952 Z-2.000 I2.619 J-0.248 K0.000 F300.000
G3 X-18.487 Y23.426 Z-2.000 I0.597 J0.058 K0.000 F300.000
G2 X-12.001 Y21.507 Z-2.000 I-8.130 J-39.394 K0.000 F300.000
G2 X-9.748 Y20.377 Z-2.000 I-5.523 J-13.825 K0.000 F300.000
G1 X-10.420 Y18.953 Z-2.000 F300.000
G3 X-13.288 Y20.584 Z-2.000 I-8.749 J-12.053 K0.000 F300.000
G3 X-17.988 Y22.256 Z-2.000 I-12.944 J-28.930 K0.000 F300.000
G3 X-18.755 Y21.569 Z-2.000 I-0.178 J-0.573 K0.000 F300.000
G1 X-18.613 Y20.841 Z-2.000 F300.000
G3 X-18.204 Y20.383 Z-2.000 I0.589 J0.114 K0.000 F300.000
G2 X-15.909 Y19.605 Z-2.000 I-5.396 J-19.710 K0.000 F300.000
G1 X-16.441 Y18.364 Z-2.000 F300.000
G1 X-16.866 Y18.538 Z-2.000 F300.000
G1 X-16.866 Y18.538 Z-2.000 F300.000
G3 X-17.271 Y18.555 Z-2.000 I-0.227 J-0.555 K0.000 F300.000
G3 X-17.613 Y18.821 Z-2.000 I-0.397 J-0.158 K0.000 F300.000
G3 X-22.933 Y19.869 Z-2.000 I-7.811 J-25.614 K0.000 F300.000
G1 X-22.861 Y21.056 Z-2.000 F300.000
G2 X-20.739 Y20.850 Z-2.000 I-0.416 J-15.335 K0.000 F300.000
G3 X-20.046 Y21.318 Z-2.000 I0.106 J0.591 K0.000 F300.000
G3 X-20.288 Y24.125 Z-2.000 I-64.369 J-4.149 K0.000 F300.000
G1 X-17.912 Y26.501 Z-2.000 F300.000
G3 X-17.620 Y26.111 Z-2.000 I0.506 J0.074 K0.000 F300.000
G3 X-16.777 Y25.939 Z-2.000 I0.937 J2.445 K0.000 F300.000
G1 X-17.624 Y25.092 Z-2.000 F300.000
G1 X-18.290 Y25.225 Z-2.000 F300.000
G3 X-18.994 Y24.765 Z-2.000 I-0.118 J-0.588 K0.000 F300.000
G3 X-18.908 Y23.808 Z-2.000 I2.601 J-0.247 K0.000 F300.000
G1 X-20.144 Y22.572 Z-2.000 F300.000
G0 Z5.000
G0 X-20.828 Y13.403 Z5.000
G0 X-20.828 Y13.403 Z3.000
G1 X-20.828 Y13.403 Z-2.000 F300.000
G3 X-22.308 Y13.449 Z-2.000 I-2.161 J-45.189 K0.000 F300.000
G1 X-22.370 Y12.224 Z-2.000 F300.000
G1 X-22.022 Y12.209 Z-2.000 F300.000
G1 X-20.828 Y13.403 Z-2.000 F300.000
G0 Z5.000
G0 Z5.000
G0 X-20.828 Y13.403
G0 X-14.284 Y32.178
G0 X-14.284 Y32.178 Z3.000
G1 X-14.284 Y32.178 Z-1.000 F300.000
G1 X-14.309 Y33.851 Z-1.000 F300.000
G1 X-16.016 Y32.143 Z-1.000 F300.000
G1 X-16.039 Y33.817 Z-1.000 F300.000
G1 X-14.335 Y35.521 Z-1.000 F300.000
G3 X-14.363 Y37.190 Z-1.000 I-1131.384 J-18.193 K0.000 F300.000
G1 X-16.061 Y35.492 Z-1.000 F300.000
G3 X-16.090 Y37.161 Z-1.000 I-111.876 J-1.064 K0.000 F300.000
G1 X-14.392 Y38.858 Z-1.000 F300.000
G2 X-14.421 Y40.527 Z-1.000 I451.424 J8.547 K0.000 F300.000
G1 X-16.124 Y38.823 Z-1.000 F300.000
G1 X-16.159 Y40.485 Z-1.000 F300.000
G1 X-14.447 Y42.197 Z-1.000 F300.000
G1 X-14.475 Y43.867 Z-1.000 F300.000
G1 X-16.197 Y42.145 Z-1.000 F300.000
G1 X-16.235 Y43.804 Z-1.000 F300.000
G1 X-14.504 Y45.534 Z-1.000 F300.000
G3 X-14.538 Y47.198 Z-1.000 I-345.310 J-6.054 K0.000 F300.000
G1 X-16.272 Y45.463 Z-1.000 F300.000
G2 X-16.309 Y47.124 Z-1.000 I967.254 J22.154 K0.000 F300.000
G1 X-14.742 Y48.691 Z-1.000 F300.000
G1 X-16.340 Y48.560 Z-1.000 F300.000
G2 X-16.016 Y32.130 Z-1.000 I-1563.660 J-39.003 K0.000 F300.000
G1 X-14.284 Y32.178 Z-1.000 F300.000
G3 X-14.575 Y48.705 Z-1.000 I-2734.346 J-39.853 K0.000 F300.000
G1 X-16.340 Y48.560 Z-1.000 F300.000
G1 X-16.309 Y47.124 Z-1.000 F300.000
G1 X-16.309 Y47.124 Z-2.000 F300.000
G1 X-16.340 Y48.560 Z-2.000 F300.000
G1 X-14.575 Y48.705 Z-2.000 F300.000
G2 X-14.284 Y32.178 Z-2.000 I-2734.055 J-56.380 K0.000 F300.000
G1 X-16.016 Y32.130 Z-2.000 F300.000
G3 X-16.340 Y48.560 Z-2.000 I-1563.984 J-22.574 K0.000 F300.000
G1 X-14.742 Y48.691 Z-2.000 F300.000
G1 X-16.309 Y47.124 Z-2.000 F300.000
G3 X-16.272 Y45.463 Z-2.000 I967.291 J20.494 K0.000 F300.000
G1 X-14.538 Y47.198 Z-2.000 F300.000
G2 X-14.504 Y45.534 Z-2.000 I-345.277 J-7.718 K0.000 F300.000
G1 X-16.235 Y43.804 Z-2.000 F300.000
G1 X-16.197 Y42.145 Z-2.000 F300.000
G1 X-14.475 Y43.867 Z-2.000 F300.000
G1 X-14.447 Y42.197 Z-2.000 F300.000
G1 X-16.159 Y40.485 Z-2.000 F300.000
G1 X-16.124 Y38.823 Z-2.000 F300.000
G1 X-14.421 Y40.527 Z-2.000 F300.000
G3 X-14.392 Y38.858 Z-2.000 I451.452 J6.878 K0.000 F300.000
G1 X-16.090 Y37.161 Z-2.000 F300.000
G2 X-16.061 Y35.492 Z-2.000 I-111.847 J-2.733 K0.000 F300.000
G1 X-14.363 Y37.190 Z-2.000 F300.000
G2 X-14.335 Y35.521 Z-2.000 I-1131.356 J-19.862 K0.000 F300.000
G1 X-16.039 Y33.817 Z-2.000 F300.000
G1 X-16.016 Y32.143 Z-2.000 F300.000
G1 X-14.309 Y33.851 Z-2.000 F300.000
G1 X-14.284 Y32.178 Z-2.000 F300.000
G0 Z5.000
G0 Z5.000
G0 X-14.284 Y32.178
G0 X-14.134 Y54.197
G0 X-14.134 Y54.197 Z3.000
G1 X-14.134 Y54.197 Z-1.000 F300.000
G3 X-13.872 Y53.558 Z-1.000 I0.569 J-0.139 K0.000 F300.000
G1 X-13.601 Y53.389 Z-1.000 F300.000
G1 X-15.475 Y52.401 Z-1.000 F300.000
G1 X-15.719 Y52.611 Z-1.000 F300.000
G1 X-14.134 Y54.197 Z-1.000 F300.000
G2 X-13.685 Y54.646 Z-1.000 I0.552 J-0.103 K0.000 F300.000
G1 X-11.916 Y56.415 Z-1.000 F300.000
G1 X-13.627 Y56.401 Z-1.000 F300.000
G1 X-16.696 Y53.331 Z-1.000 F300.000
G3 X-17.771 Y53.954 Z-1.000 I-5.010 J-7.412 K0.000 F300.000
G1 X-15.365 Y56.360 Z-1.000 F300.000
G1 X-17.105 Y56.317 Z-1.000 F300.000
G1 X-18.929 Y54.492 Z-1.000 F300.000
G3 X-20.188 Y54.931 Z-1.000 I-3.957 J-9.330 K0.000 F300.000
G1 X-18.825 Y56.294 Z-1.000 F300.000
G3 X-20.132 Y56.684 Z-1.000 I-4.001 J-11.037 K0.000 F300.000
G1 X-21.535 Y55.281 Z-1.000 F300.000
G3 X-22.975 Y55.538 Z-1.000 I-4.213 J-19.404 K0.000 F300.000
G1 X-21.535 Y56.978 Z-1.000 F300.000
G3 X-22.817 Y57.159 Z-1.000 I-2.318 J-11.769 K0.000 F300.000
G1 X-23.003 Y55.542 Z-1.000 F300.000
G2 X-16.599 Y53.269 Z-1.000 I-1.677 J-14.886 K0.000 F300.000
G2 X-15.475 Y52.401 Z-1.000 I-4.880 J-7.484 K0.000 F300.000
G1 X-13.601 Y53.389 Z-1.000 F300.000
G2 X-14.017 Y53.686 Z-1.000 I0.701 J1.423 K0.000 F300.000
G2 X-13.549 Y54.667 Z-1.000 I0.463 J0.381 K0.000 F300.000
G2 X-7.095 Y54.448 Z-1.000 I0.527 J-79.544 K0.000 F300.000
G1 X-7.032 Y56.425 Z-1.000 F300.000
G3 X-18.730 Y56.280 Z-1.000 I-2.237 J-290.672 K0.000 F300.000
G2 X-19.310 Y56.458 Z-1.000 I0.216 J1.735 K0.000 F300.000
G3 X-22.817 Y57.159 Z-1.000 I-5.199 J-16.883 K0.000 F300.000
G1 X-23.003 Y55.542 Z-1.000 F300.000
G1 X-22.975 Y55.538 Z-1.000 F300.000
G0 Z5.000
G0 X-11.916 Y56.415 Z5.000
G0 X-11.916 Y56.415 Z3.000
G1 X-11.916 Y56.415 Z-1.000 F300.000
G1 X-13.685 Y54.646 Z-1.000 F300.000
G1 X-13.549 Y54.667 Z-1.000 F300.000
G1 X-11.978 Y54.655 Z-1.000 F300.000
G1 X-10.204 Y56.429 Z-1.000 F300.000
G2 X-8.499 Y56.437 Z-1.000 I1.092 J-50.990 K0.000 F300.000
G1 X-10.318 Y54.618 Z-1.000 F300.000
G2 X-8.687 Y54.553 Z-1.000 I-0.810 J-40.531 K0.000 F300.000
G1 X-7.039 Y56.200 Z-1.000 F300.000
G1 X-7.095 Y54.448 Z-1.000 F300.000
G1 X-7.095 Y54.448 Z-2.000 F300.000
G1 X-7.039 Y56.200 Z-2.000 F300.000
G1 X-8.687 Y54.553 Z-2.000 F300.000
G3 X-10.318 Y54.618 Z-2.000 I-2.441 J-40.465 K0.000 F300.000
G1 X-8.499 Y56.437 Z-2.000 F300.000
G3 X-10.204 Y56.429 Z-2.000 I-0.613 J-50.998 K0.000 F300.000
G1 X-11.978 Y54.655 Z-2.000 F300.000
G1 X-13.549 Y54.667 Z-2.000 F300.000
G1 X-13.685 Y54.646 Z-2.000 F300.000
G1 X-11.916 Y56.415 Z-2.000 F300.000
G0 Z5.000
G0 X-14.134 Y54.197 Z5.000
G0 X-14.134 Y54.197 Z3.000
G1 X-14.134 Y54.197 Z-2.000 F300.000
G3 X-13.872 Y53.558 Z-2.000 I0.569 J-0.139 K0.000 F300.000
G1 X-13.601 Y53.389 Z-2.000 F300.000
G1 X-15.475 Y52.401 Z-2.000 F300.000
G1 X-15.719 Y52.611 Z-2.000 F300.000
G1 X-14.134 Y54.197 Z-2.000 F300.000
G2 X-13.685 Y54.646 Z-2.000 I0.552 J-0.103 K0.000 F300.000
G1 X-11.916 Y56.415 Z-2.000 F300.000
G1 X-13.627 Y56.401 Z-2.000 F300.000
G1 X-16.696 Y53.331 Z-2.000 F300.000
G3 X-17.771 Y53.954 Z-2.000 I-5.010 J-7.412 K0.000 F300.000
G1 X-15.365 Y56.360 Z-2.000 F300.000
G1 X-17.105 Y56.317 Z-2.000 F300.000
G1 X-18.929 Y54.492 Z-2.000 F300.000
G3 X-20.188 Y54.931 Z-2.000 I-3.957 J-9.330 K0.000 F300.000
G1 X-18.825 Y56.294 Z-2.000 F300.000
G3 X-20.132 Y56.684 Z-2.000 I-4.001 J-11.037 K0.000 F300.000
G1 X-21.535 Y55.281 Z-2.000 F300.000
G3 X-22.975 Y55.538 Z-2.000 I-4.213 J-19.404 K0.000 F300.000
G1 X-21.535 Y56.978 Z-2.000 F300.000
G3 X-22.817 Y57.159 Z-2.000 I-2.318 J-11.769 K0.000 F300.000
G1 X-23.003 Y55.542 Z-2.000 F300.000
G2 X-16.599 Y53.269 Z-2.000 I-1.677 J-14.886 K0.000 F300.000
G2 X-15.475 Y52.401 Z-2.000 I-4.880 J-7.484 K0.000 F300.000
G1 X-13.601 Y53.389 Z-2.000 F300.000
G2 X-14.017 Y53.686 Z-2.000 I0.701 J1.423 K0.000 F300.000
G2 X-13.549 Y54.667 Z-2.000 I0.463 J0.381 K0.000 F300.000
G2 X-7.095 Y54.448 Z-2.000 I0.527 J-79.544 K0.000 F300.000
G1 X-7.032 Y56.425 Z-2.000 F300.000
G3 X-18.730 Y56.280 Z-2.000 I-2.237 J-290.672 K0.000 F300.000
G2 X-19.310 Y56.458 Z-2.000 I0.216 J1.735 K0.000 F300.000
G3 X-22.817 Y57.159 Z-2.000 I-5.199 J-16.883 K0.000 F300.000
G1 X-23.003 Y55.542 Z-2.000 F300.000
G1 X-22.975 Y55.538 Z-2.000 F300.000
G0 Z5.000
G0 Z5.000
G0 X-22.975 Y55.538
G0 X-22.671 Y61.271
G0 X-22.671 Y61.271 Z3.000
G1 X-22.671 Y61.271 Z-1.000 F300.000
G1 X-21.918 Y62.025 Z-1.000 F300.000
G1 X-22.406 Y62.127 Z-1.000 F300.000
G1 X-22.671 Y61.271 Z-1.000 F300.000
G1 X-22.861 Y60.661 Z-1.000 F300.000
G2 X-21.858 Y60.388 Z-1.000 I-1.435 J-7.237 K0.000 F300.000
G1 X-20.554 Y61.692 Z-1.000 F300.000
G2 X-19.275 Y61.273 Z-1.000 I-2.314 J-9.239 K0.000 F300.000
G1 X-20.613 Y59.936 Z-1.000 F300.000
G2 X-19.469 Y59.383 Z-1.000 I-3.858 J-9.446 K0.000 F300.000
G1 X-18.089 Y60.763 Z-1.000 F300.000
G2 X-17.044 Y60.111 Z-1.000 I-2.545 J-5.237 K0.000 F300.000
G1 X-18.417 Y58.737 Z-1.000 F300.000
G2 X-17.457 Y58.022 Z-1.000 I-4.361 J-6.856 K0.000 F300.000
G1 X-16.515 Y59.384 Z-1.000 F300.000
G2 X-15.818 Y59.640 Z-1.000 I0.539 J-0.394 K0.000 F300.000
G1 X-14.320 Y61.137 Z-1.000 F300.000
G2 X-14.001 Y61.456 Z-1.000 I0.473 J-0.153 K0.000 F300.000
G1 X-12.543 Y62.915 Z-1.000 F300.000
G2 X-11.204 Y62.556 Z-1.000 I-3.055 J-14.078 K0.000 F300.000
G1 X-12.597 Y61.164 Z-1.000 F300.000
G2 X-11.365 Y60.699 Z-1.000 I-4.727 J-14.380 K0.000 F300.000
G1 X-9.954 Y62.109 Z-1.000 F300.000
G2 X-8.799 Y61.567 Z-1.000 I-2.816 J-7.499 K0.000 F300.000
G1 X-10.214 Y60.152 Z-1.000 F300.000
G2 X-9.141 Y59.528 Z-1.000 I-4.701 J-9.306 K0.000 F300.000
G1 X-7.746 Y60.923 Z-1.000 F300.000
G2 X-7.264 Y60.554 Z-1.000 I-2.492 J-3.747 K0.000 F300.000
G1 X-8.147 Y58.825 Z-1.000 F300.000
G0 Z5.000
G0 X-14.295 Y59.614 Z5.000
G0 X-14.295 Y59.614 Z3.000
G1 X-14.295 Y59.614 Z-1.000 F300.000
G1 X-15.818 Y59.640 Z-1.000 F300.000
G1 X-14.320 Y61.137 Z-1.000 F300.000
G3 X-14.375 Y60.866 Z-1.000 I0.381 J-0.217 K0.000 F300.000
G1 X-14.295 Y59.614 Z-1.000 F300.000
G0 Z5.000
G0 X-16.102 Y61.052 Z5.000
G0 X-16.102 Y61.052 Z3.000
G1 X-16.102 Y61.052 Z-1.000 F300.000
G1 X-13.967 Y63.188 Z-1.000 F300.000
G2 X-14.558 Y63.765 Z-1.000 I0.023 J0.615 K0.000 F300.000
G1 X-14.584 Y64.267 Z-1.000 F300.000
G1 X-16.208 Y62.643 Z-1.000 F300.000
G2 X-16.294 Y64.255 Z-1.000 I36.840 J2.773 K0.000 F300.000
G1 X-14.305 Y66.243 Z-1.000 F300.000
G2 X-13.988 Y66.561 Z-1.000 I0.845 J-0.527 K0.000 F300.000
G1 X-12.175 Y68.374 Z-1.000 F300.000
G3 X-13.878 Y68.368 Z-1.000 I-0.779 J-20.938 K0.000 F300.000
G1 X-16.294 Y65.952 Z-1.000 F300.000
G3 X-16.295 Y66.612 Z-1.000 I-2.002 J0.328 K0.000 F300.000
G3 X-16.900 Y67.043 Z-1.000 I-0.568 J-0.157 K0.000 F300.000
G1 X-16.168 Y67.775 Z-1.000 F300.000
G2 X-16.681 Y68.149 Z-1.000 I0.027 J0.577 K0.000 F300.000
G1 X-16.909 Y68.730 Z-1.000 F300.000
G1 X-19.548 Y66.092 Z-1.000 F300.000
G3 X-22.530 Y64.797 Z-1.000 I20.092 J-50.355 K0.000 F300.000
G1 X-22.532 Y64.805 Z-1.000 F300.000
G1 X-19.061 Y68.276 Z-1.000 F300.000
G3 X-22.360 Y66.674 Z-1.000 I12.764 J-30.481 K0.000 F300.000
G1 X-22.961 Y66.349 Z-1.000 F300.000
G1 X-22.901 Y66.133 Z-1.000 F300.000
G1 X-22.360 Y66.674 Z-1.000 F300.000
G1 X-22.961 Y66.349 Z-1.000 F300.000
G1 X-22.530 Y64.797 Z-1.000 F300.000
G2 X-17.074 Y67.011 Z-1.000 I22.856 J-48.495 K0.000 F300.000
G2 X-16.272 Y66.418 Z-1.000 I0.203 J-0.565 K0.000 F300.000
G3 X-16.070 Y60.626 Z-1.000 I42.937 J-1.404 K0.000 F300.000
G2 X-17.010 Y60.087 Z-1.000 I-0.598 J-0.045 K0.000 F300.000
G3 X-19.695 Y61.433 Z-1.000 I-5.289 J-7.199 K0.000 F300.000
G3 X-22.406 Y62.127 Z-1.000 I-6.345 J-19.144 K0.000 F300.000
G1 X-22.861 Y60.661 Z-1.000 F300.000
G2 X-17.457 Y58.022 Z-1.000 I-2.823 J-12.633 K0.000 F300.000
G1 X-16.515 Y59.384 Z-1.000 F300.000
G2 X-16.011 Y59.643 Z-1.000 I0.493 J-0.341 K0.000 F300.000
G1 X-14.295 Y59.614 Z-1.000 F300.000
G1 X-14.375 Y60.866 Z-1.000 F300.000
G2 X-13.602 Y61.478 Z-1.000 I0.599 J0.038 K0.000 F300.000
G2 X-8.147 Y58.825 Z-1.000 I-3.860 J-14.875 K0.000 F300.000
G1 X-7.264 Y60.554 Z-1.000 F300.000
G3 X-11.003 Y62.499 Z-1.000 I-6.788 J-8.479 K0.000 F300.000
G3 X-14.068 Y63.206 Z-1.000 I-6.130 J-19.568 K0.000 F300.000
G2 X-14.558 Y63.765 Z-1.000 I0.109 J0.590 K0.000 F300.000
G2 X-14.570 Y65.584 Z-1.000 I7.592 J0.960 K0.000 F300.000
G2 X-13.266 Y66.788 Z-1.000 I1.326 J-0.128 K0.000 F300.000
G2 X-10.256 Y66.798 Z-1.000 I1.549 J-13.482 K0.000 F300.000
G2 X-9.091 Y65.749 Z-1.000 I0.006 J-1.164 K0.000 F300.000
G2 X-9.115 Y64.715 Z-1.000 I-4.176 J-0.422 K0.000 F300.000
G1 X-7.273 Y64.800 Z-1.000 F300.000
G3 X-7.155 Y66.804 Z-1.000 I-7.956 J1.476 K0.000 F300.000
G3 X-7.738 Y67.989 Z-1.000 I-1.160 J0.165 K0.000 F300.000
G3 X-9.544 Y68.361 Z-1.000 I-1.618 J-3.282 K0.000 F300.000
G3 X-14.289 Y68.351 Z-1.000 I-1.997 J-183.327 K0.000 F300.000
G3 X-15.801 Y67.861 Z-1.000 I0.067 J-2.783 K0.000 F300.000
G2 X-16.681 Y68.149 Z-1.000 I-0.322 J0.506 K0.000 F300.000
G1 X-17.050 Y69.091 Z-1.000 F300.000
G3 X-22.360 Y66.674 Z-1.000 I13.756 J-37.262 K0.000 F300.000
G0 Z5.000
G0 X-12.175 Y68.374 Z5.000
G0 X-12.175 Y68.374 Z3.000
G1 X-12.175 Y68.374 Z-1.000 F300.000
G1 X-13.988 Y66.561 Z-1.000 F300.000
G2 X-13.798 Y66.665 Z-1.000 I0.467 J-0.629 K0.000 F300.000
G2 X-11.997 Y66.854 Z-1.000 I1.418 J-4.822 K0.000 F300.000
G1 X-10.483 Y68.369 Z-1.000 F300.000
G2 X-8.830 Y68.325 Z-1.000 I0.318 J-19.125 K0.000 F300.000
G1 X-10.344 Y66.810 Z-1.000 F300.000
G2 X-9.233 Y66.225 Z-1.000 I-0.011 J-1.369 K0.000 F300.000
G1 X-7.573 Y67.884 Z-1.000 F300.000
G2 X-7.285 Y67.554 Z-1.000 I-0.430 J-0.664 K0.000 F300.000
G2 X-7.152 Y66.608 Z-1.000 I-2.881 J-0.888 K0.000 F300.000
G1 X-9.042 Y64.718 Z-1.000 F300.000
G1 X-7.273 Y64.800 Z-1.000 F300.000
G3 X-7.152 Y66.608 Z-1.000 I-6.812 J1.365 K0.000 F300.000
G1 X-7.152 Y66.608 Z-2.000 F300.000
G2 X-7.273 Y64.800 Z-2.000 I-6.933 J-0.443 K0.000 F300.000
G1 X-9.042 Y64.718 Z-2.000 F300.000
G1 X-7.152 Y66.608 Z-2.000 F300.000
G3 X-7.285 Y67.554 Z-2.000 I-3.014 J0.057 K0.000 F300.000
G3 X-7.573 Y67.884 Z-2.000 I-0.717 J-0.333 K0.000 F300.000
G1 X-9.233 Y66.225 Z-2.000 F300.000
G3 X-10.344 Y66.810 Z-2.000 I-1.122 J-0.783 K0.000 F300.000
G1 X-8.830 Y68.325 Z-2.000 F300.000
G3 X-10.483 Y68.369 Z-2.000 I-1.335 J-19.081 K0.000 F300.000
G1 X-11.997 Y66.854 Z-2.000 F300.000
G3 X-13.798 Y66.665 Z-2.000 I-0.383 J-5.011 K0.000 F300.000
G3 X-13.988 Y66.561 Z-2.000 I0.277 J-0.733 K0.000 F300.000
G1 X-12.175 Y68.374 Z-2.000 F300.000
G0 Z5.000
G0 X-14.320 Y61.137 Z5.000
G0 X-14.320 Y61.137 Z3.000
G1 X-14.320 Y61.137 Z-2.000 F300.000
G3 X-14.375 Y60.866 Z-2.000 I0.381 J-0.217 K0.000 F300.000
G1 X-14.295 Y59.614 Z-2.000 F300.000
G1 X-15.818 Y59.640 Z-2.000 F300.000
G1 X-14.320 Y61.137 Z-2.000 F300.000
G0 Z5.000
G0 X-16.102 Y61.052 Z5.000
G0 X-16.102 Y61.052 Z3.000
G1 X-16.102 Y61.052 Z-2.000 F300.000
G1 X-13.967 Y63.188 Z-2.000 F300.000
G2 X-14.558 Y63.765 Z-2.000 I0.023 J0.615 K0.000 F300.000
G1 X-14.584 Y64.267 Z-2.000 F300.000
G1 X-16.208 Y62.643 Z-2.000 F300.000
G2 X-16.294 Y64.255 Z-2.000 I36.840 J2.773 K0.000 F300.000
G1 X-14.305 Y66.243 Z-2.000 F300.000
G2 X-13.988 Y66.561 Z-2.000 I0.845 J-0.527 K0.000 F300.000
G1 X-12.175 Y68.374 Z-2.000 F300.000
G3 X-13.878 Y68.368 Z-2.000 I-0.779 J-20.938 K0.000 F300.000
G1 X-16.294 Y65.952 Z-2.000 F300.000
G3 X-16.295 Y66.612 Z-2.000 I-2.002 J0.328 K0.000 F300.000
G3 X-16.900 Y67.043 Z-2.000 I-0.568 J-0.157 K0.000 F300.000
G1 X-16.168 Y67.775 Z-2.000 F300.000
G2 X-16.681 Y68.149 Z-2.000 I0.027 J0.577 K0.000 F300.000
G1 X-16.909 Y68.730 Z-2.000 F300.000
G1 X-19.548 Y66.092 Z-2.000 F300.000
G3 X-22.530 Y64.797 Z-2.000 I20.092 J-50.355 K0.000 F300.000
G1 X-22.532 Y64.805 Z-2.000 F300.000
G1 X-19.061 Y68.276 Z-2.000 F300.000
G3 X-22.360 Y66.674 Z-2.000 I12.764 J-30.481 K0.000 F300.000
G1 X-22.961 Y66.349 Z-2.000 F300.000
G1 X-22.901 Y66.133 Z-2.000 F300.000
G1 X-22.360 Y66.674 Z-2.000 F300.000
G1 X-22.961 Y66.349 Z-2.000 F300.000
G1 X-22.530 Y64.797 Z-2.000 F300.000
G2 X-17.074 Y67.011 Z-2.000 I22.856 J-48.495 K0.000 F300.000
G2 X-16.272 Y66.418 Z-2.000 I0.203 J-0.565 K0.000 F300.000
G3 X-16.070 Y60.626 Z-2.000 I42.937 J-1.404 K0.000 F300.000
G2 X-17.010 Y60.087 Z-2.000 I-0.598 J-0.045 K0.000 F300.000
G3 X-19.695 Y61.433 Z-2.000 I-5.289 J-7.199 K0.000 F300.000
G3 X-22.406 Y62.127 Z-2.000 I-6.345 J-19.144 K0.000 F300.000
G1 X-22.861 Y60.661 Z-2.000 F300.000
G2 X-17.457 Y58.022 Z-2.000 I-2.823 J-12.633 K0.000 F300.000
G1 X-16.515 Y59.384 Z-2.000 F300.000
G2 X-16.011 Y59.643 Z-2.000 I0.493 J-0.341 K0.000 F300.000
G1 X-14.295 Y59.614 Z-2.000 F300.000
G1 X-14.375 Y60.866 Z-2.000 F300.000
G2 X-13.602 Y61.478 Z-2.000 I0.599 J0.038 K0.000 F300.000
G2 X-8.147 Y58.825 Z-2.000 I-3.860 J-14.875 K0.000 F300.000
G1 X-7.264 Y60.554 Z-2.000 F300.000
G3 X-11.003 Y62.499 Z-2.000 I-6.788 J-8.479 K0.000 F300.000
G3 X-14.068 Y63.206 Z-2.000 I-6.130 J-19.568 K0.000 F300.000
G2 X-14.558 Y63.765 Z-2.000 I0.109 J0.590 K0.000 F300.000
G2 X-14.570 Y65.584 Z-2.000 I7.592 J0.960 K0.000 F300.000
G2 X-13.266 Y66.788 Z-2.000 I1.326 J-0.128 K0.000 F300.000
G2 X-10.256 Y66.798 Z-2.000 I1.549 J-13.482 K0.000 F300.000
G2 X-9.091 Y65.749 Z-2.000 I0.006 J-1.164 K0.000 F300.000
G2 X-9.115 Y64.715 Z-2.000 I-4.176 J-0.422 K0.000 F300.000
G1 X-7.273 Y64.800 Z-2.000 F300.000
G3 X-7.155 Y66.804 Z-2.000 I-7.956 J1.476 K0.000 F300.000
G3 X-7.738 Y67.989 Z-2.000 I-1.160 J0.165 K0.000 F300.000
G3 X-9.544 Y68.361 Z-2.000 I-1.618 J-3.282 K0.000 F300.000
G3 X-14.289 Y68.351 Z-2.000 I-1.997 J-183.327 K0.000 F300.000
G3 X-15.801 Y67.861 Z-2.000 I0.067 J-2.783 K0.000 F300.000
G2 X-16.681 Y68.149 Z-2.000 I-0.322 J0.506 K0.000 F300.000
G1 X-17.050 Y69.091 Z-2.000 F300.000
G3 X-22.360 Y66.674 Z-2.000 I13.756 J-37.262 K0.000 F300.000
G0 Z5.000
G0 X-22.671 Y61.271 Z5.000
G0 X-22.671 Y61.271 Z3.000
G1 X-22.671 Y61.271 Z-2.000 F300.000
G1 X-21.918 Y62.025 Z-2.000 F300.000
G1 X-22.406 Y62.127 Z-2.000 F300.000
G1 X-22.671 Y61.271 Z-2.000 F300.000
G1 X-22.861 Y60.661 Z-2.000 F300.000
G2 X-21.858 Y60.388 Z-2.000 I-1.435 J-7.237 K0.000 F300.000
G1 X-20.554 Y61.692 Z-2.000 F300.000
G2 X-19.275 Y61.273 Z-2.000 I-2.314 J-9.239 K0.000 F300.000
G1 X-20.613 Y59.936 Z-2.000 F300.000
G2 X-19.469 Y59.383 Z-2.000 I-3.858 J-9.446 K0.000 F300.000
G1 X-18.089 Y60.763 Z-2.000 F300.000
G2 X-17.044 Y60.111 Z-2.000 I-2.545 J-5.237 K0.000 F300.000
G1 X-18.417 Y58.737 Z-2.000 F300.000
G2 X-17.457 Y58.022 Z-2.000 I-4.361 J-6.856 K0.000 F300.000
G1 X-16.515 Y59.384 Z-2.000 F300.000
G2 X-15.818 Y59.640 Z-2.000 I0.539 J-0.394 K0.000 F300.000
G1 X-14.320 Y61.137 Z-2.000 F300.000
G2 X-14.001 Y61.456 Z-2.000 I0.473 J-0.153 K0.000 F300.000
G1 X-12.543 Y62.915 Z-2.000 F300.000
G2 X-11.204 Y62.556 Z-2.000 I-3.055 J-14.078 K0.000 F300.000
G1 X-12.597 Y61.164 Z-2.000 F300.000
G2 X-11.365 Y60.699 Z-2.000 I-4.727 J-14.380 K0.000 F300.000
G1 X-9.954 Y62.109 Z-2.000 F300.000
G2 X-8.799 Y61.567 Z-2.000 I-2.816 J-7.499 K0.000 F300.000
G1 X-10.214 Y60.152 Z-2.000 F300.000
G2 X-9.141 Y59.528 Z-2.000 I-4.701 J-9.306 K0.000 F300.000
G1 X-7.746 Y60.923 Z-2.000 F300.000
G2 X-7.264 Y60.554 Z-2.000 I-2.492 J-3.747 K0.000 F300.000
G1 X-8.147 Y58.825 Z-2.000 F300.000
G0 Z5.000
G0 Z5.000
G0 X-8.147 Y58.825
G0 X-18.392 Y-24.434
G0 X-18.392 Y-24.434 Z3.000
G1 X-18.392 Y-24.434 Z-1.000 F300.000
G2 X-17.653 Y-24.539 Z-1.000 I-2.446 J-19.880 K0.000 F300.000
G2 X-11.713 Y-26.549 Z-1.000 I-2.150 J-16.138 K0.000 F300.000
G1 X-12.399 Y-28.543 Z-1.000 F300.000
G3 X-19.658 Y-26.164 Z-1.000 I-8.484 J-13.626 K0.000 F300.000
G1 X-19.378 Y-24.338 Z-1.000 F300.000
G2 X-18.392 Y-24.434 Z-1.000 I-1.460 J-19.977 K0.000 F300.000
G0 Z5.000
G0 X-19.559 Y-25.520 Z5.000
G0 X-19.559 Y-25.520 Z3.000
G1 X-19.559 Y-25.520 Z-1.000 F300.000
G1 X-19.378 Y-24.338 Z-1.000 F300.000
G2 X-18.465 Y-24.426 Z-1.000 I-0.556 J-10.562 K0.000 F300.000
G1 X-19.559 Y-25.520 Z-1.000 F300.000
G1 X-19.658 Y-26.164 Z-1.000 F300.000
G2 X-18.620 Y-26.278 Z-1.000 I-0.650 J-10.638 K0.000 F300.000
G1 X-17.003 Y-24.661 Z-1.000 F300.000
G2 X-15.610 Y-24.965 Z-1.000 I-2.090 J-12.928 K0.000 F300.000
G1 X-17.199 Y-26.554 Z-1.000 F300.000
G2 X-15.882 Y-26.935 Z-1.000 I-1.692 J-8.323 K0.000 F300.000
G1 X-14.303 Y-25.355 Z-1.000 F300.000
G2 X-13.087 Y-25.836 Z-1.000 I-2.729 J-8.662 K0.000 F300.000
G1 X-14.642 Y-27.391 Z-1.000 F300.000
G2 X-13.490 Y-27.936 Z-1.000 I-3.003 J-7.822 K0.000 F300.000
G1 X-11.961 Y-26.407 Z-1.000 F300.000
G1 X-11.713 Y-26.549 Z-1.000 F300.000
G1 X-12.399 Y-28.543 Z-1.000 F300.000
G1 X-12.399 Y-28.543 Z-2.000 F300.000
G1 X-11.713 Y-26.549 Z-2.000 F300.000
G1 X-11.961 Y-26.407 Z-2.000 F300.000
G1 X-13.490 Y-27.936 Z-2.000 F300.000
G3 X-14.642 Y-27.391 Z-2.000 I-4.154 J-7.276 K0.000 F300.000
G1 X-13.087 Y-25.836 Z-2.000 F300.000
G3 X-14.303 Y-25.355 Z-2.000 I-3.944 J-8.180 K0.000 F300.000
G1 X-15.882 Y-26.935 Z-2.000 F300.000
G3 X-17.199 Y-26.554 Z-2.000 I-3.009 J-7.943 K0.000 F300.000
G1 X-15.610 Y-24.965 Z-2.000 F300.000
G3 X-17.003 Y-24.661 Z-2.000 I-3.483 J-12.624 K0.000 F300.000
G1 X-18.620 Y-26.278 Z-2.000 F300.000
G3 X-19.658 Y-26.164 Z-2.000 I-1.687 J-10.524 K0.000 F300.000
G1 X-19.559 Y-25.520 Z-2.000 F300.000
G1 X-18.465 Y-24.426 Z-2.000 F300.000
G3 X-19.378 Y-24.338 Z-2.000 I-1.469 J-10.474 K0.000 F300.000
G1 X-19.559 Y-25.520 Z-2.000 F300.000
G0 Z5.000
G0 X-19.559 Z5.000
G0 X-19.559 Z3.000
G1 X-19.559 Y-25.520 Z-2.000 F300.000
G1 X-19.378 Y-24.338 Z-2.000 F300.000
G2 X-17.653 Y-24.539 Z-2.000 I-1.460 J-19.977 K0.000 F300.000
G2 X-11.713 Y-26.549 Z-2.000 I-2.150 J-16.138 K0.000 F300.000
G1 X-12.399 Y-28.543 Z-2.000 F300.000
G3 X-19.658 Y-26.164 Z-2.000 I-8.484 J-13.626 K0.000 F300.000
G1 X-19.559 Y-25.520 Z-2.000 F300.000
G0 Z5.000
G0 Z5.000
G0 X-19.559 Y-25.520
G0 X-19.986 Y-32.283
G0 X-19.986 Y-32.283 Z3.000
G1 X-19.986 Y-32.283 Z-1.000 F300.000
G1 X-20.149 Y-32.276 Z-1.000 F300.000
G3 X-21.670 Y-32.934 Z-1.000 I-0.155 J-1.728 K0.000 F300.000
G3 X-21.998 Y-34.295 Z-1.000 I2.378 J-1.293 K0.000 F300.000
G1 X-19.986 Y-32.283 Z-1.000 F300.000
G2 X-18.496 Y-32.490 Z-1.000 I-0.323 J-7.793 K0.000 F300.000
G1 X-21.964 Y-35.959 Z-1.000 F300.000
G3 X-21.833 Y-37.525 Z-1.000 I21.716 J1.021 K0.000 F300.000
G1 X-20.200 Y-35.892 Z-1.000 F300.000
G2 X-20.242 Y-34.949 Z-1.000 I11.808 J0.990 K0.000 F300.000
G2 X-19.509 Y-33.915 Z-1.000 I1.029 J0.048 K0.000 F300.000
G2 X-18.286 Y-33.978 Z-1.000 I0.489 J-2.417 K0.000 F300.000
G1 X-17.125 Y-32.816 Z-1.000 F300.000
G2 X-15.864 Y-33.253 Z-1.000 I-1.718 J-7.004 K0.000 F300.000
G1 X-16.972 Y-34.361 Z-1.000 F300.000
G2 X-15.804 Y-34.890 Z-1.000 I-2.513 J-7.105 K0.000 F300.000
G1 X-14.707 Y-33.792 Z-1.000 F300.000
G2 X-13.628 Y-34.411 Z-1.000 I-3.983 J-8.202 K0.000 F300.000
G1 X-17.773 Y-38.556 Z-1.000 F300.000
G1 X-17.449 Y-39.165 Z-1.000 F300.000
G1 X-15.484 Y-37.964 Z-1.000 F300.000
G1 X-10.625 Y-33.105 Z-1.000 F300.000
G2 X-8.384 Y-31.909 Z-1.000 I18.391 J-31.752 K0.000 F300.000
G1 X-8.155 Y-32.332 Z-1.000 F300.000
G1 X-12.585 Y-36.762 Z-1.000 F300.000
G2 X-11.572 Y-37.447 Z-1.000 I-4.615 J-7.916 K0.000 F300.000
G1 X-10.379 Y-36.253 Z-1.000 F300.000
G1 X-10.672 Y-36.058 Z-1.000 F300.000
G2 X-10.622 Y-35.031 Z-1.000 I0.334 J0.499 K0.000 F300.000
G2 X-7.652 Y-33.527 Z-1.000 I33.865 J-63.165 K0.000 F300.000
G1 X-7.561 Y-33.436 Z-1.000 F300.000
G1 X-7.542 Y-33.473 Z-1.000 F300.000
G3 X-7.652 Y-33.527 Z-1.000 I10.284 J-21.258 K0.000 F300.000
G0 Z5.000
G0 X-11.572 Y-37.447 Z5.000
G0 X-11.572 Y-37.447 Z3.000
G1 X-11.572 Y-37.447 Z-1.000 F300.000
G1 X-10.379 Y-36.253 Z-1.000 F300.000
G2 X-9.390 Y-36.961 Z-1.000 I-6.775 J-10.518 K0.000 F300.000
G1 X-10.624 Y-38.195 Z-1.000 F300.000
G2 X-9.746 Y-39.014 Z-1.000 I-6.483 J-7.828 K0.000 F300.000
G1 X-8.448 Y-37.716 Z-1.000 F300.000
G2 X-7.613 Y-38.456 Z-1.000 I-7.594 J-9.412 K0.000 F300.000
G1 X-8.940 Y-39.905 Z-1.000 F300.000
G0 Z5.000
G0 X-20.100 Y-39.186 Z5.000
G0 X-20.100 Y-39.186 Z3.000
G1 X-20.100 Y-39.186 Z-1.000 F300.000
G1 X-19.810 Y-39.180 Z-1.000 F300.000
G1 X-19.847 Y-38.933 Z-1.000 F300.000
G1 X-20.100 Y-39.186 Z-1.000 F300.000
G1 X-21.624 Y-39.217 Z-1.000 F300.000
G1 X-21.647 Y-39.036 Z-1.000 F300.000
G1 X-20.042 Y-37.431 Z-1.000 F300.000
G2 X-20.200 Y-35.892 Z-1.000 I18.964 J2.728 K0.000 F300.000
G1 X-21.833 Y-37.525 Z-1.000 F300.000
G3 X-21.624 Y-39.217 Z-1.000 I40.241 J4.136 K0.000 F300.000
G1 X-19.810 Y-39.180 Z-1.000 F300.000
G2 X-20.225 Y-35.524 Z-1.000 I37.162 J6.075 K0.000 F300.000
G2 X-20.161 Y-34.510 Z-1.000 I2.170 J0.372 K0.000 F300.000
G2 X-19.073 Y-33.870 Z-1.000 I0.967 J-0.400 K0.000 F300.000
G2 X-15.270 Y-35.199 Z-1.000 I-0.846 J-8.528 K0.000 F300.000
G2 X-15.586 Y-36.232 Z-1.000 I-0.457 J-0.425 K0.000 F300.000
G3 X-18.126 Y-37.891 Z-1.000 I6.575 J-12.843 K0.000 F300.000
G1 X-17.449 Y-39.165 Z-1.000 F300.000
G1 X-13.361 Y-36.666 Z-1.000 F300.000
G2 X-12.723 Y-36.673 Z-1.000 I0.313 J-0.512 K0.000 F300.000
G2 X-8.940 Y-39.905 Z-1.000 I-7.572 J-12.693 K0.000 F300.000
G1 X-7.613 Y-38.456 Z-1.000 F300.000
G3 X-10.672 Y-36.058 Z-1.000 I-14.210 J-14.971 K0.000 F300.000
G2 X-10.622 Y-35.031 Z-1.000 I0.334 J0.499 K0.000 F300.000
G2 X-7.542 Y-33.473 Z-1.000 I36.688 J-68.699 K0.000 F300.000
G1 X-8.384 Y-31.909 Z-1.000 F300.000
G3 X-13.042 Y-34.537 Z-1.000 I28.064 J-55.177 K0.000 F300.000
G2 X-13.516 Y-34.477 Z-1.000 I-0.167 J0.576 K0.000 F300.000
G3 X-19.567 Y-32.312 Z-1.000 I-7.648 J-11.837 K0.000 F300.000
G3 X-21.151 Y-32.483 Z-1.000 I-0.502 J-2.776 K0.000 F300.000
G3 X-21.917 Y-33.569 Z-1.000 I0.652 J-1.273 K0.000 F300.000
G3 X-22.015 Y-34.827 Z-1.000 I6.636 J-1.148 K0.000 F300.000
G3 X-21.833 Y-37.525 Z-1.000 I28.286 J0.549 K0.000 F300.000
G1 X-21.833 Y-37.525 Z-2.000 F300.000
G2 X-22.015 Y-34.827 Z-2.000 I28.105 J3.247 K0.000 F300.000
G2 X-21.917 Y-33.569 Z-2.000 I6.734 J0.110 K0.000 F300.000
G2 X-21.151 Y-32.483 Z-2.000 I1.418 J-0.187 K0.000 F300.000
G2 X-19.567 Y-32.312 Z-2.000 I1.082 J-2.606 K0.000 F300.000
G2 X-13.516 Y-34.477 Z-2.000 I-1.597 J-14.002 K0.000 F300.000
G3 X-13.042 Y-34.537 Z-2.000 I0.307 J0.516 K0.000 F300.000
G2 X-8.384 Y-31.909 Z-2.000 I32.723 J-52.549 K0.000 F300.000
G1 X-7.542 Y-33.473 Z-2.000 F300.000
G3 X-10.622 Y-35.031 Z-2.000 I33.608 J-70.258 K0.000 F300.000
G3 X-10.672 Y-36.058 Z-2.000 I0.284 J-0.528 K0.000 F300.000
G2 X-7.613 Y-38.456 Z-2.000 I-11.152 J-17.369 K0.000 F300.000
G1 X-8.940 Y-39.905 Z-2.000 F300.000
G3 X-12.723 Y-36.673 Z-2.000 I-11.355 J-9.461 K0.000 F300.000
G3 X-13.361 Y-36.666 Z-2.000 I-0.325 J-0.505 K0.000 F300.000
G1 X-17.449 Y-39.165 Z-2.000 F300.000
G1 X-18.126 Y-37.891 Z-2.000 F300.000
G2 X-15.586 Y-36.232 Z-2.000 I9.115 J-11.184 K0.000 F300.000
G3 X-15.270 Y-35.199 Z-2.000 I-0.141 J0.608 K0.000 F300.000
G3 X-19.073 Y-33.870 Z-2.000 I-4.649 J-7.199 K0.000 F300.000
G3 X-20.161 Y-34.510 Z-2.000 I-0.120 J-1.040 K0.000 F300.000
G3 X-20.225 Y-35.524 Z-2.000 I2.106 J-0.642 K0.000 F300.000
G3 X-19.810 Y-39.180 Z-2.000 I37.577 J2.419 K0.000 F300.000
G1 X-21.624 Y-39.217 Z-2.000 F300.000
G2 X-21.833 Y-37.525 Z-2.000 I40.031 J5.827 K0.000 F300.000
G1 X-20.200 Y-35.892 Z-2.000 F300.000
G3 X-20.042 Y-37.431 Z-2.000 I19.123 J1.190 K0.000 F300.000
G1 X-21.647 Y-39.036 Z-2.000 F300.000
G1 X-21.624 Y-39.217 Z-2.000 F300.000
G1 X-20.100 Y-39.186 Z-2.000 F300.000
G1 X-19.847 Y-38.933 Z-2.000 F300.000
G1 X-19.810 Y-39.180 Z-2.000 F300.000
G1 X-20.100 Y-39.186 Z-2.000 F300.000
G0 Z5.000
G0 X-19.986 Y-32.283 Z5.000
G0 X-19.986 Y-32.283 Z3.000
G1 X-19.986 Y-32.283 Z-2.000 F300.000
G1 X-20.149 Y-32.276 Z-2.000 F300.000
G3 X-21.670 Y-32.934 Z-2.000 I-0.155 J-1.728 K0.000 F300.000
G3 X-21.998 Y-34.295 Z-2.000 I2.378 J-1.293 K0.000 F300.000
G1 X-19.986 Y-32.283 Z-2.000 F300.000
G2 X-18.496 Y-32.490 Z-2.000 I-0.323 J-7.793 K0.000 F300.000
G1 X-21.964 Y-35.959 Z-2.000 F300.000
G3 X-21.833 Y-37.525 Z-2.000 I21.716 J1.021 K0.000 F300.000
G1 X-20.200 Y-35.892 Z-2.000 F300.000
G2 X-20.242 Y-34.949 Z-2.000 I11.808 J0.990 K0.000 F300.000
G2 X-19.509 Y-33.915 Z-2.000 I1.029 J0.048 K0.000 F300.000
G2 X-18.286 Y-33.978 Z-2.000 I0.489 J-2.417 K0.000 F300.000
G1 X-17.125 Y-32.816 Z-2.000 F300.000
G2 X-15.864 Y-33.253 Z-2.000 I-1.718 J-7.004 K0.000 F300.000
G1 X-16.972 Y-34.361 Z-2.000 F300.000
G2 X-15.804 Y-34.890 Z-2.000 I-2.513 J-7.105 K0.000 F300.000
G1 X-14.707 Y-33.792 Z-2.000 F300.000
G2 X-13.628 Y-34.411 Z-2.000 I-3.983 J-8.202 K0.000 F300.000
G1 X-17.773 Y-38.556 Z-2.000 F300.000
G1 X-17.449 Y-39.165 Z-2.000 F300.000
G1 X-15.484 Y-37.964 Z-2.000 F300.000
G1 X-10.625 Y-33.105 Z-2.000 F300.000
G2 X-8.384 Y-31.909 Z-2.000 I18.391 J-31.752 K0.000 F300.000
G1 X-8.155 Y-32.332 Z-2.000 F300.000
G1 X-12.585 Y-36.762 Z-2.000 F300.000
G2 X-11.572 Y-37.447 Z-2.000 I-4.615 J-7.916 K0.000 F300.000
G1 X-10.379 Y-36.253 Z-2.000 F300.000
G1 X-10.672 Y-36.058 Z-2.000 F300.000
G2 X-10.622 Y-35.031 Z-2.000 I0.334 J0.499 K0.000 F300.000
G2 X-7.652 Y-33.527 Z-2.000 I33.865 J-63.165 K0.000 F300.000
G1 X-7.561 Y-33.436 Z-2.000 F300.000
G1 X-7.542 Y-33.473 Z-2.000 F300.000
G3 X-7.652 Y-33.527 Z-2.000 I10.284 J-21.258 K0.000 F300.000
G0 Z5.000
G0 X-11.572 Y-37.447 Z5.000
G0 X-11.572 Y-37.447 Z3.000
G1 X-11.572 Y-37.447 Z-2.000 F300.000
G1 X-10.379 Y-36.253 Z-2.000 F300.000
G2 X-9.390 Y-36.961 Z-2.000 I-6.775 J-10.518 K0.000 F300.000
G1 X-10.624 Y-38.195 Z-2.000 F300.000
G2 X-9.746 Y-39.014 Z-2.000 I-6.483 J-7.828 K0.000 F300.000
G1 X-8.448 Y-37.716 Z-2.000 F300.000
G2 X-7.613 Y-38.456 Z-2.000 I-7.594 J-9.412 K0.000 F300.000
G1 X-8.940 Y-39.905 Z-2.000 F300.000
G0 Z5.000
G0 Z5.000
G0 X-8.940 Y-39.905
G0 X-7.188 Y-43.170
G0 X-7.188 Y-43.170 Z3.000
G1 X-7.188 Y-43.170 Z-1.000 F300.000
G1 X-7.184 Y-43.462 Z-1.000 F300.000
G1 X-7.474 Y-43.456 Z-1.000 F300.000
G1 X-7.188 Y-43.170 Z-1.000 F300.000
G1 X-7.207 Y-41.742 Z-1.000 F300.000
G1 X-7.457 Y-41.742 Z-1.000 F300.000
G1 X-9.136 Y-43.422 Z-1.000 F300.000
G3 X-9.700 Y-43.446 Z-1.000 I-0.213 J-1.620 K0.000 F300.000
G3 X-10.065 Y-44.351 Z-1.000 I0.266 J-0.633 K0.000 F300.000
G1 X-11.622 Y-45.907 Z-1.000 F300.000
G3 X-11.569 Y-45.540 Z-1.000 I-0.473 J0.255 K0.000 F300.000
G1 X-11.790 Y-44.378 Z-1.000 F300.000
G1 X-9.154 Y-41.742 Z-1.000 F300.000
G1 X-9.933 Y-41.742 Z-1.000 F300.000
G2 X-10.479 Y-41.370 Z-1.000 I-0.010 J0.571 K0.000 F300.000
G1 X-12.465 Y-43.356 Z-1.000 F300.000
G1 X-12.481 Y-43.354 Z-1.000 F300.000
G1 X-13.473 Y-43.354 Z-1.000 F300.000
G3 X-14.072 Y-43.989 Z-1.000 I0.000 J-0.600 K0.000 F300.000
G1 X-14.017 Y-44.908 Z-1.000 F300.000
G1 X-16.833 Y-47.724 Z-1.000 F300.000
G3 X-18.538 Y-47.732 Z-1.000 I1.359 J-484.812 K0.000 F300.000
G1 X-17.059 Y-46.253 Z-1.000 F300.000
G2 X-17.531 Y-45.708 Z-1.000 I0.115 J0.576 K0.000 F300.000
G1 X-17.569 Y-45.066 Z-1.000 F300.000
G1 X-20.244 Y-47.741 Z-1.000 F300.000
G0 Z5.000
G0 X-21.062 Y-48.559 Z5.000
G0 X-21.062 Y-48.559 Z3.000
G1 X-21.062 Y-48.559 Z-1.000 F300.000
G1 X-21.059 Y-48.621 Z-1.000 F300.000
G1 X-21.125 Y-48.622 Z-1.000 F300.000
G1 X-21.062 Y-48.559 Z-1.000 F300.000
G0 Z5.000
G0 X-20.626 Y-46.322 Z5.000
G0 X-20.626 Y-46.322 Z3.000
G1 X-20.626 Y-46.322 Z-1.000 F300.000
G3 X-20.503 Y-46.333 Z-1.000 I0.115 J0.589 K0.000 F300.000
G1 X-19.208 Y-46.314 Z-1.000 F300.000
G3 X-18.618 Y-45.679 Z-1.000 I-0.009 J0.600 K0.000 F300.000
G1 X-18.720 Y-43.939 Z-1.000 F300.000
G3 X-19.319 Y-43.374 Z-1.000 I-0.599 J-0.035 K0.000 F300.000
G1 X-20.613 Y-43.374 Z-1.000 F300.000
G3 X-21.212 Y-44.009 Z-1.000 I0.000 J-0.600 K0.000 F300.000
G1 X-21.111 Y-45.768 Z-1.000 F300.000
G3 X-20.626 Y-46.322 Z-1.000 I0.599 J0.035 K0.000 F300.000
G0 Z5.000
G0 X-22.777 Y-46.880 Z5.000
G0 X-22.777 Y-46.880 Z3.000
G1 X-22.777 Y-46.880 Z-1.000 F300.000
G1 X-21.141 Y-45.244 Z-1.000 F300.000
G1 X-21.111 Y-45.768 Z-1.000 F300.000
G3 X-20.530 Y-46.330 Z-1.000 I0.593 J0.032 K0.000 F300.000
G1 X-22.739 Y-48.539 Z-1.000 F300.000
G1 X-22.737 Y-48.645 Z-1.000 F300.000
G1 X-21.125 Y-48.622 Z-1.000 F300.000
G1 X-21.062 Y-48.559 Z-1.000 F300.000
G2 X-21.049 Y-48.179 Z-1.000 I1.174 J0.149 K0.000 F300.000
G2 X-20.244 Y-47.741 Z-1.000 I0.630 J-0.199 K0.000 F300.000
G1 X-17.569 Y-45.066 Z-1.000 F300.000
G2 X-17.632 Y-43.988 Z-1.000 I438.419 J26.048 K0.000 F300.000
G2 X-17.033 Y-43.354 Z-1.000 I0.599 J0.035 K0.000 F300.000
G1 X-15.856 Y-43.354 Z-1.000 F300.000
G1 X-14.257 Y-41.754 Z-1.000 F300.000
G1 X-12.901 Y-41.742 Z-1.000 F300.000
G3 X-12.318 Y-41.026 Z-1.000 I-0.005 J0.600 K0.000 F300.000
G1 X-12.463 Y-40.291 Z-1.000 F300.000
G1 X-11.068 Y-40.262 Z-1.000 F300.000
G1 X-15.163 Y-44.358 Z-1.000 F300.000
G1 X-15.163 Y-44.358 Z-1.000 F300.000
G1 X-15.201 Y-43.904 Z-1.000 F300.000
G3 X-15.799 Y-43.354 Z-1.000 I-0.598 J-0.049 K0.000 F300.000
G1 X-17.033 Y-43.354 Z-1.000 F300.000
G3 X-17.632 Y-43.988 Z-1.000 I0.000 J-0.600 K0.000 F300.000
G3 X-17.531 Y-45.708 Z-1.000 I699.341 J40.117 K0.000 F300.000
G3 X-16.932 Y-46.273 Z-1.000 I0.599 J0.036 K0.000 F300.000
G1 X-15.657 Y-46.273 Z-1.000 F300.000
G3 X-15.059 Y-45.624 Z-1.000 I-0.000 J0.600 K0.000 F300.000
G1 X-15.163 Y-44.358 Z-1.000 F300.000
G0 Z5.000
G0 X-14.054 Y-44.291 Z5.000
G0 X-14.054 Y-44.291 Z3.000
G1 X-14.054 Y-44.291 Z-1.000 F300.000
G1 X-13.971 Y-45.688 Z-1.000 F300.000
G3 X-13.372 Y-46.252 Z-1.000 I0.599 J0.036 K0.000 F300.000
G1 X-12.158 Y-46.252 Z-1.000 F300.000
G3 X-11.569 Y-45.540 Z-1.000 I-0.000 J0.600 K0.000 F300.000
G1 X-11.892 Y-43.841 Z-1.000 F300.000
G3 X-12.481 Y-43.354 Z-1.000 I-0.589 J-0.112 K0.000 F300.000
G1 X-13.473 Y-43.354 Z-1.000 F300.000
G3 X-14.072 Y-43.989 Z-1.000 I0.000 J-0.600 K0.000 F300.000
G1 X-14.054 Y-44.291 Z-1.000 F300.000
G0 Z5.000
G0 X-11.901 Y-46.186 Z5.000
G0 X-11.901 Y-46.186 Z3.000
G1 X-11.901 Y-46.186 Z-1.000 F300.000
G1 X-13.466 Y-47.751 Z-1.000 F300.000
G3 X-15.141 Y-47.730 Z-1.000 I-1.514 J-53.534 K0.000 F300.000
G1 X-13.609 Y-46.197 Z-1.000 F300.000
G2 X-13.971 Y-45.688 Z-1.000 I0.215 J0.536 K0.000 F300.000
G1 X-14.017 Y-44.908 Z-1.000 F300.000
G1 X-16.833 Y-47.724 Z-1.000 F300.000
G0 Z5.000
G0 X-13.466 Y-47.751 Z5.000
G0 X-13.466 Y-47.751 Z3.000
G1 X-13.466 Y-47.751 Z-1.000 F300.000
G1 X-11.901 Y-46.186 Z-1.000 F300.000
G3 X-11.622 Y-45.907 Z-1.000 I-0.180 J0.459 K0.000 F300.000
G1 X-10.065 Y-44.351 Z-1.000 F300.000
G1 X-9.849 Y-45.832 Z-1.000 F300.000
G1 X-11.837 Y-47.819 Z-1.000 F300.000
G2 X-11.472 Y-48.180 Z-1.000 I-0.190 J-0.557 K0.000 F300.000
G2 X-11.405 Y-49.055 Z-1.000 I-2.858 J-0.660 K0.000 F300.000
G1 X-11.373 Y-49.053 Z-1.000 F300.000
G1 X-9.678 Y-47.358 Z-1.000 F300.000
G2 X-9.544 Y-48.921 Z-1.000 I-33.540 J-3.667 K0.000 F300.000
G0 Z5.000
G0 X-11.437 Y-48.356 Z5.000
G0 X-11.437 Y-48.356 Z3.000
G1 X-11.437 Y-48.356 Z-1.000 F300.000
G1 X-11.405 Y-49.055 Z-1.000 F300.000
G1 X-9.544 Y-48.921 Z-1.000 F300.000
G3 X-10.102 Y-44.101 Z-1.000 I-51.287 J-3.489 K0.000 F300.000
G2 X-9.496 Y-43.414 Z-1.000 I0.594 J0.087 K0.000 F300.000
G1 X-7.184 Y-43.462 Z-1.000 F300.000
G1 X-7.207 Y-41.742 Z-1.000 F300.000
G1 X-9.933 Y-41.742 Z-1.000 F300.000
G2 X-10.522 Y-41.256 Z-1.000 I-0.000 J0.600 K0.000 F300.000
G3 X-10.733 Y-40.255 Z-1.000 I-15.658 J-2.775 K0.000 F300.000
G1 X-12.463 Y-40.291 Z-1.000 F300.000
G1 X-12.318 Y-41.026 Z-1.000 F300.000
G2 X-12.901 Y-41.742 Z-1.000 I-0.589 J-0.117 K0.000 F300.000
G3 X-20.666 Y-41.823 Z-1.000 I12.061 J-1529.160 K0.000 F300.000
G2 X-21.272 Y-41.270 Z-1.000 I-0.007 J0.600 K0.000 F300.000
G1 X-21.308 Y-40.807 Z-1.000 F300.000
G1 X-23.056 Y-40.855 Z-1.000 F300.000
G2 X-22.997 Y-42.009 Z-1.000 I-396.944 J-20.991 K0.000 F300.000
G0 Z5.000
G0 X-18.688 Y-44.488 Z5.000
G0 X-18.688 Y-44.488 Z3.000
G1 X-18.688 Y-44.488 Z-1.000 F300.000
G1 X-15.969 Y-41.769 Z-1.000 F300.000
G1 X-17.685 Y-41.788 Z-1.000 F300.000
G1 X-19.277 Y-43.380 Z-1.000 F300.000
G1 X-19.319 Y-43.374 Z-1.000 F300.000
G1 X-20.613 Y-43.374 Z-1.000 F300.000
G3 X-21.212 Y-44.009 Z-1.000 I0.000 J-0.600 K0.000 F300.000
G1 X-21.141 Y-45.244 Z-1.000 F300.000
G1 X-22.777 Y-46.880 Z-1.000 F300.000
G3 X-22.843 Y-45.249 Z-1.000 I-44.797 J-1.004 K0.000 F300.000
G1 X-19.402 Y-41.807 Z-1.000 F300.000
G1 X-20.666 Y-41.823 Z-1.000 F300.000
G2 X-21.010 Y-41.719 Z-1.000 I-0.065 J0.407 K0.000 F300.000
G1 X-22.917 Y-43.626 Z-1.000 F300.000
G3 X-22.997 Y-42.009 Z-1.000 I-850.302 J-41.320 K0.000 F300.000
G1 X-21.809 Y-40.821 Z-1.000 F300.000
G1 X-23.056 Y-40.855 Z-1.000 F300.000
G2 X-22.737 Y-48.645 Z-1.000 I-294.522 J-15.977 K0.000 F300.000
G1 X-21.059 Y-48.621 Z-1.000 F300.000
G2 X-20.835 Y-47.865 Z-1.000 I0.696 J0.205 K0.000 F300.000
G2 X-20.475 Y-47.743 Z-1.000 I0.363 J-0.478 K0.000 F300.000
G2 X-12.023 Y-47.784 Z-1.000 I3.073 J-237.819 K0.000 F300.000
G2 X-11.437 Y-48.356 Z-1.000 I-0.014 J-0.600 K0.000 F300.000
G1 X-11.437 Y-48.356 Z-2.000 F300.000
G3 X-12.023 Y-47.784 Z-2.000 I-0.599 J-0.028 K0.000 F300.000
G3 X-20.475 Y-47.743 Z-2.000 I-5.379 J-237.778 K0.000 F300.000
G3 X-20.835 Y-47.865 Z-2.000 I0.003 J-0.600 K0.000 F300.000
G3 X-21.059 Y-48.621 Z-2.000 I0.471 J-0.551 K0.000 F300.000
G1 X-22.737 Y-48.645 Z-2.000 F300.000
G3 X-23.056 Y-40.855 Z-2.000 I-294.842 J-8.187 K0.000 F300.000
G1 X-21.809 Y-40.821 Z-2.000 F300.000
G1 X-22.997 Y-42.009 Z-2.000 F300.000
G2 X-22.917 Y-43.626 Z-2.000 I-850.222 J-42.937 K0.000 F300.000
G1 X-21.010 Y-41.719 Z-2.000 F300.000
G3 X-20.666 Y-41.823 Z-2.000 I0.279 J0.303 K0.000 F300.000
G1 X-19.402 Y-41.807 Z-2.000 F300.000
G1 X-22.843 Y-45.249 Z-2.000 F300.000
G2 X-22.777 Y-46.880 Z-2.000 I-44.731 J-2.634 K0.000 F300.000
G1 X-21.141 Y-45.244 Z-2.000 F300.000
G1 X-21.212 Y-44.009 Z-2.000 F300.000
G2 X-20.613 Y-43.374 Z-2.000 I0.599 J0.035 K0.000 F300.000
G1 X-19.319 Y-43.374 Z-2.000 F300.000
G1 X-19.277 Y-43.380 Z-2.000 F300.000
G1 X-17.685 Y-41.788 Z-2.000 F300.000
G1 X-15.969 Y-41.769 Z-2.000 F300.000
G1 X-18.688 Y-44.488 Z-2.000 F300.000
G1 X-18.688 Y-44.488 Z-2.000 F300.000
G1 X-18.720 Y-43.939 Z-2.000 F300.000
G3 X-19.319 Y-43.374 Z-2.000 I-0.599 J-0.035 K0.000 F300.000
G1 X-20.613 Y-43.374 Z-2.000 F300.000
G3 X-21.212 Y-44.009 Z-2.000 I0.000 J-0.600 K0.000 F300.000
G1 X-21.111 Y-45.768 Z-2.000 F300.000
G3 X-20.503 Y-46.333 Z-2.000 I0.599 J0.035 K0.000 F300.000
G1 X-19.208 Y-46.314 Z-2.000 F300.000
G3 X-18.618 Y-45.679 Z-2.000 I-0.009 J0.600 K0.000 F300.000
G1 X-18.688 Y-44.488 Z-2.000 F300.000
G0 Z5.000
G0 X-17.606 Y-44.425 Z5.000
G0 X-17.606 Y-44.425 Z3.000
G1 X-17.606 Y-44.425 Z-2.000 F300.000
G3 X-17.531 Y-45.708 Z-2.000 I699.316 J40.554 K0.000 F300.000
G3 X-16.932 Y-46.273 Z-2.000 I0.599 J0.036 K0.000 F300.000
G1 X-15.657 Y-46.273 Z-2.000 F300.000
G3 X-15.059 Y-45.624 Z-2.000 I-0.000 J0.600 K0.000 F300.000
G1 X-15.201 Y-43.904 Z-2.000 F300.000
G3 X-15.799 Y-43.354 Z-2.000 I-0.598 J-0.049 K0.000 F300.000
G1 X-17.033 Y-43.354 Z-2.000 F300.000
G3 X-17.632 Y-43.988 Z-2.000 I0.000 J-0.600 K0.000 F300.000
G3 X-17.606 Y-44.425 Z-2.000 I699.341 J40.117 K0.000 F300.000
G0 Z5.000
G0 X-15.163 Y-44.358 Z5.000
G0 X-15.163 Y-44.358 Z3.000
G1 X-15.163 Y-44.358 Z-2.000 F300.000
G1 X-11.068 Y-40.262 Z-2.000 F300.000
G1 X-12.463 Y-40.291 Z-2.000 F300.000
G1 X-12.318 Y-41.026 Z-2.000 F300.000
G2 X-12.901 Y-41.742 Z-2.000 I-0.589 J-0.117 K0.000 F300.000
G1 X-14.257 Y-41.754 Z-2.000 F300.000
G1 X-15.856 Y-43.354 Z-2.000 F300.000
G1 X-17.033 Y-43.354 Z-2.000 F300.000
G3 X-17.632 Y-43.988 Z-2.000 I0.000 J-0.600 K0.000 F300.000
G3 X-17.569 Y-45.066 Z-2.000 I438.482 J24.970 K0.000 F300.000
G1 X-20.244 Y-47.741 Z-2.000 F300.000
G3 X-21.049 Y-48.179 Z-2.000 I-0.175 J-0.637 K0.000 F300.000
G3 X-21.062 Y-48.559 Z-2.000 I1.161 J-0.230 K0.000 F300.000
G1 X-21.125 Y-48.622 Z-2.000 F300.000
G1 X-22.737 Y-48.645 Z-2.000 F300.000
G1 X-22.739 Y-48.539 Z-2.000 F300.000
G1 X-20.530 Y-46.330 Z-2.000 F300.000
G2 X-21.111 Y-45.768 Z-2.000 I0.012 J0.594 K0.000 F300.000
G1 X-21.141 Y-45.244 Z-2.000 F300.000
G1 X-22.777 Y-46.880 Z-2.000 F300.000
G0 Z5.000
G0 X-21.080 Y-48.577 Z5.000
G0 X-21.080 Y-48.577 Z3.000
G1 X-21.080 Y-48.577 Z-2.000 F300.000
G1 X-21.062 Y-48.559 Z-2.000 F300.000
G1 X-21.059 Y-48.621 Z-2.000 F300.000
G1 X-21.125 Y-48.622 Z-2.000 F300.000
G1 X-21.080 Y-48.577 Z-2.000 F300.000
G0 Z5.000
G0 X-20.244 Y-47.741 Z5.000
G0 X-20.244 Y-47.741 Z3.000
G1 X-20.244 Y-47.741 Z-2.000 F300.000
G1 X-17.569 Y-45.066 Z-2.000 F300.000
G1 X-17.531 Y-45.708 Z-2.000 F300.000
G3 X-17.059 Y-46.253 Z-2.000 I0.586 J0.031 K0.000 F300.000
G1 X-18.538 Y-47.732 Z-2.000 F300.000
G2 X-16.833 Y-47.724 Z-2.000 I3.064 J-484.804 K0.000 F300.000
G1 X-14.017 Y-44.908 Z-2.000 F300.000
G1 X-14.072 Y-43.989 Z-2.000 F300.000
G2 X-13.473 Y-43.354 Z-2.000 I0.599 J0.036 K0.000 F300.000
G1 X-12.481 Y-43.354 Z-2.000 F300.000
G1 X-12.465 Y-43.356 Z-2.000 F300.000
G1 X-10.479 Y-41.370 Z-2.000 F300.000
G3 X-9.933 Y-41.742 Z-2.000 I0.535 J0.199 K0.000 F300.000
G1 X-9.154 Y-41.742 Z-2.000 F300.000
G1 X-11.790 Y-44.378 Z-2.000 F300.000
G1 X-11.569 Y-45.540 Z-2.000 F300.000
G2 X-11.622 Y-45.907 Z-2.000 I-0.526 J-0.111 K0.000 F300.000
G1 X-10.065 Y-44.351 Z-2.000 F300.000
G2 X-9.700 Y-43.446 Z-2.000 I0.631 J0.272 K0.000 F300.000
G2 X-9.136 Y-43.422 Z-2.000 I0.351 J-1.596 K0.000 F300.000
G1 X-7.457 Y-41.742 Z-2.000 F300.000
G1 X-7.207 Y-41.742 Z-2.000 F300.000
G1 X-7.188 Y-43.170 Z-2.000 F300.000
G1 X-7.474 Y-43.456 Z-2.000 F300.000
G1 X-7.184 Y-43.462 Z-2.000 F300.000
G1 X-7.188 Y-43.170 Z-2.000 F300.000
G0 Z5.000
G0 X-11.851 Y-44.058 Z5.000
G0 X-11.851 Y-44.058 Z3.000
G1 X-11.851 Y-44.058 Z-2.000 F300.000
G1 X-11.892 Y-43.841 Z-2.000 F300.000
G3 X-12.481 Y-43.354 Z-2.000 I-0.589 J-0.112 K0.000 F300.000
G1 X-13.473 Y-43.354 Z-2.000 F300.000
G3 X-14.072 Y-43.989 Z-2.000 I0.000 J-0.600 K0.000 F300.000
G1 X-13.971 Y-45.688 Z-2.000 F300.000
G3 X-13.372 Y-46.252 Z-2.000 I0.599 J0.036 K0.000 F300.000
G1 X-12.158 Y-46.252 Z-2.000 F300.000
G3 X-11.569 Y-45.540 Z-2.000 I-0.000 J0.600 K0.000 F300.000
G1 X-11.851 Y-44.058 Z-2.000 F300.000
G0 Z5.000
G0 X-11.901 Y-46.186 Z5.000
G0 X-11.901 Y-46.186 Z3.000
G1 X-11.901 Y-46.186 Z-2.000 F300.000
G1 X-13.466 Y-47.751 Z-2.000 F300.000
G3 X-15.141 Y-47.730 Z-2.000 I-1.514 J-53.534 K0.000 F300.000
G1 X-13.609 Y-46.197 Z-2.000 F300.000
G2 X-13.971 Y-45.688 Z-2.000 I0.215 J0.536 K0.000 F300.000
G1 X-14.017 Y-44.908 Z-2.000 F300.000
G1 X-16.833 Y-47.724 Z-2.000 F300.000
G0 Z5.000
G0 X-13.466 Y-47.751 Z5.000
G0 X-13.466 Y-47.751 Z3.000
G1 X-13.466 Y-47.751 Z-2.000 F300.000
G1 X-11.901 Y-46.186 Z-2.000 F300.000
G3 X-11.622 Y-45.907 Z-2.000 I-0.180 J0.459 K0.000 F300.000
G1 X-10.065 Y-44.351 Z-2.000 F300.000
G1 X-9.849 Y-45.832 Z-2.000 F300.000
G1 X-11.837 Y-47.819 Z-2.000 F300.000
G2 X-11.472 Y-48.180 Z-2.000 I-0.190 J-0.557 K0.000 F300.000
G2 X-11.405 Y-49.055 Z-2.000 I-2.858 J-0.660 K0.000 F300.000
G1 X-11.373 Y-49.053 Z-2.000 F300.000
G1 X-9.678 Y-47.358 Z-2.000 F300.000
G2 X-9.544 Y-48.921 Z-2.000 I-33.540 J-3.667 K0.000 F300.000
G0 Z5.000
G0 X-11.437 Y-48.356 Z5.000
G0 X-11.437 Y-48.356 Z3.000
G1 X-11.437 Y-48.356 Z-2.000 F300.000
G1 X-11.405 Y-49.055 Z-2.000 F300.000
G1 X-9.544 Y-48.921 Z-2.000 F300.000
G3 X-10.102 Y-44.101 Z-2.000 I-51.287 J-3.489 K0.000 F300.000
G2 X-9.496 Y-43.414 Z-2.000 I0.594 J0.087 K0.000 F300.000
G1 X-7.184 Y-43.462 Z-2.000 F300.000
G1 X-7.207 Y-41.742 Z-2.000 F300.000
G1 X-9.933 Y-41.742 Z-2.000 F300.000
G2 X-10.522 Y-41.256 Z-2.000 I-0.000 J0.600 K0.000 F300.000
G3 X-10.733 Y-40.255 Z-2.000 I-15.658 J-2.775 K0.000 F300.000
G1 X-12.463 Y-40.291 Z-2.000 F300.000
G1 X-12.318 Y-41.026 Z-2.000 F300.000
G2 X-12.901 Y-41.742 Z-2.000 I-0.589 J-0.117 K0.000 F300.000
G3 X-20.666 Y-41.823 Z-2.000 I12.061 J-1529.160 K0.000 F300.000
G2 X-21.272 Y-41.270 Z-2.000 I-0.007 J0.600 K0.000 F300.000
G1 X-21.308 Y-40.807 Z-2.000 F300.000
G1 X-23.056 Y-40.855 Z-2.000 F300.000
G2 X-22.997 Y-42.009 Z-2.000 I-396.944 J-20.991 K0.000 F300.000
G0 Z5.000
G0 Z5.000
G0 X-22.997 Y-42.009
G0 X-22.601 Y-52.131
G0 X-22.601 Y-52.131 Z3.000
G1 X-22.601 Y-52.131 Z-1.000 F300.000
G1 X-22.735 Y-52.136 Z-1.000 F300.000
G1 X-22.722 Y-52.941 Z-1.000 F300.000
G1 X-21.884 Y-52.102 Z-1.000 F300.000
G1 X-22.601 Y-52.131 Z-1.000 F300.000
G0 Z5.000
G0 X-21.884 Y-52.102 Z5.000
G0 X-21.884 Y-52.102 Z3.000
G1 X-21.884 Y-52.102 Z-1.000 F300.000
G1 X-21.351 Y-52.082 Z-1.000 F300.000
G1 X-21.334 Y-55.203 Z-1.000 F300.000
G3 X-20.789 Y-55.797 Z-1.000 I0.600 J0.003 K0.000 F300.000
G1 X-19.231 Y-55.939 Z-1.000 F300.000
G3 X-18.577 Y-55.354 Z-1.000 I0.054 J0.598 K0.000 F300.000
G2 X-18.523 Y-53.549 Z-1.000 I22.928 J0.221 K0.000 F300.000
G2 X-17.970 Y-52.522 Z-1.000 I1.126 J0.055 K0.000 F300.000
G2 X-16.282 Y-52.106 Z-1.000 I1.829 J-3.792 K0.000 F300.000
G2 X-11.141 Y-52.074 Z-1.000 I3.015 J-70.216 K0.000 F300.000
G1 X-11.239 Y-53.484 Z-1.000 F300.000
G3 X-12.818 Y-53.422 Z-1.000 I-13.670 J-329.778 K0.000 F300.000
G3 X-16.077 Y-53.515 Z-1.000 I-1.110 J-18.280 K0.000 F300.000
G3 X-17.318 Y-54.701 Z-1.000 I0.237 J-1.491 K0.000 F300.000
G3 X-17.289 Y-58.368 Z-1.000 I41.359 J-1.499 K0.000 F300.000
G3 X-16.685 Y-58.956 Z-1.000 I0.600 J0.013 K0.000 F300.000
G1 X-11.171 Y-58.918 Z-1.000 F300.000
G1 X-11.149 Y-60.280 Z-1.000 F300.000
G1 X-14.975 Y-60.258 Z-1.000 F300.000
G1 X-14.975 Y-60.258 Z-1.000 F300.000
G2 X-18.394 Y-60.231 Z-1.000 I4.063 J729.361 K0.000 F300.000
G2 X-18.517 Y-57.984 Z-1.000 I48.100 J3.749 K0.000 F300.000
G3 X-19.032 Y-57.417 Z-1.000 I-0.599 J-0.027 K0.000 F300.000
G1 X-20.610 Y-57.195 Z-1.000 F300.000
G3 X-21.294 Y-57.797 Z-1.000 I-0.084 J-0.594 K0.000 F300.000
G1 X-21.262 Y-60.131 Z-1.000 F300.000
G1 X-22.656 Y-60.153 Z-1.000 F300.000
G3 X-22.735 Y-52.136 Z-1.000 I-218.554 J1.863 K0.000 F300.000
G1 X-21.884 Y-52.102 Z-1.000 F300.000
G1 X-21.351 Y-52.082 Z-1.000 F300.000
G1 X-21.345 Y-53.261 Z-1.000 F300.000
G1 X-22.696 Y-54.612 Z-1.000 F300.000
G3 X-22.668 Y-56.281 Z-1.000 I431.400 J6.301 K0.000 F300.000
G1 X-21.336 Y-54.948 Z-1.000 F300.000
G3 X-21.231 Y-55.536 Z-1.000 I1.020 J-0.122 K0.000 F300.000
G3 X-20.512 Y-55.822 Z-1.000 I0.602 J0.467 K0.000 F300.000
G1 X-22.647 Y-57.957 Z-1.000 F300.000
G2 X-22.650 Y-59.657 Z-1.000 I-51.975 J-0.758 K0.000 F300.000
G1 X-21.287 Y-58.294 Z-1.000 F300.000
G1 X-21.294 Y-57.797 Z-1.000 F300.000
G2 X-20.816 Y-57.201 Z-1.000 I0.600 J0.008 K0.000 F300.000
G2 X-20.240 Y-57.247 Z-1.000 I0.157 J-1.677 K0.000 F300.000
G1 X-18.717 Y-55.724 Z-1.000 F300.000
G0 Z5.000
G0 X-18.542 Y-53.852 Z5.000
G0 X-18.542 Y-53.852 Z3.000
G1 X-18.542 Y-53.852 Z-1.000 F300.000
G1 X-16.874 Y-52.184 Z-1.000 F300.000
G3 X-17.970 Y-52.522 Z-1.000 I0.473 J-3.474 K0.000 F300.000
G3 X-18.523 Y-53.549 Z-1.000 I0.572 J-0.971 K0.000 F300.000
G1 X-18.542 Y-53.852 Z-1.000 F300.000
G3 X-18.577 Y-55.354 Z-1.000 I19.038 J-1.198 K0.000 F300.000
G2 X-18.709 Y-55.715 Z-1.000 I-0.597 J0.012 K0.000 F300.000
G1 X-15.039 Y-52.046 Z-1.000 F300.000
G2 X-13.337 Y-52.041 Z-1.000 I0.937 J-33.264 K0.000 F300.000
G1 X-14.698 Y-53.402 Z-1.000 F300.000
G3 X-16.077 Y-53.515 Z-1.000 I-0.098 J-7.261 K0.000 F300.000
G3 X-17.297 Y-54.610 Z-1.000 I0.228 J-1.482 K0.000 F300.000
G3 X-17.336 Y-56.040 Z-1.000 I9.450 J-0.973 K0.000 F300.000
G1 X-18.802 Y-57.506 Z-1.000 F300.000
G2 X-18.517 Y-57.984 Z-1.000 I-0.275 J-0.489 K0.000 F300.000
G1 X-18.476 Y-58.877 Z-1.000 F300.000
G1 X-17.303 Y-57.704 Z-1.000 F300.000
G1 X-17.289 Y-58.368 Z-1.000 F300.000
G3 X-16.835 Y-58.933 Z-1.000 I0.590 J0.009 K0.000 F300.000
G1 X-18.136 Y-60.234 Z-1.000 F300.000
G3 X-16.453 Y-60.248 Z-1.000 I3.116 J276.542 K0.000 F300.000
G1 X-15.150 Y-58.945 Z-1.000 F300.000
G1 X-13.441 Y-58.934 Z-1.000 F300.000
G1 X-14.767 Y-60.260 Z-1.000 F300.000
G1 X-13.080 Y-60.269 Z-1.000 F300.000
G1 X-11.733 Y-58.922 Z-1.000 F300.000
G1 X-11.171 Y-58.918 Z-1.000 F300.000
G1 X-11.153 Y-60.040 Z-1.000 F300.000
G1 X-11.393 Y-60.279 Z-1.000 F300.000
G1 X-11.149 Y-60.280 Z-1.000 F300.000
G1 X-11.153 Y-60.040 Z-1.000 F300.000
G0 Z5.000
G0 X-9.858 Y-58.094 Z5.000
G0 X-9.858 Y-58.094 Z3.000
G1 X-9.858 Y-58.094 Z-1.000 F300.000
G3 X-10.466 Y-57.749 Z-1.000 I-2.717 J-4.079 K0.000 F300.000
G1 X-10.836 Y-57.549 Z-1.000 F300.000
G3 X-14.995 Y-56.738 Z-1.000 I-4.036 J-9.629 K0.000 F300.000
G1 X-14.956 Y-55.588 Z-1.000 F300.000
G2 X-10.757 Y-56.062 Z-1.000 I0.634 J-13.210 K0.000 F300.000
G3 X-10.050 Y-55.722 Z-1.000 I0.157 J0.579 K0.000 F300.000
G2 X-8.277 Y-52.220 Z-1.000 I20.954 J-8.408 K0.000 F300.000
G1 X-7.192 Y-53.384 Z-1.000 F300.000
G3 X-9.038 Y-56.298 Z-1.000 I19.582 J-14.452 K0.000 F300.000
G3 X-8.856 Y-57.091 Z-1.000 I0.521 J-0.297 K0.000 F300.000
G2 X-7.033 Y-58.745 Z-1.000 I-3.268 J-5.431 K0.000 F300.000
G1 X-7.820 Y-60.101 Z-1.000 F300.000
G3 X-9.352 Y-58.481 Z-1.000 I-7.003 J-5.087 K0.000 F300.000
G3 X-9.858 Y-58.094 Z-1.000 I-3.223 J-3.692 K0.000 F300.000
G0 Z5.000
G0 X-9.912 Y-55.404 Z5.000
G0 X-9.912 Y-55.404 Z3.000
G1 X-9.912 Y-55.404 Z-1.000 F300.000
G2 X-8.277 Y-52.220 Z-1.000 I19.845 J-8.177 K0.000 F300.000
G1 X-7.530 Y-53.022 Z-1.000 F300.000
G1 X-9.912 Y-55.404 Z-1.000 F300.000
G0 Z5.000
G0 X-11.228 Y-53.326 Z5.000
G0 X-11.228 Y-53.326 Z3.000
G1 X-11.228 Y-53.326 Z-1.000 F300.000
G1 X-11.239 Y-53.484 Z-1.000 F300.000
G1 X-11.380 Y-53.478 Z-1.000 F300.000
G1 X-11.228 Y-53.326 Z-1.000 F300.000
G1 X-11.141 Y-52.074 Z-1.000 F300.000
G3 X-11.660 Y-52.061 Z-1.000 I-0.987 J-30.508 K0.000 F300.000
G1 X-13.014 Y-53.415 Z-1.000 F300.000
G3 X-14.698 Y-53.402 Z-1.000 I-0.987 J-17.993 K0.000 F300.000
G1 X-13.337 Y-52.041 Z-1.000 F300.000
G0 Z5.000
G0 X-14.626 Y-56.724 Z5.000
G0 X-14.626 Y-56.724 Z3.000
G1 X-14.626 Y-56.724 Z-1.000 F300.000
G3 X-14.995 Y-56.738 Z-1.000 I-0.062 J-3.353 K0.000 F300.000
G1 X-14.956 Y-55.588 Z-1.000 F300.000
G2 X-13.508 Y-55.606 Z-1.000 I0.544 J-14.050 K0.000 F300.000
G1 X-14.626 Y-56.724 Z-1.000 F300.000
G2 X-13.107 Y-56.902 Z-1.000 I-1.024 J-15.348 K0.000 F300.000
G1 X-11.983 Y-55.778 Z-1.000 F300.000
G1 X-11.365 Y-55.898 Z-1.000 F300.000
G3 X-10.585 Y-56.077 Z-1.000 I0.888 J2.079 K0.000 F300.000
G1 X-11.722 Y-57.214 Z-1.000 F300.000
G2 X-10.527 Y-57.716 Z-1.000 I-1.444 J-5.116 K0.000 F300.000
G1 X-8.944 Y-56.133 Z-1.000 F300.000
G3 X-8.986 Y-56.969 Z-1.000 I0.504 J-0.445 K0.000 F300.000
G3 X-8.469 Y-57.355 Z-1.000 I1.545 J1.531 K0.000 F300.000
G1 X-9.487 Y-58.374 Z-1.000 F300.000
G2 X-8.599 Y-59.182 Z-1.000 I-4.261 J-5.571 K0.000 F300.000
G1 X-7.556 Y-58.139 Z-1.000 F300.000
G2 X-7.033 Y-58.745 Z-1.000 I-2.830 J-2.965 K0.000 F300.000
G1 X-7.820 Y-60.101 Z-1.000 F300.000
G0 Z5.000
G0 X-21.264 Y-59.968 Z5.000
G0 X-21.264 Y-59.968 Z3.000
G1 X-21.264 Y-59.968 Z-1.000 F300.000
G1 X-21.262 Y-60.131 Z-1.000 F300.000
G1 X-21.430 Y-60.134 Z-1.000 F300.000
G1 X-21.264 Y-59.968 Z-1.000 F300.000
G1 X-21.287 Y-58.294 Z-1.000 F300.000
G1 X-22.650 Y-59.657 Z-1.000 F300.000
G1 X-22.650 Y-59.657 Z-2.000 F300.000
G1 X-21.287 Y-58.294 Z-2.000 F300.000
G1 X-21.264 Y-59.968 Z-2.000 F300.000
G1 X-21.430 Y-60.134 Z-2.000 F300.000
G1 X-21.262 Y-60.131 Z-2.000 F300.000
G1 X-21.264 Y-59.968 Z-2.000 F300.000
G0 Z5.000
G0 X-18.717 Y-55.724 Z5.000
G0 X-18.717 Y-55.724 Z3.000
G1 X-18.717 Y-55.724 Z-2.000 F300.000
G1 X-20.240 Y-57.247 Z-2.000 F300.000
G3 X-20.816 Y-57.201 Z-2.000 I-0.419 J-1.631 K0.000 F300.000
G3 X-21.294 Y-57.797 Z-2.000 I0.122 J-0.587 K0.000 F300.000
G1 X-21.287 Y-58.294 Z-2.000 F300.000
G1 X-22.650 Y-59.657 Z-2.000 F300.000
G3 X-22.647 Y-57.957 Z-2.000 I-51.972 J0.942 K0.000 F300.000
G1 X-20.512 Y-55.822 Z-2.000 F300.000
G2 X-21.231 Y-55.536 Z-2.000 I-0.117 J0.753 K0.000 F300.000
G2 X-21.336 Y-54.948 Z-2.000 I0.915 J0.466 K0.000 F300.000
G1 X-22.668 Y-56.281 Z-2.000 F300.000
G2 X-22.696 Y-54.612 Z-2.000 I431.372 J7.970 K0.000 F300.000
G1 X-21.345 Y-53.261 Z-2.000 F300.000
G1 X-21.351 Y-52.082 Z-2.000 F300.000
G1 X-21.884 Y-52.102 Z-2.000 F300.000
G1 X-22.735 Y-52.136 Z-2.000 F300.000
G2 X-22.656 Y-60.153 Z-2.000 I-218.476 J-6.154 K0.000 F300.000
G1 X-21.262 Y-60.131 Z-2.000 F300.000
G1 X-21.294 Y-57.797 Z-2.000 F300.000
G2 X-20.610 Y-57.195 Z-2.000 I0.600 J0.008 K0.000 F300.000
G1 X-19.032 Y-57.417 Z-2.000 F300.000
G2 X-18.517 Y-57.984 Z-2.000 I-0.084 J-0.594 K0.000 F300.000
G3 X-18.394 Y-60.231 Z-2.000 I48.223 J1.502 K0.000 F300.000
G3 X-14.975 Y-60.258 Z-2.000 I7.482 J729.333 K0.000 F300.000
G1 X-14.975 Y-60.258 Z-2.000 F300.000
G1 X-11.149 Y-60.280 Z-2.000 F300.000
G1 X-11.171 Y-58.918 Z-2.000 F300.000
G1 X-16.685 Y-58.956 Z-2.000 F300.000
G2 X-17.289 Y-58.368 Z-2.000 I-0.004 J0.600 K0.000 F300.000
G2 X-17.318 Y-54.701 Z-2.000 I41.329 J2.169 K0.000 F300.000
G2 X-16.077 Y-53.515 Z-2.000 I1.478 J-0.305 K0.000 F300.000
G2 X-12.818 Y-53.422 Z-2.000 I2.149 J-18.187 K0.000 F300.000
G2 X-11.239 Y-53.484 Z-2.000 I-12.091 J-329.839 K0.000 F300.000
G1 X-11.141 Y-52.074 Z-2.000 F300.000
G3 X-16.282 Y-52.106 Z-2.000 I-2.125 J-70.248 K0.000 F300.000
G3 X-17.970 Y-52.522 Z-2.000 I0.141 J-4.208 K0.000 F300.000
G3 X-18.523 Y-53.549 Z-2.000 I0.572 J-0.971 K0.000 F300.000
G3 X-18.577 Y-55.354 Z-2.000 I22.874 J-1.585 K0.000 F300.000
G2 X-19.231 Y-55.939 Z-2.000 I-0.600 J0.013 K0.000 F300.000
G1 X-20.789 Y-55.797 Z-2.000 F300.000
G2 X-21.334 Y-55.203 Z-2.000 I0.054 J0.598 K0.000 F300.000
G1 X-21.351 Y-52.082 Z-2.000 F300.000
G1 X-21.884 Y-52.102 Z-2.000 F300.000
G1 X-21.884 Y-52.102 Z-2.000 F300.000
G1 X-22.735 Y-52.136 Z-2.000 F300.000
G1 X-22.722 Y-52.941 Z-2.000 F300.000
G1 X-21.884 Y-52.102 Z-2.000 F300.000
G0 Z5.000
G0 X-18.542 Y-53.852 Z5.000
G0 X-18.542 Y-53.852 Z3.000
G1 X-18.542 Y-53.852 Z-2.000 F300.000
G1 X-16.874 Y-52.184 Z-2.000 F300.000
G3 X-17.970 Y-52.522 Z-2.000 I0.473 J-3.474 K0.000 F300.000
G3 X-18.523 Y-53.549 Z-2.000 I0.572 J-0.971 K0.000 F300.000
G1 X-18.542 Y-53.852 Z-2.000 F300.000
G3 X-18.577 Y-55.354 Z-2.000 I19.038 J-1.198 K0.000 F300.000
G2 X-18.709 Y-55.715 Z-2.000 I-0.597 J0.012 K0.000 F300.000
G1 X-15.039 Y-52.046 Z-2.000 F300.000
G2 X-13.337 Y-52.041 Z-2.000 I0.937 J-33.264 K0.000 F300.000
G1 X-14.698 Y-53.402 Z-2.000 F300.000
G3 X-16.077 Y-53.515 Z-2.000 I-0.098 J-7.261 K0.000 F300.000
G3 X-17.297 Y-54.610 Z-2.000 I0.228 J-1.482 K0.000 F300.000
G3 X-17.336 Y-56.040 Z-2.000 I9.450 J-0.973 K0.000 F300.000
G1 X-18.802 Y-57.506 Z-2.000 F300.000
G2 X-18.517 Y-57.984 Z-2.000 I-0.275 J-0.489 K0.000 F300.000
G1 X-18.476 Y-58.877 Z-2.000 F300.000
G1 X-17.303 Y-57.704 Z-2.000 F300.000
G1 X-17.289 Y-58.368 Z-2.000 F300.000
G3 X-16.835 Y-58.933 Z-2.000 I0.590 J0.009 K0.000 F300.000
G1 X-18.136 Y-60.234 Z-2.000 F300.000
G3 X-16.453 Y-60.248 Z-2.000 I3.116 J276.542 K0.000 F300.000
G1 X-15.150 Y-58.945 Z-2.000 F300.000
G1 X-13.441 Y-58.934 Z-2.000 F300.000
G1 X-14.767 Y-60.260 Z-2.000 F300.000
G1 X-13.080 Y-60.269 Z-2.000 F300.000
G1 X-11.733 Y-58.922 Z-2.000 F300.000
G1 X-11.171 Y-58.918 Z-2.000 F300.000
G1 X-11.153 Y-60.040 Z-2.000 F300.000
G1 X-11.393 Y-60.279 Z-2.000 F300.000
G1 X-11.149 Y-60.280 Z-2.000 F300.000
G1 X-11.153 Y-60.040 Z-2.000 F300.000
G0 Z5.000
G0 X-9.858 Y-58.094 Z5.000
G0 X-9.858 Y-58.094 Z3.000
G1 X-9.858 Y-58.094 Z-2.000 F300.000
G3 X-10.466 Y-57.749 Z-2.000 I-2.717 J-4.079 K0.000 F300.000
G1 X-10.836 Y-57.549 Z-2.000 F300.000
G3 X-14.995 Y-56.738 Z-2.000 I-4.036 J-9.629 K0.000 F300.000
G1 X-14.956 Y-55.588 Z-2.000 F300.000
G2 X-10.757 Y-56.062 Z-2.000 I0.634 J-13.210 K0.000 F300.000
G3 X-10.050 Y-55.722 Z-2.000 I0.157 J0.579 K0.000 F300.000
G2 X-8.277 Y-52.220 Z-2.000 I20.954 J-8.408 K0.000 F300.000
G1 X-7.192 Y-53.384 Z-2.000 F300.000
G3 X-9.038 Y-56.298 Z-2.000 I19.582 J-14.452 K0.000 F300.000
G3 X-8.856 Y-57.091 Z-2.000 I0.521 J-0.297 K0.000 F300.000
G2 X-7.033 Y-58.745 Z-2.000 I-3.268 J-5.431 K0.000 F300.000
G1 X-7.820 Y-60.101 Z-2.000 F300.000
G3 X-9.352 Y-58.481 Z-2.000 I-7.003 J-5.087 K0.000 F300.000
G3 X-9.858 Y-58.094 Z-2.000 I-3.223 J-3.692 K0.000 F300.000
G0 Z5.000
G0 X-9.912 Y-55.404 Z5.000
G0 X-9.912 Y-55.404 Z3.000
G1 X-9.912 Y-55.404 Z-2.000 F300.000
G2 X-8.277 Y-52.220 Z-2.000 I19.845 J-8.177 K0.000 F300.000
G1 X-7.530 Y-53.022 Z-2.000 F300.000
G1 X-9.912 Y-55.404 Z-2.000 F300.000
G0 Z5.000
G0 X-11.228 Y-53.326 Z5.000
G0 X-11.228 Y-53.326 Z3.000
G1 X-11.228 Y-53.326 Z-2.000 F300.000
G1 X-11.239 Y-53.484 Z-2.000 F300.000
G1 X-11.380 Y-53.478 Z-2.000 F300.000
G1 X-11.228 Y-53.326 Z-2.000 F300.000
G1 X-11.141 Y-52.074 Z-2.000 F300.000
G3 X-11.660 Y-52.061 Z-2.000 I-0.987 J-30.508 K0.000 F300.000
G1 X-13.014 Y-53.415 Z-2.000 F300.000
G3 X-14.698 Y-53.402 Z-2.000 I-0.987 J-17.993 K0.000 F300.000
G1 X-13.337 Y-52.041 Z-2.000 F300.000
G0 Z5.000
G0 X-14.626 Y-56.724 Z5.000
G0 X-14.626 Y-56.724 Z3.000
G1 X-14.626 Y-56.724 Z-2.000 F300.000
G3 X-14.995 Y-56.738 Z-2.000 I-0.062 J-3.353 K0.000 F300.000
G1 X-14.956 Y-55.588 Z-2.000 F300.000
G2 X-13.508 Y-55.606 Z-2.000 I0.544 J-14.050 K0.000 F300.000
G1 X-14.626 Y-56.724 Z-2.000 F300.000
G2 X-13.107 Y-56.902 Z-2.000 I-1.024 J-15.348 K0.000 F300.000
G1 X-11.983 Y-55.778 Z-2.000 F300.000
G1 X-11.365 Y-55.898 Z-2.000 F300.000
G3 X-10.585 Y-56.077 Z-2.000 I0.888 J2.079 K0.000 F300.000
G1 X-11.722 Y-57.214 Z-2.000 F300.000
G2 X-10.527 Y-57.716 Z-2.000 I-1.444 J-5.116 K0.000 F300.000
G1 X-8.944 Y-56.133 Z-2.000 F300.000
G3 X-8.986 Y-56.969 Z-2.000 I0.504 J-0.445 K0.000 F300.000
G3 X-8.469 Y-57.355 Z-2.000 I1.545 J1.531 K0.000 F300.000
G1 X-9.487 Y-58.374 Z-2.000 F300.000
G2 X-8.599 Y-59.182 Z-2.000 I-4.261 J-5.571 K0.000 F300.000
G1 X-7.556 Y-58.139 Z-2.000 F300.000
G2 X-7.033 Y-58.745 Z-2.000 I-2.830 J-2.965 K0.000 F300.000
G1 X-7.820 Y-60.101 Z-2.000 F300.000
G0 Z5.000
G0 Z5.000
G0 X-7.820 Y-60.101
G0 X-11.302 Y-62.387
G0 X-11.302 Y-62.387 Z3.000
G1 X-11.302 Y-62.387 Z-1.000 F300.000
G1 X-12.669 Y-63.753 Z-1.000 F300.000
G2 X-11.206 Y-63.988 Z-1.000 I0.415 J-2.090 K0.000 F300.000
G1 X-10.117 Y-62.898 Z-1.000 F300.000
G2 X-9.669 Y-63.169 Z-1.000 I-1.370 J-2.764 K0.000 F300.000
G3 X-9.005 Y-63.157 Z-1.000 I0.323 J0.506 K0.000 F300.000
G3 X-8.415 Y-62.459 Z-1.000 I-2.111 J2.381 K0.000 F300.000
G1 X-8.202 Y-62.681 Z-1.000 F300.000
G1 X-10.158 Y-64.637 Z-1.000 F300.000
G2 X-10.158 Y-65.276 Z-1.000 I-0.475 J-0.320 K0.000 F300.000
G3 X-11.182 Y-67.175 Z-1.000 I8.273 J-5.686 K0.000 F300.000
G1 X-11.069 Y-67.245 Z-1.000 F300.000
G1 X-7.370 Y-63.546 Z-1.000 F300.000
G1 X-7.226 Y-63.695 Z-1.000 F300.000
G3 X-7.835 Y-64.409 Z-1.000 I4.724 J-4.645 K0.000 F300.000
G3 X-10.017 Y-67.890 Z-1.000 I17.883 J-13.633 K0.000 F300.000
G0 Z5.000
G0 X-13.434 Y-67.913 Z5.000
G0 X-13.434 Y-67.913 Z3.000
G1 X-13.434 Y-67.913 Z-1.000 F300.000
G3 X-13.395 Y-68.689 Z-1.000 I153.776 J7.472 K0.000 F300.000
G1 X-14.253 Y-68.731 Z-1.000 F300.000
G1 X-13.434 Y-67.913 Z-1.000 F300.000
G2 X-13.509 Y-66.291 Z-1.000 I159.278 J8.188 K0.000 F300.000
G1 X-14.707 Y-67.489 Z-1.000 F300.000
G2 X-14.774 Y-65.858 Z-1.000 I32.540 J2.143 K0.000 F300.000
G1 X-13.499 Y-64.584 Z-1.000 F300.000
G2 X-12.669 Y-63.753 Z-1.000 I1.043 J-0.212 K0.000 F300.000
G1 X-11.302 Y-62.387 Z-1.000 F300.000
G3 X-12.699 Y-62.086 Z-1.000 I-1.716 J-4.580 K0.000 F300.000
G1 X-14.764 Y-64.151 Z-1.000 F300.000
G2 X-14.558 Y-62.937 Z-1.000 I3.283 J0.068 K0.000 F300.000
G2 X-12.699 Y-62.086 Z-1.000 I1.595 J-1.030 K0.000 F300.000
G3 X-14.421 Y-62.727 Z-1.000 I-0.256 J-1.948 K0.000 F300.000
G3 X-14.680 Y-63.345 Z-1.000 I0.941 J-0.758 K0.000 F300.000
G3 X-14.736 Y-66.925 Z-1.000 I17.619 J-2.065 K0.000 F300.000
G3 X-14.630 Y-68.750 Z-1.000 I86.534 J4.112 K0.000 F300.000
G1 X-13.395 Y-68.689 Z-1.000 F300.000
G2 X-13.532 Y-64.782 Z-1.000 I45.484 J3.553 K0.000 F300.000
G2 X-12.272 Y-63.704 Z-1.000 I1.151 J-0.069 K0.000 F300.000
G2 X-10.639 Y-64.262 Z-1.000 I-0.302 J-3.548 K0.000 F300.000
G2 X-10.206 Y-64.558 Z-1.000 I-0.695 J-1.486 K0.000 F300.000
G2 X-10.158 Y-65.276 Z-1.000 I-0.455 J-0.391 K0.000 F300.000
G3 X-11.182 Y-67.175 Z-1.000 I8.273 J-5.686 K0.000 F300.000
G1 X-10.017 Y-67.890 Z-1.000 F300.000
G2 X-7.835 Y-64.409 Z-1.000 I20.065 J-10.152 K0.000 F300.000
G2 X-7.226 Y-63.695 Z-1.000 I5.332 J-3.932 K0.000 F300.000
G1 X-8.415 Y-62.459 Z-1.000 F300.000
G2 X-9.005 Y-63.157 Z-1.000 I-2.700 J1.683 K0.000 F300.000
G2 X-9.669 Y-63.169 Z-1.000 I-0.342 J0.493 K0.000 F300.000
G3 X-12.699 Y-62.086 Z-1.000 I-3.696 J-5.560 K0.000 F300.000
G1 X-12.699 Y-62.086 Z-2.000 F300.000
G2 X-9.669 Y-63.169 Z-2.000 I-0.667 J-6.643 K0.000 F300.000
G3 X-9.005 Y-63.157 Z-2.000 I0.323 J0.506 K0.000 F300.000
G3 X-8.415 Y-62.459 Z-2.000 I-2.111 J2.381 K0.000 F300.000
G1 X-7.226 Y-63.695 Z-2.000 F300.000
G3 X-7.835 Y-64.409 Z-2.000 I4.724 J-4.645 K0.000 F300.000
G3 X-10.017 Y-67.890 Z-2.000 I17.883 J-13.633 K0.000 F300.000
G1 X-11.182 Y-67.175 Z-2.000 F300.000
G2 X-10.158 Y-65.276 Z-2.000 I9.297 J-3.787 K0.000 F300.000
G3 X-10.206 Y-64.558 Z-2.000 I-0.503 J0.327 K0.000 F300.000
G3 X-10.639 Y-64.262 Z-2.000 I-1.129 J-1.190 K0.000 F300.000
G3 X-12.272 Y-63.704 Z-2.000 I-1.935 J-2.989 K0.000 F300.000
G3 X-13.532 Y-64.782 Z-2.000 I-0.109 J-1.148 K0.000 F300.000
G3 X-13.395 Y-68.689 Z-2.000 I45.621 J-0.353 K0.000 F300.000
G1 X-14.630 Y-68.750 Z-2.000 F300.000
G2 X-14.736 Y-66.925 Z-2.000 I86.428 J5.938 K0.000 F300.000
G2 X-14.680 Y-63.345 Z-2.000 I17.675 J1.515 K0.000 F300.000
G2 X-14.421 Y-62.727 Z-2.000 I1.200 J-0.140 K0.000 F300.000
G2 X-12.699 Y-62.086 Z-2.000 I1.467 J-1.307 K0.000 F300.000
G3 X-14.558 Y-62.937 Z-2.000 I-0.264 J-1.880 K0.000 F300.000
G3 X-14.764 Y-64.151 Z-2.000 I3.077 J-1.146 K0.000 F300.000
G1 X-12.699 Y-62.086 Z-2.000 F300.000
G2 X-11.302 Y-62.387 Z-2.000 I-0.319 J-4.881 K0.000 F300.000
G1 X-12.669 Y-63.753 Z-2.000 F300.000
G3 X-13.499 Y-64.584 Z-2.000 I0.212 J-1.043 K0.000 F300.000
G1 X-14.774 Y-65.858 Z-2.000 F300.000
G3 X-14.707 Y-67.489 Z-2.000 I32.607 J0.512 K0.000 F300.000
G1 X-13.509 Y-66.291 Z-2.000 F300.000
G3 X-13.434 Y-67.913 Z-2.000 I159.353 J6.566 K0.000 F300.000
G1 X-14.253 Y-68.731 Z-2.000 F300.000
G1 X-13.395 Y-68.689 Z-2.000 F300.000
G2 X-13.434 Y-67.913 Z-2.000 I153.736 J8.248 K0.000 F300.000
G0 Z5.000
G0 X-10.017 Y-67.890 Z5.000
G0 X-10.017 Y-67.890 Z3.000
G1 X-10.017 Y-67.890 Z-2.000 F300.000
G2 X-7.835 Y-64.409 Z-2.000 I20.065 J-10.152 K0.000 F300.000
G2 X-7.226 Y-63.695 Z-2.000 I5.332 J-3.932 K0.000 F300.000
G1 X-7.370 Y-63.546 Z-2.000 F300.000
G1 X-11.069 Y-67.245 Z-2.000 F300.000
G1 X-11.182 Y-67.175 Z-2.000 F300.000
G2 X-10.158 Y-65.276 Z-2.000 I9.297 J-3.787 K0.000 F300.000
G3 X-10.158 Y-64.637 Z-2.000 I-0.476 J0.320 K0.000 F300.000
G1 X-8.202 Y-62.681 Z-2.000 F300.000
G1 X-8.415 Y-62.459 Z-2.000 F300.000
G2 X-9.005 Y-63.157 Z-2.000 I-2.700 J1.683 K0.000 F300.000
G2 X-9.669 Y-63.169 Z-2.000 I-0.342 J0.493 K0.000 F300.000
G3 X-10.117 Y-62.898 Z-2.000 I-1.817 J-2.493 K0.000 F300.000
G1 X-11.206 Y-63.988 Z-2.000 F300.000
G3 X-12.669 Y-63.753 Z-2.000 I-1.047 J-1.856 K0.000 F300.000
G1 X-11.302 Y-62.387 Z-2.000 F300.000
G0 Z5.000
G0 Z5.000
G0 X-11.302 Y-62.387
G0 X-16.367 Y-64.695
G0 X-16.367 Y-64.695 Z3.000
G1 X-16.367 Y-64.695 Z-1.000 F300.000
G1 X-16.420 Y-64.588 Z-1.000 F300.000
G1 X-16.367 Y-64.695 Z-1.000 F300.000
G3 X-17.897 Y-65.936 Z-1.000 I3.338 J-5.675 K0.000 F300.000
G3 X-17.751 Y-66.868 Z-1.000 I0.439 J-0.409 K0.000 F300.000
G2 X-16.672 Y-67.510 Z-1.000 I-2.754 J-5.857 K0.000 F300.000
G1 X-17.419 Y-68.981 Z-1.000 F300.000
G3 X-23.050 Y-66.781 Z-1.000 I-8.221 J-12.741 K0.000 F300.000
G1 X-22.953 Y-65.451 Z-1.000 F300.000
G3 X-22.232 Y-65.159 Z-1.000 I0.168 J0.621 K0.000 F300.000
G2 X-19.682 Y-61.395 Z-1.000 I15.245 J-7.581 K0.000 F300.000
G1 X-18.490 Y-62.395 Z-1.000 F300.000
G3 X-20.644 Y-64.997 Z-1.000 I9.732 J-10.251 K0.000 F300.000
G3 X-20.328 Y-65.906 Z-1.000 I0.497 J-0.336 K0.000 F300.000
G2 X-18.795 Y-66.424 Z-1.000 I-5.289 J-18.182 K0.000 F300.000
G3 X-18.005 Y-65.726 Z-1.000 I0.204 J0.564 K0.000 F300.000
G3 X-18.316 Y-65.185 Z-1.000 I-1.656 J-0.590 K0.000 F300.000
G2 X-16.838 Y-63.762 Z-1.000 I6.131 J-4.892 K0.000 F300.000
G1 X-16.420 Y-64.588 Z-1.000 F300.000
G1 X-16.835 Y-65.003 Z-1.000 F300.000
G2 X-16.367 Y-64.695 Z-1.000 I2.957 J-3.979 K0.000 F300.000
G0 Z5.000
G0 X-18.941 Y-62.017 Z5.000
G0 X-18.941 Y-62.017 Z3.000
G1 X-18.941 Y-62.017 Z-1.000 F300.000
G1 X-22.998 Y-66.075 Z-1.000 F300.000
G1 X-22.953 Y-65.451 Z-1.000 F300.000
G3 X-22.232 Y-65.159 Z-1.000 I0.175 J0.604 K0.000 F300.000
G2 X-19.682 Y-61.395 Z-1.000 I15.245 J-7.581 K0.000 F300.000
G1 X-18.941 Y-62.017 Z-1.000 F300.000
G1 X-18.490 Y-62.395 Z-1.000 F300.000
G3 X-20.644 Y-64.997 Z-1.000 I9.732 J-10.251 K0.000 F300.000
G3 X-20.721 Y-65.495 Z-1.000 I0.479 J-0.328 K0.000 F300.000
G1 X-22.198 Y-66.972 Z-1.000 F300.000
G2 X-20.871 Y-67.342 Z-1.000 I-2.264 J-10.689 K0.000 F300.000
G1 X-19.649 Y-66.119 Z-1.000 F300.000
G2 X-18.795 Y-66.424 Z-1.000 I-3.134 J-10.137 K0.000 F300.000
G3 X-18.005 Y-65.726 Z-1.000 I0.204 J0.564 K0.000 F300.000
G3 X-18.316 Y-65.185 Z-1.000 I-1.656 J-0.590 K0.000 F300.000
G2 X-16.838 Y-63.762 Z-1.000 I6.131 J-4.892 K0.000 F300.000
G1 X-16.420 Y-64.588 Z-1.000 F300.000
G1 X-16.835 Y-65.003 Z-1.000 F300.000
G3 X-17.620 Y-65.640 Z-1.000 I3.175 J-4.720 K0.000 F300.000
G3 X-18.029 Y-66.197 Z-1.000 I0.770 J-0.993 K0.000 F300.000
G1 X-19.633 Y-67.800 Z-1.000 F300.000
G2 X-18.479 Y-68.344 Z-1.000 I-3.705 J-9.347 K0.000 F300.000
G1 X-17.272 Y-67.137 Z-1.000 F300.000
G2 X-16.672 Y-67.510 Z-1.000 I-1.616 J-3.266 K0.000 F300.000
G1 X-17.419 Y-68.981 Z-1.000 F300.000
G1 X-17.419 Y-68.981 Z-2.000 F300.000
G1 X-16.672 Y-67.510 Z-2.000 F300.000
G3 X-17.272 Y-67.137 Z-2.000 I-2.217 J-2.893 K0.000 F300.000
G1 X-18.479 Y-68.344 Z-2.000 F300.000
G3 X-19.633 Y-67.800 Z-2.000 I-4.858 J-8.803 K0.000 F300.000
G1 X-18.029 Y-66.197 Z-2.000 F300.000
G2 X-17.620 Y-65.640 Z-2.000 I1.179 J-0.435 K0.000 F300.000
G2 X-16.835 Y-65.003 Z-2.000 I3.961 J-4.084 K0.000 F300.000
G1 X-16.420 Y-64.588 Z-2.000 F300.000
G1 X-16.838 Y-63.762 Z-2.000 F300.000
G3 X-18.316 Y-65.185 Z-2.000 I4.653 J-6.315 K0.000 F300.000
G2 X-18.005 Y-65.726 Z-2.000 I-1.346 J-1.131 K0.000 F300.000
G2 X-18.795 Y-66.424 Z-2.000 I-0.585 J-0.133 K0.000 F300.000
G3 X-19.649 Y-66.119 Z-2.000 I-3.987 J-9.832 K0.000 F300.000
G1 X-20.871 Y-67.342 Z-2.000 F300.000
G3 X-22.198 Y-66.972 Z-2.000 I-3.591 J-10.319 K0.000 F300.000
G1 X-20.721 Y-65.495 Z-2.000 F300.000
G2 X-20.644 Y-64.997 Z-2.000 I0.556 J0.169 K0.000 F300.000
G2 X-18.490 Y-62.395 Z-2.000 I11.887 J-7.649 K0.000 F300.000
G1 X-18.941 Y-62.017 Z-2.000 F300.000
G1 X-19.682 Y-61.395 Z-2.000 F300.000
G3 X-22.232 Y-65.159 Z-2.000 I12.695 J-11.346 K0.000 F300.000
G2 X-22.953 Y-65.451 Z-2.000 I-0.545 J0.313 K0.000 F300.000
G1 X-22.998 Y-66.075 Z-2.000 F300.000
G1 X-18.941 Y-62.017 Z-2.000 F300.000
G1 X-18.941 Y-62.017 Z-2.000 F300.000
G1 X-18.490 Y-62.395 Z-2.000 F300.000
G3 X-20.644 Y-64.997 Z-2.000 I9.732 J-10.251 K0.000 F300.000
G3 X-20.328 Y-65.906 Z-2.000 I0.497 J-0.336 K0.000 F300.000
G2 X-18.795 Y-66.424 Z-2.000 I-5.289 J-18.182 K0.000 F300.000
G3 X-18.005 Y-65.726 Z-2.000 I0.204 J0.564 K0.000 F300.000
G3 X-18.316 Y-65.185 Z-2.000 I-1.656 J-0.590 K0.000 F300.000
G2 X-16.838 Y-63.762 Z-2.000 I6.131 J-4.892 K0.000 F300.000
G1 X-16.420 Y-64.588 Z-2.000 F300.000
G1 X-16.835 Y-65.003 Z-2.000 F300.000
G2 X-16.367 Y-64.695 Z-2.000 I2.957 J-3.979 K0.000 F300.000
G1 X-16.420 Y-64.588 Z-2.000 F300.000
G1 X-16.367 Y-64.695 Z-2.000 F300.000
G3 X-17.897 Y-65.936 Z-2.000 I3.338 J-5.675 K0.000 F300.000
G3 X-17.751 Y-66.868 Z-2.000 I0.439 J-0.409 K0.000 F300.000
G2 X-16.672 Y-67.510 Z-2.000 I-2.754 J-5.857 K0.000 F300.000
G1 X-17.419 Y-68.981 Z-2.000 F300.000
G3 X-23.050 Y-66.781 Z-2.000 I-8.221 J-12.741 K0.000 F300.000
G1 X-22.953 Y-65.451 Z-2.000 F300.000
G3 X-22.232 Y-65.159 Z-2.000 I0.168 J0.621 K0.000 F300.000
G2 X-19.682 Y-61.395 Z-2.000 I15.245 J-7.581 K0.000 F300.000
G1 X-18.941 Y-62.017 Z-2.000 F300.000
G0 Z5.000
G0 Z5.000
(Finish operation: Pocket_Shape)
(Begin operation: Pocket_Shape001)
(Path: Pocket_Shape001)
(Pocket_Shape001)
G0 Z5.000
G0 X-11.707 Y-11.770
G0 Z3.000
G1 X-11.707 Y-11.770 Z-1.000 F300.000
G1 X-14.823 Y-14.886 Z-1.000 F300.000
G3 X-17.252 Y-15.618 Z-1.000 I10.942 J-40.717 K0.000 F300.000
