(Exported by FreeCAD)
(Post Processor: script_module)
(Output Time:2026-07-03 19:06:55.598443)
(Begin preamble)
G17 G90
G21
(Begin operation: Fixture)
(Path: Fixture)
G54
(Finish operation: Fixture)
(Begin operation: 12001)
(Path: 12001)
(12001)
(Begin toolchange)
( M6 T4 )
M3 S10000
(Finish operation: 12001)
(Begin operation: Pocket_Shape)
(Path: Pocket_Shape)
(Pocket_Shape)
G0 Z5.000
G0 X15.670 Y18.042
G0 Z3.000
G1 X15.670 Y18.042 Z-1.000 F300.000
G1 X16.227 Y16.594 Z-1.000 F300.000
G3 X12.975 Y14.947 Z-1.000 I7.670 J-19.178 K0.000 F300.000
G1 X12.493 Y16.383 Z-1.000 F300.000
G1 X12.754 Y16.618 Z-1.000 F300.000
G2 X15.588 Y18.256 Z-1.000 I7.832 J-10.284 K0.000 F300.000
G1 X15.670 Y18.042 Z-1.000 F300.000
G0 Z5.000
G0 X16.227 Y16.594 Z5.000
G0 X16.227 Y16.594 Z3.000
G1 X16.227 Y16.594 Z-1.000 F300.000
G1 X15.755 Y17.820 Z-1.000 F300.000
G1 X12.952 Y15.016 Z-1.000 F300.000
G1 X12.525 Y16.286 Z-1.000 F300.000
G1 X13.137 Y16.899 Z-1.000 F300.000
G3 X12.493 Y16.383 Z-1.000 I2.237 J-3.460 K0.000 F300.000
G1 X12.525 Y16.286 Z-1.000 F300.000
G1 X12.525 Y16.286 Z-2.000 F300.000
G1 X12.493 Y16.383 Z-2.000 F300.000
G2 X13.137 Y16.899 Z-2.000 I2.882 J-2.944 K0.000 F300.000
G1 X12.525 Y16.286 Z-2.000 F300.000
G1 X12.952 Y15.016 Z-2.000 F300.000
G1 X15.755 Y17.820 Z-2.000 F300.000
G1 X16.227 Y16.594 Z-2.000 F300.000
G1 X16.227 Y16.594 Z-2.000 F300.000
G3 X12.975 Y14.947 Z-2.000 I7.670 J-19.178 K0.000 F300.000
G1 X12.493 Y16.383 Z-2.000 F300.000
G1 X12.754 Y16.618 Z-2.000 F300.000
G2 X15.588 Y18.256 Z-2.000 I7.832 J-10.284 K0.000 F300.000
G1 X16.227 Y16.594 Z-2.000 F300.000
G0 Z5.000
G0 Z5.000
G0 X16.227 Y16.594
G0 X16.605 Y14.067
G0 X16.605 Y14.067 Z3.000
G1 X16.605 Y14.067 Z-1.000 F300.000
G1 X14.629 Y12.091 Z-1.000 F300.000
G2 X15.149 Y13.649 Z-1.000 I2.251 J0.115 K0.000 F300.000
G2 X16.605 Y14.067 Z-1.000 I1.430 J-2.242 K0.000 F300.000
G2 X18.263 Y14.028 Z-1.000 I0.575 J-10.969 K0.000 F300.000
G1 X14.552 Y10.317 Z-1.000 F300.000
G0 Z5.000
G0 X16.031 Y10.192 Z5.000
G0 X16.031 Y10.192 Z3.000
G1 X16.031 Y10.192 Z-1.000 F300.000
G3 X16.012 Y9.240 Z-1.000 I7.389 J-0.625 K0.000 F300.000
G3 X16.621 Y8.624 Z-1.000 I0.600 J-0.016 K0.000 F300.000
G1 X19.311 Y8.664 Z-1.000 F300.000
G3 X19.902 Y9.264 Z-1.000 I-0.009 J0.600 K0.000 F300.000
G1 X19.902 Y11.732 Z-1.000 F300.000
G3 X19.524 Y12.289 Z-1.000 I-0.600 J-0.000 K0.000 F300.000
G3 X17.236 Y12.373 Z-1.000 I-1.461 J-8.562 K0.000 F300.000
G3 X16.202 Y11.266 Z-1.000 I0.260 J-1.278 K0.000 F300.000
G3 X16.031 Y10.192 Z-1.000 I7.219 J-1.699 K0.000 F300.000
G0 Z5.000
G0 X17.970 Y8.644 Z5.000
G0 X17.970 Y8.644 Z3.000
G1 X17.970 Y8.644 Z-1.000 F300.000
G1 X14.582 Y5.256 Z-1.000 F300.000
G1 X14.562 Y6.322 Z-1.000 F300.000
G3 X14.370 Y6.741 Z-1.000 I-0.511 J0.019 K0.000 F300.000
G1 X16.331 Y8.702 Z-1.000 F300.000
G2 X16.012 Y9.240 Z-1.000 I0.252 J0.513 K0.000 F300.000
G2 X16.039 Y10.107 Z-1.000 I6.579 J0.229 K0.000 F300.000
G1 X12.836 Y6.904 Z-1.000 F300.000
G0 Z5.000
G0 X12.349 Y8.114 Z5.000
G0 X12.349 Y8.114 Z3.000
G1 X12.349 Y8.114 Z-1.000 F300.000
G1 X12.327 Y8.554 Z-1.000 F300.000
G1 X12.797 Y8.562 Z-1.000 F300.000
G1 X12.349 Y8.114 Z-1.000 F300.000
G1 X12.409 Y6.898 Z-1.000 F300.000
G1 X12.836 Y6.904 Z-1.000 F300.000
G1 X16.039 Y10.107 Z-1.000 F300.000
G2 X16.189 Y11.216 Z-1.000 I6.208 J-0.272 K0.000 F300.000
G2 X17.025 Y12.325 Z-1.000 I1.431 J-0.209 K0.000 F300.000
G2 X18.331 Y12.399 Z-1.000 I0.855 J-3.537 K0.000 F300.000
G1 X23.724 Y17.792 Z-1.000 F300.000
G2 X25.327 Y17.698 Z-1.000 I0.176 J-10.733 K0.000 F300.000
G1 X23.938 Y16.309 Z-1.000 F300.000
G3 X22.634 Y16.219 Z-1.000 I-0.288 J-5.283 K0.000 F300.000
G3 X21.894 Y15.707 Z-1.000 I0.194 J-1.071 K0.000 F300.000
G3 X21.584 Y13.955 Z-1.000 I3.144 J-1.460 K0.000 F300.000
G1 X19.750 Y12.121 Z-1.000 F300.000
G2 X19.902 Y11.732 Z-1.000 I-0.330 J-0.353 K0.000 F300.000
G1 X19.902 Y10.576 Z-1.000 F300.000
G1 X21.574 Y12.248 Z-1.000 F300.000
G1 X21.574 Y10.551 Z-1.000 F300.000
G1 X17.968 Y6.945 Z-1.000 F300.000
G3 X16.747 Y6.931 Z-1.000 I1.128 J-156.732 K0.000 F300.000
G3 X16.154 Y6.309 Z-1.000 I0.007 J-0.600 K0.000 F300.000
G1 X16.196 Y5.173 Z-1.000 F300.000
G1 X14.673 Y3.650 Z-1.000 F300.000
G1 X16.252 Y3.639 Z-1.000 F300.000
G1 X16.196 Y5.173 Z-1.000 F300.000
G0 Z5.000
G0 X19.924 Y3.809 Z5.000
G0 X19.924 Y3.809 Z3.000
G1 X19.924 Y3.809 Z-1.000 F300.000
G1 X21.589 Y5.475 Z-1.000 F300.000
G1 X21.617 Y3.806 Z-1.000 F300.000
G1 X19.949 Y2.137 Z-1.000 F300.000
G1 X21.645 Y2.137 Z-1.000 F300.000
G0 Z5.000
G0 X19.938 Z5.000
G0 X19.938 Z3.000
G1 X19.938 Y2.137 Z-1.000 F300.000
G1 X19.902 Y6.357 Z-1.000 F300.000
G3 X19.486 Y6.923 Z-1.000 I-0.600 J-0.005 K0.000 F300.000
G3 X16.747 Y6.931 Z-1.000 I-1.462 J-30.898 K0.000 F300.000
G3 X16.154 Y6.309 Z-1.000 I0.007 J-0.600 K0.000 F300.000
G1 X16.252 Y3.639 Z-1.000 F300.000
G1 X14.612 Y3.650 Z-1.000 F300.000
G1 X14.562 Y6.322 Z-1.000 F300.000
G3 X14.143 Y6.883 Z-1.000 I-0.600 J-0.011 K0.000 F300.000
G3 X12.409 Y6.898 Z-1.000 I-1.112 J-27.950 K0.000 F300.000
G1 X12.327 Y8.554 Z-1.000 F300.000
G1 X13.953 Y8.583 Z-1.000 F300.000
G3 X14.542 Y9.180 Z-1.000 I-0.011 J0.600 K0.000 F300.000
G2 X14.659 Y12.479 Z-1.000 I39.413 J0.258 K0.000 F300.000
G2 X15.074 Y13.577 Z-1.000 I2.250 J-0.223 K0.000 F300.000
G2 X16.110 Y14.021 Z-1.000 I1.146 J-1.242 K0.000 F300.000
G2 X19.367 Y13.926 Z-1.000 I1.254 J-12.901 K0.000 F300.000
G3 X20.020 Y14.460 Z-1.000 I0.057 J0.597 K0.000 F300.000
G1 X20.238 Y16.518 Z-1.000 F300.000
G2 X20.725 Y17.381 Z-1.000 I1.176 J-0.095 K0.000 F300.000
G2 X21.956 Y17.721 Z-1.000 I1.632 J-3.514 K0.000 F300.000
G1 X20.177 Y15.942 Z-1.000 F300.000
G1 X20.177 Y15.942 Z-1.000 F300.000
G1 X20.238 Y16.518 Z-1.000 F300.000
G2 X20.852 Y17.448 Z-1.000 I1.132 J-0.080 K0.000 F300.000
G2 X22.844 Y17.798 Z-1.000 I1.999 J-5.530 K0.000 F300.000
G2 X24.819 Y17.754 Z-1.000 I0.577 J-18.457 K0.000 F300.000
G2 X26.493 Y17.462 Z-1.000 I-0.389 J-7.166 K0.000 F300.000
G2 X27.227 Y16.654 Z-1.000 I-0.234 J-0.951 K0.000 F300.000
G2 X27.121 Y13.664 Z-1.000 I-6.092 J-1.281 K0.000 F300.000
G1 X25.637 Y13.586 Z-1.000 F300.000
G3 X25.747 Y15.046 Z-1.000 I-5.124 J1.123 K0.000 F300.000
G3 X24.919 Y16.170 Z-1.000 I-1.217 J-0.030 K0.000 F300.000
G3 X22.634 Y16.219 Z-1.000 I-1.241 J-4.580 K0.000 F300.000
G3 X21.986 Y15.836 Z-1.000 I0.193 J-1.068 K0.000 F300.000
G3 X21.594 Y14.377 Z-1.000 I1.949 J-1.306 K0.000 F300.000
G3 X21.574 Y9.284 Z-1.000 I113.378 J-2.976 K0.000 F300.000
G3 X22.179 Y8.684 Z-1.000 I0.600 J-0.000 K0.000 F300.000
G2 X28.072 Y8.688 Z-1.000 I3.069 J-224.370 K0.000 F300.000
G1 X27.961 Y6.755 Z-1.000 F300.000
G3 X22.186 Y6.931 Z-1.000 I-6.326 J-112.891 K0.000 F300.000
G3 X21.575 Y6.321 Z-1.000 I-0.012 J-0.600 K0.000 F300.000
G1 X21.645 Y2.137 Z-1.000 F300.000
G1 X19.938 Y2.137 Z-1.000 F300.000
G0 Z5.000
G0 X21.574 Y10.551 Z5.000
G0 X21.574 Y10.551 Z3.000
G1 X21.574 Y10.551 Z-1.000 F300.000
G1 X17.968 Y6.945 Z-1.000 F300.000
G2 X19.301 Y6.952 Z-1.000 I1.443 J-149.898 K0.000 F300.000
G2 X19.590 Y6.870 Z-1.000 I0.019 J-0.488 K0.000 F300.000
G1 X21.677 Y8.956 Z-1.000 F300.000
G3 X22.179 Y8.684 Z-1.000 I0.491 J0.307 K0.000 F300.000
G1 X23.109 Y8.692 Z-1.000 F300.000
G1 X19.910 Y5.492 Z-1.000 F300.000
G1 X19.924 Y3.809 Z-1.000 F300.000
G1 X21.589 Y5.475 Z-1.000 F300.000
G1 X21.575 Y6.321 Z-1.000 F300.000
G2 X22.186 Y6.931 Z-1.000 I0.600 J0.010 K0.000 F300.000
G1 X23.029 Y6.914 Z-1.000 F300.000
G1 X24.819 Y8.704 Z-1.000 F300.000
G1 X26.507 Y8.696 Z-1.000 F300.000
G1 X24.693 Y6.881 Z-1.000 F300.000
G2 X26.338 Y6.829 Z-1.000 I-0.205 J-32.313 K0.000 F300.000
G1 X28.065 Y8.556 Z-1.000 F300.000
G1 X27.961 Y6.755 Z-1.000 F300.000
G0 Z5.000
G0 X26.343 Y13.623 Z5.000
G0 X26.343 Y13.623 Z3.000
G1 X26.343 Y13.623 Z-1.000 F300.000
G1 X27.121 Y13.664 Z-1.000 F300.000
G3 X27.294 Y14.573 Z-1.000 I-4.208 J1.269 K0.000 F300.000
G1 X26.343 Y13.623 Z-1.000 F300.000
G1 X25.637 Y13.586 Z-1.000 F300.000
G3 X25.767 Y14.743 Z-1.000 I-5.681 J1.224 K0.000 F300.000
G1 X27.304 Y16.281 Z-1.000 F300.000
G3 X26.942 Y17.213 Z-1.000 I-1.632 J-0.099 K0.000 F300.000
G3 X26.704 Y17.378 Z-1.000 I-0.439 J-0.379 K0.000 F300.000
G1 X25.298 Y15.972 Z-1.000 F300.000
G3 X24.568 Y16.251 Z-1.000 I-0.932 J-1.341 K0.000 F300.000
G3 X23.938 Y16.309 Z-1.000 I-3.370 J-32.843 K0.000 F300.000
G1 X25.327 Y17.698 Z-1.000 F300.000
G1 X25.327 Y17.698 Z-2.000 F300.000
G1 X23.938 Y16.309 Z-2.000 F300.000
G2 X24.568 Y16.251 Z-2.000 I-2.740 J-32.902 K0.000 F300.000
G2 X25.298 Y15.972 Z-2.000 I-0.202 J-1.620 K0.000 F300.000
G1 X26.704 Y17.378 Z-2.000 F300.000
G2 X26.942 Y17.213 Z-2.000 I-0.202 J-0.544 K0.000 F300.000
G2 X27.304 Y16.281 Z-2.000 I-1.270 J-1.031 K0.000 F300.000
G1 X25.767 Y14.743 Z-2.000 F300.000
G2 X25.637 Y13.586 Z-2.000 I-5.811 J0.067 K0.000 F300.000
G1 X26.343 Y13.623 Z-2.000 F300.000
G1 X27.294 Y14.573 Z-2.000 F300.000
G2 X27.121 Y13.664 Z-2.000 I-4.380 J0.359 K0.000 F300.000
G1 X26.343 Y13.623 Z-2.000 F300.000
G0 Z5.000
G0 X21.574 Y10.551 Z5.000
G0 X21.574 Y10.551 Z3.000
G1 X21.574 Y10.551 Z-2.000 F300.000
G1 X17.968 Y6.945 Z-2.000 F300.000
G2 X19.301 Y6.952 Z-2.000 I1.443 J-149.898 K0.000 F300.000
G2 X19.590 Y6.870 Z-2.000 I0.019 J-0.488 K0.000 F300.000
G1 X21.677 Y8.956 Z-2.000 F300.000
G3 X22.179 Y8.684 Z-2.000 I0.491 J0.307 K0.000 F300.000
G1 X23.109 Y8.692 Z-2.000 F300.000
G1 X19.910 Y5.492 Z-2.000 F300.000
G1 X19.924 Y3.809 Z-2.000 F300.000
G1 X21.589 Y5.475 Z-2.000 F300.000
G1 X21.575 Y6.321 Z-2.000 F300.000
G2 X22.186 Y6.931 Z-2.000 I0.600 J0.010 K0.000 F300.000
G1 X23.029 Y6.914 Z-2.000 F300.000
G1 X24.819 Y8.704 Z-2.000 F300.000
G1 X26.507 Y8.696 Z-2.000 F300.000
G1 X24.693 Y6.881 Z-2.000 F300.000
G2 X26.338 Y6.829 Z-2.000 I-0.205 J-32.313 K0.000 F300.000
G1 X28.065 Y8.556 Z-2.000 F300.000
G1 X27.961 Y6.755 Z-2.000 F300.000
G0 Z5.000
G0 X21.645 Y2.137 Z5.000
G0 X21.645 Y2.137 Z3.000
G1 X21.645 Y2.137 Z-2.000 F300.000
G1 X19.949 Y2.137 Z-2.000 F300.000
G1 X21.617 Y3.806 Z-2.000 F300.000
G1 X21.589 Y5.475 Z-2.000 F300.000
G1 X19.924 Y3.809 Z-2.000 F300.000
G0 Z5.000
G0 X19.938 Y2.137 Z5.000
G0 X19.938 Y2.137 Z3.000
G1 X19.938 Y2.137 Z-2.000 F300.000
G1 X19.902 Y6.357 Z-2.000 F300.000
G3 X19.486 Y6.923 Z-2.000 I-0.600 J-0.005 K0.000 F300.000
G3 X16.747 Y6.931 Z-2.000 I-1.462 J-30.898 K0.000 F300.000
G3 X16.154 Y6.309 Z-2.000 I0.007 J-0.600 K0.000 F300.000
G1 X16.252 Y3.639 Z-2.000 F300.000
G1 X14.612 Y3.650 Z-2.000 F300.000
G1 X14.562 Y6.322 Z-2.000 F300.000
G3 X14.143 Y6.883 Z-2.000 I-0.600 J-0.011 K0.000 F300.000
G3 X12.409 Y6.898 Z-2.000 I-1.112 J-27.950 K0.000 F300.000
G1 X12.327 Y8.554 Z-2.000 F300.000
G1 X13.953 Y8.583 Z-2.000 F300.000
G3 X14.542 Y9.180 Z-2.000 I-0.011 J0.600 K0.000 F300.000
G2 X14.659 Y12.479 Z-2.000 I39.413 J0.258 K0.000 F300.000
G2 X15.074 Y13.577 Z-2.000 I2.250 J-0.223 K0.000 F300.000
G2 X16.110 Y14.021 Z-2.000 I1.146 J-1.242 K0.000 F300.000
G2 X19.367 Y13.926 Z-2.000 I1.254 J-12.901 K0.000 F300.000
G3 X20.020 Y14.460 Z-2.000 I0.057 J0.597 K0.000 F300.000
G1 X20.238 Y16.518 Z-2.000 F300.000
G2 X20.725 Y17.381 Z-2.000 I1.176 J-0.095 K0.000 F300.000
G2 X21.956 Y17.721 Z-2.000 I1.632 J-3.514 K0.000 F300.000
G1 X20.177 Y15.942 Z-2.000 F300.000
G1 X20.177 Y15.942 Z-2.000 F300.000
G1 X20.238 Y16.518 Z-2.000 F300.000
G2 X20.852 Y17.448 Z-2.000 I1.132 J-0.080 K0.000 F300.000
G2 X22.844 Y17.798 Z-2.000 I1.999 J-5.530 K0.000 F300.000
G2 X24.819 Y17.754 Z-2.000 I0.577 J-18.457 K0.000 F300.000
G2 X26.493 Y17.462 Z-2.000 I-0.389 J-7.166 K0.000 F300.000
G2 X27.227 Y16.654 Z-2.000 I-0.234 J-0.951 K0.000 F300.000
G2 X27.121 Y13.664 Z-2.000 I-6.092 J-1.281 K0.000 F300.000
G1 X25.637 Y13.586 Z-2.000 F300.000
G3 X25.747 Y15.046 Z-2.000 I-5.124 J1.123 K0.000 F300.000
G3 X24.919 Y16.170 Z-2.000 I-1.217 J-0.030 K0.000 F300.000
G3 X22.634 Y16.219 Z-2.000 I-1.241 J-4.580 K0.000 F300.000
G3 X21.986 Y15.836 Z-2.000 I0.193 J-1.068 K0.000 F300.000
G3 X21.594 Y14.377 Z-2.000 I1.949 J-1.306 K0.000 F300.000
G3 X21.574 Y9.284 Z-2.000 I113.378 J-2.976 K0.000 F300.000
G3 X22.179 Y8.684 Z-2.000 I0.600 J-0.000 K0.000 F300.000
G2 X28.072 Y8.688 Z-2.000 I3.069 J-224.370 K0.000 F300.000
G1 X27.961 Y6.755 Z-2.000 F300.000
G3 X22.186 Y6.931 Z-2.000 I-6.326 J-112.891 K0.000 F300.000
G3 X21.575 Y6.321 Z-2.000 I-0.012 J-0.600 K0.000 F300.000
G1 X21.645 Y2.137 Z-2.000 F300.000
G1 X19.938 Y2.137 Z-2.000 F300.000
G0 Z5.000
G0 X16.196 Y5.173 Z5.000
G0 X16.196 Y5.173 Z3.000
G1 X16.196 Y5.173 Z-2.000 F300.000
G1 X16.252 Y3.639 Z-2.000 F300.000
G1 X14.673 Y3.650 Z-2.000 F300.000
G1 X16.196 Y5.173 Z-2.000 F300.000
G1 X16.154 Y6.309 Z-2.000 F300.000
G2 X16.747 Y6.931 Z-2.000 I0.600 J0.022 K0.000 F300.000
G2 X17.968 Y6.945 Z-2.000 I2.349 J-156.718 K0.000 F300.000
G1 X21.574 Y10.551 Z-2.000 F300.000
G1 X21.574 Y12.248 Z-2.000 F300.000
G1 X19.902 Y10.576 Z-2.000 F300.000
G1 X19.902 Y11.732 Z-2.000 F300.000
G3 X19.750 Y12.121 Z-2.000 I-0.483 J0.036 K0.000 F300.000
G1 X21.584 Y13.955 Z-2.000 F300.000
G2 X21.894 Y15.707 Z-2.000 I3.454 J0.292 K0.000 F300.000
G2 X22.634 Y16.219 Z-2.000 I0.934 J-0.560 K0.000 F300.000
G2 X23.938 Y16.309 Z-2.000 I1.016 J-5.192 K0.000 F300.000
G1 X25.327 Y17.698 Z-2.000 F300.000
G3 X23.724 Y17.792 Z-2.000 I-1.428 J-10.639 K0.000 F300.000
G1 X18.331 Y12.399 Z-2.000 F300.000
G3 X17.025 Y12.325 Z-2.000 I-0.450 J-3.611 K0.000 F300.000
G3 X16.189 Y11.216 Z-2.000 I0.594 J-1.318 K0.000 F300.000
G3 X16.039 Y10.107 Z-2.000 I6.059 J-1.380 K0.000 F300.000
G1 X12.836 Y6.904 Z-2.000 F300.000
G1 X12.409 Y6.898 Z-2.000 F300.000
G1 X12.349 Y8.114 Z-2.000 F300.000
G1 X12.797 Y8.562 Z-2.000 F300.000
G1 X12.327 Y8.554 Z-2.000 F300.000
G1 X12.349 Y8.114 Z-2.000 F300.000
G0 Z5.000
G0 X12.836 Y6.904 Z5.000
G0 X12.836 Y6.904 Z3.000
G1 X12.836 Y6.904 Z-2.000 F300.000
G1 X16.039 Y10.107 Z-2.000 F300.000
G3 X16.012 Y9.240 Z-2.000 I6.552 J-0.638 K0.000 F300.000
G3 X16.331 Y8.702 Z-2.000 I0.571 J-0.025 K0.000 F300.000
G1 X14.370 Y6.741 Z-2.000 F300.000
G2 X14.562 Y6.322 Z-2.000 I-0.319 J-0.400 K0.000 F300.000
G1 X14.582 Y5.256 Z-2.000 F300.000
G1 X17.970 Y8.644 Z-2.000 F300.000
G1 X17.970 Y8.644 Z-2.000 F300.000
G1 X19.311 Y8.664 Z-2.000 F300.000
G3 X19.902 Y9.264 Z-2.000 I-0.009 J0.600 K0.000 F300.000
G1 X19.902 Y11.732 Z-2.000 F300.000
G3 X19.524 Y12.289 Z-2.000 I-0.600 J-0.000 K0.000 F300.000
G3 X17.236 Y12.373 Z-2.000 I-1.461 J-8.562 K0.000 F300.000
G3 X16.202 Y11.266 Z-2.000 I0.260 J-1.278 K0.000 F300.000
G3 X16.012 Y9.240 Z-2.000 I7.219 J-1.699 K0.000 F300.000
G3 X16.621 Y8.624 Z-2.000 I0.600 J-0.016 K0.000 F300.000
G1 X17.970 Y8.644 Z-2.000 F300.000
G0 Z5.000
G0 X14.552 Y10.317 Z5.000
G0 X14.552 Y10.317 Z3.000
G1 X14.552 Y10.317 Z-2.000 F300.000
G1 X18.263 Y14.028 Z-2.000 F300.000
G3 X16.605 Y14.067 Z-2.000 I-1.083 J-10.931 K0.000 F300.000
G3 X15.149 Y13.649 Z-2.000 I-0.025 J-2.659 K0.000 F300.000
G3 X14.629 Y12.091 Z-2.000 I1.731 J-1.443 K0.000 F300.000
G1 X16.605 Y14.067 Z-2.000 F300.000
G0 Z5.000
G0 Z5.000
G0 X16.605 Y14.067
G0 X14.995 Y-2.092
G0 X14.995 Y-2.092 Z3.000
G1 X14.995 Y-2.092 Z-1.000 F300.000
G1 X13.631 Y-2.151 Z-1.000 F300.000
G1 X13.674 Y-3.413 Z-1.000 F300.000
G1 X14.995 Y-2.092 Z-1.000 F300.000
G1 X15.679 Y-2.062 Z-1.000 F300.000
G2 X15.716 Y-3.068 Z-1.000 I-133.545 J-5.440 K0.000 F300.000
G1 X13.729 Y-5.054 Z-1.000 F300.000
G3 X13.789 Y-6.692 Z-1.000 I76.580 J1.940 K0.000 F300.000
G1 X15.768 Y-4.713 Z-1.000 F300.000
G3 X16.187 Y-5.325 Z-1.000 I0.610 J-0.032 K0.000 F300.000
G3 X16.824 Y-5.354 Z-1.000 I0.409 J2.038 K0.000 F300.000
G1 X13.861 Y-8.317 Z-1.000 F300.000
G3 X13.934 Y-9.941 Z-1.000 I2017.366 J89.802 K0.000 F300.000
G1 X15.868 Y-8.007 Z-1.000 F300.000
G1 X15.851 Y-7.677 Z-1.000 F300.000
G2 X16.263 Y-7.076 Z-1.000 I0.599 J0.031 K0.000 F300.000
G2 X16.825 Y-7.050 Z-1.000 I0.360 J-1.692 K0.000 F300.000
G1 X18.521 Y-5.354 Z-1.000 F300.000
G1 X20.218 Y-5.354 Z-1.000 F300.000
G1 X18.505 Y-7.067 Z-1.000 F300.000
G2 X20.185 Y-7.084 Z-1.000 I-7.366 J-792.472 K0.000 F300.000
G1 X21.915 Y-5.354 Z-1.000 F300.000
G1 X23.612 Y-5.354 Z-1.000 F300.000
G1 X21.863 Y-7.103 Z-1.000 F300.000
G2 X23.540 Y-7.123 Z-1.000 I-4.155 J-428.201 K0.000 F300.000
G1 X25.309 Y-5.354 Z-1.000 F300.000
G0 Z5.000
G0 X25.866 Y-3.100 Z5.000
G0 X25.866 Y-3.100 Z3.000
G1 X25.866 Y-3.100 Z-1.000 F300.000
G1 X27.596 Y-1.370 Z-1.000 F300.000
G1 X25.824 Y-1.460 Z-1.000 F300.000
G1 X25.866 Y-3.100 Z-1.000 F300.000
G1 X25.909 Y-4.738 Z-1.000 F300.000
G1 X25.907 Y-4.756 Z-1.000 F300.000
G1 X27.919 Y-2.744 Z-1.000 F300.000
G1 X27.958 Y-4.402 Z-1.000 F300.000
G1 X25.216 Y-7.144 Z-1.000 F300.000
G2 X25.957 Y-7.549 Z-1.000 I0.124 J-0.654 K0.000 F300.000
G2 X26.000 Y-8.057 Z-1.000 I-1.629 J-0.395 K0.000 F300.000
G1 X27.994 Y-6.063 Z-1.000 F300.000
G3 X28.030 Y-7.724 Z-1.000 I547.280 J10.941 K0.000 F300.000
G1 X26.045 Y-9.709 Z-1.000 F300.000
G1 X26.063 Y-11.064 Z-1.000 F300.000
G1 X26.392 Y-11.060 Z-1.000 F300.000
G1 X28.068 Y-9.383 Z-1.000 F300.000
G3 X28.110 Y-11.038 Z-1.000 I360.323 J8.397 K0.000 F300.000
G0 Z5.000
G0 X15.950 Y-9.622 Z5.000
G0 X15.950 Y-9.622 Z3.000
G1 X15.950 Y-9.622 Z-1.000 F300.000
G1 X15.981 Y-10.233 Z-1.000 F300.000
G1 X15.326 Y-10.246 Z-1.000 F300.000
G1 X15.950 Y-9.622 Z-1.000 F300.000
G1 X15.868 Y-8.007 Z-1.000 F300.000
G1 X13.934 Y-9.941 Z-1.000 F300.000
G1 X13.949 Y-10.271 Z-1.000 F300.000
G1 X15.981 Y-10.233 Z-1.000 F300.000
G1 X15.851 Y-7.677 Z-1.000 F300.000
G2 X16.456 Y-7.046 Z-1.000 I0.599 J0.031 K0.000 F300.000
G2 X25.398 Y-7.147 Z-1.000 I-15.766 J-1796.008 K0.000 F300.000
G2 X25.990 Y-7.728 Z-1.000 I-0.008 J-0.600 K0.000 F300.000
G2 X26.063 Y-11.064 Z-1.000 I-94.709 J-3.747 K0.000 F300.000
G1 X28.110 Y-11.038 Z-1.000 F300.000
G2 X27.868 Y-1.357 Z-1.000 I13592.997 J345.635 K0.000 F300.000
G1 X25.824 Y-1.460 Z-1.000 F300.000
G1 X25.909 Y-4.738 Z-1.000 F300.000
G2 X25.309 Y-5.354 Z-1.000 I-0.600 J-0.016 K0.000 F300.000
G1 X16.369 Y-5.354 Z-1.000 F300.000
G2 X15.769 Y-4.772 Z-1.000 I-0.000 J0.600 K0.000 F300.000
G3 X15.679 Y-2.062 Z-1.000 I-208.659 J-5.608 K0.000 F300.000
G1 X13.631 Y-2.151 Z-1.000 F300.000
G3 X13.934 Y-9.941 Z-1.000 I494.088 J15.283 K0.000 F300.000
G1 X13.934 Y-9.941 Z-2.000 F300.000
G2 X13.631 Y-2.151 Z-2.000 I493.785 J23.072 K0.000 F300.000
G1 X15.679 Y-2.062 Z-2.000 F300.000
G2 X15.769 Y-4.772 Z-2.000 I-208.568 J-8.319 K0.000 F300.000
G3 X16.369 Y-5.354 Z-2.000 I0.600 J0.019 K0.000 F300.000
G1 X25.309 Y-5.354 Z-2.000 F300.000
G3 X25.909 Y-4.738 Z-2.000 I-0.000 J0.600 K0.000 F300.000
G1 X25.824 Y-1.460 Z-2.000 F300.000
G1 X27.868 Y-1.357 Z-2.000 F300.000
G3 X28.110 Y-11.038 Z-2.000 I13593.239 J335.954 K0.000 F300.000
G1 X26.063 Y-11.064 Z-2.000 F300.000
G3 X25.990 Y-7.728 Z-2.000 I-94.782 J-0.412 K0.000 F300.000
G3 X25.398 Y-7.147 Z-2.000 I-0.600 J-0.019 K0.000 F300.000
G3 X16.456 Y-7.046 Z-2.000 I-24.708 J-1795.907 K0.000 F300.000
G3 X15.851 Y-7.677 Z-2.000 I-0.006 J-0.600 K0.000 F300.000
G1 X15.981 Y-10.233 Z-2.000 F300.000
G1 X13.949 Y-10.271 Z-2.000 F300.000
G1 X13.934 Y-9.941 Z-2.000 F300.000
G1 X15.868 Y-8.007 Z-2.000 F300.000
G1 X15.950 Y-9.622 Z-2.000 F300.000
G1 X15.326 Y-10.246 Z-2.000 F300.000
G1 X15.981 Y-10.233 Z-2.000 F300.000
G1 X15.950 Y-9.622 Z-2.000 F300.000
G0 Z5.000
G0 X14.995 Y-2.092 Z5.000
G0 X14.995 Y-2.092 Z3.000
G1 X14.995 Y-2.092 Z-2.000 F300.000
G1 X13.631 Y-2.151 Z-2.000 F300.000
G1 X13.674 Y-3.413 Z-2.000 F300.000
G1 X14.995 Y-2.092 Z-2.000 F300.000
G1 X15.679 Y-2.062 Z-2.000 F300.000
G2 X15.716 Y-3.068 Z-2.000 I-133.545 J-5.440 K0.000 F300.000
G1 X13.729 Y-5.054 Z-2.000 F300.000
G3 X13.789 Y-6.692 Z-2.000 I76.580 J1.940 K0.000 F300.000
G1 X15.768 Y-4.713 Z-2.000 F300.000
G3 X16.187 Y-5.325 Z-2.000 I0.610 J-0.032 K0.000 F300.000
G3 X16.824 Y-5.354 Z-2.000 I0.409 J2.038 K0.000 F300.000
G1 X13.861 Y-8.317 Z-2.000 F300.000
G3 X13.934 Y-9.941 Z-2.000 I2017.366 J89.802 K0.000 F300.000
G1 X15.868 Y-8.007 Z-2.000 F300.000
G1 X15.851 Y-7.677 Z-2.000 F300.000
G2 X16.263 Y-7.076 Z-2.000 I0.599 J0.031 K0.000 F300.000
G2 X16.825 Y-7.050 Z-2.000 I0.360 J-1.692 K0.000 F300.000
G1 X18.521 Y-5.354 Z-2.000 F300.000
G1 X20.218 Y-5.354 Z-2.000 F300.000
G1 X18.505 Y-7.067 Z-2.000 F300.000
G2 X20.185 Y-7.084 Z-2.000 I-7.366 J-792.472 K0.000 F300.000
G1 X21.915 Y-5.354 Z-2.000 F300.000
G1 X23.612 Y-5.354 Z-2.000 F300.000
G1 X21.863 Y-7.103 Z-2.000 F300.000
G2 X23.540 Y-7.123 Z-2.000 I-4.155 J-428.201 K0.000 F300.000
G1 X25.309 Y-5.354 Z-2.000 F300.000
G0 Z5.000
G0 X25.866 Y-3.100 Z5.000
G0 X25.866 Y-3.100 Z3.000
G1 X25.866 Y-3.100 Z-2.000 F300.000
G1 X27.596 Y-1.370 Z-2.000 F300.000
G1 X25.824 Y-1.460 Z-2.000 F300.000
G1 X25.866 Y-3.100 Z-2.000 F300.000
G1 X25.909 Y-4.738 Z-2.000 F300.000
G1 X25.907 Y-4.756 Z-2.000 F300.000
G1 X27.919 Y-2.744 Z-2.000 F300.000
G1 X27.958 Y-4.402 Z-2.000 F300.000
G1 X25.216 Y-7.144 Z-2.000 F300.000
G2 X25.957 Y-7.549 Z-2.000 I0.124 J-0.654 K0.000 F300.000
G2 X26.000 Y-8.057 Z-2.000 I-1.629 J-0.395 K0.000 F300.000
G1 X27.994 Y-6.063 Z-2.000 F300.000
G3 X28.030 Y-7.724 Z-2.000 I547.280 J10.941 K0.000 F300.000
G1 X26.045 Y-9.709 Z-2.000 F300.000
G1 X26.063 Y-11.064 Z-2.000 F300.000
G1 X26.392 Y-11.060 Z-2.000 F300.000
G1 X28.068 Y-9.383 Z-2.000 F300.000
G3 X28.110 Y-11.038 Z-2.000 I360.323 J8.397 K0.000 F300.000
G0 Z5.000
G0 Z5.000
G0 X28.110 Y-11.038
G0 X22.697 Y-12.900
G0 X22.697 Y-12.900 Z3.000
G1 X22.697 Y-12.900 Z-1.000 F300.000
G1 X22.673 Y-12.817 Z-1.000 F300.000
G1 X21.186 Y-12.817 Z-1.000 F300.000
G2 X21.452 Y-14.145 Z-1.000 I-25.804 J-5.871 K0.000 F300.000
G1 X22.697 Y-12.900 Z-1.000 F300.000
G2 X23.008 Y-14.286 Z-1.000 I-8.303 J-2.594 K0.000 F300.000
G1 X19.841 Y-17.453 Z-1.000 F300.000
G3 X20.844 Y-18.147 Z-1.000 I3.940 J4.617 K0.000 F300.000
G1 X23.143 Y-15.848 Z-1.000 F300.000
G2 X23.133 Y-16.965 Z-1.000 I-8.943 J-0.480 K0.000 F300.000
G2 X22.696 Y-17.992 Z-1.000 I-1.831 J0.173 K0.000 F300.000
G0 Z5.000
G0 X19.917 Y-15.680 Z5.000
G0 X19.917 Y-15.680 Z3.000
G1 X19.917 Y-15.680 Z-1.000 F300.000
G1 X18.912 Y-16.685 Z-1.000 F300.000
G3 X18.099 Y-17.066 Z-1.000 I-0.240 J-0.545 K0.000 F300.000
G1 X17.922 Y-17.675 Z-1.000 F300.000
G1 X16.887 Y-18.709 Z-1.000 F300.000
G2 X16.423 Y-18.671 Z-1.000 I-0.111 J1.483 K0.000 F300.000
G2 X15.513 Y-18.387 Z-1.000 I0.840 J4.292 K0.000 F300.000
G1 X18.970 Y-14.930 Z-1.000 F300.000
G1 X18.023 Y-14.179 Z-1.000 F300.000
G1 X16.561 Y-15.642 Z-1.000 F300.000
G3 X16.597 Y-14.970 Z-1.000 I-2.698 J0.482 K0.000 F300.000
G3 X16.376 Y-14.598 Z-1.000 I-0.592 J-0.099 K0.000 F300.000
G1 X16.114 Y-14.392 Z-1.000 F300.000
G1 X17.077 Y-13.429 Z-1.000 F300.000
G1 X16.130 Y-12.679 Z-1.000 F300.000
G1 X15.165 Y-13.644 Z-1.000 F300.000
G1 X14.503 Y-13.123 Z-1.000 F300.000
G1 X15.201 Y-11.942 Z-1.000 F300.000
G1 X16.130 Y-12.679 Z-1.000 F300.000
G0 Z5.000
G0 X15.552 Y-16.650 Z5.000
G0 X15.552 Y-16.650 Z3.000
G1 X15.552 Y-16.650 Z-1.000 F300.000
G1 X14.350 Y-17.853 Z-1.000 F300.000
G2 X13.272 Y-17.234 Z-1.000 I4.413 J8.932 K0.000 F300.000
G1 X14.358 Y-16.148 Z-1.000 F300.000
G2 X13.280 Y-15.529 Z-1.000 I4.504 J9.084 K0.000 F300.000
G2 X12.396 Y-14.952 Z-1.000 I3.905 J6.953 K0.000 F300.000
G1 X11.938 Y-16.323 Z-1.000 F300.000
G3 X15.803 Y-18.494 Z-1.000 I9.077 J11.637 K0.000 F300.000
G3 X16.614 Y-18.705 Z-1.000 I1.423 J3.809 K0.000 F300.000
G3 X17.797 Y-17.981 Z-1.000 I0.147 J1.087 K0.000 F300.000
G3 X18.099 Y-17.066 Z-1.000 I-3.623 J1.704 K0.000 F300.000
G2 X19.069 Y-16.781 Z-1.000 I0.576 J-0.167 K0.000 F300.000
G3 X20.636 Y-18.029 Z-1.000 I6.150 J6.115 K0.000 F300.000
G3 X21.434 Y-18.377 Z-1.000 I1.258 J1.798 K0.000 F300.000
G3 X22.865 Y-17.770 Z-1.000 I0.250 J1.403 K0.000 F300.000
G3 X23.133 Y-16.965 Z-1.000 I-1.962 J1.099 K0.000 F300.000
G3 X22.673 Y-12.817 Z-1.000 I-11.570 J0.816 K0.000 F300.000
G1 X21.186 Y-12.817 Z-1.000 F300.000
G2 X21.540 Y-14.923 Z-1.000 I-9.942 J-2.758 K0.000 F300.000
G2 X21.069 Y-16.020 Z-1.000 I-1.109 J-0.174 K0.000 F300.000
G2 X20.224 Y-15.924 Z-1.000 I-0.339 J0.787 K0.000 F300.000
G1 X15.201 Y-11.942 Z-1.000 F300.000
G1 X14.503 Y-13.123 Z-1.000 F300.000
G1 X16.376 Y-14.598 Z-1.000 F300.000
G2 X16.603 Y-15.118 Z-1.000 I-0.371 J-0.471 K0.000 F300.000
G2 X16.412 Y-16.145 Z-1.000 I-2.096 J-0.142 K0.000 F300.000
G2 X15.154 Y-16.527 Z-1.000 I-0.808 J0.399 K0.000 F300.000
G2 X13.280 Y-15.529 Z-1.000 I5.065 J11.762 K0.000 F300.000
G2 X12.396 Y-14.952 Z-1.000 I3.905 J6.953 K0.000 F300.000
G1 X11.938 Y-16.323 Z-1.000 F300.000
G3 X12.257 Y-16.552 Z-1.000 I3.184 J4.103 K0.000 F300.000
G1 X13.280 Y-15.529 Z-1.000 F300.000
G0 Z5.000
G0 X16.887 Y-18.709 Z5.000
G0 X16.887 Y-18.709 Z3.000
G1 X16.887 Y-18.709 Z-1.000 F300.000
G1 X17.922 Y-17.675 Z-1.000 F300.000
G2 X17.797 Y-17.981 Z-1.000 I-1.326 J0.363 K0.000 F300.000
G2 X16.887 Y-18.709 Z-1.000 I-1.041 J0.368 K0.000 F300.000
G1 X16.887 Y-18.709 Z-2.000 F300.000
G1 X17.922 Y-17.675 Z-2.000 F300.000
G2 X17.797 Y-17.981 Z-2.000 I-1.326 J0.363 K0.000 F300.000
G2 X16.887 Y-18.709 Z-2.000 I-1.041 J0.368 K0.000 F300.000
G0 Z5.000
G0 X15.552 Y-16.650 Z5.000
G0 X15.552 Y-16.650 Z3.000
G1 X15.552 Y-16.650 Z-2.000 F300.000
G1 X14.350 Y-17.853 Z-2.000 F300.000
G2 X13.272 Y-17.234 Z-2.000 I4.413 J8.932 K0.000 F300.000
G1 X14.358 Y-16.148 Z-2.000 F300.000
G2 X13.280 Y-15.529 Z-2.000 I4.504 J9.084 K0.000 F300.000
G2 X12.396 Y-14.952 Z-2.000 I3.905 J6.953 K0.000 F300.000
G1 X11.938 Y-16.323 Z-2.000 F300.000
G3 X15.803 Y-18.494 Z-2.000 I9.077 J11.637 K0.000 F300.000
G3 X16.614 Y-18.705 Z-2.000 I1.423 J3.809 K0.000 F300.000
G3 X17.797 Y-17.981 Z-2.000 I0.147 J1.087 K0.000 F300.000
G3 X18.099 Y-17.066 Z-2.000 I-3.623 J1.704 K0.000 F300.000
G2 X19.069 Y-16.781 Z-2.000 I0.576 J-0.167 K0.000 F300.000
G3 X20.636 Y-18.029 Z-2.000 I6.150 J6.115 K0.000 F300.000
G3 X21.434 Y-18.377 Z-2.000 I1.258 J1.798 K0.000 F300.000
G3 X22.865 Y-17.770 Z-2.000 I0.250 J1.403 K0.000 F300.000
G3 X23.133 Y-16.965 Z-2.000 I-1.962 J1.099 K0.000 F300.000
G3 X22.673 Y-12.817 Z-2.000 I-11.570 J0.816 K0.000 F300.000
G1 X21.186 Y-12.817 Z-2.000 F300.000
G2 X21.540 Y-14.923 Z-2.000 I-9.942 J-2.758 K0.000 F300.000
G2 X21.069 Y-16.020 Z-2.000 I-1.109 J-0.174 K0.000 F300.000
G2 X20.224 Y-15.924 Z-2.000 I-0.339 J0.787 K0.000 F300.000
G1 X15.201 Y-11.942 Z-2.000 F300.000
G1 X14.503 Y-13.123 Z-2.000 F300.000
G1 X16.376 Y-14.598 Z-2.000 F300.000
G2 X16.603 Y-15.118 Z-2.000 I-0.371 J-0.471 K0.000 F300.000
G2 X16.412 Y-16.145 Z-2.000 I-2.096 J-0.142 K0.000 F300.000
G2 X15.154 Y-16.527 Z-2.000 I-0.808 J0.399 K0.000 F300.000
G2 X13.280 Y-15.529 Z-2.000 I5.065 J11.762 K0.000 F300.000
G2 X12.396 Y-14.952 Z-2.000 I3.905 J6.953 K0.000 F300.000
G1 X11.938 Y-16.323 Z-2.000 F300.000
G3 X12.257 Y-16.552 Z-2.000 I3.184 J4.103 K0.000 F300.000
G1 X13.280 Y-15.529 Z-2.000 F300.000
G0 Z5.000
G0 X16.130 Y-12.679 Z5.000
G0 X16.130 Y-12.679 Z3.000
G1 X16.130 Y-12.679 Z-2.000 F300.000
G1 X15.201 Y-11.942 Z-2.000 F300.000
G1 X14.503 Y-13.123 Z-2.000 F300.000
G1 X15.165 Y-13.644 Z-2.000 F300.000
G1 X16.130 Y-12.679 Z-2.000 F300.000
G1 X17.077 Y-13.429 Z-2.000 F300.000
G1 X16.114 Y-14.392 Z-2.000 F300.000
G1 X16.376 Y-14.598 Z-2.000 F300.000
G2 X16.597 Y-14.970 Z-2.000 I-0.371 J-0.471 K0.000 F300.000
G2 X16.561 Y-15.642 Z-2.000 I-2.734 J-0.190 K0.000 F300.000
G1 X18.023 Y-14.179 Z-2.000 F300.000
G1 X18.970 Y-14.930 Z-2.000 F300.000
G1 X15.513 Y-18.387 Z-2.000 F300.000
G3 X16.423 Y-18.671 Z-2.000 I1.750 J4.008 K0.000 F300.000
G3 X16.887 Y-18.709 Z-2.000 I0.354 J1.445 K0.000 F300.000
G1 X17.922 Y-17.675 Z-2.000 F300.000
G1 X18.099 Y-17.066 Z-2.000 F300.000
G2 X18.912 Y-16.685 Z-2.000 I0.573 J-0.164 K0.000 F300.000
G1 X19.917 Y-15.680 Z-2.000 F300.000
G0 Z5.000
G0 X22.696 Y-17.992 Z5.000
G0 X22.696 Y-17.992 Z3.000
G1 X22.696 Y-17.992 Z-2.000 F300.000
G3 X23.133 Y-16.965 Z-2.000 I-1.394 J1.200 K0.000 F300.000
G3 X23.143 Y-15.848 Z-2.000 I-8.933 J0.637 K0.000 F300.000
G1 X20.844 Y-18.147 Z-2.000 F300.000
G2 X19.841 Y-17.453 Z-2.000 I2.937 J5.312 K0.000 F300.000
G1 X23.008 Y-14.286 Z-2.000 F300.000
G3 X22.697 Y-12.900 Z-2.000 I-8.615 J-1.208 K0.000 F300.000
G1 X21.452 Y-14.145 Z-2.000 F300.000
G3 X21.186 Y-12.817 Z-2.000 I-26.071 J-4.543 K0.000 F300.000
G1 X22.673 Y-12.817 Z-2.000 F300.000
G1 X22.697 Y-12.900 Z-2.000 F300.000
G0 Z5.000
G0 Z5.000
G0 X22.697 Y-12.900
G0 X25.374 Y-12.596
G0 X25.374 Y-12.596 Z3.000
G1 X25.374 Y-12.596 Z-1.000 F300.000
G1 X25.188 Y-12.592 Z-1.000 F300.000
G2 X25.233 Y-12.738 Z-1.000 I-1.917 J-0.670 K0.000 F300.000
G1 X25.374 Y-12.596 Z-1.000 F300.000
G1 X26.819 Y-12.626 Z-1.000 F300.000
G2 X27.913 Y-18.542 Z-1.000 I-23.188 J-7.347 K0.000 F300.000
G1 X26.218 Y-18.672 Z-1.000 F300.000
G3 X25.188 Y-12.592 Z-1.000 I-24.671 J-1.053 K0.000 F300.000
G1 X25.374 Y-12.596 Z-1.000 F300.000
G1 X26.819 Y-12.626 Z-1.000 F300.000
G1 X26.876 Y-12.792 Z-1.000 F300.000
G1 X25.588 Y-14.079 Z-1.000 F300.000
G2 X25.875 Y-15.490 Z-1.000 I-19.321 J-4.661 K0.000 F300.000
G1 X27.255 Y-14.110 Z-1.000 F300.000
G2 X27.539 Y-15.523 Z-1.000 I-11.215 J-2.991 K0.000 F300.000
G1 X26.080 Y-16.981 Z-1.000 F300.000
G2 X26.211 Y-18.548 Z-1.000 I-14.184 J-1.975 K0.000 F300.000
G1 X27.751 Y-17.008 Z-1.000 F300.000
G2 X27.913 Y-18.542 Z-1.000 I-20.880 J-2.982 K0.000 F300.000
G1 X27.913 Y-18.542 Z-2.000 F300.000
G3 X27.751 Y-17.008 Z-2.000 I-21.042 J-1.447 K0.000 F300.000
G1 X26.211 Y-18.548 Z-2.000 F300.000
G3 X26.080 Y-16.981 Z-2.000 I-14.315 J-0.409 K0.000 F300.000
G1 X27.539 Y-15.523 Z-2.000 F300.000
G3 X27.255 Y-14.110 Z-2.000 I-11.499 J-1.578 K0.000 F300.000
G1 X25.875 Y-15.490 Z-2.000 F300.000
G3 X25.588 Y-14.079 Z-2.000 I-19.608 J-3.251 K0.000 F300.000
G1 X26.876 Y-12.792 Z-2.000 F300.000
G1 X26.819 Y-12.626 Z-2.000 F300.000
G1 X25.374 Y-12.596 Z-2.000 F300.000
G1 X25.188 Y-12.592 Z-2.000 F300.000
G2 X26.218 Y-18.672 Z-2.000 I-23.641 J-7.133 K0.000 F300.000
G1 X27.913 Y-18.542 Z-2.000 F300.000
G3 X26.819 Y-12.626 Z-2.000 I-24.282 J-1.431 K0.000 F300.000
G1 X25.374 Y-12.596 Z-2.000 F300.000
G1 X25.233 Y-12.738 Z-2.000 F300.000
G3 X25.188 Y-12.592 Z-2.000 I-1.962 J-0.524 K0.000 F300.000
G1 X25.374 Y-12.596 Z-2.000 F300.000
G0 Z5.000
G0 Z5.000
G0 X25.374 Y-12.596
G0 X19.451 Y-35.049
G0 X19.451 Y-35.049 Z3.000
G1 X19.451 Y-35.049 Z-1.000 F300.000
G2 X23.388 Y-36.662 Z-1.000 I-4.153 J-15.742 K0.000 F300.000
G1 X22.702 Y-38.656 Z-1.000 F300.000
G3 X15.444 Y-36.277 Z-1.000 I-8.484 J-13.626 K0.000 F300.000
G1 X15.723 Y-34.451 Z-1.000 F300.000
G2 X17.448 Y-34.653 Z-1.000 I-1.460 J-19.977 K0.000 F300.000
G2 X19.451 Y-35.049 Z-1.000 I-2.150 J-16.138 K0.000 F300.000
G0 Z5.000
G0 X15.542 Y-35.633 Z5.000
G0 X15.542 Y-35.633 Z3.000
G1 X15.542 Y-35.633 Z-1.000 F300.000
G1 X15.723 Y-34.451 Z-1.000 F300.000
G2 X16.636 Y-34.539 Z-1.000 I-0.556 J-10.562 K0.000 F300.000
G1 X15.542 Y-35.633 Z-1.000 F300.000
G1 X15.444 Y-36.277 Z-1.000 F300.000
G2 X16.481 Y-36.392 Z-1.000 I-0.650 J-10.638 K0.000 F300.000
G1 X18.098 Y-34.774 Z-1.000 F300.000
G2 X19.491 Y-35.078 Z-1.000 I-2.090 J-12.928 K0.000 F300.000
G1 X17.902 Y-36.668 Z-1.000 F300.000
G2 X19.219 Y-37.048 Z-1.000 I-1.692 J-8.323 K0.000 F300.000
G1 X20.798 Y-35.468 Z-1.000 F300.000
G2 X22.014 Y-35.950 Z-1.000 I-2.729 J-8.662 K0.000 F300.000
G1 X20.460 Y-37.504 Z-1.000 F300.000
G2 X21.611 Y-38.050 Z-1.000 I-3.003 J-7.822 K0.000 F300.000
G1 X23.140 Y-36.520 Z-1.000 F300.000
G1 X23.388 Y-36.662 Z-1.000 F300.000
G1 X22.702 Y-38.656 Z-1.000 F300.000
G1 X22.702 Y-38.656 Z-2.000 F300.000
G1 X23.388 Y-36.662 Z-2.000 F300.000
G1 X23.140 Y-36.520 Z-2.000 F300.000
G1 X21.611 Y-38.050 Z-2.000 F300.000
G3 X20.460 Y-37.504 Z-2.000 I-4.154 J-7.276 K0.000 F300.000
G1 X22.014 Y-35.950 Z-2.000 F300.000
G3 X20.798 Y-35.468 Z-2.000 I-3.944 J-8.180 K0.000 F300.000
G1 X19.219 Y-37.048 Z-2.000 F300.000
G3 X17.902 Y-36.668 Z-2.000 I-3.009 J-7.943 K0.000 F300.000
G1 X19.491 Y-35.078 Z-2.000 F300.000
G3 X18.098 Y-34.774 Z-2.000 I-3.483 J-12.624 K0.000 F300.000
G1 X16.481 Y-36.392 Z-2.000 F300.000
G3 X15.444 Y-36.277 Z-2.000 I-1.687 J-10.524 K0.000 F300.000
G1 X15.542 Y-35.633 Z-2.000 F300.000
G1 X16.636 Y-34.539 Z-2.000 F300.000
G3 X15.723 Y-34.451 Z-2.000 I-1.469 J-10.474 K0.000 F300.000
G1 X15.542 Y-35.633 Z-2.000 F300.000
G0 Z5.000
G0 X15.542 Z5.000
G0 X15.542 Z3.000
G1 X15.542 Y-35.633 Z-2.000 F300.000
G1 X15.723 Y-34.451 Z-2.000 F300.000
G2 X17.448 Y-34.653 Z-2.000 I-1.460 J-19.977 K0.000 F300.000
G2 X23.388 Y-36.662 Z-2.000 I-2.150 J-16.138 K0.000 F300.000
G1 X22.702 Y-38.656 Z-2.000 F300.000
G3 X15.444 Y-36.277 Z-2.000 I-8.484 J-13.626 K0.000 F300.000
G1 X15.542 Y-35.633 Z-2.000 F300.000
G0 Z5.000
G0 Z5.000
G0 X15.542 Y-35.633
G0 X16.690 Y-41.965
G0 X16.690 Y-41.965 Z3.000
G1 X16.690 Y-41.965 Z-1.000 F300.000
G3 X16.608 Y-42.047 Z-1.000 I-0.037 J-0.045 K0.000 F300.000
G1 X16.690 Y-41.965 Z-1.000 F300.000
G1 X18.062 Y-41.839 Z-1.000 F300.000
G2 X18.066 Y-42.286 Z-1.000 I-121.221 J-1.283 K0.000 F300.000
G1 X16.616 Y-43.736 Z-1.000 F300.000
G1 X16.624 Y-45.425 Z-1.000 F300.000
G1 X18.078 Y-43.971 Z-1.000 F300.000
G1 X18.089 Y-45.657 Z-1.000 F300.000
G1 X15.671 Y-48.075 Z-1.000 F300.000
G1 X15.064 Y-47.940 Z-1.000 F300.000
G3 X14.333 Y-48.540 Z-1.000 I-0.131 J-0.586 K0.000 F300.000
G1 X14.354 Y-49.392 Z-1.000 F300.000
G1 X12.230 Y-51.516 Z-1.000 F300.000
G1 X12.262 Y-51.862 Z-1.000 F300.000
G2 X13.042 Y-52.401 Z-1.000 I0.190 J-0.559 K0.000 F300.000
G1 X14.395 Y-51.048 Z-1.000 F300.000
G3 X14.455 Y-52.395 Z-1.000 I34.849 J0.865 K0.000 F300.000
G3 X14.516 Y-52.624 Z-1.000 I0.340 J-0.032 K0.000 F300.000
G1 X13.074 Y-54.066 Z-1.000 F300.000
G1 X13.103 Y-55.734 Z-1.000 F300.000
G1 X16.087 Y-52.750 Z-1.000 F300.000
G0 Z5.000
G0 X16.086 Y-52.746 Z5.000
G0 X16.086 Y-52.746 Z3.000
G1 X16.086 Y-52.746 Z-1.000 F300.000
G2 X16.276 Y-52.716 Z-1.000 I1.441 J-8.278 K0.000 F300.000
G3 X16.767 Y-52.115 Z-1.000 I-0.109 J0.590 K0.000 F300.000
G1 X16.706 Y-48.777 Z-1.000 F300.000
G3 X16.237 Y-48.202 Z-1.000 I-0.600 J-0.011 K0.000 F300.000
G1 X15.064 Y-47.940 Z-1.000 F300.000
G3 X14.333 Y-48.540 Z-1.000 I-0.131 J-0.586 K0.000 F300.000
G3 X14.455 Y-52.395 Z-1.000 I96.250 J1.105 K0.000 F300.000
G3 X14.990 Y-52.965 Z-1.000 I0.599 J0.027 K0.000 F300.000
G1 X15.201 Y-52.950 Z-1.000 F300.000
G2 X16.086 Y-52.746 Z-1.000 I2.326 J-8.074 K0.000 F300.000
G0 Z5.000
G0 X18.170 Y-52.364 Z5.000
G0 X18.170 Y-52.364 Z3.000
G1 X18.170 Y-52.364 Z-1.000 F300.000
G1 X15.881 Y-54.653 Z-1.000 F300.000
G1 X16.164 Y-54.623 Z-1.000 F300.000
G2 X16.830 Y-55.401 Z-1.000 I0.048 J-0.632 K0.000 F300.000
G1 X18.218 Y-54.013 Z-1.000 F300.000
G2 X18.266 Y-55.663 Z-1.000 I-52.732 J-2.340 K0.000 F300.000
G1 X16.852 Y-57.076 Z-1.000 F300.000
G3 X16.875 Y-58.750 Z-1.000 I3388.802 J45.642 K0.000 F300.000
G1 X18.288 Y-57.338 Z-1.000 F300.000
G1 X18.310 Y-59.012 Z-1.000 F300.000
G0 Z5.000
G0 X16.868 Y-58.262 Z5.000
G0 X16.868 Y-58.262 Z3.000
G1 X16.868 Y-58.262 Z-1.000 F300.000
G1 X16.879 Y-59.067 Z-1.000 F300.000
G1 X18.310 Y-59.012 Z-1.000 F300.000
G3 X18.116 Y-50.484 Z-1.000 I-272.832 J-1.945 K0.000 F300.000
G2 X18.090 Y-45.780 Z-1.000 I160.523 J3.242 K0.000 F300.000
G3 X18.062 Y-41.839 Z-1.000 I-720.400 J-3.093 K0.000 F300.000
G1 X16.608 Y-41.972 Z-1.000 F300.000
G1 X16.625 Y-45.792 Z-1.000 F300.000
G2 X15.918 Y-46.385 Z-1.000 I-0.600 J-0.003 K0.000 F300.000
G3 X14.830 Y-46.229 Z-1.000 I-1.570 J-7.096 K0.000 F300.000
G2 X14.293 Y-45.637 Z-1.000 I0.062 J0.597 K0.000 F300.000
G1 X14.277 Y-43.508 Z-1.000 F300.000
G1 X12.836 Y-43.618 Z-1.000 F300.000
G1 X12.847 Y-44.110 Z-1.000 F300.000
G0 Z5.000
G0 X15.703 Y-46.346 Z5.000
G0 X15.703 Y-46.346 Z3.000
G1 X15.703 Y-46.346 Z-1.000 F300.000
G1 X12.963 Y-49.086 Z-1.000 F300.000
G1 X12.924 Y-47.428 Z-1.000 F300.000
G1 X14.398 Y-45.954 Z-1.000 F300.000
G2 X14.293 Y-45.637 Z-1.000 I0.363 J0.296 K0.000 F300.000
G1 X14.284 Y-44.371 Z-1.000 F300.000
G1 X12.886 Y-45.769 Z-1.000 F300.000
G1 X12.847 Y-44.110 Z-1.000 F300.000
G1 X13.381 Y-43.577 Z-1.000 F300.000
G1 X12.836 Y-43.618 Z-1.000 F300.000
G1 X12.964 Y-49.158 Z-1.000 F300.000
G2 X12.708 Y-49.664 Z-1.000 I-0.600 J-0.014 K0.000 F300.000
G3 X12.101 Y-50.106 Z-1.000 I3.047 J-4.819 K0.000 F300.000
G1 X12.262 Y-51.862 Z-1.000 F300.000
G2 X13.045 Y-52.419 Z-1.000 I0.190 J-0.563 K0.000 F300.000
G1 X13.135 Y-57.596 Z-1.000 F300.000
G1 X14.567 Y-57.551 Z-1.000 F300.000
G1 X14.535 Y-55.391 Z-1.000 F300.000
G2 X15.022 Y-54.793 Z-1.000 I0.600 J0.009 K0.000 F300.000
G2 X16.363 Y-54.635 Z-1.000 I1.298 J-5.272 K0.000 F300.000
G2 X16.827 Y-55.212 Z-1.000 I-0.135 J-0.585 K0.000 F300.000
G3 X16.868 Y-58.262 Z-1.000 I3273.996 J42.325 K0.000 F300.000
G0 Z5.000
G0 X14.544 Y-55.990 Z5.000
G0 X14.544 Y-55.990 Z3.000
G1 X14.544 Y-55.990 Z-1.000 F300.000
G1 X14.567 Y-57.551 Z-1.000 F300.000
G1 X13.135 Y-57.596 Z-1.000 F300.000
G1 X13.132 Y-57.402 Z-1.000 F300.000
G1 X14.544 Y-55.990 Z-1.000 F300.000
G2 X14.568 Y-55.185 Z-1.000 I2.294 J0.334 K0.000 F300.000
G2 X15.022 Y-54.793 Z-1.000 I0.567 J-0.197 K0.000 F300.000
G2 X15.881 Y-54.653 Z-1.000 I1.286 J-5.212 K0.000 F300.000
G1 X18.170 Y-52.364 Z-1.000 F300.000
G1 X18.123 Y-50.715 Z-1.000 F300.000
G1 X16.766 Y-52.071 Z-1.000 F300.000
G1 X16.736 Y-50.404 Z-1.000 F300.000
G1 X18.108 Y-49.032 Z-1.000 F300.000
G1 X18.099 Y-47.345 Z-1.000 F300.000
G1 X16.700 Y-48.743 Z-1.000 F300.000
G3 X16.237 Y-48.202 Z-1.000 I-0.587 J-0.034 K0.000 F300.000
G1 X15.671 Y-48.075 Z-1.000 F300.000
G1 X18.089 Y-45.657 Z-1.000 F300.000
G1 X18.089 Y-45.657 Z-2.000 F300.000
G1 X15.671 Y-48.075 Z-2.000 F300.000
G1 X16.237 Y-48.202 Z-2.000 F300.000
G2 X16.700 Y-48.743 Z-2.000 I-0.124 J-0.574 K0.000 F300.000
G1 X18.099 Y-47.345 Z-2.000 F300.000
G1 X18.108 Y-49.032 Z-2.000 F300.000
G1 X16.736 Y-50.404 Z-2.000 F300.000
G1 X16.766 Y-52.071 Z-2.000 F300.000
G1 X18.123 Y-50.715 Z-2.000 F300.000
G1 X18.170 Y-52.364 Z-2.000 F300.000
G1 X15.881 Y-54.653 Z-2.000 F300.000
G3 X15.022 Y-54.793 Z-2.000 I0.428 J-5.351 K0.000 F300.000
G3 X14.568 Y-55.185 Z-2.000 I0.113 J-0.589 K0.000 F300.000
G3 X14.544 Y-55.990 Z-2.000 I2.270 J-0.471 K0.000 F300.000
G1 X13.132 Y-57.402 Z-2.000 F300.000
G1 X13.135 Y-57.596 Z-2.000 F300.000
G1 X14.567 Y-57.551 Z-2.000 F300.000
G1 X14.544 Y-55.990 Z-2.000 F300.000
G0 Z5.000
G0 X14.970 Y-52.963 Z5.000
G0 X14.970 Y-52.963 Z3.000
G1 X14.970 Y-52.963 Z-2.000 F300.000
G3 X14.990 Y-52.965 Z-2.000 I0.084 J0.594 K0.000 F300.000
G1 X15.201 Y-52.950 Z-2.000 F300.000
G2 X16.276 Y-52.716 Z-2.000 I2.326 J-8.074 K0.000 F300.000
G3 X16.767 Y-52.115 Z-2.000 I-0.109 J0.590 K0.000 F300.000
G1 X16.706 Y-48.777 Z-2.000 F300.000
G3 X16.237 Y-48.202 Z-2.000 I-0.600 J-0.011 K0.000 F300.000
G1 X15.064 Y-47.940 Z-2.000 F300.000
G3 X14.333 Y-48.540 Z-2.000 I-0.131 J-0.586 K0.000 F300.000
G3 X14.455 Y-52.395 Z-2.000 I96.250 J1.105 K0.000 F300.000
G3 X14.970 Y-52.963 Z-2.000 I0.599 J0.027 K0.000 F300.000
G0 Z5.000
G0 X16.087 Y-52.750 Z5.000
G0 X16.087 Y-52.750 Z3.000
G1 X16.087 Y-52.750 Z-2.000 F300.000
G1 X13.103 Y-55.734 Z-2.000 F300.000
G1 X13.074 Y-54.066 Z-2.000 F300.000
G1 X14.516 Y-52.624 Z-2.000 F300.000
G2 X14.455 Y-52.395 Z-2.000 I0.278 J0.197 K0.000 F300.000
G2 X14.395 Y-51.048 Z-2.000 I34.789 J2.212 K0.000 F300.000
G1 X13.042 Y-52.401 Z-2.000 F300.000
G3 X12.262 Y-51.862 Z-2.000 I-0.590 J-0.020 K0.000 F300.000
G1 X12.230 Y-51.516 Z-2.000 F300.000
G1 X14.354 Y-49.392 Z-2.000 F300.000
G1 X14.333 Y-48.540 Z-2.000 F300.000
G2 X15.064 Y-47.940 Z-2.000 I0.600 J0.015 K0.000 F300.000
G1 X15.671 Y-48.075 Z-2.000 F300.000
G1 X18.089 Y-45.657 Z-2.000 F300.000
G1 X18.078 Y-43.971 Z-2.000 F300.000
G1 X16.624 Y-45.425 Z-2.000 F300.000
G1 X16.616 Y-43.736 Z-2.000 F300.000
G1 X18.066 Y-42.286 Z-2.000 F300.000
G3 X18.062 Y-41.839 Z-2.000 I-121.225 J-0.836 K0.000 F300.000
G1 X16.690 Y-41.965 Z-2.000 F300.000
G1 X16.608 Y-42.047 Z-2.000 F300.000
G2 X16.690 Y-41.965 Z-2.000 I0.045 J0.037 K0.000 F300.000
G0 Z5.000
G0 X12.847 Y-44.110 Z5.000
G0 X12.847 Y-44.110 Z3.000
G1 X12.847 Y-44.110 Z-2.000 F300.000
G1 X12.836 Y-43.618 Z-2.000 F300.000
G1 X14.277 Y-43.508 Z-2.000 F300.000
G1 X14.293 Y-45.637 Z-2.000 F300.000
G3 X14.830 Y-46.229 Z-2.000 I0.600 J0.004 K0.000 F300.000
G2 X15.918 Y-46.385 Z-2.000 I-0.482 J-7.252 K0.000 F300.000
G3 X16.625 Y-45.792 Z-2.000 I0.107 J0.590 K0.000 F300.000
G1 X16.608 Y-41.972 Z-2.000 F300.000
G1 X18.062 Y-41.839 Z-2.000 F300.000
G2 X18.090 Y-45.780 Z-2.000 I-720.372 J-7.034 K0.000 F300.000
G3 X18.116 Y-50.484 Z-2.000 I160.549 J-1.462 K0.000 F300.000
G2 X18.310 Y-59.012 Z-2.000 I-272.637 J-10.473 K0.000 F300.000
G1 X16.879 Y-59.067 Z-2.000 F300.000
G1 X16.868 Y-58.262 Z-2.000 F300.000
G1 X16.868 Y-58.262 Z-2.000 F300.000
G2 X16.827 Y-55.212 Z-2.000 I3273.955 J45.375 K0.000 F300.000
G3 X16.363 Y-54.635 Z-2.000 I-0.600 J-0.008 K0.000 F300.000
G3 X15.022 Y-54.793 Z-2.000 I-0.042 J-5.430 K0.000 F300.000
G3 X14.535 Y-55.391 Z-2.000 I0.113 J-0.589 K0.000 F300.000
G1 X14.567 Y-57.551 Z-2.000 F300.000
G1 X13.135 Y-57.596 Z-2.000 F300.000
G1 X13.045 Y-52.419 Z-2.000 F300.000
G3 X12.262 Y-51.862 Z-2.000 I-0.594 J-0.007 K0.000 F300.000
G1 X12.101 Y-50.106 Z-2.000 F300.000
G2 X12.708 Y-49.664 Z-2.000 I3.654 J-4.377 K0.000 F300.000
G3 X12.964 Y-49.158 Z-2.000 I-0.344 J0.492 K0.000 F300.000
G1 X12.836 Y-43.618 Z-2.000 F300.000
G1 X13.381 Y-43.577 Z-2.000 F300.000
G1 X12.847 Y-44.110 Z-2.000 F300.000
G1 X12.886 Y-45.769 Z-2.000 F300.000
G1 X14.284 Y-44.371 Z-2.000 F300.000
G1 X14.293 Y-45.637 Z-2.000 F300.000
G3 X14.398 Y-45.954 Z-2.000 I0.468 J-0.021 K0.000 F300.000
G1 X12.924 Y-47.428 Z-2.000 F300.000
G1 X12.963 Y-49.086 Z-2.000 F300.000
G1 X15.703 Y-46.346 Z-2.000 F300.000
G0 Z5.000
G0 X18.170 Y-52.364 Z5.000
G0 X18.170 Y-52.364 Z3.000
G1 X18.170 Y-52.364 Z-2.000 F300.000
G1 X15.881 Y-54.653 Z-2.000 F300.000
G1 X16.164 Y-54.623 Z-2.000 F300.000
G2 X16.830 Y-55.401 Z-2.000 I0.048 J-0.632 K0.000 F300.000
G1 X18.218 Y-54.013 Z-2.000 F300.000
G2 X18.266 Y-55.663 Z-2.000 I-52.732 J-2.340 K0.000 F300.000
G1 X16.852 Y-57.076 Z-2.000 F300.000
G3 X16.875 Y-58.750 Z-2.000 I3388.802 J45.642 K0.000 F300.000
G1 X18.288 Y-57.338 Z-2.000 F300.000
G1 X18.310 Y-59.012 Z-2.000 F300.000
G0 Z5.000
G0 Z5.000
G0 X18.310 Y-59.012
G0 X20.321 Y-57.394
G0 X20.321 Y-57.394 Z3.000
G1 X20.321 Y-57.394 Z-1.000 F300.000
G1 X20.108 Y-55.464 Z-1.000 F300.000
G3 X20.366 Y-54.947 Z-1.000 I-0.313 J0.480 K0.000 F300.000
G2 X20.226 Y-45.047 Z-1.000 I176.023 J7.453 K0.000 F300.000
G2 X20.358 Y-44.049 Z-1.000 I3.122 J0.094 K0.000 F300.000
G2 X21.063 Y-43.335 Z-1.000 I0.932 J-0.215 K0.000 F300.000
G2 X22.414 Y-43.178 Z-1.000 I1.177 J-4.237 K0.000 F300.000
G2 X28.089 Y-43.102 Z-1.000 I7.693 J-361.722 K0.000 F300.000
G1 X28.107 Y-57.183 Z-1.000 F300.000
G3 X20.321 Y-57.394 Z-1.000 I-1.558 J-86.213 K0.000 F300.000
G0 Z5.000
G0 X22.978 Y-55.537 Z5.000
G0 X22.978 Y-55.537 Z3.000
G1 X22.978 Y-55.537 Z-1.000 F300.000
G1 X22.148 Y-55.557 Z-1.000 F300.000
G2 X21.534 Y-54.977 Z-1.000 I-0.015 J0.600 K0.000 F300.000
G2 X21.420 Y-46.362 Z-1.000 I223.528 J7.266 K0.000 F300.000
G2 X22.454 Y-45.101 Z-1.000 I1.241 J0.037 K0.000 F300.000
G2 X23.056 Y-45.067 Z-1.000 I0.401 J-1.763 K0.000 F300.000
G2 X23.523 Y-45.650 Z-1.000 I-0.133 J-0.585 K0.000 F300.000
G1 X23.527 Y-46.489 Z-1.000 F300.000
G0 Z5.000
G0 X24.478 Y-46.477 Z5.000
G0 X24.478 Y-46.477 Z3.000
G1 X24.478 Y-46.477 Z-1.000 F300.000
G1 X24.588 Y-54.945 Z-1.000 F300.000
G3 X25.188 Y-55.537 Z-1.000 I0.600 J0.008 K0.000 F300.000
G1 X26.280 Y-55.537 Z-1.000 F300.000
G3 X26.880 Y-54.934 Z-1.000 I-0.000 J0.600 K0.000 F300.000
G3 X26.779 Y-45.644 Z-1.000 I-713.259 J-3.143 K0.000 F300.000
G3 X26.179 Y-45.052 Z-1.000 I-0.600 J-0.009 K0.000 F300.000
G1 X25.067 Y-45.052 Z-1.000 F300.000
G3 X24.467 Y-45.660 Z-1.000 I-0.000 J-0.600 K0.000 F300.000
G1 X24.478 Y-46.477 Z-1.000 F300.000
G0 Z5.000
G0 X25.184 Y-43.135 Z5.000
G0 X25.184 Y-43.135 Z3.000
G1 X25.184 Y-43.135 Z-1.000 F300.000
G1 X23.195 Y-45.124 Z-1.000 F300.000
G2 X23.523 Y-45.650 Z-1.000 I-0.245 J-0.518 K0.000 F300.000
G1 X23.527 Y-46.489 Z-1.000 F300.000
G1 X24.486 Y-45.530 Z-1.000 F300.000
G2 X24.944 Y-45.072 Z-1.000 I0.552 J-0.093 K0.000 F300.000
G1 X26.905 Y-43.111 Z-1.000 F300.000
G1 X28.089 Y-43.102 Z-1.000 F300.000
G1 X28.089 Y-43.624 Z-1.000 F300.000
G1 X26.539 Y-45.175 Z-1.000 F300.000
G2 X26.779 Y-45.644 Z-1.000 I-0.345 J-0.473 K0.000 F300.000
G1 X26.793 Y-46.617 Z-1.000 F300.000
G1 X28.091 Y-45.319 Z-1.000 F300.000
G1 X28.094 Y-47.014 Z-1.000 F300.000
G1 X26.817 Y-48.290 Z-1.000 F300.000
G2 X26.839 Y-49.965 Z-1.000 I-396.502 J-6.000 K0.000 F300.000
G1 X28.096 Y-48.709 Z-1.000 F300.000
G1 X28.098 Y-50.404 Z-1.000 F300.000
G1 X26.859 Y-51.643 Z-1.000 F300.000
G2 X26.873 Y-53.326 Z-1.000 I-170.520 J-2.296 K0.000 F300.000
G1 X28.100 Y-52.098 Z-1.000 F300.000
G1 X28.102 Y-53.793 Z-1.000 F300.000
G1 X26.866 Y-55.030 Z-1.000 F300.000
G0 Z5.000
G0 X28.107 Y-57.183 Z5.000
G0 X28.107 Y-57.183 Z3.000
G1 X28.107 Y-57.183 Z-1.000 F300.000
G1 X28.105 Y-55.488 Z-1.000 F300.000
G1 X26.422 Y-57.171 Z-1.000 F300.000
G1 X24.700 Y-57.196 Z-1.000 F300.000
G1 X26.373 Y-55.522 Z-1.000 F300.000
G1 X26.280 Y-55.537 Z-1.000 F300.000
G1 X25.188 Y-55.537 Z-1.000 F300.000
G2 X24.806 Y-55.393 Z-1.000 I-0.048 J0.451 K0.000 F300.000
G1 X22.953 Y-57.245 Z-1.000 F300.000
G3 X21.164 Y-57.337 Z-1.000 I1.510 J-46.794 K0.000 F300.000
G1 X22.964 Y-55.537 Z-1.000 F300.000
G1 X22.148 Y-55.557 Z-1.000 F300.000
G2 X21.596 Y-55.209 Z-1.000 I-0.021 J0.580 K0.000 F300.000
G1 X20.230 Y-56.574 Z-1.000 F300.000
G1 X20.108 Y-55.464 Z-1.000 F300.000
G3 X20.357 Y-54.751 Z-1.000 I-0.399 J0.539 K0.000 F300.000
G1 X21.492 Y-53.616 Z-1.000 F300.000
G1 X21.455 Y-51.955 Z-1.000 F300.000
G1 X20.294 Y-53.116 Z-1.000 F300.000
G2 X20.262 Y-51.451 Z-1.000 I99.305 J2.718 K0.000 F300.000
G1 X21.435 Y-50.278 Z-1.000 F300.000
G2 X21.418 Y-48.598 Z-1.000 I107.502 J1.934 K0.000 F300.000
G1 X20.244 Y-49.772 Z-1.000 F300.000
G2 X20.234 Y-48.085 Z-1.000 I139.879 J1.698 K0.000 F300.000
G1 X21.413 Y-46.906 Z-1.000 F300.000
G2 X21.661 Y-45.589 Z-1.000 I2.011 J0.303 K0.000 F300.000
G2 X22.454 Y-45.101 Z-1.000 I0.982 J-0.709 K0.000 F300.000
G2 X23.056 Y-45.067 Z-1.000 I0.401 J-1.763 K0.000 F300.000
G1 X23.195 Y-45.124 Z-1.000 F300.000
G1 X25.184 Y-43.135 Z-1.000 F300.000
G1 X23.460 Y-43.162 Z-1.000 F300.000
G1 X20.229 Y-46.393 Z-1.000 F300.000
G2 X20.254 Y-44.671 Z-1.000 I11.182 J0.703 K0.000 F300.000
G2 X20.618 Y-43.583 Z-1.000 I1.703 J0.035 K0.000 F300.000
G2 X21.714 Y-43.211 Z-1.000 I1.109 J-1.464 K0.000 F300.000
G1 X20.254 Y-44.671 Z-1.000 F300.000
G0 Z5.000
G0 X23.563 Y-54.939 Z5.000
G0 X23.563 Y-54.939 Z3.000
G1 X23.563 Y-54.939 Z-1.000 F300.000
G1 X24.575 Y-53.927 Z-1.000 F300.000
G1 X24.553 Y-52.251 Z-1.000 F300.000
G1 X23.556 Y-53.248 Z-1.000 F300.000
G1 X23.549 Y-51.559 Z-1.000 F300.000
G1 X24.531 Y-50.576 Z-1.000 F300.000
G1 X24.509 Y-48.901 Z-1.000 F300.000
G1 X23.541 Y-49.869 Z-1.000 F300.000
G1 X23.534 Y-48.179 Z-1.000 F300.000
G1 X24.487 Y-47.226 Z-1.000 F300.000
G1 X24.467 Y-45.660 Z-1.000 F300.000
G1 X24.486 Y-45.530 Z-1.000 F300.000
G1 X23.527 Y-46.489 Z-1.000 F300.000
G1 X23.563 Y-54.934 Z-1.000 F300.000
G2 X22.978 Y-55.537 Z-1.000 I-0.600 J-0.003 K0.000 F300.000
G1 X22.978 Y-55.537 Z-2.000 F300.000
G1 X22.148 Y-55.557 Z-2.000 F300.000
G2 X21.534 Y-54.977 Z-2.000 I-0.015 J0.600 K0.000 F300.000
G2 X21.420 Y-46.362 Z-2.000 I223.528 J7.266 K0.000 F300.000
G2 X22.454 Y-45.101 Z-2.000 I1.241 J0.037 K0.000 F300.000
G2 X23.056 Y-45.067 Z-2.000 I0.401 J-1.763 K0.000 F300.000
G2 X23.523 Y-45.650 Z-2.000 I-0.133 J-0.585 K0.000 F300.000
G1 X23.527 Y-46.489 Z-2.000 F300.000
G0 Z5.000
G0 X24.478 Y-46.477 Z5.000
G0 X24.478 Y-46.477 Z3.000
G1 X24.478 Y-46.477 Z-2.000 F300.000
G1 X24.588 Y-54.945 Z-2.000 F300.000
G3 X25.188 Y-55.537 Z-2.000 I0.600 J0.008 K0.000 F300.000
G1 X26.280 Y-55.537 Z-2.000 F300.000
G3 X26.880 Y-54.934 Z-2.000 I-0.000 J0.600 K0.000 F300.000
G3 X26.779 Y-45.644 Z-2.000 I-713.259 J-3.143 K0.000 F300.000
G3 X26.179 Y-45.052 Z-2.000 I-0.600 J-0.009 K0.000 F300.000
G1 X25.067 Y-45.052 Z-2.000 F300.000
G3 X24.467 Y-45.660 Z-2.000 I-0.000 J-0.600 K0.000 F300.000
G1 X24.478 Y-46.477 Z-2.000 F300.000
G0 Z5.000
G0 X24.425 Y-43.141 Z5.000
G0 X24.425 Y-43.141 Z3.000
G1 X24.425 Y-43.141 Z-2.000 F300.000
G2 X28.089 Y-43.102 Z-2.000 I5.683 J-361.759 K0.000 F300.000
G1 X28.107 Y-57.183 Z-2.000 F300.000
G3 X20.321 Y-57.394 Z-2.000 I-1.558 J-86.213 K0.000 F300.000
G1 X20.108 Y-55.464 Z-2.000 F300.000
G3 X20.366 Y-54.947 Z-2.000 I-0.313 J0.480 K0.000 F300.000
G2 X20.226 Y-45.047 Z-2.000 I176.023 J7.453 K0.000 F300.000
G2 X20.358 Y-44.049 Z-2.000 I3.122 J0.094 K0.000 F300.000
G2 X21.063 Y-43.335 Z-2.000 I0.932 J-0.215 K0.000 F300.000
G2 X22.414 Y-43.178 Z-2.000 I1.177 J-4.237 K0.000 F300.000
G2 X24.425 Y-43.141 Z-2.000 I7.693 J-361.722 K0.000 F300.000
G0 Z5.000
G0 X25.184 Y-43.135 Z5.000
G0 X25.184 Y-43.135 Z3.000
G1 X25.184 Y-43.135 Z-2.000 F300.000
G1 X23.195 Y-45.124 Z-2.000 F300.000
G2 X23.523 Y-45.650 Z-2.000 I-0.245 J-0.518 K0.000 F300.000
G1 X23.527 Y-46.489 Z-2.000 F300.000
G1 X24.486 Y-45.530 Z-2.000 F300.000
G2 X24.944 Y-45.072 Z-2.000 I0.552 J-0.093 K0.000 F300.000
G1 X26.905 Y-43.111 Z-2.000 F300.000
G1 X28.089 Y-43.102 Z-2.000 F300.000
G1 X28.089 Y-43.624 Z-2.000 F300.000
G1 X26.539 Y-45.175 Z-2.000 F300.000
G2 X26.779 Y-45.644 Z-2.000 I-0.345 J-0.473 K0.000 F300.000
G1 X26.793 Y-46.617 Z-2.000 F300.000
G1 X28.091 Y-45.319 Z-2.000 F300.000
G1 X28.094 Y-47.014 Z-2.000 F300.000
G1 X26.817 Y-48.290 Z-2.000 F300.000
G2 X26.839 Y-49.965 Z-2.000 I-396.502 J-6.000 K0.000 F300.000
G1 X28.096 Y-48.709 Z-2.000 F300.000
G1 X28.098 Y-50.404 Z-2.000 F300.000
G1 X26.859 Y-51.643 Z-2.000 F300.000
G2 X26.873 Y-53.326 Z-2.000 I-170.520 J-2.296 K0.000 F300.000
G1 X28.100 Y-52.098 Z-2.000 F300.000
G1 X28.102 Y-53.793 Z-2.000 F300.000
G1 X26.866 Y-55.030 Z-2.000 F300.000
G0 Z5.000
G0 X28.107 Y-57.183 Z5.000
G0 X28.107 Y-57.183 Z3.000
G1 X28.107 Y-57.183 Z-2.000 F300.000
G1 X28.105 Y-55.488 Z-2.000 F300.000
G1 X26.422 Y-57.171 Z-2.000 F300.000
G1 X24.700 Y-57.196 Z-2.000 F300.000
G1 X26.373 Y-55.522 Z-2.000 F300.000
G1 X26.280 Y-55.537 Z-2.000 F300.000
G1 X25.188 Y-55.537 Z-2.000 F300.000
G2 X24.806 Y-55.393 Z-2.000 I-0.048 J0.451 K0.000 F300.000
G1 X22.953 Y-57.245 Z-2.000 F300.000
G3 X21.164 Y-57.337 Z-2.000 I1.510 J-46.794 K0.000 F300.000
G1 X22.964 Y-55.537 Z-2.000 F300.000
G1 X22.148 Y-55.557 Z-2.000 F300.000
G2 X21.596 Y-55.209 Z-2.000 I-0.021 J0.580 K0.000 F300.000
G1 X20.230 Y-56.574 Z-2.000 F300.000
G1 X20.108 Y-55.464 Z-2.000 F300.000
G3 X20.357 Y-54.751 Z-2.000 I-0.399 J0.539 K0.000 F300.000
G1 X21.492 Y-53.616 Z-2.000 F300.000
G1 X21.455 Y-51.955 Z-2.000 F300.000
G1 X20.294 Y-53.116 Z-2.000 F300.000
G2 X20.262 Y-51.451 Z-2.000 I99.305 J2.718 K0.000 F300.000
G1 X21.435 Y-50.278 Z-2.000 F300.000
G2 X21.418 Y-48.598 Z-2.000 I107.502 J1.934 K0.000 F300.000
G1 X20.244 Y-49.772 Z-2.000 F300.000
G2 X20.234 Y-48.085 Z-2.000 I139.879 J1.698 K0.000 F300.000
G1 X21.413 Y-46.906 Z-2.000 F300.000
G2 X21.661 Y-45.589 Z-2.000 I2.011 J0.303 K0.000 F300.000
G2 X22.454 Y-45.101 Z-2.000 I0.982 J-0.709 K0.000 F300.000
G2 X23.056 Y-45.067 Z-2.000 I0.401 J-1.763 K0.000 F300.000
G1 X23.195 Y-45.124 Z-2.000 F300.000
G1 X25.184 Y-43.135 Z-2.000 F300.000
G1 X23.460 Y-43.162 Z-2.000 F300.000
G1 X20.229 Y-46.393 Z-2.000 F300.000
G2 X20.254 Y-44.671 Z-2.000 I11.182 J0.703 K0.000 F300.000
G2 X20.618 Y-43.583 Z-2.000 I1.703 J0.035 K0.000 F300.000
G2 X21.714 Y-43.211 Z-2.000 I1.109 J-1.464 K0.000 F300.000
G1 X20.254 Y-44.671 Z-2.000 F300.000
G0 Z5.000
G0 X23.563 Y-54.939 Z5.000
G0 X23.563 Y-54.939 Z3.000
G1 X23.563 Y-54.939 Z-2.000 F300.000
G1 X24.575 Y-53.927 Z-2.000 F300.000
G1 X24.553 Y-52.251 Z-2.000 F300.000
G1 X23.556 Y-53.248 Z-2.000 F300.000
G1 X23.549 Y-51.559 Z-2.000 F300.000
G1 X24.531 Y-50.576 Z-2.000 F300.000
G1 X24.509 Y-48.901 Z-2.000 F300.000
G1 X23.541 Y-49.869 Z-2.000 F300.000
G1 X23.534 Y-48.179 Z-2.000 F300.000
G1 X24.487 Y-47.226 Z-2.000 F300.000
G1 X24.467 Y-45.660 Z-2.000 F300.000
G1 X24.486 Y-45.530 Z-2.000 F300.000
G1 X23.527 Y-46.489 Z-2.000 F300.000
G1 X23.563 Y-54.934 Z-2.000 F300.000
G2 X22.978 Y-55.537 Z-2.000 I-0.600 J-0.003 K0.000 F300.000
G0 Z5.000
G0 Z5.000
G0 X22.978 Y-55.537
G0 X19.806 Y-69.142
G0 X19.806 Y-69.142 Z3.000
G1 X19.806 Y-69.142 Z-1.000 F300.000
G1 X18.964 Y-68.580 Z-1.000 F300.000
G1 X18.950 Y-68.596 Z-1.000 F300.000
G3 X17.300 Y-71.270 Z-1.000 I8.125 J-6.859 K0.000 F300.000
G1 X17.535 Y-71.413 Z-1.000 F300.000
G1 X19.806 Y-69.142 Z-1.000 F300.000
G1 X20.348 Y-69.503 Z-1.000 F300.000
G3 X18.589 Y-72.056 Z-1.000 I10.502 J-9.117 K0.000 F300.000
G1 X17.300 Y-71.270 Z-1.000 F300.000
G2 X18.964 Y-68.580 Z-1.000 I9.723 J-4.159 K0.000 F300.000
G1 X19.806 Y-69.142 Z-1.000 F300.000
G1 X20.348 Y-69.503 Z-1.000 F300.000
G3 X18.589 Y-72.056 Z-1.000 I10.502 J-9.117 K0.000 F300.000
G1 X18.589 Y-72.056 Z-2.000 F300.000
G2 X20.348 Y-69.503 Z-2.000 I12.261 J-6.563 K0.000 F300.000
G1 X19.806 Y-69.142 Z-2.000 F300.000
G1 X18.964 Y-68.580 Z-2.000 F300.000
G3 X17.300 Y-71.270 Z-2.000 I8.059 J-6.848 K0.000 F300.000
G1 X18.589 Y-72.056 Z-2.000 F300.000
G2 X20.348 Y-69.503 Z-2.000 I12.261 J-6.563 K0.000 F300.000
G1 X19.806 Y-69.142 Z-2.000 F300.000
G1 X17.535 Y-71.413 Z-2.000 F300.000
G1 X17.300 Y-71.270 Z-2.000 F300.000
G2 X18.950 Y-68.596 Z-2.000 I9.774 J-4.185 K0.000 F300.000
G1 X18.964 Y-68.580 Z-2.000 F300.000
G1 X19.806 Y-69.142 Z-2.000 F300.000
G0 Z5.000
G0 Z5.000
G0 X19.806 Y-69.142
G0 X15.138 Y-68.511
G0 X15.138 Y-68.511 Z3.000
G1 X15.138 Y-68.511 Z-1.000 F300.000
G1 X15.667 Y-68.863 Z-1.000 F300.000
G3 X13.936 Y-71.409 Z-1.000 I11.352 J-9.576 K0.000 F300.000
G1 X12.653 Y-70.626 Z-1.000 F300.000
G2 X14.283 Y-67.941 Z-1.000 I10.721 J-4.674 K0.000 F300.000
G1 X15.138 Y-68.511 Z-1.000 F300.000
G1 X14.283 Y-67.941 Z-1.000 F300.000
G3 X12.653 Y-70.626 Z-1.000 I8.331 J-6.897 K0.000 F300.000
G1 X12.883 Y-70.766 Z-1.000 F300.000
G1 X15.138 Y-68.511 Z-1.000 F300.000
G1 X15.667 Y-68.863 Z-1.000 F300.000
G3 X13.936 Y-71.409 Z-1.000 I11.352 J-9.576 K0.000 F300.000
G1 X13.936 Y-71.409 Z-2.000 F300.000
G2 X15.667 Y-68.863 Z-2.000 I13.082 J-7.030 K0.000 F300.000
G1 X15.138 Y-68.511 Z-2.000 F300.000
G1 X12.883 Y-70.766 Z-2.000 F300.000
G1 X12.653 Y-70.626 Z-2.000 F300.000
G2 X14.283 Y-67.941 Z-2.000 I9.961 J-4.213 K0.000 F300.000
G1 X15.138 Y-68.511 Z-2.000 F300.000
G1 X14.283 Y-67.941 Z-2.000 F300.000
G3 X12.653 Y-70.626 Z-2.000 I9.091 J-7.359 K0.000 F300.000
G1 X13.936 Y-71.409 Z-2.000 F300.000
G2 X15.667 Y-68.863 Z-2.000 I13.082 J-7.030 K0.000 F300.000
G1 X15.138 Y-68.511 Z-2.000 F300.000
G0 Z5.000
G0 Z5.000
G0 X15.138 Y-68.511
G0 X15.296 Y-73.203
G0 X15.296 Y-73.203 Z3.000
G1 X15.296 Y-73.203 Z-1.000 F300.000
G1 X16.137 Y-73.174 Z-1.000 F300.000
G1 X16.194 Y-74.622 Z-1.000 F300.000
G3 X16.806 Y-75.198 Z-1.000 I0.600 J0.024 K0.000 F300.000
G1 X19.679 Y-75.137 Z-1.000 F300.000
G3 X20.250 Y-74.398 Z-1.000 I-0.013 J0.600 K0.000 F300.000
G1 X19.984 Y-73.285 Z-1.000 F300.000
G1 X21.640 Y-73.262 Z-1.000 F300.000
G2 X21.974 Y-74.648 Z-1.000 I-13.288 J-3.933 K0.000 F300.000
G3 X22.546 Y-75.117 Z-1.000 I0.585 J0.131 K0.000 F300.000
G2 X26.697 Y-75.333 Z-1.000 I0.268 J-34.728 K0.000 F300.000
G2 X27.575 Y-75.677 Z-1.000 I-0.142 J-1.658 K0.000 F300.000
G2 X28.053 Y-76.558 Z-1.000 I-1.058 J-1.144 K0.000 F300.000
G2 X28.037 Y-78.698 Z-1.000 I-9.997 J-0.995 K0.000 F300.000
G1 X26.056 Y-78.823 Z-1.000 F300.000
G3 X26.044 Y-77.685 Z-1.000 I-4.164 J0.523 K0.000 F300.000
G3 X25.407 Y-76.959 Z-1.000 I-0.860 J-0.113 K0.000 F300.000
G3 X23.135 Y-76.809 Z-1.000 I-1.867 J-10.991 K0.000 F300.000
G3 X22.530 Y-77.482 Z-1.000 I-0.010 J-0.600 K0.000 F300.000
G1 X22.719 Y-79.039 Z-1.000 F300.000
G1 X21.146 Y-79.201 Z-1.000 F300.000
G1 X20.866 Y-77.321 Z-1.000 F300.000
G3 X20.271 Y-76.809 Z-1.000 I-0.593 J-0.088 K0.000 F300.000
G3 X16.850 Y-76.830 Z-1.000 I0.370 J-348.429 K0.000 F300.000
G3 X16.255 Y-77.435 Z-1.000 I0.005 J-0.600 K0.000 F300.000
G1 X16.270 Y-79.144 Z-1.000 F300.000
G1 X14.441 Y-79.168 Z-1.000 F300.000
G1 X14.441 Y-77.490 Z-1.000 F300.000
G3 X13.830 Y-76.890 Z-1.000 I-0.600 J0.000 K0.000 F300.000
G1 X12.225 Y-76.920 Z-1.000 F300.000
G1 X12.145 Y-75.362 Z-1.000 F300.000
G1 X12.721 Y-75.347 Z-1.000 F300.000
G1 X12.145 Y-75.362 Z-1.000 F300.000
G1 X12.173 Y-75.895 Z-1.000 F300.000
G1 X12.721 Y-75.347 Z-1.000 F300.000
G1 X13.736 Y-75.319 Z-1.000 F300.000
G3 X14.319 Y-74.713 Z-1.000 I-0.016 J0.600 K0.000 F300.000
G1 X14.305 Y-73.236 Z-1.000 F300.000
G1 X15.296 Y-73.203 Z-1.000 F300.000
G0 Z5.000
G0 X14.850 Y-73.218 Z5.000
G0 X14.850 Y-73.218 Z3.000
G1 X14.850 Y-73.218 Z-1.000 F300.000
G1 X14.310 Y-73.758 Z-1.000 F300.000
G1 X14.305 Y-73.236 Z-1.000 F300.000
G1 X14.850 Y-73.218 Z-1.000 F300.000
G1 X16.137 Y-73.174 Z-1.000 F300.000
G1 X16.154 Y-73.611 Z-1.000 F300.000
G1 X12.856 Y-76.908 Z-1.000 F300.000
G1 X13.830 Y-76.890 Z-1.000 F300.000
G2 X14.325 Y-77.137 Z-1.000 I0.012 J-0.597 K0.000 F300.000
G1 X16.411 Y-75.051 Z-1.000 F300.000
G3 X16.806 Y-75.198 Z-1.000 I0.344 J0.321 K0.000 F300.000
G1 X17.986 Y-75.173 Z-1.000 F300.000
G1 X14.441 Y-78.718 Z-1.000 F300.000
G1 X14.441 Y-79.168 Z-1.000 F300.000
G1 X15.705 Y-79.151 Z-1.000 F300.000
G1 X16.265 Y-78.591 Z-1.000 F300.000
G1 X16.255 Y-77.435 Z-1.000 F300.000
G2 X16.850 Y-76.830 Z-1.000 I0.600 J0.005 K0.000 F300.000
G1 X18.036 Y-76.820 Z-1.000 F300.000
G1 X19.729 Y-75.127 Z-1.000 F300.000
G0 Z5.000
G0 X21.593 Y-73.263 Z5.000
G0 X21.593 Y-73.263 Z3.000
G1 X21.593 Y-73.263 Z-1.000 F300.000
G1 X19.984 Y-73.285 Z-1.000 F300.000
G1 X20.250 Y-74.398 Z-1.000 F300.000
G1 X20.261 Y-74.595 Z-1.000 F300.000
G1 X21.593 Y-73.263 Z-1.000 F300.000
G1 X21.640 Y-73.262 Z-1.000 F300.000
G2 X21.961 Y-74.592 Z-1.000 I-12.747 J-3.781 K0.000 F300.000
G1 X19.742 Y-76.811 Z-1.000 F300.000
G1 X20.271 Y-76.809 Z-1.000 F300.000
G2 X20.874 Y-77.375 Z-1.000 I0.000 J-0.604 K0.000 F300.000
G1 X23.121 Y-75.129 Z-1.000 F300.000
G2 X24.773 Y-75.174 Z-1.000 I-0.107 J-33.951 K0.000 F300.000
G1 X23.138 Y-76.810 Z-1.000 F300.000
G3 X22.533 Y-77.414 Z-1.000 I-0.016 J-0.588 K0.000 F300.000
G1 X21.094 Y-78.853 Z-1.000 F300.000
G1 X21.146 Y-79.201 Z-1.000 F300.000
G1 X22.592 Y-79.052 Z-1.000 F300.000
G1 X22.706 Y-78.938 Z-1.000 F300.000
G1 X22.719 Y-79.039 Z-1.000 F300.000
G1 X22.592 Y-79.052 Z-1.000 F300.000
G0 Z5.000
G0 X24.773 Y-75.174 Z5.000
G0 X24.773 Y-75.174 Z3.000
G1 X24.773 Y-75.174 Z-1.000 F300.000
G1 X23.138 Y-76.810 Z-1.000 F300.000
G2 X24.776 Y-76.868 Z-1.000 I0.085 J-20.744 K0.000 F300.000
G1 X26.347 Y-75.297 Z-1.000 F300.000
G1 X26.697 Y-75.333 Z-1.000 F300.000
G2 X27.622 Y-75.719 Z-1.000 I-0.131 J-1.617 K0.000 F300.000
G1 X25.934 Y-77.407 Z-1.000 F300.000
G1 X25.966 Y-77.462 Z-1.000 F300.000
G2 X26.056 Y-78.823 Z-1.000 I-2.563 J-0.853 K0.000 F300.000
G1 X26.226 Y-78.812 Z-1.000 F300.000
G1 X28.102 Y-76.936 Z-1.000 F300.000
G2 X28.037 Y-78.698 Z-1.000 I-14.078 J-0.362 K0.000 F300.000
G0 Z5.000
G0 X16.267 Y-78.799 Z5.000
G0 X16.267 Y-78.799 Z3.000
G1 X16.267 Y-78.799 Z-1.000 F300.000
G1 X16.270 Y-79.144 Z-1.000 F300.000
G1 X15.705 Y-79.151 Z-1.000 F300.000
G1 X16.265 Y-78.591 Z-1.000 F300.000
G1 X16.267 Y-78.799 Z-1.000 F300.000
G1 X16.267 Y-78.799 Z-2.000 F300.000
G1 X16.270 Y-79.144 Z-2.000 F300.000
G1 X15.705 Y-79.151 Z-2.000 F300.000
G1 X16.265 Y-78.591 Z-2.000 F300.000
G1 X16.267 Y-78.799 Z-2.000 F300.000
G1 X16.267 Y-78.799 Z-2.000 F300.000
G1 X16.270 Y-79.144 Z-2.000 F300.000
G1 X14.441 Y-79.168 Z-2.000 F300.000
G1 X14.441 Y-77.490 Z-2.000 F300.000
G3 X13.830 Y-76.890 Z-2.000 I-0.600 J0.000 K0.000 F300.000
G1 X12.225 Y-76.920 Z-2.000 F300.000
G1 X12.145 Y-75.362 Z-2.000 F300.000
G1 X12.721 Y-75.347 Z-2.000 F300.000
G1 X12.145 Y-75.362 Z-2.000 F300.000
G1 X12.173 Y-75.895 Z-2.000 F300.000
G1 X12.721 Y-75.347 Z-2.000 F300.000
G1 X13.736 Y-75.319 Z-2.000 F300.000
G3 X14.319 Y-74.713 Z-2.000 I-0.016 J0.600 K0.000 F300.000
G1 X14.305 Y-73.236 Z-2.000 F300.000
G1 X16.137 Y-73.174 Z-2.000 F300.000
G1 X16.194 Y-74.622 Z-2.000 F300.000
G3 X16.806 Y-75.198 Z-2.000 I0.600 J0.024 K0.000 F300.000
G1 X19.679 Y-75.137 Z-2.000 F300.000
G3 X20.250 Y-74.398 Z-2.000 I-0.013 J0.600 K0.000 F300.000
G1 X19.984 Y-73.285 Z-2.000 F300.000
G1 X21.640 Y-73.262 Z-2.000 F300.000
G2 X21.974 Y-74.648 Z-2.000 I-13.288 J-3.933 K0.000 F300.000
G3 X22.546 Y-75.117 Z-2.000 I0.585 J0.131 K0.000 F300.000
G2 X26.697 Y-75.333 Z-2.000 I0.268 J-34.728 K0.000 F300.000
G2 X27.575 Y-75.677 Z-2.000 I-0.142 J-1.658 K0.000 F300.000
G2 X28.053 Y-76.558 Z-2.000 I-1.058 J-1.144 K0.000 F300.000
G2 X28.037 Y-78.698 Z-2.000 I-9.997 J-0.995 K0.000 F300.000
G1 X26.056 Y-78.823 Z-2.000 F300.000
G3 X26.044 Y-77.685 Z-2.000 I-4.164 J0.523 K0.000 F300.000
G3 X25.407 Y-76.959 Z-2.000 I-0.860 J-0.113 K0.000 F300.000
G3 X23.135 Y-76.809 Z-2.000 I-1.867 J-10.991 K0.000 F300.000
G3 X22.530 Y-77.482 Z-2.000 I-0.010 J-0.600 K0.000 F300.000
G1 X22.719 Y-79.039 Z-2.000 F300.000
G1 X21.146 Y-79.201 Z-2.000 F300.000
G1 X20.866 Y-77.321 Z-2.000 F300.000
G3 X20.271 Y-76.809 Z-2.000 I-0.593 J-0.088 K0.000 F300.000
G3 X16.850 Y-76.830 Z-2.000 I0.370 J-348.429 K0.000 F300.000
G3 X16.255 Y-77.435 Z-2.000 I0.005 J-0.600 K0.000 F300.000
G1 X16.267 Y-78.799 Z-2.000 F300.000
G0 Z5.000
G0 X19.729 Y-75.127 Z5.000
G0 X19.729 Y-75.127 Z3.000
G1 X19.729 Y-75.127 Z-2.000 F300.000
G1 X18.036 Y-76.820 Z-2.000 F300.000
G1 X16.850 Y-76.830 Z-2.000 F300.000
G3 X16.255 Y-77.435 Z-2.000 I0.005 J-0.600 K0.000 F300.000
G1 X16.265 Y-78.591 Z-2.000 F300.000
G1 X15.705 Y-79.151 Z-2.000 F300.000
G1 X14.441 Y-79.168 Z-2.000 F300.000
G1 X14.441 Y-78.718 Z-2.000 F300.000
G1 X17.986 Y-75.173 Z-2.000 F300.000
G1 X16.806 Y-75.198 Z-2.000 F300.000
G2 X16.411 Y-75.051 Z-2.000 I-0.052 J0.467 K0.000 F300.000
G1 X14.325 Y-77.137 Z-2.000 F300.000
G3 X13.830 Y-76.890 Z-2.000 I-0.483 J-0.350 K0.000 F300.000
G1 X12.856 Y-76.908 Z-2.000 F300.000
G1 X16.154 Y-73.611 Z-2.000 F300.000
G1 X16.137 Y-73.174 Z-2.000 F300.000
G1 X14.850 Y-73.218 Z-2.000 F300.000
G1 X14.305 Y-73.236 Z-2.000 F300.000
G1 X14.310 Y-73.758 Z-2.000 F300.000
G1 X14.850 Y-73.218 Z-2.000 F300.000
G0 Z5.000
G0 X21.593 Y-73.263 Z5.000
G0 X21.593 Y-73.263 Z3.000
G1 X21.593 Y-73.263 Z-2.000 F300.000
G1 X19.984 Y-73.285 Z-2.000 F300.000
G1 X20.250 Y-74.398 Z-2.000 F300.000
G1 X20.261 Y-74.595 Z-2.000 F300.000
G1 X21.593 Y-73.263 Z-2.000 F300.000
G1 X21.640 Y-73.262 Z-2.000 F300.000
G2 X21.961 Y-74.592 Z-2.000 I-12.747 J-3.781 K0.000 F300.000
G1 X19.742 Y-76.811 Z-2.000 F300.000
G1 X20.271 Y-76.809 Z-2.000 F300.000
G2 X20.874 Y-77.375 Z-2.000 I0.000 J-0.604 K0.000 F300.000
G1 X23.121 Y-75.129 Z-2.000 F300.000
G2 X24.773 Y-75.174 Z-2.000 I-0.107 J-33.951 K0.000 F300.000
G1 X23.138 Y-76.810 Z-2.000 F300.000
G3 X22.533 Y-77.414 Z-2.000 I-0.016 J-0.588 K0.000 F300.000
G1 X21.094 Y-78.853 Z-2.000 F300.000
G1 X21.146 Y-79.201 Z-2.000 F300.000
G1 X22.592 Y-79.052 Z-2.000 F300.000
G1 X22.706 Y-78.938 Z-2.000 F300.000
G1 X22.719 Y-79.039 Z-2.000 F300.000
G1 X22.592 Y-79.052 Z-2.000 F300.000
G0 Z5.000
G0 X24.773 Y-75.174 Z5.000
G0 X24.773 Y-75.174 Z3.000
G1 X24.773 Y-75.174 Z-2.000 F300.000
G1 X23.138 Y-76.810 Z-2.000 F300.000
G2 X24.776 Y-76.868 Z-2.000 I0.085 J-20.744 K0.000 F300.000
G1 X26.347 Y-75.297 Z-2.000 F300.000
G1 X26.697 Y-75.333 Z-2.000 F300.000
G2 X27.622 Y-75.719 Z-2.000 I-0.131 J-1.617 K0.000 F300.000
G1 X25.934 Y-77.407 Z-2.000 F300.000
G1 X25.966 Y-77.462 Z-2.000 F300.000
G2 X26.056 Y-78.823 Z-2.000 I-2.563 J-0.853 K0.000 F300.000
G1 X26.226 Y-78.812 Z-2.000 F300.000
G1 X28.102 Y-76.936 Z-2.000 F300.000
G2 X28.037 Y-78.698 Z-2.000 I-14.078 J-0.362 K0.000 F300.000
G0 Z5.000
G0 Z5.000
G0 X28.037 Y-78.698
G0 X21.977 Y21.971
G0 X21.977 Y21.971 Z3.000
G1 X21.977 Y21.971 Z-1.000 F300.000
G3 X20.928 Y23.412 Z-1.000 I-8.700 J-5.231 K0.000 F300.000
G3 X16.963 Y26.165 Z-1.000 I-6.745 J-5.483 K0.000 F300.000
G3 X15.764 Y25.431 Z-1.000 I-0.296 J-0.862 K0.000 F300.000
G3 X15.856 Y22.364 Z-1.000 I11.302 J-1.196 K0.000 F300.000
G1 X14.386 Y22.364 Z-1.000 F300.000
G1 X14.276 Y23.521 Z-1.000 F300.000
G3 X13.725 Y24.062 Z-1.000 I-0.597 J-0.057 K0.000 F300.000
G3 X12.364 Y23.672 Z-1.000 I0.786 J-5.310 K0.000 F300.000
G1 X12.122 Y25.108 Z-1.000 F300.000
G2 X13.682 Y25.664 Z-1.000 I3.615 J-7.680 K0.000 F300.000
G3 X14.095 Y26.182 Z-1.000 I-0.185 J0.571 K0.000 F300.000
G2 X14.287 Y27.336 Z-1.000 I3.421 J0.024 K0.000 F300.000
G2 X15.423 Y28.062 Z-1.000 I1.026 J-0.354 K0.000 F300.000
G2 X17.085 Y27.758 Z-1.000 I-2.095 J-16.185 K0.000 F300.000
G2 X18.913 Y26.873 Z-1.000 I-2.315 J-7.106 K0.000 F300.000
G3 X19.431 Y26.825 Z-1.000 I0.309 J0.515 K0.000 F300.000
G3 X22.164 Y28.835 Z-1.000 I-55.335 J78.105 K0.000 F300.000
G1 X22.980 Y27.747 Z-1.000 F300.000
G1 X21.868 Y27.198 Z-1.000 F300.000
G3 X22.143 Y26.060 Z-1.000 I0.266 J-0.538 K0.000 F300.000
G2 X28.039 Y26.105 Z-1.000 I3.921 J-127.047 K0.000 F300.000
G1 X27.955 Y24.321 Z-1.000 F300.000
G3 X23.317 Y24.488 Z-1.000 I-5.481 J-87.376 K0.000 F300.000
G3 X22.848 Y23.501 Z-1.000 I-0.010 J-0.600 K0.000 F300.000
G1 X23.464 Y22.772 Z-1.000 F300.000
G1 X21.977 Y21.971 Z-1.000 F300.000
G0 Z5.000
G0 X23.257 Y23.017 Z5.000
G0 X23.257 Y23.017 Z3.000
G1 X23.257 Y23.017 Z-1.000 F300.000
G1 X23.464 Y22.772 Z-1.000 F300.000
G1 X22.484 Y22.244 Z-1.000 F300.000
G1 X23.257 Y23.017 Z-1.000 F300.000
G2 X22.748 Y23.669 Z-1.000 I1.723 J1.869 K0.000 F300.000
G2 X23.317 Y24.488 Z-1.000 I0.559 J0.219 K0.000 F300.000
G1 X24.706 Y24.466 Z-1.000 F300.000
G1 X26.359 Y26.119 Z-1.000 F300.000
G3 X24.641 Y26.098 Z-1.000 I-0.408 J-37.036 K0.000 F300.000
G1 X21.380 Y22.837 Z-1.000 F300.000
G3 X20.611 Y23.765 Z-1.000 I-6.102 J-4.274 K0.000 F300.000
G1 X22.918 Y26.072 Z-1.000 F300.000
G1 X22.143 Y26.060 Z-1.000 F300.000
G2 X21.586 Y26.437 Z-1.000 I-0.018 J0.574 K0.000 F300.000
G1 X19.739 Y24.590 Z-1.000 F300.000
G0 Z5.000
G0 X22.814 Y27.665 Z5.000
G0 X22.814 Y27.665 Z3.000
G1 X22.814 Y27.665 Z-1.000 F300.000
G1 X22.980 Y27.747 Z-1.000 F300.000
G1 X22.944 Y27.795 Z-1.000 F300.000
G1 X22.814 Y27.665 Z-1.000 F300.000
G1 X21.868 Y27.198 Z-1.000 F300.000
G3 X21.586 Y26.437 Z-1.000 I0.245 J-0.524 K0.000 F300.000
G1 X19.739 Y24.590 Z-1.000 F300.000
G3 X18.765 Y25.313 Z-1.000 I-4.655 J-5.257 K0.000 F300.000
G1 X22.217 Y28.765 Z-1.000 F300.000
G1 X22.164 Y28.835 Z-1.000 F300.000
G2 X19.431 Y26.825 Z-1.000 I-58.069 J76.094 K0.000 F300.000
G2 X18.735 Y26.980 Z-1.000 I-0.216 J0.673 K0.000 F300.000
G1 X17.667 Y25.912 Z-1.000 F300.000
G3 X16.394 Y26.177 Z-1.000 I-1.031 J-1.763 K0.000 F300.000
G3 X15.731 Y25.263 Z-1.000 I0.408 J-0.993 K0.000 F300.000
G3 X15.711 Y23.956 Z-1.000 I6.535 J-0.753 K0.000 F300.000
G1 X14.363 Y22.608 Z-1.000 F300.000
G1 X14.276 Y23.521 Z-1.000 F300.000
G3 X14.010 Y23.953 Z-1.000 I-0.506 J-0.013 K0.000 F300.000
G1 X17.615 Y27.557 Z-1.000 F300.000
G3 X16.300 Y27.940 Z-1.000 I-2.718 J-6.895 K0.000 F300.000
G1 X12.316 Y23.955 Z-1.000 F300.000
G1 X12.122 Y25.108 Z-1.000 F300.000
G2 X13.682 Y25.664 Z-1.000 I4.014 J-8.799 K0.000 F300.000
G3 X14.095 Y26.182 Z-1.000 I-0.185 J0.571 K0.000 F300.000
G2 X14.287 Y27.336 Z-1.000 I3.058 J0.085 K0.000 F300.000
G2 X15.532 Y28.058 Z-1.000 I1.055 J-0.384 K0.000 F300.000
G2 X16.300 Y27.940 Z-1.000 I-0.434 J-5.351 K0.000 F300.000
G0 Z5.000
G0 X15.852 Y22.400 Z5.000
G0 X15.852 Y22.400 Z3.000
G1 X15.852 Y22.400 Z-1.000 F300.000
G1 X15.856 Y22.364 Z-1.000 F300.000
G1 X15.816 Y22.364 Z-1.000 F300.000
G1 X15.852 Y22.400 Z-1.000 F300.000
G2 X15.711 Y23.956 Z-1.000 I24.521 J3.011 K0.000 F300.000
G1 X14.363 Y22.608 Z-1.000 F300.000
G0 Z5.000
G0 X21.709 Y29.954 Z5.000
G0 X21.709 Y29.954 Z3.000
G1 X21.709 Y29.954 Z-1.000 F300.000
G1 X23.168 Y31.413 Z-1.000 F300.000
G1 X23.084 Y29.881 Z-1.000 F300.000
G3 X22.229 Y29.809 Z-1.000 I-0.320 J-1.319 K0.000 F300.000
G3 X21.709 Y29.954 Z-1.000 I-0.418 J-0.494 K0.000 F300.000
G0 Z5.000
G0 X22.743 Y32.685 Z5.000
G0 X22.743 Y32.685 Z3.000
G1 X22.743 Y32.685 Z-1.000 F300.000
G1 X24.771 Y34.713 Z-1.000 F300.000
G2 X23.065 Y34.704 Z-1.000 I-0.892 J7.289 K0.000 F300.000
G1 X22.832 Y34.723 Z-1.000 F300.000
G2 X22.688 Y34.328 Z-1.000 I-0.531 J-0.031 K0.000 F300.000
G1 X23.065 Y34.704 Z-1.000 F300.000
G0 Z5.000
G0 X22.597 Y34.236 Z5.000
G0 X22.597 Y34.236 Z3.000
G1 X22.597 Y34.236 Z-1.000 F300.000
G1 X21.463 Y33.102 Z-1.000 F300.000
G3 X20.085 Y33.421 Z-1.000 I-3.822 J-13.370 K0.000 F300.000
G1 X21.013 Y34.349 Z-1.000 F300.000
G3 X19.543 Y34.577 Z-1.000 I-2.748 J-12.904 K0.000 F300.000
G1 X18.601 Y33.634 Z-1.000 F300.000
G3 X17.252 Y33.720 Z-1.000 I-1.856 J-18.472 K0.000 F300.000
G1 X17.280 Y34.010 Z-1.000 F300.000
G1 X18.005 Y34.735 Z-1.000 F300.000
G1 X17.355 Y34.779 Z-1.000 F300.000
G1 X17.280 Y34.010 Z-1.000 F300.000
G0 Z5.000
G0 X12.746 Y34.568 Z5.000
G0 X12.746 Y34.568 Z3.000
G1 X12.746 Y34.568 Z-1.000 F300.000
G1 X14.113 Y35.935 Z-1.000 F300.000
G1 X14.105 Y35.908 Z-1.000 F300.000
G3 X14.110 Y34.234 Z-1.000 I7.898 J-0.815 K0.000 F300.000
G1 X12.802 Y32.927 Z-1.000 F300.000
G1 X12.842 Y32.005 Z-1.000 F300.000
G2 X12.178 Y31.377 Z-1.000 I-0.608 J-0.022 K0.000 F300.000
G1 X12.230 Y30.657 Z-1.000 F300.000
G1 X14.226 Y32.654 Z-1.000 F300.000
G1 X14.274 Y32.034 Z-1.000 F300.000
G3 X14.766 Y31.496 Z-1.000 I0.585 J0.041 K0.000 F300.000
G1 X13.311 Y30.042 Z-1.000 F300.000
G2 X15.029 Y30.063 Z-1.000 I1.608 J-60.583 K0.000 F300.000
G1 X16.453 Y31.486 Z-1.000 F300.000
G1 X18.156 Y31.492 Z-1.000 F300.000
G1 X16.733 Y30.070 Z-1.000 F300.000
G2 X18.410 Y30.049 Z-1.000 I-0.160 J-80.814 K0.000 F300.000
G1 X19.860 Y31.499 Z-1.000 F300.000
G2 X21.558 Y31.500 Z-1.000 I1.036 J-223.027 K0.000 F300.000
G1 X20.064 Y30.007 Z-1.000 F300.000
G1 X21.709 Y29.954 Z-1.000 F300.000
G1 X23.168 Y31.413 Z-1.000 F300.000
G2 X23.818 Y32.063 Z-1.000 I0.596 J0.054 K0.000 F300.000
G1 X27.851 Y36.096 Z-1.000 F300.000
G2 X27.737 Y34.493 Z-1.000 I-5.731 J-0.395 K0.000 F300.000
G2 X27.281 Y34.036 Z-1.000 I-0.629 J0.171 K0.000 F300.000
G2 X26.012 Y33.723 Z-1.000 I-1.524 J3.443 K0.000 F300.000
G3 X25.560 Y33.350 Z-1.000 I0.107 J-0.590 K0.000 F300.000
G3 X25.966 Y32.514 Z-1.000 I0.611 J-0.220 K0.000 F300.000
G1 X24.885 Y31.433 Z-1.000 F300.000
G2 X25.803 Y30.654 Z-1.000 I-3.764 J-5.371 K0.000 F300.000
G1 X26.965 Y31.816 Z-1.000 F300.000
G2 X27.886 Y31.040 Z-1.000 I-4.449 J-6.214 K0.000 F300.000
G1 X26.628 Y29.782 Z-1.000 F300.000
G2 X27.178 Y29.101 Z-1.000 I-6.667 J-5.943 K0.000 F300.000
G1 X27.941 Y30.985 Z-1.000 F300.000
G1 X27.886 Y31.040 Z-1.000 F300.000
G0 Z5.000
G0 X27.067 Y29.250 Z5.000
G0 X27.067 Y29.250 Z3.000
G1 X27.067 Y29.250 Z-1.000 F300.000
G1 X27.178 Y29.101 Z-1.000 F300.000
G1 X27.941 Y30.985 Z-1.000 F300.000
G3 X25.788 Y32.632 Z-1.000 I-8.010 J-8.242 K0.000 F300.000
G2 X26.012 Y33.723 Z-1.000 I0.331 J0.501 K0.000 F300.000
G3 X27.281 Y34.036 Z-1.000 I-0.255 J3.757 K0.000 F300.000
G3 X27.737 Y34.493 Z-1.000 I-0.173 J0.629 K0.000 F300.000
G3 X27.760 Y36.993 Z-1.000 I-6.554 J1.312 K0.000 F300.000
G3 X27.365 Y38.815 Z-1.000 I-13.120 J-1.891 K0.000 F300.000
G1 X25.803 Y38.927 Z-1.000 F300.000
G2 X26.181 Y37.032 Z-1.000 I-11.012 J-3.186 K0.000 F300.000
G2 X25.983 Y35.454 Z-1.000 I-2.774 J-0.452 K0.000 F300.000
G2 X24.370 Y34.666 Z-1.000 I-1.544 J1.114 K0.000 F300.000
G2 X22.832 Y34.723 Z-1.000 I-0.399 J9.970 K0.000 F300.000
G2 X22.103 Y34.124 Z-1.000 I-0.596 J-0.018 K0.000 F300.000
G3 X17.355 Y34.779 Z-1.000 I-5.896 J-25.203 K0.000 F300.000
G1 X17.252 Y33.720 Z-1.000 F300.000
G2 X22.793 Y32.668 Z-1.000 I-0.372 J-17.081 K0.000 F300.000
G2 X22.599 Y31.500 Z-1.000 I-0.194 J-0.568 K0.000 F300.000
G3 X14.875 Y31.480 Z-1.000 I-1.183 J-1014.283 K0.000 F300.000
G2 X14.274 Y32.034 Z-1.000 I-0.002 J0.600 K0.000 F300.000
G2 X14.053 Y35.499 Z-1.000 I40.927 J4.352 K0.000 F300.000
G2 X15.365 Y37.062 Z-1.000 I1.570 J0.015 K0.000 F300.000
G2 X18.636 Y37.158 Z-1.000 I2.061 J-14.561 K0.000 F300.000
G2 X23.096 Y36.723 Z-1.000 I-3.164 J-55.541 K0.000 F300.000
G1 X23.196 Y38.200 Z-1.000 F300.000
G3 X15.043 Y38.528 Z-1.000 I-5.827 J-43.285 K0.000 F300.000
G3 X13.336 Y38.126 Z-1.000 I0.239 J-4.834 K0.000 F300.000
G3 X12.829 Y37.609 Z-1.000 I0.567 J-1.064 K0.000 F300.000
G3 X12.722 Y36.241 Z-1.000 I6.637 J-1.209 K0.000 F300.000
G0 Z5.000
G0 X21.847 Y36.880 Z5.000
G0 X21.847 Y36.880 Z3.000
G1 X21.847 Y36.880 Z-1.000 F300.000
G2 X23.096 Y36.723 Z-1.000 I-5.006 J-44.817 K0.000 F300.000
G1 X23.196 Y38.200 Z-1.000 F300.000
G1 X23.170 Y38.203 Z-1.000 F300.000
G1 X21.847 Y36.880 Z-1.000 F300.000
G3 X20.301 Y37.031 Z-1.000 I-3.141 J-24.092 K0.000 F300.000
G1 X21.647 Y38.377 Z-1.000 F300.000
G3 X20.070 Y38.497 Z-1.000 I-2.141 J-17.760 K0.000 F300.000
G1 X18.723 Y37.151 Z-1.000 F300.000
G3 X17.063 Y37.187 Z-1.000 I-1.277 J-20.415 K0.000 F300.000
G1 X18.446 Y38.571 Z-1.000 F300.000
G1 X16.778 Y38.600 Z-1.000 F300.000
G1 X15.188 Y37.010 Z-1.000 F300.000
G3 X14.113 Y35.935 Z-1.000 I0.390 J-1.465 K0.000 F300.000
G1 X12.746 Y34.568 Z-1.000 F300.000
G2 X12.722 Y36.241 Z-1.000 I21.937 J1.158 K0.000 F300.000
G1 X15.005 Y38.523 Z-1.000 F300.000
G3 X13.336 Y38.126 Z-1.000 I0.253 J-4.760 K0.000 F300.000
G3 X12.829 Y37.609 Z-1.000 I0.567 J-1.064 K0.000 F300.000
G3 X12.722 Y36.224 Z-1.000 I6.717 J-1.219 K0.000 F300.000
G3 X12.842 Y32.005 Z-1.000 I108.157 J0.978 K0.000 F300.000
G2 X12.178 Y31.377 Z-1.000 I-0.608 J-0.022 K0.000 F300.000
G1 X12.275 Y30.021 Z-1.000 F300.000
G2 X21.870 Y29.949 Z-1.000 I3.739 J-141.089 K0.000 F300.000
G2 X22.229 Y29.809 Z-1.000 I-0.010 J-0.557 K0.000 F300.000
G2 X23.084 Y29.881 Z-1.000 I0.536 J-1.247 K0.000 F300.000
G1 X23.173 Y31.506 Z-1.000 F300.000
G2 X24.096 Y31.979 Z-1.000 I0.599 J-0.033 K0.000 F300.000
G2 X27.067 Y29.250 Z-1.000 I-5.684 J-9.170 K0.000 F300.000
G0 Z5.000
G0 X26.359 Y26.119 Z5.000
G0 X26.359 Y26.119 Z3.000
G1 X26.359 Y26.119 Z-1.000 F300.000
G1 X24.706 Y24.466 Z-1.000 F300.000
G2 X26.344 Y24.407 Z-1.000 I-0.527 J-36.993 K0.000 F300.000
G1 X28.039 Y26.101 Z-1.000 F300.000
G1 X27.955 Y24.321 Z-1.000 F300.000
G0 Z5.000
G0 X26.191 Y36.133 Z5.000
G0 X26.191 Y36.133 Z3.000
G1 X26.191 Y36.133 Z-1.000 F300.000
G1 X27.649 Y37.591 Z-1.000 F300.000
G3 X27.365 Y38.815 Z-1.000 I-8.821 J-1.401 K0.000 F300.000
G1 X27.188 Y38.827 Z-1.000 F300.000
G1 X26.073 Y37.712 Z-1.000 F300.000
G3 X25.803 Y38.927 Z-1.000 I-27.316 J-5.441 K0.000 F300.000
G1 X27.188 Y38.827 Z-1.000 F300.000
G1 X27.188 Y38.827 Z-2.000 F300.000
G1 X25.803 Y38.927 Z-2.000 F300.000
G2 X26.073 Y37.712 Z-2.000 I-27.046 J-6.656 K0.000 F300.000
G1 X27.188 Y38.827 Z-2.000 F300.000
G1 X27.365 Y38.815 Z-2.000 F300.000
G2 X27.649 Y37.591 Z-2.000 I-8.537 J-2.624 K0.000 F300.000
G1 X26.191 Y36.133 Z-2.000 F300.000
G0 Z5.000
G0 X23.065 Y34.704 Z5.000
G0 X23.065 Y34.704 Z3.000
G1 X23.065 Y34.704 Z-2.000 F300.000
G1 X22.688 Y34.328 Z-2.000 F300.000
G3 X22.832 Y34.723 Z-2.000 I-0.388 J0.364 K0.000 F300.000
G1 X23.065 Y34.704 Z-2.000 F300.000
G3 X24.771 Y34.713 Z-2.000 I0.814 J7.298 K0.000 F300.000
G1 X22.743 Y32.685 Z-2.000 F300.000
G0 Z5.000
G0 X23.168 Y31.413 Z5.000
G0 X23.168 Y31.413 Z3.000
G1 X23.168 Y31.413 Z-2.000 F300.000
G1 X23.084 Y29.881 Z-2.000 F300.000
G3 X22.229 Y29.809 Z-2.000 I-0.320 J-1.319 K0.000 F300.000
G3 X21.709 Y29.954 Z-2.000 I-0.418 J-0.494 K0.000 F300.000
G1 X23.168 Y31.413 Z-2.000 F300.000
G0 Z5.000
G0 X22.164 Y28.835 Z5.000
G0 X22.164 Y28.835 Z3.000
G1 X22.164 Y28.835 Z-2.000 F300.000
G1 X22.980 Y27.747 Z-2.000 F300.000
G1 X21.868 Y27.198 Z-2.000 F300.000
G3 X22.143 Y26.060 Z-2.000 I0.266 J-0.538 K0.000 F300.000
G2 X28.039 Y26.105 Z-2.000 I3.921 J-127.047 K0.000 F300.000
G1 X27.955 Y24.321 Z-2.000 F300.000
G3 X23.317 Y24.488 Z-2.000 I-5.481 J-87.376 K0.000 F300.000
G3 X22.848 Y23.501 Z-2.000 I-0.010 J-0.600 K0.000 F300.000
G1 X23.464 Y22.772 Z-2.000 F300.000
G1 X21.977 Y21.971 Z-2.000 F300.000
G3 X20.928 Y23.412 Z-2.000 I-8.700 J-5.231 K0.000 F300.000
G3 X16.963 Y26.165 Z-2.000 I-6.745 J-5.483 K0.000 F300.000
G3 X15.764 Y25.431 Z-2.000 I-0.296 J-0.862 K0.000 F300.000
G3 X15.856 Y22.364 Z-2.000 I11.302 J-1.196 K0.000 F300.000
G1 X14.386 Y22.364 Z-2.000 F300.000
G1 X14.276 Y23.521 Z-2.000 F300.000
G3 X13.725 Y24.062 Z-2.000 I-0.597 J-0.057 K0.000 F300.000
G3 X12.364 Y23.672 Z-2.000 I0.786 J-5.310 K0.000 F300.000
G1 X12.122 Y25.108 Z-2.000 F300.000
G2 X13.682 Y25.664 Z-2.000 I3.615 J-7.680 K0.000 F300.000
G3 X14.095 Y26.182 Z-2.000 I-0.185 J0.571 K0.000 F300.000
G2 X14.287 Y27.336 Z-2.000 I3.421 J0.024 K0.000 F300.000
G2 X15.423 Y28.062 Z-2.000 I1.026 J-0.354 K0.000 F300.000
G2 X17.085 Y27.758 Z-2.000 I-2.095 J-16.185 K0.000 F300.000
G2 X18.913 Y26.873 Z-2.000 I-2.315 J-7.106 K0.000 F300.000
G3 X19.431 Y26.825 Z-2.000 I0.309 J0.515 K0.000 F300.000
G3 X22.164 Y28.835 Z-2.000 I-55.335 J78.105 K0.000 F300.000
G0 Z5.000
G0 X22.814 Y27.665 Z5.000
G0 X22.814 Y27.665 Z3.000
G1 X22.814 Y27.665 Z-2.000 F300.000
G1 X22.980 Y27.747 Z-2.000 F300.000
G1 X22.944 Y27.795 Z-2.000 F300.000
G1 X22.814 Y27.665 Z-2.000 F300.000
G1 X21.868 Y27.198 Z-2.000 F300.000
G3 X21.586 Y26.437 Z-2.000 I0.245 J-0.524 K0.000 F300.000
G1 X19.739 Y24.590 Z-2.000 F300.000
G3 X18.765 Y25.313 Z-2.000 I-4.655 J-5.257 K0.000 F300.000
G1 X22.217 Y28.765 Z-2.000 F300.000
G1 X22.164 Y28.835 Z-2.000 F300.000
G2 X19.431 Y26.825 Z-2.000 I-58.069 J76.094 K0.000 F300.000
G2 X18.735 Y26.980 Z-2.000 I-0.216 J0.673 K0.000 F300.000
G1 X17.667 Y25.912 Z-2.000 F300.000
G3 X16.394 Y26.177 Z-2.000 I-1.031 J-1.763 K0.000 F300.000
G3 X15.731 Y25.263 Z-2.000 I0.408 J-0.993 K0.000 F300.000
G3 X15.711 Y23.956 Z-2.000 I6.535 J-0.753 K0.000 F300.000
G1 X14.363 Y22.608 Z-2.000 F300.000
G1 X14.276 Y23.521 Z-2.000 F300.000
G3 X14.010 Y23.953 Z-2.000 I-0.506 J-0.013 K0.000 F300.000
G1 X17.615 Y27.557 Z-2.000 F300.000
G3 X16.300 Y27.940 Z-2.000 I-2.718 J-6.895 K0.000 F300.000
G1 X12.316 Y23.955 Z-2.000 F300.000
G1 X12.122 Y25.108 Z-2.000 F300.000
G2 X13.682 Y25.664 Z-2.000 I4.014 J-8.799 K0.000 F300.000
G3 X14.095 Y26.182 Z-2.000 I-0.185 J0.571 K0.000 F300.000
G2 X14.287 Y27.336 Z-2.000 I3.058 J0.085 K0.000 F300.000
G2 X15.532 Y28.058 Z-2.000 I1.055 J-0.384 K0.000 F300.000
G2 X16.300 Y27.940 Z-2.000 I-0.434 J-5.351 K0.000 F300.000
G0 Z5.000
G0 X19.739 Y24.590 Z5.000
G0 X19.739 Y24.590 Z3.000
G1 X19.739 Y24.590 Z-2.000 F300.000
G1 X21.586 Y26.437 Z-2.000 F300.000
G3 X22.143 Y26.060 Z-2.000 I0.539 J0.197 K0.000 F300.000
G1 X22.918 Y26.072 Z-2.000 F300.000
G1 X20.611 Y23.765 Z-2.000 F300.000
G2 X21.380 Y22.837 Z-2.000 I-5.333 J-5.202 K0.000 F300.000
G1 X24.641 Y26.098 Z-2.000 F300.000
G2 X26.359 Y26.119 Z-2.000 I1.310 J-37.015 K0.000 F300.000
G1 X24.706 Y24.466 Z-2.000 F300.000
G1 X23.317 Y24.488 Z-2.000 F300.000
G3 X22.748 Y23.669 Z-2.000 I-0.010 J-0.600 K0.000 F300.000
G3 X23.257 Y23.017 Z-2.000 I2.232 J1.217 K0.000 F300.000
G1 X22.484 Y22.244 Z-2.000 F300.000
G1 X23.464 Y22.772 Z-2.000 F300.000
G1 X23.257 Y23.017 Z-2.000 F300.000
G0 Z5.000
G0 X26.359 Y26.119 Z5.000
G0 X26.359 Y26.119 Z3.000
G1 X26.359 Y26.119 Z-2.000 F300.000
G1 X24.706 Y24.466 Z-2.000 F300.000
G2 X26.344 Y24.407 Z-2.000 I-0.527 J-36.993 K0.000 F300.000
G1 X28.039 Y26.101 Z-2.000 F300.000
G1 X27.955 Y24.321 Z-2.000 F300.000
G0 Z5.000
G0 X27.067 Y29.250 Z5.000
G0 X27.067 Y29.250 Z3.000
G1 X27.067 Y29.250 Z-2.000 F300.000
G1 X27.178 Y29.101 Z-2.000 F300.000
G1 X27.941 Y30.985 Z-2.000 F300.000
G3 X25.788 Y32.632 Z-2.000 I-8.010 J-8.242 K0.000 F300.000
G2 X26.012 Y33.723 Z-2.000 I0.331 J0.501 K0.000 F300.000
G3 X27.281 Y34.036 Z-2.000 I-0.255 J3.757 K0.000 F300.000
G3 X27.737 Y34.493 Z-2.000 I-0.173 J0.629 K0.000 F300.000
G3 X27.760 Y36.993 Z-2.000 I-6.554 J1.312 K0.000 F300.000
G3 X27.365 Y38.815 Z-2.000 I-13.120 J-1.891 K0.000 F300.000
G1 X25.803 Y38.927 Z-2.000 F300.000
G2 X26.181 Y37.032 Z-2.000 I-11.012 J-3.186 K0.000 F300.000
G2 X25.983 Y35.454 Z-2.000 I-2.774 J-0.452 K0.000 F300.000
G2 X24.370 Y34.666 Z-2.000 I-1.544 J1.114 K0.000 F300.000
G2 X22.832 Y34.723 Z-2.000 I-0.399 J9.970 K0.000 F300.000
G2 X22.103 Y34.124 Z-2.000 I-0.596 J-0.018 K0.000 F300.000
G3 X17.355 Y34.779 Z-2.000 I-5.896 J-25.203 K0.000 F300.000
G1 X17.252 Y33.720 Z-2.000 F300.000
G2 X22.793 Y32.668 Z-2.000 I-0.372 J-17.081 K0.000 F300.000
G2 X22.599 Y31.500 Z-2.000 I-0.194 J-0.568 K0.000 F300.000
G3 X14.875 Y31.480 Z-2.000 I-1.183 J-1014.283 K0.000 F300.000
G2 X14.274 Y32.034 Z-2.000 I-0.002 J0.600 K0.000 F300.000
G2 X14.053 Y35.499 Z-2.000 I40.927 J4.352 K0.000 F300.000
G2 X15.365 Y37.062 Z-2.000 I1.570 J0.015 K0.000 F300.000
G2 X18.636 Y37.158 Z-2.000 I2.061 J-14.561 K0.000 F300.000
G2 X23.096 Y36.723 Z-2.000 I-3.164 J-55.541 K0.000 F300.000
G1 X23.196 Y38.200 Z-2.000 F300.000
G3 X15.043 Y38.528 Z-2.000 I-5.827 J-43.285 K0.000 F300.000
G3 X13.336 Y38.126 Z-2.000 I0.239 J-4.834 K0.000 F300.000
G3 X12.829 Y37.609 Z-2.000 I0.567 J-1.064 K0.000 F300.000
G3 X12.722 Y36.241 Z-2.000 I6.637 J-1.209 K0.000 F300.000
G0 Z5.000
G0 X12.746 Y34.568 Z5.000
G0 X12.746 Y34.568 Z3.000
G1 X12.746 Y34.568 Z-2.000 F300.000
G1 X14.113 Y35.935 Z-2.000 F300.000
G1 X14.105 Y35.908 Z-2.000 F300.000
G3 X14.110 Y34.234 Z-2.000 I7.898 J-0.815 K0.000 F300.000
G1 X12.802 Y32.927 Z-2.000 F300.000
G1 X12.842 Y32.005 Z-2.000 F300.000
G2 X12.178 Y31.377 Z-2.000 I-0.608 J-0.022 K0.000 F300.000
G1 X12.230 Y30.657 Z-2.000 F300.000
G1 X14.226 Y32.654 Z-2.000 F300.000
G1 X14.274 Y32.034 Z-2.000 F300.000
G3 X14.766 Y31.496 Z-2.000 I0.585 J0.041 K0.000 F300.000
G1 X13.311 Y30.042 Z-2.000 F300.000
G2 X15.029 Y30.063 Z-2.000 I1.608 J-60.583 K0.000 F300.000
G1 X16.453 Y31.486 Z-2.000 F300.000
G1 X18.156 Y31.492 Z-2.000 F300.000
G1 X16.733 Y30.070 Z-2.000 F300.000
G2 X18.410 Y30.049 Z-2.000 I-0.160 J-80.814 K0.000 F300.000
G1 X19.860 Y31.499 Z-2.000 F300.000
G2 X21.558 Y31.500 Z-2.000 I1.036 J-223.027 K0.000 F300.000
G1 X20.064 Y30.007 Z-2.000 F300.000
G1 X21.709 Y29.954 Z-2.000 F300.000
G1 X23.168 Y31.413 Z-2.000 F300.000
G2 X23.818 Y32.063 Z-2.000 I0.596 J0.054 K0.000 F300.000
G1 X27.851 Y36.096 Z-2.000 F300.000
G2 X27.737 Y34.493 Z-2.000 I-5.731 J-0.395 K0.000 F300.000
G2 X27.281 Y34.036 Z-2.000 I-0.629 J0.171 K0.000 F300.000
G2 X26.012 Y33.723 Z-2.000 I-1.524 J3.443 K0.000 F300.000
G3 X25.560 Y33.350 Z-2.000 I0.107 J-0.590 K0.000 F300.000
G3 X25.966 Y32.514 Z-2.000 I0.611 J-0.220 K0.000 F300.000
G1 X24.885 Y31.433 Z-2.000 F300.000
G2 X25.803 Y30.654 Z-2.000 I-3.764 J-5.371 K0.000 F300.000
G1 X26.965 Y31.816 Z-2.000 F300.000
G2 X27.886 Y31.040 Z-2.000 I-4.449 J-6.214 K0.000 F300.000
G1 X26.628 Y29.782 Z-2.000 F300.000
G2 X27.178 Y29.101 Z-2.000 I-6.667 J-5.943 K0.000 F300.000
G1 X27.941 Y30.985 Z-2.000 F300.000
G1 X27.886 Y31.040 Z-2.000 F300.000
G0 Z5.000
G0 X27.067 Y29.250 Z5.000
G0 X27.067 Y29.250 Z3.000
G1 X27.067 Y29.250 Z-2.000 F300.000
G3 X24.096 Y31.979 Z-2.000 I-8.655 J-6.441 K0.000 F300.000
G3 X23.173 Y31.506 Z-2.000 I-0.324 J-0.505 K0.000 F300.000
G1 X23.084 Y29.881 Z-2.000 F300.000
G3 X22.229 Y29.809 Z-2.000 I-0.320 J-1.319 K0.000 F300.000
G3 X21.870 Y29.949 Z-2.000 I-0.369 J-0.417 K0.000 F300.000
G3 X12.275 Y30.021 Z-2.000 I-5.855 J-141.017 K0.000 F300.000
G1 X12.178 Y31.377 Z-2.000 F300.000
G3 X12.842 Y32.005 Z-2.000 I0.056 J0.606 K0.000 F300.000
G2 X12.722 Y36.224 Z-2.000 I108.036 J5.197 K0.000 F300.000
G2 X12.829 Y37.609 Z-2.000 I6.825 J0.165 K0.000 F300.000
G2 X13.336 Y38.126 Z-2.000 I1.074 J-0.547 K0.000 F300.000
G2 X15.005 Y38.523 Z-2.000 I1.921 J-4.362 K0.000 F300.000
G1 X12.722 Y36.241 Z-2.000 F300.000
G3 X12.746 Y34.568 Z-2.000 I21.962 J-0.515 K0.000 F300.000
G1 X14.113 Y35.935 Z-2.000 F300.000
G2 X15.188 Y37.010 Z-2.000 I1.465 J-0.390 K0.000 F300.000
G1 X16.778 Y38.600 Z-2.000 F300.000
G1 X18.446 Y38.571 Z-2.000 F300.000
G1 X17.063 Y37.187 Z-2.000 F300.000
G2 X18.723 Y37.151 Z-2.000 I0.384 J-20.451 K0.000 F300.000
G1 X20.070 Y38.497 Z-2.000 F300.000
G2 X21.647 Y38.377 Z-2.000 I-0.564 J-17.879 K0.000 F300.000
G1 X20.301 Y37.031 Z-2.000 F300.000
G2 X21.847 Y36.880 Z-2.000 I-1.595 J-24.243 K0.000 F300.000
G1 X23.170 Y38.203 Z-2.000 F300.000
G1 X23.196 Y38.200 Z-2.000 F300.000
G1 X23.096 Y36.723 Z-2.000 F300.000
G3 X21.847 Y36.880 Z-2.000 I-6.255 J-44.660 K0.000 F300.000
G0 Z5.000
G0 X22.597 Y34.236 Z5.000
G0 X22.597 Y34.236 Z3.000
G1 X22.597 Y34.236 Z-2.000 F300.000
G1 X21.463 Y33.102 Z-2.000 F300.000
G3 X20.085 Y33.421 Z-2.000 I-3.822 J-13.370 K0.000 F300.000
G1 X21.013 Y34.349 Z-2.000 F300.000
G3 X19.543 Y34.577 Z-2.000 I-2.748 J-12.904 K0.000 F300.000
G1 X18.601 Y33.634 Z-2.000 F300.000
G3 X17.252 Y33.720 Z-2.000 I-1.856 J-18.472 K0.000 F300.000
G1 X17.280 Y34.010 Z-2.000 F300.000
G1 X18.005 Y34.735 Z-2.000 F300.000
G1 X17.355 Y34.779 Z-2.000 F300.000
G1 X17.280 Y34.010 Z-2.000 F300.000
G0 Z5.000
G0 X15.852 Y22.400 Z5.000
G0 X15.852 Y22.400 Z3.000
G1 X15.852 Y22.400 Z-2.000 F300.000
G1 X15.856 Y22.364 Z-2.000 F300.000
G1 X15.816 Y22.364 Z-2.000 F300.000
G1 X15.852 Y22.400 Z-2.000 F300.000
G2 X15.711 Y23.956 Z-2.000 I24.521 J3.011 K0.000 F300.000
G1 X14.363 Y22.608 Z-2.000 F300.000
G0 Z5.000
G0 Z5.000
G0 X14.363 Y22.608
G0 X23.174 Y42.239
G0 X23.174 Y42.239 Z3.000
G1 X23.174 Y42.239 Z-1.000 F300.000
G1 X23.595 Y43.516 Z-1.000 F300.000
G3 X22.885 Y43.648 Z-1.000 I-1.581 J-6.522 K0.000 F300.000
G1 X21.840 Y42.602 Z-1.000 F300.000
G3 X20.732 Y42.755 Z-1.000 I-1.656 J-7.933 K0.000 F300.000
G1 X20.765 Y43.225 Z-1.000 F300.000
G1 X21.381 Y43.841 Z-1.000 F300.000
G3 X20.810 Y43.874 Z-1.000 I-0.641 J-6.018 K0.000 F300.000
G1 X20.732 Y42.755 Z-1.000 F300.000
G2 X23.174 Y42.239 Z-1.000 I-0.649 J-9.114 K0.000 F300.000
G1 X23.595 Y43.516 Z-1.000 F300.000
G3 X20.810 Y43.874 Z-1.000 I-3.516 J-16.304 K0.000 F300.000
G1 X20.765 Y43.225 Z-1.000 F300.000
G1 X20.765 Y43.225 Z-2.000 F300.000
G1 X20.810 Y43.874 Z-2.000 F300.000
G2 X23.595 Y43.516 Z-2.000 I-0.731 J-16.663 K0.000 F300.000
G1 X23.174 Y42.239 Z-2.000 F300.000
G3 X20.732 Y42.755 Z-2.000 I-3.090 J-8.598 K0.000 F300.000
G1 X20.810 Y43.874 Z-2.000 F300.000
G2 X21.381 Y43.841 Z-2.000 I-0.071 J-6.051 K0.000 F300.000
G1 X20.765 Y43.225 Z-2.000 F300.000
G1 X20.732 Y42.755 Z-2.000 F300.000
G2 X21.840 Y42.602 Z-2.000 I-0.548 J-8.085 K0.000 F300.000
G1 X22.885 Y43.648 Z-2.000 F300.000
G2 X23.595 Y43.516 Z-2.000 I-0.870 J-6.655 K0.000 F300.000
G1 X23.174 Y42.239 Z-2.000 F300.000
G0 Z5.000
G0 Z5.000
G0 X23.174 Y42.239
G0 X18.406 Y42.233
G0 X18.406 Y42.233 Z3.000
G1 X18.406 Y42.233 Z-1.000 F300.000
G1 X18.370 Y43.894 Z-1.000 F300.000
G1 X17.037 Y42.561 Z-1.000 F300.000
G3 X16.450 Y43.077 Z-1.000 I-0.582 J-0.070 K0.000 F300.000
G1 X15.856 Y43.077 Z-1.000 F300.000
G1 X18.333 Y45.554 Z-1.000 F300.000
G2 X18.302 Y47.221 Z-1.000 I137.344 J3.370 K0.000 F300.000
G1 X17.008 Y45.927 Z-1.000 F300.000
G3 X16.417 Y46.516 Z-1.000 I-0.597 J-0.008 K0.000 F300.000
G1 X15.906 Y46.521 Z-1.000 F300.000
G1 X18.275 Y48.890 Z-1.000 F300.000
G3 X18.253 Y49.808 Z-1.000 I-38.075 J-0.434 K0.000 F300.000
G1 X17.471 Y49.784 Z-1.000 F300.000
G1 X16.883 Y49.765 Z-1.000 F300.000
G2 X16.895 Y49.208 Z-1.000 I-52.441 J-1.410 K0.000 F300.000
G1 X17.471 Y49.784 Z-1.000 F300.000
G0 Z5.000
G0 Y49.784 Z5.000
G0 Y49.784 Z3.000
G1 X17.471 Y49.784 Z-1.000 F300.000
G1 X18.253 Y49.808 Z-1.000 F300.000
G3 X18.406 Y42.233 Z-1.000 I956.386 J15.540 K0.000 F300.000
G1 X17.050 Y42.201 Z-1.000 F300.000
G1 X17.050 Y42.477 Z-1.000 F300.000
G3 X16.450 Y43.077 Z-1.000 I-0.600 J-0.000 K0.000 F300.000
G3 X12.873 Y43.048 Z-1.000 I-0.853 J-115.131 K0.000 F300.000
G1 X12.852 Y44.295 Z-1.000 F300.000
G2 X16.393 Y44.406 Z-1.000 I4.270 J-79.520 K0.000 F300.000
G3 X17.010 Y45.006 Z-1.000 I0.017 J0.600 K0.000 F300.000
G1 X17.010 Y45.916 Z-1.000 F300.000
G3 X16.417 Y46.516 Z-1.000 I-0.600 J-0.000 K0.000 F300.000
G3 X12.105 Y46.505 Z-1.000 I-1.898 J-103.912 K0.000 F300.000
G1 X12.043 Y47.773 Z-1.000 F300.000
G1 X12.068 Y47.774 Z-1.000 F300.000
G3 X12.044 Y47.750 Z-1.000 I-0.012 J-0.012 K0.000 F300.000
G1 X12.068 Y47.774 Z-1.000 F300.000
G1 X12.677 Y47.805 Z-1.000 F300.000
G3 X13.246 Y48.441 Z-1.000 I-0.030 J0.599 K0.000 F300.000
G1 X13.199 Y49.214 Z-1.000 F300.000
G1 X14.568 Y49.246 Z-1.000 F300.000
G2 X14.596 Y48.424 Z-1.000 I-82.201 J-3.249 K0.000 F300.000
G3 X15.211 Y47.844 Z-1.000 I0.600 J0.021 K0.000 F300.000
G2 X16.315 Y47.865 Z-1.000 I1.282 J-39.769 K0.000 F300.000
G3 X16.882 Y48.288 Z-1.000 I-0.007 J0.600 K0.000 F300.000
G3 X16.883 Y49.765 Z-1.000 I-21.331 J0.759 K0.000 F300.000
G1 X17.471 Y49.784 Z-1.000 F300.000
G0 Z5.000
G0 X15.540 Y47.853 Z5.000
G0 X15.540 Y47.853 Z3.000
G1 X15.540 Y47.853 Z-1.000 F300.000
G1 X14.222 Y46.534 Z-1.000 F300.000
G3 X12.502 Y46.512 Z-1.000 I0.894 J-132.984 K0.000 F300.000
G1 X14.590 Y48.600 Z-1.000 F300.000
G3 X14.568 Y49.246 Z-1.000 I-64.620 J-1.910 K0.000 F300.000
G1 X13.515 Y49.221 Z-1.000 F300.000
G1 X13.217 Y48.924 Z-1.000 F300.000
G1 X13.199 Y49.214 Z-1.000 F300.000
G1 X13.515 Y49.221 Z-1.000 F300.000
G0 Z5.000
G0 X15.476 Y44.394 Z5.000
G0 X15.476 Y44.394 Z3.000
G1 X15.476 Y44.394 Z-1.000 F300.000
G1 X14.153 Y43.071 Z-1.000 F300.000
G3 X12.873 Y43.048 Z-1.000 I1.746 J-131.931 K0.000 F300.000
G1 X12.866 Y43.481 Z-1.000 F300.000
G1 X13.720 Y44.336 Z-1.000 F300.000
G3 X12.852 Y44.295 Z-1.000 I2.778 J-67.754 K0.000 F300.000
G1 X12.866 Y43.481 Z-1.000 F300.000
G1 X12.866 Y43.481 Z-2.000 F300.000
G1 X12.852 Y44.295 Z-2.000 F300.000
G2 X13.720 Y44.336 Z-2.000 I3.646 J-67.712 K0.000 F300.000
G1 X12.866 Y43.481 Z-2.000 F300.000
G1 X12.873 Y43.048 Z-2.000 F300.000
G2 X14.153 Y43.071 Z-2.000 I3.026 J-131.908 K0.000 F300.000
G1 X15.476 Y44.394 Z-2.000 F300.000
G0 Z5.000
G0 X15.476 Y44.392 Z5.000
G0 X15.476 Y44.392 Z3.000
G1 X15.476 Y44.392 Z-2.000 F300.000
G2 X16.393 Y44.406 Z-2.000 I1.646 J-79.618 K0.000 F300.000
G3 X17.010 Y45.006 Z-2.000 I0.017 J0.600 K0.000 F300.000
G1 X17.010 Y45.916 Z-2.000 F300.000
G3 X16.417 Y46.516 Z-2.000 I-0.600 J-0.000 K0.000 F300.000
G3 X12.105 Y46.505 Z-2.000 I-1.898 J-103.912 K0.000 F300.000
G1 X12.043 Y47.773 Z-2.000 F300.000
G1 X12.068 Y47.774 Z-2.000 F300.000
G3 X12.044 Y47.750 Z-2.000 I-0.012 J-0.012 K0.000 F300.000
G1 X12.068 Y47.774 Z-2.000 F300.000
G1 X12.677 Y47.805 Z-2.000 F300.000
G3 X13.246 Y48.441 Z-2.000 I-0.030 J0.599 K0.000 F300.000
G1 X13.199 Y49.214 Z-2.000 F300.000
G1 X14.568 Y49.246 Z-2.000 F300.000
G2 X14.596 Y48.424 Z-2.000 I-82.201 J-3.249 K0.000 F300.000
G3 X15.211 Y47.844 Z-2.000 I0.600 J0.021 K0.000 F300.000
G2 X16.315 Y47.865 Z-2.000 I1.282 J-39.769 K0.000 F300.000
G3 X16.882 Y48.288 Z-2.000 I-0.007 J0.600 K0.000 F300.000
G3 X16.883 Y49.765 Z-2.000 I-21.331 J0.759 K0.000 F300.000
G1 X18.253 Y49.808 Z-2.000 F300.000
G3 X18.406 Y42.233 Z-2.000 I956.386 J15.540 K0.000 F300.000
G1 X17.050 Y42.201 Z-2.000 F300.000
G1 X17.050 Y42.477 Z-2.000 F300.000
G3 X16.450 Y43.077 Z-2.000 I-0.600 J-0.000 K0.000 F300.000
G3 X12.873 Y43.048 Z-2.000 I-0.853 J-115.131 K0.000 F300.000
G1 X12.852 Y44.295 Z-2.000 F300.000
G2 X15.476 Y44.392 Z-2.000 I4.270 J-79.520 K0.000 F300.000
G0 Z5.000
G0 X15.540 Y47.853 Z5.000
G0 X15.540 Y47.853 Z3.000
G1 X15.540 Y47.853 Z-2.000 F300.000
G1 X14.222 Y46.534 Z-2.000 F300.000
G3 X12.502 Y46.512 Z-2.000 I0.894 J-132.984 K0.000 F300.000
G1 X14.590 Y48.600 Z-2.000 F300.000
G3 X14.568 Y49.246 Z-2.000 I-64.620 J-1.910 K0.000 F300.000
G1 X13.515 Y49.221 Z-2.000 F300.000
G1 X13.217 Y48.924 Z-2.000 F300.000
G1 X13.199 Y49.214 Z-2.000 F300.000
G1 X13.515 Y49.221 Z-2.000 F300.000
G0 Z5.000
G0 X17.471 Y49.784 Z5.000
G0 X17.471 Y49.784 Z3.000
G1 X17.471 Y49.784 Z-2.000 F300.000
G1 X16.895 Y49.208 Z-2.000 F300.000
G3 X16.883 Y49.765 Z-2.000 I-52.453 J-0.853 K0.000 F300.000
G1 X17.471 Y49.784 Z-2.000 F300.000
G1 X18.253 Y49.808 Z-2.000 F300.000
G2 X18.275 Y48.890 Z-2.000 I-38.053 J-1.352 K0.000 F300.000
G1 X15.906 Y46.521 Z-2.000 F300.000
G1 X16.417 Y46.516 Z-2.000 F300.000
G2 X17.008 Y45.927 Z-2.000 I-0.006 J-0.597 K0.000 F300.000
G1 X18.302 Y47.221 Z-2.000 F300.000
G3 X18.333 Y45.554 Z-2.000 I137.375 J1.703 K0.000 F300.000
G1 X15.856 Y43.077 Z-2.000 F300.000
G1 X16.450 Y43.077 Z-2.000 F300.000
G2 X17.037 Y42.561 Z-2.000 I0.004 J-0.587 K0.000 F300.000
G1 X18.370 Y43.894 Z-2.000 F300.000
G1 X18.406 Y42.233 Z-2.000 F300.000
G0 Z5.000
G0 Z5.000
G0 X18.406 Y42.233
G0 X20.114 Y45.888
G0 X20.114 Y45.888 Z3.000
G1 X20.114 Y45.888 Z-1.000 F300.000
G1 X20.059 Y45.886 Z-1.000 F300.000
G1 X20.008 Y47.139 Z-1.000 F300.000
G1 X21.418 Y47.192 Z-1.000 F300.000
G1 X20.114 Y45.888 Z-1.000 F300.000
G2 X21.850 Y45.927 Z-1.000 I3.027 J-95.302 K0.000 F300.000
G1 X24.372 Y48.449 Z-1.000 F300.000
G2 X25.280 Y47.660 Z-1.000 I-4.846 J-6.501 K0.000 F300.000
G1 X23.527 Y45.907 Z-1.000 F300.000
G1 X24.692 Y45.889 Z-1.000 F300.000
G2 X25.066 Y45.749 Z-1.000 I-0.007 J-0.588 K0.000 F300.000
G1 X26.112 Y46.795 Z-1.000 F300.000
G2 X26.867 Y45.853 Z-1.000 I-5.874 J-5.477 K0.000 F300.000
G1 X25.807 Y44.793 Z-1.000 F300.000
G2 X26.459 Y43.748 Z-1.000 I-9.228 J-6.494 K0.000 F300.000
G1 X27.544 Y44.833 Z-1.000 F300.000
G2 X28.019 Y43.977 Z-1.000 I-5.602 J-3.667 K0.000 F300.000
G1 X27.053 Y42.645 Z-1.000 F300.000
G0 Z5.000
G0 X22.478 Y48.252 Z5.000
G0 X22.478 Y48.252 Z3.000
G1 X22.478 Y48.252 Z-1.000 F300.000
G1 X23.377 Y49.151 Z-1.000 F300.000
G3 X22.298 Y49.769 Z-1.000 I-4.678 J-6.908 K0.000 F300.000
G3 X21.802 Y50.005 Z-1.000 I-1.844 J-3.245 K0.000 F300.000
G1 X21.365 Y48.858 Z-1.000 F300.000
G1 X21.380 Y48.851 Z-1.000 F300.000
G1 X22.298 Y49.769 Z-1.000 F300.000
G3 X21.802 Y50.005 Z-1.000 I-1.844 J-3.245 K0.000 F300.000
G1 X21.365 Y48.858 Z-1.000 F300.000
G2 X22.513 Y48.225 Z-1.000 I-1.875 J-4.760 K0.000 F300.000
G2 X22.096 Y47.218 Z-1.000 I-0.440 J-0.408 K0.000 F300.000
G1 X20.008 Y47.139 Z-1.000 F300.000
G1 X20.059 Y45.886 Z-1.000 F300.000
G2 X24.823 Y45.872 Z-1.000 I2.204 J-60.249 K0.000 F300.000
G2 X25.153 Y45.662 Z-1.000 I-0.141 J-0.583 K0.000 F300.000
G2 X27.053 Y42.645 Z-1.000 I-12.268 J-9.833 K0.000 F300.000
G1 X28.019 Y43.977 Z-1.000 F300.000
G3 X22.298 Y49.769 Z-1.000 I-11.640 J-5.775 K0.000 F300.000
G1 X22.298 Y49.769 Z-2.000 F300.000
G2 X28.019 Y43.977 Z-2.000 I-5.919 J-11.567 K0.000 F300.000
G1 X27.053 Y42.645 Z-2.000 F300.000
G3 X25.153 Y45.662 Z-2.000 I-14.168 J-6.816 K0.000 F300.000
G3 X24.823 Y45.872 Z-2.000 I-0.470 J-0.373 K0.000 F300.000
G3 X20.059 Y45.886 Z-2.000 I-2.560 J-60.234 K0.000 F300.000
G1 X20.008 Y47.139 Z-2.000 F300.000
G1 X22.096 Y47.218 Z-2.000 F300.000
G3 X22.513 Y48.225 Z-2.000 I-0.023 J0.600 K0.000 F300.000
G3 X21.365 Y48.858 Z-2.000 I-3.022 J-4.127 K0.000 F300.000
G1 X21.802 Y50.005 Z-2.000 F300.000
G2 X22.298 Y49.769 Z-2.000 I-1.348 J-3.481 K0.000 F300.000
G1 X21.380 Y48.851 Z-2.000 F300.000
G1 X21.365 Y48.858 Z-2.000 F300.000
G1 X21.802 Y50.005 Z-2.000 F300.000
G2 X22.298 Y49.769 Z-2.000 I-1.348 J-3.481 K0.000 F300.000
G2 X23.377 Y49.151 Z-2.000 I-3.599 J-7.526 K0.000 F300.000
G1 X22.478 Y48.252 Z-2.000 F300.000
G0 Z5.000
G0 X20.114 Y45.888 Z5.000
G0 X20.114 Y45.888 Z3.000
G1 X20.114 Y45.888 Z-2.000 F300.000
G1 X20.059 Y45.886 Z-2.000 F300.000
G1 X20.008 Y47.139 Z-2.000 F300.000
G1 X21.418 Y47.192 Z-2.000 F300.000
G1 X20.114 Y45.888 Z-2.000 F300.000
G2 X21.850 Y45.927 Z-2.000 I3.027 J-95.302 K0.000 F300.000
G1 X24.372 Y48.449 Z-2.000 F300.000
G2 X25.280 Y47.660 Z-2.000 I-4.846 J-6.501 K0.000 F300.000
G1 X23.527 Y45.907 Z-2.000 F300.000
G1 X24.692 Y45.889 Z-2.000 F300.000
G2 X25.066 Y45.749 Z-2.000 I-0.007 J-0.588 K0.000 F300.000
G1 X26.112 Y46.795 Z-2.000 F300.000
G2 X26.867 Y45.853 Z-2.000 I-5.874 J-5.477 K0.000 F300.000
G1 X25.807 Y44.793 Z-2.000 F300.000
G2 X26.459 Y43.748 Z-2.000 I-9.228 J-6.494 K0.000 F300.000
G1 X27.544 Y44.833 Z-2.000 F300.000
G2 X28.019 Y43.977 Z-2.000 I-5.602 J-3.667 K0.000 F300.000
G1 X27.053 Y42.645 Z-2.000 F300.000
G0 Z5.000
G0 Z5.000
G0 X27.053 Y42.645
G0 X27.091 Y51.649
G0 X27.091 Y51.649 Z3.000
G1 X27.091 Y51.649 Z-1.000 F300.000
G3 X24.317 Y53.926 Z-1.000 I-8.519 J-7.549 K0.000 F300.000
G3 X24.006 Y54.010 Z-1.000 I-0.268 J-0.372 K0.000 F300.000
G1 X23.994 Y54.027 Z-1.000 F300.000
G3 X22.437 Y54.583 Z-1.000 I-2.113 J-3.465 K0.000 F300.000
G3 X19.990 Y54.887 Z-1.000 I-3.307 J-16.617 K0.000 F300.000
G3 X19.627 Y54.886 Z-1.000 I-0.180 J-2.222 K0.000 F300.000
G1 X19.674 Y55.935 Z-1.000 F300.000
G2 X23.855 Y55.506 Z-1.000 I0.701 J-13.788 K0.000 F300.000
G3 X24.514 Y55.789 Z-1.000 I0.140 J0.583 K0.000 F300.000
G2 X26.606 Y58.965 Z-1.000 I19.614 J-10.642 K0.000 F300.000
G1 X27.715 Y57.912 Z-1.000 F300.000
G3 X25.608 Y55.471 Z-1.000 I17.937 J-17.615 K0.000 F300.000
G3 X25.757 Y54.592 Z-1.000 I0.470 J-0.372 K0.000 F300.000
G2 X27.898 Y52.892 Z-1.000 I-5.249 J-8.811 K0.000 F300.000
G1 X27.091 Y51.649 Z-1.000 F300.000
G1 X27.091 Y51.649 Z-1.000 F300.000
G1 X27.898 Y52.892 Z-1.000 F300.000
G3 X27.246 Y53.501 Z-1.000 I-7.519 J-7.405 K0.000 F300.000
G1 X26.243 Y52.498 Z-1.000 F300.000
G3 X25.318 Y53.269 Z-1.000 I-5.097 J-5.170 K0.000 F300.000
G1 X26.298 Y54.249 Z-1.000 F300.000
G2 X25.608 Y54.726 Z-1.000 I1.065 J2.277 K0.000 F300.000
G2 X25.484 Y55.133 Z-1.000 I0.308 J0.316 K0.000 F300.000
G1 X24.289 Y53.938 Z-1.000 F300.000
G3 X24.006 Y54.010 Z-1.000 I-0.238 J-0.340 K0.000 F300.000
G3 X23.082 Y54.428 Z-1.000 I-1.455 J-1.985 K0.000 F300.000
G1 X24.180 Y55.526 Z-1.000 F300.000
G2 X23.855 Y55.506 Z-1.000 I-0.191 J0.480 K0.000 F300.000
G3 X22.711 Y55.754 Z-1.000 I-2.807 J-10.220 K0.000 F300.000
G1 X21.668 Y54.711 Z-1.000 F300.000
G3 X20.132 Y54.872 Z-1.000 I-2.286 J-14.392 K0.000 F300.000
G1 X21.184 Y55.924 Z-1.000 F300.000
G3 X19.674 Y55.935 Z-1.000 I-0.833 J-10.929 K0.000 F300.000
G1 X19.627 Y54.886 Z-1.000 F300.000
G2 X20.132 Y54.872 Z-1.000 I0.184 J-2.422 K0.000 F300.000
G0 Z5.000
G0 X19.621 Y51.739 Z5.000
G0 X19.621 Y51.739 Z3.000
G1 X19.621 Y51.739 Z-1.000 F300.000
G1 X23.425 Y51.718 Z-1.000 F300.000
G1 X23.402 Y53.001 Z-1.000 F300.000
G1 X17.931 Y52.961 Z-1.000 F300.000
G2 X17.327 Y53.547 Z-1.000 I-0.004 J0.600 K0.000 F300.000
G2 X17.287 Y56.622 Z-1.000 I32.889 J1.963 K0.000 F300.000
G2 X18.458 Y57.680 Z-1.000 I1.307 J-0.269 K0.000 F300.000
G2 X21.320 Y57.822 Z-1.000 I2.106 J-13.555 K0.000 F300.000
G2 X23.337 Y57.745 Z-1.000 I-7.612 J-223.840 K0.000 F300.000
G1 X23.432 Y59.046 Z-1.000 F300.000
G3 X18.736 Y59.041 Z-1.000 I-2.218 J-122.065 K0.000 F300.000
G3 X17.107 Y58.826 Z-1.000 I0.216 J-7.894 K0.000 F300.000
G3 X16.162 Y58.142 Z-1.000 I0.162 J-1.220 K0.000 F300.000
G3 X16.076 Y57.604 Z-1.000 I1.889 J-0.577 K0.000 F300.000
G1 X16.076 Y57.604 Z-1.000 F300.000
G1 X17.353 Y58.881 Z-1.000 F300.000
G3 X16.282 Y58.349 Z-1.000 I0.139 J-1.623 K0.000 F300.000
G3 X16.053 Y57.358 Z-1.000 I1.604 J-0.893 K0.000 F300.000
G1 X16.018 Y56.233 Z-1.000 F300.000
G2 X15.364 Y55.654 Z-1.000 I-0.600 J0.019 K0.000 F300.000
G1 X14.029 Y55.775 Z-1.000 F300.000
G2 X13.484 Y56.369 Z-1.000 I0.054 J0.598 K0.000 F300.000
G1 X13.467 Y59.052 Z-1.000 F300.000
G1 X12.086 Y59.008 Z-1.000 F300.000
G2 X12.183 Y51.845 Z-1.000 I-157.418 J-5.709 K0.000 F300.000
G1 X13.535 Y51.866 Z-1.000 F300.000
G1 X13.504 Y53.835 Z-1.000 F300.000
G2 X14.169 Y54.441 Z-1.000 I0.600 J0.009 K0.000 F300.000
G2 X15.762 Y54.192 Z-1.000 I-0.687 J-9.621 K0.000 F300.000
G2 X16.078 Y53.708 Z-1.000 I-0.282 J-0.529 K0.000 F300.000
G2 X16.221 Y51.766 Z-1.000 I-245.933 J-19.076 K0.000 F300.000
G3 X19.621 Y51.739 Z-1.000 I7.375 J720.441 K0.000 F300.000
G0 Z5.000
G0 X22.077 Y51.725 Z5.000
G0 X22.077 Y51.725 Z3.000
G1 X22.077 Y51.725 Z-1.000 F300.000
G1 X23.425 Y51.718 Z-1.000 F300.000
G1 X23.402 Y53.001 Z-1.000 F300.000
G1 X23.352 Y53.001 Z-1.000 F300.000
G1 X22.077 Y51.725 Z-1.000 F300.000
G1 X20.389 Y51.735 Z-1.000 F300.000
G1 X21.643 Y52.988 Z-1.000 F300.000
G1 X19.933 Y52.976 Z-1.000 F300.000
G1 X18.703 Y51.746 Z-1.000 F300.000
G2 X17.019 Y51.758 Z-1.000 I2.758 J479.592 K0.000 F300.000
G1 X18.224 Y52.964 Z-1.000 F300.000
G2 X17.581 Y53.071 Z-1.000 I-0.196 J0.802 K0.000 F300.000
G2 X17.322 Y53.759 Z-1.000 I0.433 J0.556 K0.000 F300.000
G1 X16.161 Y52.598 Z-1.000 F300.000
G1 X16.078 Y53.708 Z-1.000 F300.000
G3 X15.927 Y54.060 Z-1.000 I-0.582 J-0.041 K0.000 F300.000
G1 X17.282 Y55.416 Z-1.000 F300.000
G2 X17.321 Y56.745 Z-1.000 I5.378 J0.507 K0.000 F300.000
G2 X18.458 Y57.680 Z-1.000 I1.274 J-0.391 K0.000 F300.000
G2 X19.694 Y57.828 Z-1.000 I1.402 J-6.513 K0.000 F300.000
G1 X20.935 Y59.069 Z-1.000 F300.000
G3 X19.223 Y59.054 Z-1.000 I-0.578 J-31.879 K0.000 F300.000
G1 X14.567 Y54.398 Z-1.000 F300.000
G3 X13.967 Y54.429 Z-1.000 I-0.390 J-1.739 K0.000 F300.000
G3 X13.504 Y53.835 Z-1.000 I0.137 J-0.584 K0.000 F300.000
G1 X13.512 Y53.343 Z-1.000 F300.000
G1 X12.185 Y52.016 Z-1.000 F300.000
G3 X12.190 Y53.718 Z-1.000 I-45.570 J0.991 K0.000 F300.000
G1 X14.229 Y55.757 Z-1.000 F300.000
G2 X13.484 Y56.369 Z-1.000 I-0.101 J0.637 K0.000 F300.000
G1 X13.482 Y56.707 Z-1.000 F300.000
G1 X12.161 Y55.386 Z-1.000 F300.000
G2 X12.125 Y57.047 Z-1.000 I180.339 J4.731 K0.000 F300.000
G1 X13.471 Y58.393 Z-1.000 F300.000
G1 X13.467 Y59.052 Z-1.000 F300.000
G1 X12.399 Y59.018 Z-1.000 F300.000
G1 X12.092 Y58.711 Z-1.000 F300.000
G1 X12.086 Y59.008 Z-1.000 F300.000
G1 X12.399 Y59.018 Z-1.000 F300.000
G0 Z5.000
G0 X13.512 Y53.343 Z5.000
G0 X13.512 Y53.343 Z3.000
G1 X13.512 Y53.343 Z-1.000 F300.000
G1 X13.535 Y51.866 Z-1.000 F300.000
G1 X12.183 Y51.845 Z-1.000 F300.000
G1 X12.185 Y52.016 Z-1.000 F300.000
G1 X13.512 Y53.343 Z-1.000 F300.000
G0 Z5.000
G0 X20.935 Y59.069 Z5.000
G0 X20.935 Y59.069 Z3.000
G1 X20.935 Y59.069 Z-1.000 F300.000
G1 X19.694 Y57.828 Z-1.000 F300.000
G2 X21.383 Y57.820 Z-1.000 I0.756 J-19.933 K0.000 F300.000
G1 X22.621 Y59.058 Z-1.000 F300.000
G2 X23.432 Y59.046 Z-1.000 I-0.629 J-71.389 K0.000 F300.000
G1 X23.363 Y58.103 Z-1.000 F300.000
