(Exported by FreeCAD)
(Post Processor: script_module)
(Output Time:2026-07-03 19:21:12.187104)
(Begin preamble)
G17 G90
G21
(Begin operation: Fixture)
(Path: Fixture)
G54
(Finish operation: Fixture)
(Begin operation: 12001)
(Path: 12001)
(12001)
(Begin toolchange)
( M6 T4 )
M3 S10000
(Finish operation: 12001)
(Begin operation: Pocket_Shape)
(Path: Pocket_Shape)
(Pocket_Shape)
G0 Z5.000
G0 X43.674 Y4.581
G0 Z3.000
G1 X43.674 Y4.581 Z-1.000 F300.000
G1 X43.428 Y5.570 Z-1.000 F300.000
G2 X46.926 Y7.834 Z-1.000 I14.520 J-18.611 K0.000 F300.000
G1 X43.674 Y4.581 Z-1.000 F300.000
G1 X43.906 Y3.646 Z-1.000 F300.000
G2 X45.252 Y4.538 Z-1.000 I10.200 J-13.936 K0.000 F300.000
G1 X45.387 Y4.597 Z-1.000 F300.000
G1 X48.167 Y7.377 Z-1.000 F300.000
G1 X48.433 Y5.975 Z-1.000 F300.000
G3 X47.887 Y5.766 Z-1.000 I1.760 J-5.424 K0.000 F300.000
G3 X47.525 Y5.038 Z-1.000 I0.231 J-0.569 K0.000 F300.000
G1 X46.247 Y3.760 Z-1.000 F300.000
G2 X46.498 Y2.314 Z-1.000 I-17.477 J-3.784 K0.000 F300.000
G1 X47.711 Y3.527 Z-1.000 F300.000
G1 X47.897 Y2.016 Z-1.000 F300.000
G1 X46.681 Y0.800 Z-1.000 F300.000
G2 X46.808 Y-0.770 Z-1.000 I-23.912 J-2.738 K0.000 F300.000
G1 X48.066 Y0.488 Z-1.000 F300.000
G2 X48.208 Y-1.067 Z-1.000 I-38.236 J-4.285 K0.000 F300.000
G1 X46.908 Y-2.368 Z-1.000 F300.000
G2 X46.988 Y-3.984 Z-1.000 I-49.695 J-3.294 K0.000 F300.000
G1 X48.341 Y-2.632 Z-1.000 F300.000
G2 X48.434 Y-4.235 Z-1.000 I-29.085 J-2.499 K0.000 F300.000
G1 X45.248 Y-7.422 Z-1.000 F300.000
G3 X46.319 Y-8.047 Z-1.000 I2.736 J3.454 K0.000 F300.000
G1 X48.499 Y-5.867 Z-1.000 F300.000
G2 X48.371 Y-7.417 Z-1.000 I-7.046 J-0.197 K0.000 F300.000
G2 X48.113 Y-7.950 Z-1.000 I-1.017 J0.162 K0.000 F300.000
G0 Z5.000
G0 X45.677 Y-5.295 Z5.000
G0 X45.677 Y-5.295 Z3.000
G1 X45.677 Y-5.295 Z-1.000 F300.000
G1 X44.302 Y-6.670 Z-1.000 F300.000
G2 X43.424 Y-5.852 Z-1.000 I6.262 J7.606 K0.000 F300.000
G1 X44.646 Y-4.629 Z-1.000 F300.000
G2 X43.790 Y-3.788 Z-1.000 I3.389 J4.306 K0.000 F300.000
G1 X42.656 Y-4.922 Z-1.000 F300.000
G2 X42.062 Y-4.120 Z-1.000 I9.857 J7.927 K0.000 F300.000
G1 X42.222 Y-3.659 Z-1.000 F300.000
G1 X43.016 Y-2.865 Z-1.000 F300.000
G3 X42.648 Y-2.431 Z-1.000 I-93.015 J-78.374 K0.000 F300.000
G1 X42.062 Y-4.120 Z-1.000 F300.000
G3 X43.708 Y-6.139 Z-1.000 I10.645 J6.997 K0.000 F300.000
G3 X46.253 Y-8.024 Z-1.000 I7.265 J7.147 K0.000 F300.000
G3 X47.899 Y-8.101 Z-1.000 I0.913 J1.913 K0.000 F300.000
G3 X48.371 Y-7.417 Z-1.000 I-0.401 J0.782 K0.000 F300.000
G3 X48.440 Y-4.346 Z-1.000 I-12.494 J1.816 K0.000 F300.000
G3 X47.513 Y5.135 Z-1.000 I-110.102 J-5.973 K0.000 F300.000
G2 X47.887 Y5.766 Z-1.000 I0.596 J0.073 K0.000 F300.000
G2 X48.433 Y5.975 Z-1.000 I2.305 J-5.216 K0.000 F300.000
G1 X47.983 Y8.347 Z-1.000 F300.000
G3 X43.428 Y5.570 Z-1.000 I9.094 J-20.039 K0.000 F300.000
G1 X43.906 Y3.646 Z-1.000 F300.000
G2 X45.430 Y4.616 Z-1.000 I8.095 J-11.034 K0.000 F300.000
G2 X46.169 Y4.152 Z-1.000 I0.150 J-0.581 K0.000 F300.000
G2 X46.899 Y-2.222 Z-1.000 I-39.612 J-7.767 K0.000 F300.000
G2 X46.977 Y-4.482 Z-1.000 I-18.241 J-1.759 K0.000 F300.000
G2 X45.379 Y-5.161 Z-1.000 I-1.013 J0.166 K0.000 F300.000
G2 X43.334 Y-3.243 Z-1.000 I4.031 J6.348 K0.000 F300.000
G3 X42.648 Y-2.431 Z-1.000 I-106.456 J-89.129 K0.000 F300.000
G1 X42.222 Y-3.659 Z-1.000 F300.000
G1 X42.222 Y-3.659 Z-2.000 F300.000
G1 X42.648 Y-2.431 Z-2.000 F300.000
G2 X43.334 Y-3.243 Z-2.000 I-105.771 J-89.941 K0.000 F300.000
G3 X45.379 Y-5.161 Z-2.000 I6.076 J4.430 K0.000 F300.000
G3 X46.977 Y-4.482 Z-2.000 I0.584 J0.845 K0.000 F300.000
G3 X46.899 Y-2.222 Z-2.000 I-18.319 J0.501 K0.000 F300.000
G3 X46.169 Y4.152 Z-2.000 I-40.342 J-1.393 K0.000 F300.000
G3 X45.430 Y4.616 Z-2.000 I-0.588 J-0.117 K0.000 F300.000
G3 X43.906 Y3.646 Z-2.000 I6.571 J-12.004 K0.000 F300.000
G1 X43.428 Y5.570 Z-2.000 F300.000
G2 X47.983 Y8.347 Z-2.000 I13.649 J-17.263 K0.000 F300.000
G1 X48.433 Y5.975 Z-2.000 F300.000
G3 X47.887 Y5.766 Z-2.000 I1.760 J-5.424 K0.000 F300.000
G3 X47.513 Y5.135 Z-2.000 I0.221 J-0.558 K0.000 F300.000
G2 X48.440 Y-4.346 Z-2.000 I-109.176 J-15.455 K0.000 F300.000
G2 X48.371 Y-7.417 Z-2.000 I-12.563 J-1.255 K0.000 F300.000
G2 X47.899 Y-8.101 Z-2.000 I-0.874 J0.098 K0.000 F300.000
G2 X46.253 Y-8.024 Z-2.000 I-0.732 J1.989 K0.000 F300.000
G2 X43.708 Y-6.139 Z-2.000 I4.719 J9.033 K0.000 F300.000
G2 X42.062 Y-4.120 Z-2.000 I8.999 J9.016 K0.000 F300.000
G1 X42.648 Y-2.431 Z-2.000 F300.000
G2 X43.016 Y-2.865 Z-2.000 I-92.648 J-78.809 K0.000 F300.000
G1 X42.222 Y-3.659 Z-2.000 F300.000
G1 X42.062 Y-4.120 Z-2.000 F300.000
G3 X42.656 Y-4.922 Z-2.000 I10.451 J7.125 K0.000 F300.000
G1 X43.790 Y-3.788 Z-2.000 F300.000
G3 X44.646 Y-4.629 Z-2.000 I4.245 J3.465 K0.000 F300.000
G1 X43.424 Y-5.852 Z-2.000 F300.000
G3 X44.302 Y-6.670 Z-2.000 I7.140 J6.787 K0.000 F300.000
G1 X45.677 Y-5.295 Z-2.000 F300.000
G0 Z5.000
G0 X48.113 Y-7.950 Z5.000
G0 X48.113 Y-7.950 Z3.000
G1 X48.113 Y-7.950 Z-2.000 F300.000
G3 X48.371 Y-7.417 Z-2.000 I-0.759 J0.696 K0.000 F300.000
G3 X48.499 Y-5.867 Z-2.000 I-6.918 J1.352 K0.000 F300.000
G1 X46.319 Y-8.047 Z-2.000 F300.000
G2 X45.248 Y-7.422 Z-2.000 I1.664 J4.080 K0.000 F300.000
G1 X48.434 Y-4.235 Z-2.000 F300.000
G3 X48.341 Y-2.632 Z-2.000 I-29.178 J-0.895 K0.000 F300.000
G1 X46.988 Y-3.984 Z-2.000 F300.000
G3 X46.908 Y-2.368 Z-2.000 I-49.776 J-1.677 K0.000 F300.000
G1 X48.208 Y-1.067 Z-2.000 F300.000
G3 X48.066 Y0.488 Z-2.000 I-38.379 J-2.730 K0.000 F300.000
G1 X46.808 Y-0.770 Z-2.000 F300.000
G3 X46.681 Y0.800 Z-2.000 I-24.040 J-1.169 K0.000 F300.000
G1 X47.897 Y2.016 Z-2.000 F300.000
G1 X47.711 Y3.527 Z-2.000 F300.000
G1 X46.498 Y2.314 Z-2.000 F300.000
G3 X46.247 Y3.760 Z-2.000 I-17.728 J-2.338 K0.000 F300.000
G1 X47.525 Y5.038 Z-2.000 F300.000
G2 X47.887 Y5.766 Z-2.000 I0.593 J0.159 K0.000 F300.000
G2 X48.433 Y5.975 Z-2.000 I2.305 J-5.216 K0.000 F300.000
G1 X48.167 Y7.377 Z-2.000 F300.000
G1 X45.387 Y4.597 Z-2.000 F300.000
G1 X45.252 Y4.538 Z-2.000 F300.000
G3 X43.906 Y3.646 Z-2.000 I8.854 J-14.828 K0.000 F300.000
G1 X43.674 Y4.581 Z-2.000 F300.000
G1 X46.926 Y7.834 Z-2.000 F300.000
G3 X43.428 Y5.570 Z-2.000 I11.022 J-20.874 K0.000 F300.000
G1 X43.674 Y4.581 Z-2.000 F300.000
G0 Z5.000
G0 Z5.000
G0 X43.674 Y4.581
G0 X51.149 Y2.242
G0 X51.149 Y2.242 Z3.000
G1 X51.149 Y2.242 Z-1.000 F300.000
G2 X51.136 Y5.170 Z-1.000 I64.752 J1.760 K0.000 F300.000
G2 X51.763 Y6.593 Z-1.000 I1.773 J0.068 K0.000 F300.000
G2 X53.034 Y7.013 Z-1.000 I1.308 J-1.829 K0.000 F300.000
G2 X57.852 Y6.773 Z-1.000 I0.805 J-32.355 K0.000 F300.000
G2 X58.001 Y-6.179 Z-1.000 I-1141.189 J-19.608 K0.000 F300.000
G3 X51.118 Y-6.416 Z-1.000 I-1.343 J-61.106 K0.000 F300.000
G1 X50.860 Y-4.407 Z-1.000 F300.000
G1 X50.860 Y-4.407 Z-1.000 F300.000
G3 X51.378 Y-3.783 Z-1.000 I-0.083 J0.595 K0.000 F300.000
G2 X51.149 Y2.242 Z-1.000 I116.679 J7.441 K0.000 F300.000
G1 X52.402 Y3.495 Z-1.000 F300.000
G3 X52.391 Y1.786 Z-1.000 I14.016 J-0.952 K0.000 F300.000
G1 X51.179 Y0.575 Z-1.000 F300.000
G3 X51.245 Y-1.056 Z-1.000 I52.116 J1.291 K0.000 F300.000
G1 X52.450 Y0.149 Z-1.000 F300.000
G3 X52.529 Y-1.469 Z-1.000 I88.659 J3.551 K0.000 F300.000
G1 X51.324 Y-2.674 Z-1.000 F300.000
G1 X51.378 Y-3.783 Z-1.000 F300.000
G2 X50.860 Y-4.407 Z-1.000 I-0.600 J-0.029 K0.000 F300.000
G1 X50.909 Y-4.786 Z-1.000 F300.000
G1 X52.622 Y-3.073 Z-1.000 F300.000
G1 X52.668 Y-3.829 Z-1.000 F300.000
G3 X53.047 Y-4.345 Z-1.000 I0.580 J0.029 K0.000 F300.000
G1 X51.102 Y-6.290 Z-1.000 F300.000
G1 X51.118 Y-6.416 Z-1.000 F300.000
G2 X52.798 Y-6.291 Z-1.000 I2.755 J-25.708 K0.000 F300.000
G1 X54.723 Y-4.367 Z-1.000 F300.000
G0 Z5.000
G0 X54.723 Y-4.365 Z5.000
G0 X54.723 Y-4.365 Z3.000
G1 X54.723 Y-4.365 Z-1.000 F300.000
G2 X55.940 Y-4.352 Z-1.000 I2.441 J-166.981 K0.000 F300.000
G3 X56.537 Y-3.751 Z-1.000 I-0.003 J0.600 K0.000 F300.000
G3 X56.354 Y4.347 Z-1.000 I-123.561 J1.258 K0.000 F300.000
G3 X55.732 Y4.948 Z-1.000 I-0.696 J-0.097 K0.000 F300.000
G3 X53.830 Y5.020 Z-1.000 I-1.275 J-8.543 K0.000 F300.000
G3 X52.793 Y4.636 Z-1.000 I-0.057 J-1.439 K0.000 F300.000
G3 X52.390 Y3.295 Z-1.000 I1.412 J-1.156 K0.000 F300.000
G3 X52.668 Y-3.829 Z-1.000 I89.937 J-0.056 K0.000 F300.000
G3 X53.278 Y-4.393 Z-1.000 I0.599 J0.037 K0.000 F300.000
G2 X54.723 Y-4.365 Z-1.000 I3.886 J-166.953 K0.000 F300.000
G0 Z5.000
G0 X58.001 Y-6.179 Z5.000
G0 X58.001 Y-6.179 Z3.000
G1 X58.001 Y-6.179 Z-1.000 F300.000
G1 X57.987 Y-4.497 Z-1.000 F300.000
G1 X56.309 Y-6.175 Z-1.000 F300.000
G1 X54.584 Y-6.202 Z-1.000 F300.000
G1 X57.972 Y-2.814 Z-1.000 F300.000
G1 X57.958 Y-1.132 Z-1.000 F300.000
G1 X56.534 Y-2.555 Z-1.000 F300.000
G1 X56.530 Y-0.862 Z-1.000 F300.000
G1 X57.942 Y0.549 Z-1.000 F300.000
G1 X57.918 Y2.222 Z-1.000 F300.000
G1 X56.496 Y0.801 Z-1.000 F300.000
G3 X56.444 Y2.446 Z-1.000 I-49.841 J-0.766 K0.000 F300.000
G1 X57.894 Y3.895 Z-1.000 F300.000
G1 X57.870 Y5.569 Z-1.000 F300.000
G1 X56.367 Y4.066 Z-1.000 F300.000
G3 X56.148 Y4.771 Z-1.000 I-0.771 J0.147 K0.000 F300.000
G3 X55.576 Y4.972 Z-1.000 I-0.641 J-0.911 K0.000 F300.000
G1 X57.423 Y6.819 Z-1.000 F300.000
G3 X55.860 Y6.953 Z-1.000 I-2.976 J-25.584 K0.000 F300.000
G1 X53.927 Y5.020 Z-1.000 F300.000
G3 X52.566 Y4.309 Z-1.000 I-0.157 J-1.359 K0.000 F300.000
G3 X52.402 Y3.495 Z-1.000 I1.714 J-0.768 K0.000 F300.000
G1 X51.149 Y2.242 Z-1.000 F300.000
G2 X51.128 Y3.918 Z-1.000 I37.054 J1.309 K0.000 F300.000
G1 X54.229 Y7.019 Z-1.000 F300.000
G3 X52.409 Y6.896 Z-1.000 I-0.568 J-5.117 K0.000 F300.000
G3 X51.209 Y5.696 Z-1.000 I0.319 J-1.519 K0.000 F300.000
G1 X52.409 Y6.896 Z-1.000 F300.000
G1 X52.409 Y6.896 Z-2.000 F300.000
G1 X51.209 Y5.696 Z-2.000 F300.000
G2 X52.409 Y6.896 Z-2.000 I1.519 J-0.319 K0.000 F300.000
G2 X54.229 Y7.019 Z-2.000 I1.252 J-4.994 K0.000 F300.000
G1 X51.128 Y3.918 Z-2.000 F300.000
G3 X51.149 Y2.242 Z-2.000 I37.075 J-0.367 K0.000 F300.000
G1 X52.402 Y3.495 Z-2.000 F300.000
G2 X52.566 Y4.309 Z-2.000 I1.878 J0.046 K0.000 F300.000
G2 X53.927 Y5.020 Z-2.000 I1.205 J-0.648 K0.000 F300.000
G1 X55.860 Y6.953 Z-2.000 F300.000
G2 X57.423 Y6.819 Z-2.000 I-1.412 J-25.718 K0.000 F300.000
G1 X55.576 Y4.972 Z-2.000 F300.000
G2 X56.148 Y4.771 Z-2.000 I-0.070 J-1.112 K0.000 F300.000
G2 X56.367 Y4.066 Z-2.000 I-0.552 J-0.558 K0.000 F300.000
G1 X57.870 Y5.569 Z-2.000 F300.000
G1 X57.894 Y3.895 Z-2.000 F300.000
G1 X56.444 Y2.446 Z-2.000 F300.000
G2 X56.496 Y0.801 Z-2.000 I-49.789 J-2.411 K0.000 F300.000
G1 X57.918 Y2.222 Z-2.000 F300.000
G1 X57.942 Y0.549 Z-2.000 F300.000
G1 X56.530 Y-0.862 Z-2.000 F300.000
G1 X56.534 Y-2.555 Z-2.000 F300.000
G1 X57.958 Y-1.132 Z-2.000 F300.000
G1 X57.972 Y-2.814 Z-2.000 F300.000
G1 X54.584 Y-6.202 Z-2.000 F300.000
G1 X56.309 Y-6.175 Z-2.000 F300.000
G1 X57.987 Y-4.497 Z-2.000 F300.000
G1 X58.001 Y-6.179 Z-2.000 F300.000
G0 Z5.000
G0 X56.326 Y-4.209 Z5.000
G0 X56.326 Y-4.209 Z3.000
G1 X56.326 Y-4.209 Z-2.000 F300.000
G3 X56.537 Y-3.751 Z-2.000 I-0.389 J0.457 K0.000 F300.000
G3 X56.354 Y4.347 Z-2.000 I-123.561 J1.258 K0.000 F300.000
G3 X55.732 Y4.948 Z-2.000 I-0.696 J-0.097 K0.000 F300.000
G3 X53.830 Y5.020 Z-2.000 I-1.275 J-8.543 K0.000 F300.000
G3 X52.793 Y4.636 Z-2.000 I-0.057 J-1.439 K0.000 F300.000
G3 X52.390 Y3.295 Z-2.000 I1.412 J-1.156 K0.000 F300.000
G3 X52.668 Y-3.829 Z-2.000 I89.937 J-0.056 K0.000 F300.000
G3 X53.278 Y-4.393 Z-2.000 I0.599 J0.037 K0.000 F300.000
G2 X55.940 Y-4.352 Z-2.000 I3.886 J-166.953 K0.000 F300.000
G3 X56.326 Y-4.209 Z-2.000 I-0.003 J0.600 K0.000 F300.000
G0 Z5.000
G0 X54.723 Y-4.367 Z5.000
G0 X54.723 Y-4.367 Z3.000
G1 X54.723 Y-4.367 Z-2.000 F300.000
G1 X52.798 Y-6.291 Z-2.000 F300.000
G3 X51.118 Y-6.416 Z-2.000 I1.075 J-25.833 K0.000 F300.000
G1 X51.102 Y-6.290 Z-2.000 F300.000
G1 X53.047 Y-4.345 Z-2.000 F300.000
G2 X52.668 Y-3.829 Z-2.000 I0.200 J0.545 K0.000 F300.000
G1 X52.622 Y-3.073 Z-2.000 F300.000
G1 X50.909 Y-4.786 Z-2.000 F300.000
G1 X50.860 Y-4.407 Z-2.000 F300.000
G3 X51.378 Y-3.783 Z-2.000 I-0.082 J0.595 K0.000 F300.000
G1 X51.324 Y-2.674 Z-2.000 F300.000
G1 X52.529 Y-1.469 Z-2.000 F300.000
G2 X52.450 Y0.149 Z-2.000 I88.579 J5.169 K0.000 F300.000
G1 X51.245 Y-1.056 Z-2.000 F300.000
G2 X51.179 Y0.575 Z-2.000 I52.050 J2.922 K0.000 F300.000
G1 X52.391 Y1.786 Z-2.000 F300.000
G2 X52.402 Y3.495 Z-2.000 I14.028 J0.757 K0.000 F300.000
G1 X51.149 Y2.242 Z-2.000 F300.000
G3 X51.378 Y-3.783 Z-2.000 I116.907 J1.415 K0.000 F300.000
G2 X50.860 Y-4.407 Z-2.000 I-0.600 J-0.029 K0.000 F300.000
G1 X50.860 Y-4.407 Z-2.000 F300.000
G1 X51.118 Y-6.416 Z-2.000 F300.000
G2 X58.001 Y-6.179 Z-2.000 I5.541 J-60.869 K0.000 F300.000
G3 X57.852 Y6.773 Z-2.000 I-1141.338 J-6.656 K0.000 F300.000
G3 X53.034 Y7.013 Z-2.000 I-4.013 J-32.115 K0.000 F300.000
G3 X51.763 Y6.593 Z-2.000 I0.037 J-2.249 K0.000 F300.000
G3 X51.136 Y5.170 Z-2.000 I1.146 J-1.355 K0.000 F300.000
G3 X51.149 Y2.242 Z-2.000 I64.765 J-1.168 K0.000 F300.000
G0 Z5.000
G0 Z5.000
G0 X51.149 Y2.242
G0 X50.938 Y-11.621
G0 X50.938 Y-11.621 Z3.000
G1 X50.938 Y-11.621 Z-1.000 F300.000
G1 X50.423 Y-12.137 Z-1.000 F300.000
G1 X50.416 Y-11.656 Z-1.000 F300.000
G1 X50.938 Y-11.621 Z-1.000 F300.000
G1 X52.303 Y-11.532 Z-1.000 F300.000
G2 X52.314 Y-11.943 Z-1.000 I-115.637 J-3.341 K0.000 F300.000
G1 X50.446 Y-13.811 Z-1.000 F300.000
G3 X50.492 Y-15.462 Z-1.000 I51.813 J0.609 K0.000 F300.000
G1 X52.354 Y-13.600 Z-1.000 F300.000
G2 X52.391 Y-15.260 Z-1.000 I-923.212 J-21.457 K0.000 F300.000
G1 X50.541 Y-17.110 Z-1.000 F300.000
G1 X50.590 Y-18.743 Z-1.000 F300.000
G1 X50.587 Y-18.761 Z-1.000 F300.000
G1 X52.427 Y-16.921 Z-1.000 F300.000
G1 X52.462 Y-18.583 Z-1.000 F300.000
G1 X49.951 Y-21.094 Z-1.000 F300.000
G2 X50.679 Y-21.498 Z-1.000 I0.120 J-0.642 K0.000 F300.000
G2 X50.719 Y-22.023 Z-1.000 I-1.660 J-0.391 K0.000 F300.000
G1 X53.428 Y-19.314 Z-1.000 F300.000
G2 X55.135 Y-19.304 Z-1.000 I1.124 J-46.293 K0.000 F300.000
G1 X53.344 Y-21.095 Z-1.000 F300.000
G3 X52.550 Y-21.889 Z-1.000 I-0.156 J-0.639 K0.000 F300.000
G1 X50.756 Y-23.683 Z-1.000 F300.000
G2 X50.784 Y-25.352 Z-1.000 I-88.653 J-2.319 K0.000 F300.000
G1 X52.586 Y-23.550 Z-1.000 F300.000
G1 X52.622 Y-25.211 Z-1.000 F300.000
G1 X50.805 Y-27.028 Z-1.000 F300.000
G1 X50.825 Y-28.582 Z-1.000 F300.000
G1 X50.951 Y-28.579 Z-1.000 F300.000
G1 X52.658 Y-26.872 Z-1.000 F300.000
G1 X52.694 Y-28.533 Z-1.000 F300.000
G0 Z5.000
G0 X44.149 Y-26.896 Z5.000
G0 X44.149 Y-26.896 Z3.000
G1 X44.149 Y-26.896 Z-1.000 F300.000
G2 X44.161 Y-27.437 Z-1.000 I-46.167 J-1.353 K0.000 F300.000
G1 X43.597 Y-27.448 Z-1.000 F300.000
G1 X44.149 Y-26.896 Z-1.000 F300.000
G1 X44.107 Y-25.240 Z-1.000 F300.000
G1 X42.341 Y-27.007 Z-1.000 F300.000
G1 X42.315 Y-25.336 Z-1.000 F300.000
G1 X44.066 Y-23.584 Z-1.000 F300.000
G3 X44.017 Y-21.937 Z-1.000 I-147.509 J-3.604 K0.000 F300.000
G1 X42.276 Y-23.678 Z-1.000 F300.000
G0 Z5.000
G0 X49.987 Y-19.361 Z5.000
G0 X49.987 Y-19.361 Z3.000
G1 X49.987 Y-19.361 Z-1.000 F300.000
G1 X48.254 Y-21.094 Z-1.000 F300.000
G1 X46.557 Y-21.094 Z-1.000 F300.000
G1 X48.273 Y-19.378 Z-1.000 F300.000
G2 X46.564 Y-19.390 Z-1.000 I-5.750 J707.312 K0.000 F300.000
G1 X44.860 Y-21.094 Z-1.000 F300.000
G3 X44.118 Y-21.350 Z-1.000 I-0.172 J-0.705 K0.000 F300.000
G3 X44.017 Y-21.937 Z-1.000 I0.834 J-0.446 K0.000 F300.000
G1 X42.276 Y-23.678 Z-1.000 F300.000
G3 X42.227 Y-22.029 Z-1.000 I-121.178 J-2.720 K0.000 F300.000
G1 X44.857 Y-19.399 Z-1.000 F300.000
G2 X44.328 Y-19.374 Z-1.000 I-0.182 J1.702 K0.000 F300.000
G2 X43.905 Y-18.655 Z-1.000 I0.221 J0.614 K0.000 F300.000
G1 X42.172 Y-20.388 Z-1.000 F300.000
G3 X42.113 Y-18.749 Z-1.000 I-470.135 J-15.906 K0.000 F300.000
G1 X43.868 Y-16.995 Z-1.000 F300.000
G3 X43.829 Y-15.336 Z-1.000 I-702.124 J-15.421 K0.000 F300.000
G1 X42.059 Y-17.107 Z-1.000 F300.000
G1 X42.006 Y-15.462 Z-1.000 F300.000
G1 X43.787 Y-13.681 Z-1.000 F300.000
G3 X43.769 Y-13.062 Z-1.000 I-145.416 J-3.914 K0.000 F300.000
G1 X42.650 Y-13.122 Z-1.000 F300.000
G1 X41.947 Y-13.159 Z-1.000 F300.000
G2 X42.308 Y-24.853 Z-1.000 I-1292.029 J-45.666 K0.000 F300.000
G1 X42.348 Y-27.473 Z-1.000 F300.000
G1 X44.161 Y-27.437 Z-1.000 F300.000
G3 X44.010 Y-21.712 Z-1.000 I-495.755 J-10.233 K0.000 F300.000
G2 X44.610 Y-21.094 Z-1.000 I0.600 J0.018 K0.000 F300.000
G1 X50.112 Y-21.094 Z-1.000 F300.000
G2 X50.711 Y-21.681 Z-1.000 I-0.000 J-0.600 K0.000 F300.000
G2 X50.825 Y-28.582 Z-1.000 I-366.089 J-9.472 K0.000 F300.000
G1 X52.694 Y-28.533 Z-1.000 F300.000
G1 X52.546 Y-21.707 Z-1.000 F300.000
G2 X53.149 Y-21.094 Z-1.000 I0.600 J0.013 K0.000 F300.000
G2 X57.872 Y-21.234 Z-1.000 I-1.106 J-117.083 K0.000 F300.000
G1 X57.959 Y-19.317 Z-1.000 F300.000
G3 X53.076 Y-19.320 Z-1.000 I-2.374 J-113.570 K0.000 F300.000
G2 X52.465 Y-18.733 Z-1.000 I-0.011 J0.600 K0.000 F300.000
G3 X52.303 Y-11.532 Z-1.000 I-886.633 J-16.368 K0.000 F300.000
G1 X50.416 Y-11.656 Z-1.000 F300.000
G3 X50.590 Y-18.743 Z-1.000 I222.354 J1.901 K0.000 F300.000
G2 X49.997 Y-19.360 Z-1.000 I-0.600 J-0.018 K0.000 F300.000
G2 X44.512 Y-19.401 Z-1.000 I-7.580 J649.522 K0.000 F300.000
G2 X43.908 Y-18.815 Z-1.000 I-0.003 J0.600 K0.000 F300.000
G3 X43.769 Y-13.062 Z-1.000 I-627.462 J-12.299 K0.000 F300.000
G1 X42.650 Y-13.122 Z-1.000 F300.000
G1 X41.964 Y-13.808 Z-1.000 F300.000
G1 X41.947 Y-13.159 Z-1.000 F300.000
G1 X42.650 Y-13.122 Z-1.000 F300.000
G0 Z5.000
G0 X55.135 Y-19.304 Z5.000
G0 X55.135 Y-19.304 Z3.000
G1 X55.135 Y-19.304 Z-1.000 F300.000
G1 X53.344 Y-21.095 Z-1.000 F300.000
G2 X55.004 Y-21.132 Z-1.000 I-0.598 J-64.189 K0.000 F300.000
G1 X56.824 Y-19.312 Z-1.000 F300.000
G1 X57.959 Y-19.317 Z-1.000 F300.000
G1 X57.932 Y-19.901 Z-1.000 F300.000
G1 X56.644 Y-21.189 Z-1.000 F300.000
G1 X57.872 Y-21.234 Z-1.000 F300.000
G1 X57.932 Y-19.901 Z-1.000 F300.000
G1 X57.932 Y-19.901 Z-2.000 F300.000
G1 X57.872 Y-21.234 Z-2.000 F300.000
G1 X56.644 Y-21.189 Z-2.000 F300.000
G1 X57.932 Y-19.901 Z-2.000 F300.000
G1 X57.959 Y-19.317 Z-2.000 F300.000
G1 X56.824 Y-19.312 Z-2.000 F300.000
G1 X55.004 Y-21.132 Z-2.000 F300.000
G3 X53.344 Y-21.095 Z-2.000 I-2.259 J-64.152 K0.000 F300.000
G1 X55.135 Y-19.304 Z-2.000 F300.000
G0 Z5.000
G0 X49.987 Y-19.361 Z5.000
G0 X49.987 Y-19.361 Z3.000
G1 X49.987 Y-19.361 Z-2.000 F300.000
G1 X48.254 Y-21.094 Z-2.000 F300.000
G1 X46.557 Y-21.094 Z-2.000 F300.000
G1 X48.273 Y-19.378 Z-2.000 F300.000
G2 X46.564 Y-19.390 Z-2.000 I-5.750 J707.312 K0.000 F300.000
G1 X44.860 Y-21.094 Z-2.000 F300.000
G3 X44.118 Y-21.350 Z-2.000 I-0.172 J-0.705 K0.000 F300.000
G3 X44.017 Y-21.937 Z-2.000 I0.834 J-0.446 K0.000 F300.000
G1 X42.276 Y-23.678 Z-2.000 F300.000
G3 X42.227 Y-22.029 Z-2.000 I-121.178 J-2.720 K0.000 F300.000
G1 X44.857 Y-19.399 Z-2.000 F300.000
G2 X44.328 Y-19.374 Z-2.000 I-0.182 J1.702 K0.000 F300.000
G2 X43.905 Y-18.655 Z-2.000 I0.221 J0.614 K0.000 F300.000
G1 X42.172 Y-20.388 Z-2.000 F300.000
G3 X42.113 Y-18.749 Z-2.000 I-470.135 J-15.906 K0.000 F300.000
G1 X43.868 Y-16.995 Z-2.000 F300.000
G3 X43.829 Y-15.336 Z-2.000 I-702.124 J-15.421 K0.000 F300.000
G1 X42.059 Y-17.107 Z-2.000 F300.000
G1 X42.006 Y-15.462 Z-2.000 F300.000
G1 X43.787 Y-13.681 Z-2.000 F300.000
G3 X43.769 Y-13.062 Z-2.000 I-145.416 J-3.914 K0.000 F300.000
G1 X42.650 Y-13.122 Z-2.000 F300.000
G1 X41.947 Y-13.159 Z-2.000 F300.000
G2 X42.308 Y-24.853 Z-2.000 I-1292.029 J-45.666 K0.000 F300.000
G1 X42.348 Y-27.473 Z-2.000 F300.000
G1 X44.161 Y-27.437 Z-2.000 F300.000
G3 X44.010 Y-21.712 Z-2.000 I-495.755 J-10.233 K0.000 F300.000
G2 X44.610 Y-21.094 Z-2.000 I0.600 J0.018 K0.000 F300.000
G1 X50.112 Y-21.094 Z-2.000 F300.000
G2 X50.711 Y-21.681 Z-2.000 I-0.000 J-0.600 K0.000 F300.000
G2 X50.825 Y-28.582 Z-2.000 I-366.089 J-9.472 K0.000 F300.000
G1 X52.694 Y-28.533 Z-2.000 F300.000
G1 X52.546 Y-21.707 Z-2.000 F300.000
G2 X53.149 Y-21.094 Z-2.000 I0.600 J0.013 K0.000 F300.000
G2 X57.872 Y-21.234 Z-2.000 I-1.106 J-117.083 K0.000 F300.000
G1 X57.959 Y-19.317 Z-2.000 F300.000
G3 X53.076 Y-19.320 Z-2.000 I-2.374 J-113.570 K0.000 F300.000
G2 X52.465 Y-18.733 Z-2.000 I-0.011 J0.600 K0.000 F300.000
G3 X52.303 Y-11.532 Z-2.000 I-886.633 J-16.368 K0.000 F300.000
G1 X50.416 Y-11.656 Z-2.000 F300.000
G3 X50.590 Y-18.743 Z-2.000 I222.354 J1.901 K0.000 F300.000
G2 X49.997 Y-19.360 Z-2.000 I-0.600 J-0.018 K0.000 F300.000
G2 X44.512 Y-19.401 Z-2.000 I-7.580 J649.522 K0.000 F300.000
G2 X43.908 Y-18.815 Z-2.000 I-0.003 J0.600 K0.000 F300.000
G3 X43.769 Y-13.062 Z-2.000 I-627.462 J-12.299 K0.000 F300.000
G1 X42.650 Y-13.122 Z-2.000 F300.000
G1 X41.964 Y-13.808 Z-2.000 F300.000
G1 X41.947 Y-13.159 Z-2.000 F300.000
G1 X42.650 Y-13.122 Z-2.000 F300.000
G0 Z5.000
G0 X50.938 Y-11.621 Z5.000
G0 X50.938 Y-11.621 Z3.000
G1 X50.938 Y-11.621 Z-2.000 F300.000
G1 X50.423 Y-12.137 Z-2.000 F300.000
G1 X50.416 Y-11.656 Z-2.000 F300.000
G1 X50.938 Y-11.621 Z-2.000 F300.000
G1 X52.303 Y-11.532 Z-2.000 F300.000
G2 X52.314 Y-11.943 Z-2.000 I-115.637 J-3.341 K0.000 F300.000
G1 X50.446 Y-13.811 Z-2.000 F300.000
G3 X50.492 Y-15.462 Z-2.000 I51.813 J0.609 K0.000 F300.000
G1 X52.354 Y-13.600 Z-2.000 F300.000
G2 X52.391 Y-15.260 Z-2.000 I-923.212 J-21.457 K0.000 F300.000
G1 X50.541 Y-17.110 Z-2.000 F300.000
G1 X50.590 Y-18.743 Z-2.000 F300.000
G1 X50.587 Y-18.761 Z-2.000 F300.000
G1 X52.427 Y-16.921 Z-2.000 F300.000
G1 X52.462 Y-18.583 Z-2.000 F300.000
G1 X49.951 Y-21.094 Z-2.000 F300.000
G2 X50.679 Y-21.498 Z-2.000 I0.120 J-0.642 K0.000 F300.000
G2 X50.719 Y-22.023 Z-2.000 I-1.660 J-0.391 K0.000 F300.000
G1 X53.428 Y-19.314 Z-2.000 F300.000
G2 X55.135 Y-19.304 Z-2.000 I1.124 J-46.293 K0.000 F300.000
G1 X53.344 Y-21.095 Z-2.000 F300.000
G3 X52.550 Y-21.889 Z-2.000 I-0.156 J-0.639 K0.000 F300.000
G1 X50.756 Y-23.683 Z-2.000 F300.000
G2 X50.784 Y-25.352 Z-2.000 I-88.653 J-2.319 K0.000 F300.000
G1 X52.586 Y-23.550 Z-2.000 F300.000
G1 X52.622 Y-25.211 Z-2.000 F300.000
G1 X50.805 Y-27.028 Z-2.000 F300.000
G1 X50.825 Y-28.582 Z-2.000 F300.000
G1 X50.951 Y-28.579 Z-2.000 F300.000
G1 X52.658 Y-26.872 Z-2.000 F300.000
G1 X52.694 Y-28.533 Z-2.000 F300.000
G0 Z5.000
G0 X44.149 Y-26.896 Z5.000
G0 X44.149 Y-26.896 Z3.000
G1 X44.149 Y-26.896 Z-2.000 F300.000
G2 X44.161 Y-27.437 Z-2.000 I-46.167 J-1.353 K0.000 F300.000
G1 X43.597 Y-27.448 Z-2.000 F300.000
G1 X44.149 Y-26.896 Z-2.000 F300.000
G1 X44.107 Y-25.240 Z-2.000 F300.000
G1 X42.341 Y-27.007 Z-2.000 F300.000
G1 X42.315 Y-25.336 Z-2.000 F300.000
G1 X44.066 Y-23.584 Z-2.000 F300.000
G3 X44.017 Y-21.937 Z-2.000 I-147.509 J-3.604 K0.000 F300.000
G1 X42.276 Y-23.678 Z-2.000 F300.000
G0 Z5.000
G0 Z5.000
G0 X42.276 Y-23.678
G0 X45.759 Y-15.765
G0 X45.759 Y-15.765 Z3.000
G1 X45.759 Y-15.765 Z-1.000 F300.000
G1 X45.681 Y-15.751 Z-1.000 F300.000
G1 X46.039 Y-14.203 Z-1.000 F300.000
G2 X48.878 Y-14.937 Z-1.000 I-2.136 J-14.117 K0.000 F300.000
G1 X48.378 Y-16.540 Z-1.000 F300.000
G3 X45.681 Y-15.751 Z-1.000 I-4.923 J-11.828 K0.000 F300.000
G1 X46.039 Y-14.203 Z-1.000 F300.000
G2 X47.111 Y-14.413 Z-1.000 I-1.185 J-8.873 K0.000 F300.000
G1 X45.759 Y-15.765 Z-1.000 F300.000
G2 X47.126 Y-16.095 Z-1.000 I-1.527 J-9.304 K0.000 F300.000
G1 X48.433 Y-14.789 Z-1.000 F300.000
G1 X48.878 Y-14.937 Z-1.000 F300.000
G1 X48.378 Y-16.540 Z-1.000 F300.000
G1 X48.378 Y-16.540 Z-2.000 F300.000
G1 X48.878 Y-14.937 Z-2.000 F300.000
G1 X48.433 Y-14.789 Z-2.000 F300.000
G1 X47.126 Y-16.095 Z-2.000 F300.000
G3 X45.759 Y-15.765 Z-2.000 I-2.893 J-8.974 K0.000 F300.000
G1 X47.111 Y-14.413 Z-2.000 F300.000
G3 X46.039 Y-14.203 Z-2.000 I-2.257 J-8.662 K0.000 F300.000
G1 X45.681 Y-15.751 Z-2.000 F300.000
G2 X48.378 Y-16.540 Z-2.000 I-2.226 J-12.617 K0.000 F300.000
G1 X48.878 Y-14.937 Z-2.000 F300.000
G3 X46.039 Y-14.203 Z-2.000 I-4.975 J-13.383 K0.000 F300.000
G1 X45.681 Y-15.751 Z-2.000 F300.000
G1 X45.759 Y-15.765 Z-2.000 F300.000
G0 Z5.000
G0 Z5.000
G0 X45.759 Y-15.765
G0 X50.008 Y-31.966
G0 X50.008 Y-31.966 Z3.000
G1 X50.008 Y-31.966 Z-1.000 F300.000
G1 X51.084 Y-31.899 Z-1.000 F300.000
G3 X51.263 Y-49.007 Z-1.000 I1728.120 J9.511 K0.000 F300.000
G1 X50.179 Y-49.007 Z-1.000 F300.000
G1 X50.104 Y-42.298 Z-1.000 F300.000
G3 X49.781 Y-41.773 Z-1.000 I-0.600 J-0.007 K0.000 F300.000
G3 X48.909 Y-41.629 Z-1.000 I-0.831 J-2.327 K0.000 F300.000
G3 X48.237 Y-42.235 Z-1.000 I-0.072 J-0.596 K0.000 F300.000
G1 X48.328 Y-47.421 Z-1.000 F300.000
G1 X47.245 Y-47.478 Z-1.000 F300.000
G3 X47.151 Y-42.191 Z-1.000 I-261.096 J-1.965 K0.000 F300.000
G3 X46.706 Y-41.624 Z-1.000 I-0.600 J-0.013 K0.000 F300.000
G3 X46.125 Y-41.630 Z-1.000 I-0.253 J-4.165 K0.000 F300.000
G1 X46.079 Y-39.822 Z-1.000 F300.000
G1 X46.067 Y-39.760 Z-1.000 F300.000
G1 X46.557 Y-39.706 Z-1.000 F300.000
G3 X47.091 Y-39.101 Z-1.000 I-0.066 J0.596 K0.000 F300.000
G1 X47.017 Y-33.854 Z-1.000 F300.000
G1 X48.107 Y-33.719 Z-1.000 F300.000
G1 X48.197 Y-39.079 Z-1.000 F300.000
G3 X48.667 Y-39.654 Z-1.000 I0.600 J0.010 K0.000 F300.000
G3 X49.366 Y-39.648 Z-1.000 I0.255 J10.578 K0.000 F300.000
G3 X50.064 Y-39.043 Z-1.000 I0.086 J0.606 K0.000 F300.000
G1 X50.008 Y-31.966 Z-1.000 F300.000
G0 Z5.000
G0 X50.018 Y-33.281 Z5.000
G0 X50.018 Y-33.281 Z3.000
G1 X50.018 Y-33.281 Z-1.000 F300.000
G1 X51.090 Y-32.210 Z-1.000 F300.000
G3 X51.084 Y-31.899 Z-1.000 I-29.140 J-0.339 K0.000 F300.000
G1 X50.008 Y-31.966 Z-1.000 F300.000
G1 X50.018 Y-33.281 Z-1.000 F300.000
G1 X50.032 Y-34.965 Z-1.000 F300.000
G1 X51.108 Y-33.889 Z-1.000 F300.000
G2 X51.122 Y-35.571 Z-1.000 I-322.727 J-3.580 K0.000 F300.000
G1 X50.045 Y-36.648 Z-1.000 F300.000
G1 X50.059 Y-38.332 Z-1.000 F300.000
G1 X51.132 Y-37.258 Z-1.000 F300.000
G1 X51.142 Y-38.945 Z-1.000 F300.000
G1 X47.167 Y-42.920 Z-1.000 F300.000
G1 X47.204 Y-44.581 Z-1.000 F300.000
G1 X48.260 Y-43.525 Z-1.000 F300.000
G1 X48.237 Y-42.235 Z-1.000 F300.000
G2 X48.705 Y-41.639 Z-1.000 I0.600 J0.011 K0.000 F300.000
G2 X49.576 Y-41.709 Z-1.000 I0.233 J-2.561 K0.000 F300.000
G2 X49.911 Y-41.873 Z-1.000 I-0.051 J-0.527 K0.000 F300.000
G1 X51.156 Y-40.629 Z-1.000 F300.000
G1 X51.177 Y-42.305 Z-1.000 F300.000
G1 X50.116 Y-43.366 Z-1.000 F300.000
G1 X50.135 Y-45.044 Z-1.000 F300.000
G1 X51.199 Y-43.980 Z-1.000 F300.000
G1 X51.220 Y-45.656 Z-1.000 F300.000
G1 X50.154 Y-46.722 Z-1.000 F300.000
G1 X50.172 Y-48.401 Z-1.000 F300.000
G1 X51.242 Y-47.331 Z-1.000 F300.000
G1 X51.263 Y-49.007 Z-1.000 F300.000
G0 Z5.000
G0 X47.726 Y-47.453 Z5.000
G0 X47.726 Y-47.453 Z3.000
G1 X47.726 Y-47.453 Z-1.000 F300.000
G1 X48.328 Y-47.421 Z-1.000 F300.000
G1 X48.318 Y-46.861 Z-1.000 F300.000
G1 X47.726 Y-47.453 Z-1.000 F300.000
G1 X47.245 Y-47.478 Z-1.000 F300.000
G1 X47.230 Y-46.252 Z-1.000 F300.000
G1 X48.289 Y-45.193 Z-1.000 F300.000
G1 X48.260 Y-43.525 Z-1.000 F300.000
G1 X47.204 Y-44.581 Z-1.000 F300.000
G0 Z5.000
G0 X45.432 Y-44.462 Z5.000
G0 X45.432 Y-44.462 Z3.000
G1 X45.432 Y-44.462 Z-1.000 F300.000
G3 X44.538 Y-44.739 Z-1.000 I0.499 J-3.186 K0.000 F300.000
G3 X44.112 Y-45.181 Z-1.000 I0.387 J-0.800 K0.000 F300.000
G3 X44.091 Y-45.946 Z-1.000 I2.844 J-0.462 K0.000 F300.000
G3 X44.424 Y-46.484 Z-1.000 I0.600 J0.000 K0.000 F300.000
G2 X45.416 Y-46.996 Z-1.000 I-4.246 J-9.430 K0.000 F300.000
G1 X45.190 Y-48.644 Z-1.000 F300.000
G3 X42.041 Y-47.561 Z-1.000 I-3.547 J-5.191 K0.000 F300.000
G1 X42.106 Y-46.147 Z-1.000 F300.000
G1 X42.439 Y-46.161 Z-1.000 F300.000
G3 X43.065 Y-45.549 Z-1.000 I0.026 J0.599 K0.000 F300.000
G3 X42.842 Y-41.323 Z-1.000 I-40.216 J-0.006 K0.000 F300.000
G1 X43.927 Y-41.246 Z-1.000 F300.000
G2 X44.011 Y-42.583 Z-1.000 I-32.925 J-2.733 K0.000 F300.000
G3 X44.717 Y-43.138 Z-1.000 I0.599 J0.035 K0.000 F300.000
G2 X45.284 Y-42.922 Z-1.000 I1.789 J-3.838 K0.000 F300.000
G1 X45.432 Y-44.462 Z-1.000 F300.000
G0 Z5.000
G0 X42.238 Y-46.152 Z5.000
G0 X42.238 Y-46.152 Z3.000
G1 X42.238 Y-46.152 Z-1.000 F300.000
G1 X42.106 Y-46.147 Z-1.000 F300.000
G1 X42.100 Y-46.291 Z-1.000 F300.000
G1 X42.238 Y-46.152 Z-1.000 F300.000
G0 Z5.000
G0 X45.246 Y-48.236 Z5.000
G0 X45.246 Y-48.236 Z3.000
G1 X45.246 Y-48.236 Z-1.000 F300.000
G1 X45.190 Y-48.644 Z-1.000 F300.000
G1 X44.979 Y-48.503 Z-1.000 F300.000
G1 X45.246 Y-48.236 Z-1.000 F300.000
G1 X45.416 Y-46.996 Z-1.000 F300.000
G3 X45.011 Y-46.774 Z-1.000 I-2.259 J-3.639 K0.000 F300.000
G1 X43.836 Y-47.949 Z-1.000 F300.000
G3 X42.474 Y-47.614 Z-1.000 I-1.950 J-4.983 K0.000 F300.000
G1 X44.097 Y-45.991 Z-1.000 F300.000
G2 X44.112 Y-45.181 Z-1.000 I2.823 J0.353 K0.000 F300.000
G2 X44.538 Y-44.739 Z-1.000 I0.813 J-0.358 K0.000 F300.000
G2 X45.432 Y-44.462 Z-1.000 I1.393 J-2.909 K0.000 F300.000
G1 X45.300 Y-43.091 Z-1.000 F300.000
G1 X43.060 Y-45.330 Z-1.000 F300.000
G3 X43.020 Y-43.674 Z-1.000 I-28.171 J0.135 K0.000 F300.000
G1 X44.030 Y-42.664 Z-1.000 F300.000
G1 X44.011 Y-42.583 Z-1.000 F300.000
G3 X43.927 Y-41.246 Z-1.000 I-33.008 J-1.396 K0.000 F300.000
G1 X43.737 Y-41.259 Z-1.000 F300.000
G1 X42.842 Y-41.323 Z-1.000 F300.000
G2 X42.914 Y-42.082 Z-1.000 I-13.913 J-1.713 K0.000 F300.000
G1 X43.737 Y-41.259 Z-1.000 F300.000
G0 Z5.000
G0 X44.936 Y-39.170 Z5.000
G0 X44.936 Y-39.170 Z3.000
G1 X44.936 Y-39.170 Z-1.000 F300.000
G3 X42.227 Y-38.349 Z-1.000 I-2.946 J-4.839 K0.000 F300.000
G1 X42.304 Y-36.955 Z-1.000 F300.000
G3 X42.998 Y-36.536 Z-1.000 I0.101 J0.616 K0.000 F300.000
G3 X42.836 Y-32.129 Z-1.000 I-37.274 J0.831 K0.000 F300.000
G1 X43.856 Y-32.073 Z-1.000 F300.000
G1 X43.907 Y-32.605 Z-1.000 F300.000
G1 X42.942 Y-33.569 Z-1.000 F300.000
G2 X42.997 Y-35.211 Z-1.000 I-21.516 J-1.535 K0.000 F300.000
G1 X44.235 Y-33.973 Z-1.000 F300.000
G3 X44.640 Y-34.059 Z-1.000 I0.280 J0.325 K0.000 F300.000
G3 X45.121 Y-33.769 Z-1.000 I-0.455 J1.298 K0.000 F300.000
G1 X45.222 Y-34.684 Z-1.000 F300.000
G1 X42.267 Y-37.639 Z-1.000 F300.000
G1 X42.227 Y-38.349 Z-1.000 F300.000
G2 X43.133 Y-38.470 Z-1.000 I-0.085 J-4.088 K0.000 F300.000
G1 X44.384 Y-37.218 Z-1.000 F300.000
G3 X45.191 Y-37.725 Z-1.000 I5.975 J8.611 K0.000 F300.000
G1 X45.125 Y-38.174 Z-1.000 F300.000
G1 X44.414 Y-38.885 Z-1.000 F300.000
G2 X44.990 Y-39.208 Z-1.000 I-1.472 J-3.299 K0.000 F300.000
G1 X44.987 Y-39.123 Z-1.000 F300.000
G1 X45.125 Y-38.174 Z-1.000 F300.000
G0 Z5.000
G0 X44.936 Y-39.170 Z5.000
G0 X44.936 Y-39.170 Z3.000
G1 X44.936 Y-39.170 Z-1.000 F300.000
G1 X44.990 Y-39.208 Z-1.000 F300.000
G1 X44.987 Y-39.123 Z-1.000 F300.000
G1 X45.191 Y-37.725 Z-1.000 F300.000
G2 X44.190 Y-37.071 Z-1.000 I4.589 J8.112 K0.000 F300.000
G2 X44.029 Y-36.662 Z-1.000 I0.440 J0.408 K0.000 F300.000
G2 X44.054 Y-35.966 Z-1.000 I2.420 J0.263 K0.000 F300.000
G2 X44.383 Y-35.589 Z-1.000 I0.575 J-0.170 K0.000 F300.000
G2 X45.284 Y-35.258 Z-1.000 I1.529 J-2.769 K0.000 F300.000
G1 X45.121 Y-33.769 Z-1.000 F300.000
G2 X44.640 Y-34.059 Z-1.000 I-0.936 J1.008 K0.000 F300.000
G2 X43.950 Y-33.492 Z-1.000 I-0.091 J0.593 K0.000 F300.000
G3 X43.856 Y-32.073 Z-1.000 I-15.486 J-0.308 K0.000 F300.000
G1 X42.836 Y-32.129 Z-1.000 F300.000
G2 X42.942 Y-33.569 Z-1.000 I-26.703 J-2.707 K0.000 F300.000
G0 Z5.000
G0 X47.852 Y-33.750 Z5.000
G0 X47.852 Y-33.750 Z3.000
G1 X47.852 Y-33.750 Z-1.000 F300.000
G1 X47.027 Y-34.575 Z-1.000 F300.000
G1 X47.017 Y-33.854 Z-1.000 F300.000
G1 X47.852 Y-33.750 Z-1.000 F300.000
G1 X48.107 Y-33.719 Z-1.000 F300.000
G1 X48.131 Y-35.169 Z-1.000 F300.000
G1 X47.051 Y-36.249 Z-1.000 F300.000
G1 X47.074 Y-37.922 Z-1.000 F300.000
G1 X48.159 Y-36.838 Z-1.000 F300.000
G1 X48.187 Y-38.506 Z-1.000 F300.000
G1 X46.099 Y-40.595 Z-1.000 F300.000
G1 X46.125 Y-41.630 Z-1.000 F300.000
G2 X46.748 Y-41.643 Z-1.000 I0.245 J-3.076 K0.000 F300.000
G1 X48.733 Y-39.658 Z-1.000 F300.000
G1 X48.733 Y-39.658 Z-2.000 F300.000
G1 X46.748 Y-41.643 Z-2.000 F300.000
G3 X46.125 Y-41.630 Z-2.000 I-0.378 J-3.063 K0.000 F300.000
G1 X46.099 Y-40.595 Z-2.000 F300.000
G1 X48.187 Y-38.506 Z-2.000 F300.000
G1 X48.159 Y-36.838 Z-2.000 F300.000
G1 X47.074 Y-37.922 Z-2.000 F300.000
G1 X47.051 Y-36.249 Z-2.000 F300.000
G1 X48.131 Y-35.169 Z-2.000 F300.000
G1 X48.107 Y-33.719 Z-2.000 F300.000
G1 X47.852 Y-33.750 Z-2.000 F300.000
G1 X47.017 Y-33.854 Z-2.000 F300.000
G1 X47.027 Y-34.575 Z-2.000 F300.000
G1 X47.852 Y-33.750 Z-2.000 F300.000
G1 X47.852 Y-33.750 Z-2.000 F300.000
G1 X48.107 Y-33.719 Z-2.000 F300.000
G1 X48.197 Y-39.079 Z-2.000 F300.000
G3 X48.667 Y-39.654 Z-2.000 I0.600 J0.010 K0.000 F300.000
G3 X49.366 Y-39.648 Z-2.000 I0.255 J10.578 K0.000 F300.000
G3 X50.064 Y-39.043 Z-2.000 I0.086 J0.606 K0.000 F300.000
G1 X50.008 Y-31.966 Z-2.000 F300.000
G1 X51.084 Y-31.899 Z-2.000 F300.000
G3 X51.263 Y-49.007 Z-2.000 I1728.120 J9.511 K0.000 F300.000
G1 X50.179 Y-49.007 Z-2.000 F300.000
G1 X50.104 Y-42.298 Z-2.000 F300.000
G3 X49.781 Y-41.773 Z-2.000 I-0.600 J-0.007 K0.000 F300.000
G3 X48.909 Y-41.629 Z-2.000 I-0.831 J-2.327 K0.000 F300.000
G3 X48.237 Y-42.235 Z-2.000 I-0.072 J-0.596 K0.000 F300.000
G1 X48.328 Y-47.421 Z-2.000 F300.000
G1 X47.245 Y-47.478 Z-2.000 F300.000
G3 X47.151 Y-42.191 Z-2.000 I-261.096 J-1.965 K0.000 F300.000
G3 X46.706 Y-41.624 Z-2.000 I-0.600 J-0.013 K0.000 F300.000
G3 X46.125 Y-41.630 Z-2.000 I-0.253 J-4.165 K0.000 F300.000
G1 X46.079 Y-39.822 Z-2.000 F300.000
G1 X46.067 Y-39.760 Z-2.000 F300.000
G1 X46.557 Y-39.706 Z-2.000 F300.000
G3 X47.091 Y-39.101 Z-2.000 I-0.066 J0.596 K0.000 F300.000
G1 X47.017 Y-33.854 Z-2.000 F300.000
G1 X47.852 Y-33.750 Z-2.000 F300.000
G0 Z5.000
G0 X50.018 Y-33.281 Z5.000
G0 X50.018 Y-33.281 Z3.000
G1 X50.018 Y-33.281 Z-2.000 F300.000
G1 X51.090 Y-32.210 Z-2.000 F300.000
G3 X51.084 Y-31.899 Z-2.000 I-29.140 J-0.339 K0.000 F300.000
G1 X50.008 Y-31.966 Z-2.000 F300.000
G1 X50.018 Y-33.281 Z-2.000 F300.000
G1 X50.032 Y-34.965 Z-2.000 F300.000
G1 X51.108 Y-33.889 Z-2.000 F300.000
G2 X51.122 Y-35.571 Z-2.000 I-322.727 J-3.580 K0.000 F300.000
G1 X50.045 Y-36.648 Z-2.000 F300.000
G1 X50.059 Y-38.332 Z-2.000 F300.000
G1 X51.132 Y-37.258 Z-2.000 F300.000
G1 X51.142 Y-38.945 Z-2.000 F300.000
G1 X47.167 Y-42.920 Z-2.000 F300.000
G1 X47.204 Y-44.581 Z-2.000 F300.000
G1 X48.260 Y-43.525 Z-2.000 F300.000
G1 X48.237 Y-42.235 Z-2.000 F300.000
G2 X48.705 Y-41.639 Z-2.000 I0.600 J0.011 K0.000 F300.000
G2 X49.576 Y-41.709 Z-2.000 I0.233 J-2.561 K0.000 F300.000
G2 X49.911 Y-41.873 Z-2.000 I-0.051 J-0.527 K0.000 F300.000
G1 X51.156 Y-40.629 Z-2.000 F300.000
G1 X51.177 Y-42.305 Z-2.000 F300.000
G1 X50.116 Y-43.366 Z-2.000 F300.000
G1 X50.135 Y-45.044 Z-2.000 F300.000
G1 X51.199 Y-43.980 Z-2.000 F300.000
G1 X51.220 Y-45.656 Z-2.000 F300.000
G1 X50.154 Y-46.722 Z-2.000 F300.000
G1 X50.172 Y-48.401 Z-2.000 F300.000
G1 X51.242 Y-47.331 Z-2.000 F300.000
G1 X51.263 Y-49.007 Z-2.000 F300.000
G0 Z5.000
G0 X47.726 Y-47.453 Z5.000
G0 X47.726 Y-47.453 Z3.000
G1 X47.726 Y-47.453 Z-2.000 F300.000
G1 X48.328 Y-47.421 Z-2.000 F300.000
G1 X48.318 Y-46.861 Z-2.000 F300.000
G1 X47.726 Y-47.453 Z-2.000 F300.000
G1 X47.245 Y-47.478 Z-2.000 F300.000
G1 X47.230 Y-46.252 Z-2.000 F300.000
G1 X48.289 Y-45.193 Z-2.000 F300.000
G1 X48.260 Y-43.525 Z-2.000 F300.000
G1 X47.204 Y-44.581 Z-2.000 F300.000
G0 Z5.000
G0 X45.432 Y-44.462 Z5.000
G0 X45.432 Y-44.462 Z3.000
G1 X45.432 Y-44.462 Z-2.000 F300.000
G3 X44.538 Y-44.739 Z-2.000 I0.499 J-3.186 K0.000 F300.000
G3 X44.112 Y-45.181 Z-2.000 I0.387 J-0.800 K0.000 F300.000
G3 X44.091 Y-45.946 Z-2.000 I2.844 J-0.462 K0.000 F300.000
G3 X44.424 Y-46.484 Z-2.000 I0.600 J0.000 K0.000 F300.000
G2 X45.416 Y-46.996 Z-2.000 I-4.246 J-9.430 K0.000 F300.000
G1 X45.190 Y-48.644 Z-2.000 F300.000
G3 X42.041 Y-47.561 Z-2.000 I-3.547 J-5.191 K0.000 F300.000
G1 X42.106 Y-46.147 Z-2.000 F300.000
G1 X42.439 Y-46.161 Z-2.000 F300.000
G3 X43.065 Y-45.549 Z-2.000 I0.026 J0.599 K0.000 F300.000
G3 X42.842 Y-41.323 Z-2.000 I-40.216 J-0.006 K0.000 F300.000
G1 X43.927 Y-41.246 Z-2.000 F300.000
G2 X44.011 Y-42.583 Z-2.000 I-32.925 J-2.733 K0.000 F300.000
G3 X44.717 Y-43.138 Z-2.000 I0.599 J0.035 K0.000 F300.000
G2 X45.284 Y-42.922 Z-2.000 I1.789 J-3.838 K0.000 F300.000
G1 X45.432 Y-44.462 Z-2.000 F300.000
G0 Z5.000
G0 X42.238 Y-46.152 Z5.000
G0 X42.238 Y-46.152 Z3.000
G1 X42.238 Y-46.152 Z-2.000 F300.000
G1 X42.106 Y-46.147 Z-2.000 F300.000
G1 X42.100 Y-46.291 Z-2.000 F300.000
G1 X42.238 Y-46.152 Z-2.000 F300.000
G0 Z5.000
G0 X45.246 Y-48.236 Z5.000
G0 X45.246 Y-48.236 Z3.000
G1 X45.246 Y-48.236 Z-2.000 F300.000
G1 X45.190 Y-48.644 Z-2.000 F300.000
G1 X44.979 Y-48.503 Z-2.000 F300.000
G1 X45.246 Y-48.236 Z-2.000 F300.000
G1 X45.416 Y-46.996 Z-2.000 F300.000
G3 X45.011 Y-46.774 Z-2.000 I-2.259 J-3.639 K0.000 F300.000
G1 X43.836 Y-47.949 Z-2.000 F300.000
G3 X42.474 Y-47.614 Z-2.000 I-1.950 J-4.983 K0.000 F300.000
G1 X44.097 Y-45.991 Z-2.000 F300.000
G2 X44.112 Y-45.181 Z-2.000 I2.823 J0.353 K0.000 F300.000
G2 X44.538 Y-44.739 Z-2.000 I0.813 J-0.358 K0.000 F300.000
G2 X45.432 Y-44.462 Z-2.000 I1.393 J-2.909 K0.000 F300.000
G1 X45.300 Y-43.091 Z-2.000 F300.000
G1 X43.060 Y-45.330 Z-2.000 F300.000
G3 X43.020 Y-43.674 Z-2.000 I-28.171 J0.135 K0.000 F300.000
G1 X44.030 Y-42.664 Z-2.000 F300.000
G1 X44.011 Y-42.583 Z-2.000 F300.000
G3 X43.927 Y-41.246 Z-2.000 I-33.008 J-1.396 K0.000 F300.000
G1 X43.737 Y-41.259 Z-2.000 F300.000
G1 X42.842 Y-41.323 Z-2.000 F300.000
G2 X42.914 Y-42.082 Z-2.000 I-13.913 J-1.713 K0.000 F300.000
G1 X43.737 Y-41.259 Z-2.000 F300.000
G0 Z5.000
G0 X44.936 Y-39.170 Z5.000
G0 X44.936 Y-39.170 Z3.000
G1 X44.936 Y-39.170 Z-2.000 F300.000
G3 X42.227 Y-38.349 Z-2.000 I-2.946 J-4.839 K0.000 F300.000
G1 X42.304 Y-36.955 Z-2.000 F300.000
G3 X42.998 Y-36.536 Z-2.000 I0.101 J0.616 K0.000 F300.000
G3 X42.836 Y-32.129 Z-2.000 I-37.274 J0.831 K0.000 F300.000
G1 X43.856 Y-32.073 Z-2.000 F300.000
G1 X43.907 Y-32.605 Z-2.000 F300.000
G1 X42.942 Y-33.569 Z-2.000 F300.000
G2 X42.997 Y-35.211 Z-2.000 I-21.516 J-1.535 K0.000 F300.000
G1 X44.235 Y-33.973 Z-2.000 F300.000
G3 X44.640 Y-34.059 Z-2.000 I0.280 J0.325 K0.000 F300.000
G3 X45.121 Y-33.769 Z-2.000 I-0.455 J1.298 K0.000 F300.000
G1 X45.222 Y-34.684 Z-2.000 F300.000
G1 X42.267 Y-37.639 Z-2.000 F300.000
G1 X42.227 Y-38.349 Z-2.000 F300.000
G2 X43.133 Y-38.470 Z-2.000 I-0.085 J-4.088 K0.000 F300.000
G1 X44.384 Y-37.218 Z-2.000 F300.000
G3 X45.191 Y-37.725 Z-2.000 I5.975 J8.611 K0.000 F300.000
G1 X45.125 Y-38.174 Z-2.000 F300.000
G1 X44.414 Y-38.885 Z-2.000 F300.000
G2 X44.990 Y-39.208 Z-2.000 I-1.472 J-3.299 K0.000 F300.000
G1 X44.987 Y-39.123 Z-2.000 F300.000
G1 X45.125 Y-38.174 Z-2.000 F300.000
G0 Z5.000
G0 X44.936 Y-39.170 Z5.000
G0 X44.936 Y-39.170 Z3.000
G1 X44.936 Y-39.170 Z-2.000 F300.000
G1 X44.990 Y-39.208 Z-2.000 F300.000
G1 X44.987 Y-39.123 Z-2.000 F300.000
G1 X45.191 Y-37.725 Z-2.000 F300.000
G2 X44.190 Y-37.071 Z-2.000 I4.589 J8.112 K0.000 F300.000
G2 X44.029 Y-36.662 Z-2.000 I0.440 J0.408 K0.000 F300.000
G2 X44.054 Y-35.966 Z-2.000 I2.420 J0.263 K0.000 F300.000
G2 X44.383 Y-35.589 Z-2.000 I0.575 J-0.170 K0.000 F300.000
G2 X45.284 Y-35.258 Z-2.000 I1.529 J-2.769 K0.000 F300.000
G1 X45.121 Y-33.769 Z-2.000 F300.000
G2 X44.640 Y-34.059 Z-2.000 I-0.936 J1.008 K0.000 F300.000
G2 X43.950 Y-33.492 Z-2.000 I-0.091 J0.593 K0.000 F300.000
G3 X43.856 Y-32.073 Z-2.000 I-15.486 J-0.308 K0.000 F300.000
G1 X42.836 Y-32.129 Z-2.000 F300.000
G2 X42.942 Y-33.569 Z-2.000 I-26.703 J-2.707 K0.000 F300.000
G0 Z5.000
G0 Z5.000
G0 X42.942 Y-33.569
G0 X53.366 Y-32.847
G0 X53.366 Y-32.847 Z3.000
G1 X53.366 Y-32.847 Z-1.000 F300.000
G1 X53.364 Y-32.444 Z-1.000 F300.000
G1 X54.336 Y-32.336 Z-1.000 F300.000
G2 X54.346 Y-35.793 Z-1.000 I-339.615 J-2.699 K0.000 F300.000
G3 X54.946 Y-36.392 Z-1.000 I0.600 J0.000 K0.000 F300.000
G2 X56.619 Y-36.525 Z-1.000 I0.182 J-8.298 K0.000 F300.000
G2 X57.689 Y-37.133 Z-1.000 I-0.092 J-1.409 K0.000 F300.000
G2 X57.922 Y-37.812 Z-1.000 I-1.775 J-0.989 K0.000 F300.000
G2 X58.017 Y-40.932 Z-1.000 I-11.558 J-1.911 K0.000 F300.000
G1 X57.043 Y-41.157 Z-1.000 F300.000
G3 X57.028 Y-39.491 Z-1.000 I-7.437 J0.765 K0.000 F300.000
G3 X56.426 Y-38.647 Z-1.000 I-1.020 J-0.090 K0.000 F300.000
G3 X55.011 Y-38.530 Z-1.000 I-1.386 J-8.149 K0.000 F300.000
G3 X54.386 Y-39.137 Z-1.000 I-0.025 J-0.599 K0.000 F300.000
G2 X54.502 Y-48.681 Z-1.000 I-1796.082 J-26.630 K0.000 F300.000
G1 X53.498 Y-48.645 Z-1.000 F300.000
G2 X53.422 Y-39.048 Z-1.000 I9721.805 J82.207 K0.000 F300.000
G3 X53.136 Y-38.537 Z-1.000 I-0.600 J0.000 K0.000 F300.000
G3 X52.568 Y-38.463 Z-1.000 I-0.449 J-1.243 K0.000 F300.000
G1 X52.556 Y-36.473 Z-1.000 F300.000
G1 X52.782 Y-36.473 Z-1.000 F300.000
G3 X53.382 Y-35.870 Z-1.000 I0.000 J0.600 K0.000 F300.000
G1 X53.364 Y-32.444 Z-1.000 F300.000
G1 X53.820 Y-32.393 Z-1.000 F300.000
G1 X53.366 Y-32.847 Z-1.000 F300.000
G1 X53.375 Y-34.535 Z-1.000 F300.000
G1 X54.343 Y-33.567 Z-1.000 F300.000
G2 X54.346 Y-35.262 Z-1.000 I-514.218 J-1.659 K0.000 F300.000
G1 X52.559 Y-37.048 Z-1.000 F300.000
G1 X52.568 Y-38.463 Z-1.000 F300.000
G2 X52.847 Y-38.457 Z-1.000 I0.338 J-9.172 K0.000 F300.000
G1 X54.917 Y-36.388 Z-1.000 F300.000
G2 X56.492 Y-36.510 Z-1.000 I0.123 J-8.632 K0.000 F300.000
G1 X53.422 Y-39.580 Z-1.000 F300.000
G3 X53.436 Y-41.263 Z-1.000 I97.050 J-0.037 K0.000 F300.000
G1 X54.402 Y-40.297 Z-1.000 F300.000
G1 X54.386 Y-39.137 Z-1.000 F300.000
G2 X54.819 Y-38.553 Z-1.000 I0.600 J0.008 K0.000 F300.000
G2 X56.106 Y-38.593 Z-1.000 I0.397 J-8.041 K0.000 F300.000
G1 X57.631 Y-37.067 Z-1.000 F300.000
G2 X58.003 Y-38.392 Z-1.000 I-2.471 J-1.408 K0.000 F300.000
G1 X57.007 Y-39.391 Z-1.000 F300.000
G2 X57.049 Y-41.043 Z-1.000 I-5.406 J-0.965 K0.000 F300.000
G1 X58.053 Y-40.039 Z-1.000 F300.000
G2 X58.017 Y-40.932 Z-1.000 I-14.687 J0.153 K0.000 F300.000
G1 X57.043 Y-41.157 Z-1.000 F300.000
G1 X57.049 Y-41.043 Z-1.000 F300.000
G0 Z5.000
G0 X53.436 Y-41.263 Z5.000
G0 X53.436 Y-41.263 Z3.000
G1 X53.436 Y-41.263 Z-1.000 F300.000
G1 X54.402 Y-40.297 Z-1.000 F300.000
G1 X54.424 Y-41.971 Z-1.000 F300.000
G1 X53.450 Y-42.945 Z-1.000 F300.000
G1 X53.465 Y-44.628 Z-1.000 F300.000
G1 X54.446 Y-43.646 Z-1.000 F300.000
G1 X54.467 Y-45.323 Z-1.000 F300.000
G1 X53.479 Y-46.310 Z-1.000 F300.000
G2 X53.493 Y-47.994 Z-1.000 I-1986.023 J-17.295 K0.000 F300.000
G1 X54.486 Y-47.001 Z-1.000 F300.000
G2 X54.502 Y-48.681 Z-1.000 I-477.479 J-5.448 K0.000 F300.000
G1 X54.502 Y-48.681 Z-2.000 F300.000
G3 X54.486 Y-47.001 Z-2.000 I-477.495 J-3.767 K0.000 F300.000
G1 X53.493 Y-47.994 Z-2.000 F300.000
G3 X53.479 Y-46.310 Z-2.000 I-1986.037 J-15.611 K0.000 F300.000
G1 X54.467 Y-45.323 Z-2.000 F300.000
G1 X54.446 Y-43.646 Z-2.000 F300.000
G1 X53.465 Y-44.628 Z-2.000 F300.000
G1 X53.450 Y-42.945 Z-2.000 F300.000
G1 X54.424 Y-41.971 Z-2.000 F300.000
G1 X54.402 Y-40.297 Z-2.000 F300.000
G1 X53.436 Y-41.263 Z-2.000 F300.000
G0 Z5.000
G0 X57.049 Y-41.043 Z5.000
G0 X57.049 Y-41.043 Z3.000
G1 X57.049 Y-41.043 Z-2.000 F300.000
G1 X57.043 Y-41.157 Z-2.000 F300.000
G1 X58.017 Y-40.932 Z-2.000 F300.000
G3 X58.053 Y-40.039 Z-2.000 I-14.650 J1.045 K0.000 F300.000
G1 X57.049 Y-41.043 Z-2.000 F300.000
G3 X57.007 Y-39.391 Z-2.000 I-5.448 J0.688 K0.000 F300.000
G1 X58.003 Y-38.392 Z-2.000 F300.000
G3 X57.631 Y-37.067 Z-2.000 I-2.843 J-0.082 K0.000 F300.000
G1 X56.106 Y-38.593 Z-2.000 F300.000
G3 X54.819 Y-38.553 Z-2.000 I-0.890 J-8.001 K0.000 F300.000
G3 X54.386 Y-39.137 Z-2.000 I0.167 J-0.576 K0.000 F300.000
G1 X54.402 Y-40.297 Z-2.000 F300.000
G1 X53.436 Y-41.263 Z-2.000 F300.000
G2 X53.422 Y-39.580 Z-2.000 I97.036 J1.647 K0.000 F300.000
G1 X56.492 Y-36.510 Z-2.000 F300.000
G3 X54.917 Y-36.388 Z-2.000 I-1.452 J-8.510 K0.000 F300.000
G1 X52.847 Y-38.457 Z-2.000 F300.000
G3 X52.568 Y-38.463 Z-2.000 I0.060 J-9.178 K0.000 F300.000
G1 X52.559 Y-37.048 Z-2.000 F300.000
G1 X54.346 Y-35.262 Z-2.000 F300.000
G3 X54.343 Y-33.567 Z-2.000 I-514.221 J0.036 K0.000 F300.000
G1 X53.375 Y-34.535 Z-2.000 F300.000
G1 X53.366 Y-32.847 Z-2.000 F300.000
G1 X53.820 Y-32.393 Z-2.000 F300.000
G1 X53.364 Y-32.444 Z-2.000 F300.000
G1 X53.382 Y-35.870 Z-2.000 F300.000
G2 X52.782 Y-36.473 Z-2.000 I-0.600 J-0.003 K0.000 F300.000
G1 X52.556 Y-36.473 Z-2.000 F300.000
G1 X52.568 Y-38.463 Z-2.000 F300.000
G2 X53.136 Y-38.537 Z-2.000 I0.118 J-1.316 K0.000 F300.000
G2 X53.422 Y-39.048 Z-2.000 I-0.314 J-0.511 K0.000 F300.000
G3 X53.498 Y-48.645 Z-2.000 I9721.881 J72.611 K0.000 F300.000
G1 X54.502 Y-48.681 Z-2.000 F300.000
G3 X54.386 Y-39.137 Z-2.000 I-1796.198 J-17.086 K0.000 F300.000
G2 X55.011 Y-38.530 Z-2.000 I0.600 J0.008 K0.000 F300.000
G2 X56.426 Y-38.647 Z-2.000 I0.029 J-8.265 K0.000 F300.000
G2 X57.028 Y-39.491 Z-2.000 I-0.418 J-0.934 K0.000 F300.000
G2 X57.043 Y-41.157 Z-2.000 I-7.422 J-0.901 K0.000 F300.000
G1 X58.017 Y-40.932 Z-2.000 F300.000
G3 X57.922 Y-37.812 Z-2.000 I-11.652 J1.209 K0.000 F300.000
G3 X57.689 Y-37.133 Z-2.000 I-2.008 J-0.311 K0.000 F300.000
G3 X56.619 Y-36.525 Z-2.000 I-1.163 J-0.801 K0.000 F300.000
G3 X54.946 Y-36.392 Z-2.000 I-1.491 J-8.165 K0.000 F300.000
G2 X54.346 Y-35.793 Z-2.000 I-0.000 J0.600 K0.000 F300.000
G3 X54.336 Y-32.336 Z-2.000 I-339.625 J0.758 K0.000 F300.000
G1 X53.364 Y-32.444 Z-2.000 F300.000
G1 X53.366 Y-32.847 Z-2.000 F300.000
G0 Z5.000
G0 Z5.000
G0 X53.366 Y-32.847
G0 X57.383 Y-44.158
G0 X57.383 Y-44.158 Z3.000
G1 X57.383 Y-44.158 Z-1.000 F300.000
G1 X57.275 Y-43.516 Z-1.000 F300.000
G3 X55.903 Y-44.626 Z-1.000 I3.866 J-6.180 K0.000 F300.000
G1 X56.022 Y-45.519 Z-1.000 F300.000
G1 X57.383 Y-44.158 Z-1.000 F300.000
G1 X57.628 Y-45.611 Z-1.000 F300.000
G3 X56.167 Y-46.610 Z-1.000 I2.413 J-5.092 K0.000 F300.000
G1 X55.903 Y-44.626 Z-1.000 F300.000
G2 X57.275 Y-43.516 Z-1.000 I5.237 J-5.070 K0.000 F300.000
G1 X57.383 Y-44.158 Z-1.000 F300.000
G1 X57.628 Y-45.611 Z-1.000 F300.000
G1 X57.628 Y-45.611 Z-2.000 F300.000
G1 X57.383 Y-44.158 Z-2.000 F300.000
G1 X57.275 Y-43.516 Z-2.000 F300.000
G3 X55.903 Y-44.626 Z-2.000 I3.866 J-6.180 K0.000 F300.000
G1 X56.167 Y-46.610 Z-2.000 F300.000
G2 X57.628 Y-45.611 Z-2.000 I3.874 J-4.092 K0.000 F300.000
G1 X57.383 Y-44.158 Z-2.000 F300.000
G1 X56.022 Y-45.519 Z-2.000 F300.000
G1 X55.903 Y-44.626 Z-2.000 F300.000
G2 X57.275 Y-43.516 Z-2.000 I5.238 J-5.070 K0.000 F300.000
G1 X57.383 Y-44.158 Z-2.000 F300.000
G0 Z5.000
G0 Z5.000
G0 X57.383 Y-44.158
G0 X73.779 Y-56.237
G0 X73.779 Y-56.237 Z3.000
G1 X73.779 Y-56.237 Z-1.000 F300.000
G1 X72.541 Y-57.476 Z-1.000 F300.000
G1 X72.173 Y-57.289 Z-1.000 F300.000
G1 X72.618 Y-55.723 Z-1.000 F300.000
G2 X73.744 Y-56.227 Z-1.000 I-3.512 J-9.361 K0.000 F300.000
G1 X73.779 Y-56.237 Z-1.000 F300.000
G1 X73.744 Y-56.227 Z-1.000 F300.000
G3 X72.618 Y-55.723 Z-1.000 I-4.638 J-8.857 K0.000 F300.000
G1 X72.173 Y-57.289 Z-1.000 F300.000
G2 X74.481 Y-58.653 Z-1.000 I-6.901 J-14.316 K0.000 F300.000
G2 X74.643 Y-59.048 Z-1.000 I-0.438 J-0.410 K0.000 F300.000
G1 X74.744 Y-62.952 Z-1.000 F300.000
G2 X74.402 Y-63.509 Z-1.000 I-0.600 J-0.015 K0.000 F300.000
G3 X72.280 Y-64.867 Z-1.000 I3.351 J-7.574 K0.000 F300.000
G1 X72.832 Y-66.465 Z-1.000 F300.000
G2 X74.183 Y-65.714 Z-1.000 I3.673 J-5.011 K0.000 F300.000
G2 X74.885 Y-66.280 Z-1.000 I0.102 J-0.591 K0.000 F300.000
G3 X74.978 Y-68.406 Z-1.000 I129.324 J4.602 K0.000 F300.000
G2 X81.991 Y-68.369 Z-1.000 I4.476 J-181.082 K0.000 F300.000
G1 X81.959 Y-66.070 Z-1.000 F300.000
G2 X82.681 Y-65.475 Z-1.000 I0.600 J0.008 K0.000 F300.000
G2 X85.757 Y-67.104 Z-1.000 I-0.858 J-5.338 K0.000 F300.000
G2 X86.690 Y-68.231 Z-1.000 I-6.079 J-5.984 K0.000 F300.000
G1 X86.690 Y-68.231 Z-1.000 F300.000
G1 X86.912 Y-68.561 Z-1.000 F300.000
G1 X87.945 Y-66.818 Z-1.000 F300.000
G3 X84.028 Y-63.879 Z-1.000 I-5.732 J-3.561 K0.000 F300.000
G3 X82.407 Y-63.560 Z-1.000 I-2.612 J-9.007 K0.000 F300.000
G2 X81.898 Y-62.975 Z-1.000 I0.091 J0.593 K0.000 F300.000
G1 X81.858 Y-59.982 Z-1.000 F300.000
G2 X82.437 Y-59.374 Z-1.000 I0.600 J0.008 K0.000 F300.000
G3 X86.012 Y-59.158 Z-1.000 I0.093 J28.156 K0.000 F300.000
G3 X86.990 Y-58.913 Z-1.000 I-0.628 J4.582 K0.000 F300.000
G3 X87.820 Y-57.888 Z-1.000 I-0.756 J1.461 K0.000 F300.000
G3 X87.966 Y-56.866 Z-1.000 I-3.497 J1.021 K0.000 F300.000
G3 X87.529 Y-52.886 Z-1.000 I-16.332 J0.219 K0.000 F300.000
G1 X87.407 Y-52.463 Z-1.000 F300.000
G1 X85.306 Y-52.463 Z-1.000 F300.000
G2 X85.966 Y-56.166 Z-1.000 I-10.079 J-3.707 K0.000 F300.000
G2 X84.721 Y-57.400 Z-1.000 I-1.298 J0.065 K0.000 F300.000
G2 X82.209 Y-57.455 Z-1.000 I-1.837 J26.609 K0.000 F300.000
G2 X81.777 Y-56.899 Z-1.000 I0.168 J0.576 K0.000 F300.000
G1 X81.653 Y-53.186 Z-1.000 F300.000
G3 X76.732 Y-52.974 Z-1.000 I-4.096 J-37.782 K0.000 F300.000
G3 X75.325 Y-53.446 Z-1.000 I0.057 J-2.500 K0.000 F300.000
G3 X74.658 Y-54.618 Z-1.000 I1.192 J-1.455 K0.000 F300.000
G3 X74.603 Y-55.686 Z-1.000 I4.780 J-0.781 K0.000 F300.000
G2 X73.779 Y-56.237 Z-1.000 I-0.594 J-0.003 K0.000 F300.000
G0 Z5.000
G0 X76.095 Y-56.413 Z5.000
G0 X76.095 Y-56.413 Z3.000
G1 X76.095 Y-56.413 Z-1.000 F300.000
G3 X76.085 Y-56.909 Z-1.000 I4.409 J-0.335 K0.000 F300.000
G3 X76.316 Y-66.107 Z-1.000 I147.299 J-0.898 K0.000 F300.000
G3 X76.920 Y-66.682 Z-1.000 I0.600 J0.024 K0.000 F300.000
G1 X79.671 Y-66.662 Z-1.000 F300.000
G3 X80.266 Y-66.057 Z-1.000 I-0.004 J0.600 K0.000 F300.000
G3 X79.982 Y-55.526 Z-1.000 I-163.050 J0.867 K0.000 F300.000
G3 X79.660 Y-55.032 Z-1.000 I-0.599 J-0.038 K0.000 F300.000
G3 X77.289 Y-54.871 Z-1.000 I-1.691 J-7.357 K0.000 F300.000
G3 X76.209 Y-55.697 Z-1.000 I0.121 J-1.277 K0.000 F300.000
G3 X76.095 Y-56.413 Z-1.000 I4.294 J-1.051 K0.000 F300.000
G0 Z5.000
G0 X74.588 Y-58.822 Z5.000
G0 X74.588 Y-58.822 Z3.000
G1 X74.588 Y-58.822 Z-1.000 F300.000
G1 X76.078 Y-57.332 Z-1.000 F300.000
G3 X76.085 Y-59.022 Z-1.000 I36.999 J-0.695 K0.000 F300.000
G1 X74.679 Y-60.429 Z-1.000 F300.000
G1 X74.722 Y-62.083 Z-1.000 F300.000
G1 X76.119 Y-60.686 Z-1.000 F300.000
G3 X76.170 Y-62.332 Z-1.000 I107.801 J2.543 K0.000 F300.000
G1 X72.628 Y-65.874 Z-1.000 F300.000
G1 X72.832 Y-66.465 Z-1.000 F300.000
G2 X73.992 Y-65.782 Z-1.000 I3.977 J-5.421 K0.000 F300.000
G2 X74.460 Y-65.739 Z-1.000 I0.280 J-0.484 K0.000 F300.000
G1 X76.229 Y-63.970 Z-1.000 F300.000
G1 X76.295 Y-65.600 Z-1.000 F300.000
G1 X74.914 Y-66.982 Z-1.000 F300.000
G3 X74.978 Y-68.406 Z-1.000 I86.642 J3.211 K0.000 F300.000
G1 X75.190 Y-68.403 Z-1.000 F300.000
G1 X76.912 Y-66.681 Z-1.000 F300.000
G1 X76.920 Y-66.682 Z-1.000 F300.000
G1 X78.620 Y-66.670 Z-1.000 F300.000
G1 X76.914 Y-68.376 Z-1.000 F300.000
G2 X78.624 Y-68.363 Z-1.000 I1.468 J-76.560 K0.000 F300.000
G1 X83.290 Y-63.697 Z-1.000 F300.000
G2 X84.601 Y-64.083 Z-1.000 I-1.244 J-6.655 K0.000 F300.000
G1 X83.118 Y-65.566 Z-1.000 F300.000
G1 X82.681 Y-65.475 Z-1.000 F300.000
G3 X81.994 Y-65.859 Z-1.000 I-0.122 J-0.587 K0.000 F300.000
G3 X81.968 Y-66.716 Z-1.000 I2.354 J-0.501 K0.000 F300.000
G1 X80.329 Y-68.356 Z-1.000 F300.000
G2 X81.991 Y-68.369 Z-1.000 I0.375 J-58.063 K0.000 F300.000
G1 X81.968 Y-66.716 Z-1.000 F300.000
G0 Z5.000
G0 X80.258 Y-65.032 Z5.000
G0 X80.258 Y-65.032 Z3.000
G1 X80.258 Y-65.032 Z-1.000 F300.000
G1 X82.002 Y-63.288 Z-1.000 F300.000
G2 X81.898 Y-62.975 Z-1.000 I0.375 J0.298 K0.000 F300.000
G1 X81.881 Y-61.712 Z-1.000 F300.000
G1 X80.243 Y-63.350 Z-1.000 F300.000
G3 X80.227 Y-61.669 Z-1.000 I-63.989 J0.229 K0.000 F300.000
G1 X81.858 Y-60.037 Z-1.000 F300.000
G2 X82.525 Y-59.371 Z-1.000 I0.610 J0.056 K0.000 F300.000
G1 X84.480 Y-57.415 Z-1.000 F300.000
G2 X82.730 Y-57.468 Z-1.000 I-1.705 J27.358 K0.000 F300.000
G1 X80.183 Y-60.015 Z-1.000 F300.000
G1 X80.123 Y-58.378 Z-1.000 F300.000
G1 X81.771 Y-56.730 Z-1.000 F300.000
G1 X81.717 Y-55.088 Z-1.000 F300.000
G1 X80.055 Y-56.750 Z-1.000 F300.000
G3 X79.935 Y-55.327 Z-1.000 I-13.470 J-0.421 K0.000 F300.000
G1 X79.874 Y-55.234 Z-1.000 F300.000
G1 X81.662 Y-53.446 Z-1.000 F300.000
G1 X81.653 Y-53.186 Z-1.000 F300.000
G1 X80.331 Y-53.080 Z-1.000 F300.000
G1 X78.546 Y-54.865 Z-1.000 F300.000
G3 X76.924 Y-54.965 Z-1.000 I-0.556 J-4.174 K0.000 F300.000
G3 X76.120 Y-56.175 Z-1.000 I0.518 J-1.216 K0.000 F300.000
G3 X76.078 Y-57.332 Z-1.000 I17.046 J-1.187 K0.000 F300.000
G1 X74.588 Y-58.822 Z-1.000 F300.000
G3 X74.370 Y-58.560 Z-1.000 I-0.519 J-0.210 K0.000 F300.000
G3 X73.622 Y-58.091 Z-1.000 I-6.175 J-9.013 K0.000 F300.000
G1 X78.729 Y-52.984 Z-1.000 F300.000
G3 X77.058 Y-52.959 Z-1.000 I-1.014 J-11.777 K0.000 F300.000
G3 X76.256 Y-53.047 Z-1.000 I0.012 J-3.814 K0.000 F300.000
G3 X74.982 Y-53.804 Z-1.000 I0.273 J-1.912 K0.000 F300.000
G3 X74.603 Y-55.414 Z-1.000 I2.170 J-1.360 K0.000 F300.000
G1 X77.058 Y-52.959 Z-1.000 F300.000
G0 Z5.000
G0 X85.478 Y-53.023 Z5.000
G0 X85.478 Y-53.023 Z3.000
G1 X85.478 Y-53.023 Z-1.000 F300.000
G1 X86.039 Y-52.463 Z-1.000 F300.000
G1 X85.306 Y-52.463 Z-1.000 F300.000
G2 X85.478 Y-53.023 Z-1.000 I-4.029 J-1.549 K0.000 F300.000
G2 X85.799 Y-54.400 Z-1.000 I-7.782 J-2.539 K0.000 F300.000
G1 X87.480 Y-52.718 Z-1.000 F300.000
G2 X87.765 Y-54.131 Z-1.000 I-7.400 J-2.224 K0.000 F300.000
G1 X85.964 Y-55.932 Z-1.000 F300.000
G0 Z5.000
G0 X87.930 Y-57.360 Z5.000
G0 X87.930 Y-57.360 Z3.000
G1 X87.930 Y-57.360 Z-1.000 F300.000
G2 X87.371 Y-58.645 Z-1.000 I-1.980 J0.098 K0.000 F300.000
G2 X86.150 Y-59.140 Z-1.000 I-1.345 J1.564 K0.000 F300.000
G1 X87.930 Y-57.360 Z-1.000 F300.000
G3 X87.931 Y-55.662 Z-1.000 I-8.378 J0.853 K0.000 F300.000
G1 X84.283 Y-59.310 Z-1.000 F300.000
G2 X82.525 Y-59.371 Z-1.000 I-2.410 J44.609 K0.000 F300.000
G1 X84.480 Y-57.415 Z-1.000 F300.000
G3 X85.917 Y-56.468 Z-1.000 I0.128 J1.369 K0.000 F300.000
G3 X85.964 Y-55.932 Z-1.000 I-1.569 J0.407 K0.000 F300.000
G1 X87.765 Y-54.131 Z-1.000 F300.000
G0 Z5.000
G0 X84.601 Y-64.083 Z5.000
G0 X84.601 Y-64.083 Z3.000
G1 X84.601 Y-64.083 Z-1.000 F300.000
G1 X83.118 Y-65.566 Z-1.000 F300.000
G2 X84.349 Y-66.032 Z-1.000 I-0.803 J-3.974 K0.000 F300.000
G1 X85.743 Y-64.638 Z-1.000 F300.000
G2 X86.718 Y-65.361 Z-1.000 I-2.393 J-4.248 K0.000 F300.000
G1 X85.346 Y-66.732 Z-1.000 F300.000
G2 X86.192 Y-67.583 Z-1.000 I-3.729 J-4.557 K0.000 F300.000
G1 X87.537 Y-66.238 Z-1.000 F300.000
G2 X87.945 Y-66.818 Z-1.000 I-3.431 J-2.850 K0.000 F300.000
G1 X86.912 Y-68.561 Z-1.000 F300.000
G1 X86.912 Y-68.561 Z-2.000 F300.000
G1 X87.945 Y-66.818 Z-2.000 F300.000
G3 X87.537 Y-66.238 Z-2.000 I-3.839 J-2.271 K0.000 F300.000
G1 X86.192 Y-67.583 Z-2.000 F300.000
G3 X85.346 Y-66.732 Z-2.000 I-4.575 J-3.706 K0.000 F300.000
G1 X86.718 Y-65.361 Z-2.000 F300.000
G3 X85.743 Y-64.638 Z-2.000 I-3.367 J-3.526 K0.000 F300.000
G1 X84.349 Y-66.032 Z-2.000 F300.000
G3 X83.118 Y-65.566 Z-2.000 I-2.034 J-3.508 K0.000 F300.000
G1 X84.601 Y-64.083 Z-2.000 F300.000
G0 Z5.000
G0 X81.968 Y-66.716 Z5.000
G0 X81.968 Y-66.716 Z3.000
G1 X81.968 Y-66.716 Z-2.000 F300.000
G1 X81.991 Y-68.369 Z-2.000 F300.000
G3 X80.329 Y-68.356 Z-2.000 I-1.287 J-58.049 K0.000 F300.000
G1 X81.968 Y-66.716 Z-2.000 F300.000
G2 X81.994 Y-65.859 Z-2.000 I2.380 J0.356 K0.000 F300.000
G2 X82.681 Y-65.475 Z-2.000 I0.565 J-0.202 K0.000 F300.000
G1 X83.118 Y-65.566 Z-2.000 F300.000
G1 X84.601 Y-64.083 Z-2.000 F300.000
G3 X83.290 Y-63.697 Z-2.000 I-2.556 J-6.269 K0.000 F300.000
G1 X78.624 Y-68.363 Z-2.000 F300.000
G3 X76.914 Y-68.376 Z-2.000 I-0.243 J-76.573 K0.000 F300.000
G1 X78.620 Y-66.670 Z-2.000 F300.000
G1 X76.920 Y-66.682 Z-2.000 F300.000
G1 X76.912 Y-66.681 Z-2.000 F300.000
G1 X75.190 Y-68.403 Z-2.000 F300.000
G1 X74.978 Y-68.406 Z-2.000 F300.000
G2 X74.914 Y-66.982 Z-2.000 I86.578 J4.635 K0.000 F300.000
G1 X76.295 Y-65.600 Z-2.000 F300.000
G1 X76.229 Y-63.970 Z-2.000 F300.000
G1 X74.460 Y-65.739 Z-2.000 F300.000
G3 X73.992 Y-65.782 Z-2.000 I-0.188 J-0.526 K0.000 F300.000
G3 X72.832 Y-66.465 Z-2.000 I2.818 J-6.105 K0.000 F300.000
G1 X72.628 Y-65.874 Z-2.000 F300.000
G1 X76.170 Y-62.332 Z-2.000 F300.000
G2 X76.119 Y-60.686 Z-2.000 I107.750 J4.189 K0.000 F300.000
G1 X74.722 Y-62.083 Z-2.000 F300.000
G1 X74.679 Y-60.429 Z-2.000 F300.000
G1 X76.085 Y-59.022 Z-2.000 F300.000
G2 X76.078 Y-57.332 Z-2.000 I36.992 J0.995 K0.000 F300.000
G1 X74.588 Y-58.822 Z-2.000 F300.000
G0 Z5.000
G0 X76.085 Y-58.812 Z5.000
G0 X76.085 Y-58.812 Z3.000
G1 X76.085 Y-58.812 Z-2.000 F300.000
G3 X76.316 Y-66.107 Z-2.000 I147.298 J1.005 K0.000 F300.000
G3 X76.920 Y-66.682 Z-2.000 I0.600 J0.024 K0.000 F300.000
G1 X79.671 Y-66.662 Z-2.000 F300.000
G3 X80.266 Y-66.057 Z-2.000 I-0.004 J0.600 K0.000 F300.000
G3 X79.982 Y-55.526 Z-2.000 I-163.050 J0.867 K0.000 F300.000
G3 X79.660 Y-55.032 Z-2.000 I-0.599 J-0.038 K0.000 F300.000
G3 X77.289 Y-54.871 Z-2.000 I-1.691 J-7.357 K0.000 F300.000
G3 X76.209 Y-55.697 Z-2.000 I0.121 J-1.277 K0.000 F300.000
G3 X76.085 Y-56.909 Z-2.000 I4.294 J-1.051 K0.000 F300.000
G3 X76.085 Y-58.812 Z-2.000 I147.299 J-0.898 K0.000 F300.000
G0 Z5.000
G0 X73.779 Y-56.237 Z5.000
G0 X73.779 Y-56.237 Z3.000
G1 X73.779 Y-56.237 Z-2.000 F300.000
G3 X74.603 Y-55.686 Z-2.000 I0.229 J0.548 K0.000 F300.000
G2 X74.658 Y-54.618 Z-2.000 I4.835 J0.287 K0.000 F300.000
G2 X75.325 Y-53.446 Z-2.000 I1.859 J-0.284 K0.000 F300.000
G2 X76.732 Y-52.974 Z-2.000 I1.464 J-2.027 K0.000 F300.000
G2 X81.653 Y-53.186 Z-2.000 I0.825 J-37.994 K0.000 F300.000
G1 X81.777 Y-56.899 Z-2.000 F300.000
G3 X82.209 Y-57.455 Z-2.000 I0.600 J0.020 K0.000 F300.000
G3 X84.721 Y-57.400 Z-2.000 I0.676 J26.664 K0.000 F300.000
G3 X85.966 Y-56.166 Z-2.000 I-0.053 J1.298 K0.000 F300.000
G3 X85.306 Y-52.463 Z-2.000 I-10.739 J-0.003 K0.000 F300.000
G1 X87.407 Y-52.463 Z-2.000 F300.000
G1 X87.529 Y-52.886 Z-2.000 F300.000
G2 X87.966 Y-56.866 Z-2.000 I-15.895 J-3.761 K0.000 F300.000
G2 X87.820 Y-57.888 Z-2.000 I-3.643 J-0.001 K0.000 F300.000
G2 X86.990 Y-58.913 Z-2.000 I-1.586 J0.436 K0.000 F300.000
G2 X86.012 Y-59.158 Z-2.000 I-1.606 J4.337 K0.000 F300.000
G2 X82.437 Y-59.374 Z-2.000 I-3.482 J27.940 K0.000 F300.000
G3 X81.858 Y-59.982 Z-2.000 I0.020 J-0.600 K0.000 F300.000
G1 X81.898 Y-62.975 Z-2.000 F300.000
G3 X82.407 Y-63.560 Z-2.000 I0.600 J0.008 K0.000 F300.000
G2 X84.028 Y-63.879 Z-2.000 I-0.991 J-9.325 K0.000 F300.000
G2 X87.945 Y-66.818 Z-2.000 I-1.815 J-6.499 K0.000 F300.000
G1 X86.912 Y-68.561 Z-2.000 F300.000
G1 X86.690 Y-68.231 Z-2.000 F300.000
G1 X86.690 Y-68.231 Z-2.000 F300.000
G3 X85.757 Y-67.104 Z-2.000 I-7.012 J-4.857 K0.000 F300.000
G3 X82.681 Y-65.475 Z-2.000 I-3.934 J-3.709 K0.000 F300.000
G3 X81.959 Y-66.070 Z-2.000 I-0.122 J-0.587 K0.000 F300.000
G1 X81.991 Y-68.369 Z-2.000 F300.000
G3 X74.978 Y-68.406 Z-2.000 I-2.537 J-181.120 K0.000 F300.000
G2 X74.885 Y-66.280 Z-2.000 I129.230 J6.728 K0.000 F300.000
G3 X74.183 Y-65.714 Z-2.000 I-0.600 J-0.024 K0.000 F300.000
G3 X72.832 Y-66.465 Z-2.000 I2.322 J-5.763 K0.000 F300.000
G1 X72.280 Y-64.867 Z-2.000 F300.000
G2 X74.402 Y-63.509 Z-2.000 I5.473 J-6.217 K0.000 F300.000
G3 X74.744 Y-62.952 Z-2.000 I-0.257 J0.542 K0.000 F300.000
G1 X74.643 Y-59.048 Z-2.000 F300.000
G3 X74.481 Y-58.653 Z-2.000 I-0.600 J-0.015 K0.000 F300.000
G3 X72.173 Y-57.289 Z-2.000 I-9.209 J-12.952 K0.000 F300.000
G1 X72.618 Y-55.723 Z-2.000 F300.000
G2 X73.744 Y-56.227 Z-2.000 I-3.512 J-9.361 K0.000 F300.000
G1 X73.779 Y-56.237 Z-2.000 F300.000
G1 X73.744 Y-56.227 Z-2.000 F300.000
G3 X72.618 Y-55.723 Z-2.000 I-4.638 J-8.857 K0.000 F300.000
G1 X72.173 Y-57.289 Z-2.000 F300.000
G1 X72.541 Y-57.476 Z-2.000 F300.000
G1 X73.779 Y-56.237 Z-2.000 F300.000
G0 Z5.000
G0 X77.058 Y-52.959 Z5.000
G0 X77.058 Y-52.959 Z3.000
G1 X77.058 Y-52.959 Z-2.000 F300.000
G1 X74.603 Y-55.414 Z-2.000 F300.000
G2 X74.982 Y-53.804 Z-2.000 I2.549 J0.250 K0.000 F300.000
G2 X76.256 Y-53.047 Z-2.000 I1.548 J-1.155 K0.000 F300.000
G2 X77.058 Y-52.959 Z-2.000 I0.813 J-3.727 K0.000 F300.000
G2 X78.729 Y-52.984 Z-2.000 I0.657 J-11.802 K0.000 F300.000
G1 X73.622 Y-58.091 Z-2.000 F300.000
G2 X74.370 Y-58.560 Z-2.000 I-5.428 J-9.482 K0.000 F300.000
G2 X74.588 Y-58.822 Z-2.000 I-0.300 J-0.472 K0.000 F300.000
G1 X76.078 Y-57.332 Z-2.000 F300.000
G2 X76.120 Y-56.175 Z-2.000 I17.087 J-0.030 K0.000 F300.000
G2 X76.924 Y-54.965 Z-2.000 I1.321 J-0.006 K0.000 F300.000
G2 X78.546 Y-54.865 Z-2.000 I1.067 J-4.074 K0.000 F300.000
G1 X80.331 Y-53.080 Z-2.000 F300.000
G1 X81.653 Y-53.186 Z-2.000 F300.000
G1 X81.662 Y-53.446 Z-2.000 F300.000
G1 X79.874 Y-55.234 Z-2.000 F300.000
G1 X79.935 Y-55.327 Z-2.000 F300.000
G2 X80.055 Y-56.750 Z-2.000 I-13.350 J-1.843 K0.000 F300.000
G1 X81.717 Y-55.088 Z-2.000 F300.000
G1 X81.771 Y-56.730 Z-2.000 F300.000
G1 X80.123 Y-58.378 Z-2.000 F300.000
G1 X80.183 Y-60.015 Z-2.000 F300.000
G1 X82.730 Y-57.468 Z-2.000 F300.000
G3 X84.480 Y-57.415 Z-2.000 I0.045 J27.411 K0.000 F300.000
G1 X82.525 Y-59.371 Z-2.000 F300.000
G3 X81.858 Y-60.037 Z-2.000 I-0.056 J-0.610 K0.000 F300.000
G1 X80.227 Y-61.669 Z-2.000 F300.000
G2 X80.243 Y-63.350 Z-2.000 I-63.972 J-1.452 K0.000 F300.000
G1 X81.881 Y-61.712 Z-2.000 F300.000
G1 X81.898 Y-62.975 Z-2.000 F300.000
G3 X82.002 Y-63.288 Z-2.000 I0.479 J-0.015 K0.000 F300.000
G1 X80.258 Y-65.032 Z-2.000 F300.000
G0 Z5.000
G0 X85.964 Y-55.932 Z5.000
G0 X85.964 Y-55.932 Z3.000
G1 X85.964 Y-55.932 Z-2.000 F300.000
G1 X87.765 Y-54.131 Z-2.000 F300.000
G3 X87.480 Y-52.718 Z-2.000 I-7.685 J-0.812 K0.000 F300.000
G1 X85.799 Y-54.400 Z-2.000 F300.000
G3 X85.478 Y-53.023 Z-2.000 I-8.102 J-1.163 K0.000 F300.000
G3 X85.306 Y-52.463 Z-2.000 I-4.202 J-0.988 K0.000 F300.000
G1 X86.039 Y-52.463 Z-2.000 F300.000
G1 X85.478 Y-53.023 Z-2.000 F300.000
G0 Z5.000
G0 X87.765 Y-54.131 Z5.000
G0 X87.765 Y-54.131 Z3.000
G1 X87.765 Y-54.131 Z-2.000 F300.000
G1 X85.964 Y-55.932 Z-2.000 F300.000
G2 X85.917 Y-56.468 Z-2.000 I-1.616 J-0.129 K0.000 F300.000
G2 X84.480 Y-57.415 Z-2.000 I-1.309 J0.422 K0.000 F300.000
G1 X82.525 Y-59.371 Z-2.000 F300.000
G3 X84.283 Y-59.310 Z-2.000 I-0.653 J44.669 K0.000 F300.000
G1 X87.931 Y-55.662 Z-2.000 F300.000
G2 X87.930 Y-57.360 Z-2.000 I-8.379 J-0.845 K0.000 F300.000
G1 X86.150 Y-59.140 Z-2.000 F300.000
G3 X87.371 Y-58.645 Z-2.000 I-0.124 J2.060 K0.000 F300.000
G3 X87.930 Y-57.360 Z-2.000 I-1.421 J1.383 K0.000 F300.000
G0 Z5.000
G0 Z5.000
G0 X87.930 Y-57.360
G0 X87.263 Y-48.631
G0 X87.263 Y-48.631 Z3.000
G1 X87.263 Y-48.631 Z-1.000 F300.000
G1 X85.978 Y-48.730 Z-1.000 F300.000
G3 X86.008 Y-48.084 Z-1.000 I-4.227 J0.521 K0.000 F300.000
G3 X85.164 Y-47.077 Z-1.000 I-0.936 J0.074 K0.000 F300.000
G3 X82.515 Y-46.934 Z-1.000 I-2.316 J-18.386 K0.000 F300.000
G3 X81.907 Y-47.636 Z-1.000 I-0.016 J-0.600 K0.000 F300.000
G1 X82.101 Y-48.763 Z-1.000 F300.000
G1 X80.579 Y-48.921 Z-1.000 F300.000
G3 X80.313 Y-47.405 Z-1.000 I-14.426 J-1.750 K0.000 F300.000
G3 X79.720 Y-46.934 Z-1.000 I-0.586 J-0.129 K0.000 F300.000
G1 X76.523 Y-46.974 Z-1.000 F300.000
G3 X75.931 Y-47.587 Z-1.000 I0.008 J-0.600 K0.000 F300.000
G1 X75.959 Y-48.884 Z-1.000 F300.000
G1 X74.198 Y-48.908 Z-1.000 F300.000
G1 X74.198 Y-47.635 Z-1.000 F300.000
G3 X73.586 Y-47.035 Z-1.000 I-0.600 J0.000 K0.000 F300.000
G1 X72.230 Y-47.064 Z-1.000 F300.000
G1 X72.161 Y-45.479 Z-1.000 F300.000
G1 X73.522 Y-45.423 Z-1.000 F300.000
G3 X74.097 Y-44.807 Z-1.000 I-0.025 J0.599 K0.000 F300.000
G1 X74.073 Y-43.927 Z-1.000 F300.000
G1 X75.357 Y-43.886 Z-1.000 F300.000
G3 X75.621 Y-43.806 Z-1.000 I0.016 J0.423 K0.000 F300.000
G3 X75.847 Y-43.861 Z-1.000 I0.191 J0.295 K0.000 F300.000
G1 X75.871 Y-44.739 Z-1.000 F300.000
G3 X76.489 Y-45.322 Z-1.000 I0.600 J0.016 K0.000 F300.000
G1 X79.138 Y-45.241 Z-1.000 F300.000
G3 X79.720 Y-44.628 Z-1.000 I-0.018 J0.600 K0.000 F300.000
G3 X79.518 Y-43.961 Z-1.000 I-2.216 J-0.307 K0.000 F300.000
G1 X81.059 Y-43.950 Z-1.000 F300.000
G3 X81.329 Y-44.711 Z-1.000 I7.773 J2.335 K0.000 F300.000
G3 X81.777 Y-45.216 Z-1.000 I0.764 J0.227 K0.000 F300.000
G2 X86.025 Y-45.365 Z-1.000 I-5.327 J-212.645 K0.000 F300.000
G2 X87.243 Y-45.645 Z-1.000 I-0.064 J-3.064 K0.000 F300.000
G2 X87.955 Y-46.954 Z-1.000 I-0.887 J-1.331 K0.000 F300.000
G2 X87.843 Y-48.587 Z-1.000 I-6.612 J-0.367 K0.000 F300.000
G1 X87.263 Y-48.631 Z-1.000 F300.000
G0 Z5.000
G0 X87.843 Y-48.587 Z5.000
G0 X87.843 Y-48.587 Z3.000
G1 X87.843 Y-48.587 Z-1.000 F300.000
G3 X87.955 Y-46.954 Z-1.000 I-6.501 J1.266 K0.000 F300.000
G1 X87.934 Y-46.799 Z-1.000 F300.000
G1 X86.005 Y-48.728 Z-1.000 F300.000
G1 X85.978 Y-48.730 Z-1.000 F300.000
G3 X85.912 Y-47.636 Z-1.000 I-2.108 J0.422 K0.000 F300.000
G3 X85.704 Y-47.332 Z-1.000 I-0.739 J-0.283 K0.000 F300.000
G1 X87.332 Y-45.704 Z-1.000 F300.000
G3 X85.978 Y-45.361 Z-1.000 I-1.373 J-2.579 K0.000 F300.000
G1 X84.336 Y-47.002 Z-1.000 F300.000
G3 X82.702 Y-46.939 Z-1.000 I-2.274 J-37.776 K0.000 F300.000
G1 X84.359 Y-45.283 Z-1.000 F300.000
G0 Z5.000
G0 X83.762 Y-42.486 Z5.000
G0 X83.762 Y-42.486 Z3.000
G1 X83.762 Y-42.486 Z-1.000 F300.000
G1 X83.783 Y-43.247 Z-1.000 F300.000
G1 X82.981 Y-43.266 Z-1.000 F300.000
G1 X83.762 Y-42.486 Z-1.000 F300.000
G1 X83.717 Y-40.834 Z-1.000 F300.000
G1 X82.138 Y-42.413 Z-1.000 F300.000
G0 Z5.000
G0 X82.471 Y-42.942 Z5.000
G0 X82.471 Y-42.942 Z3.000
G1 X82.471 Y-42.942 Z-1.000 F300.000
G1 X82.471 Y-43.278 Z-1.000 F300.000
G1 X83.783 Y-43.247 Z-1.000 F300.000
G1 X83.699 Y-40.188 Z-1.000 F300.000
G2 X84.775 Y-39.807 Z-1.000 I0.600 J0.017 K0.000 F300.000
G2 X86.393 Y-42.993 Z-1.000 I-7.413 J-5.769 K0.000 F300.000
G1 X87.819 Y-42.165 Z-1.000 F300.000
G3 X86.061 Y-38.956 Z-1.000 I-9.214 J-2.963 K0.000 F300.000
G3 X85.146 Y-38.102 Z-1.000 I-4.552 J-3.961 K0.000 F300.000
G2 X85.080 Y-37.250 Z-1.000 I0.386 J0.459 K0.000 F300.000
G2 X87.573 Y-34.702 Z-1.000 I12.750 J-9.982 K0.000 F300.000
G1 X87.785 Y-34.543 Z-1.000 F300.000
G1 X86.844 Y-32.867 Z-1.000 F300.000
G3 X84.602 Y-35.609 Z-1.000 I13.599 J-13.406 K0.000 F300.000
G2 X83.516 Y-35.270 Z-1.000 I-0.486 J0.352 K0.000 F300.000
G1 X83.450 Y-32.412 Z-1.000 F300.000
G1 X82.197 Y-32.484 Z-1.000 F300.000
G2 X81.612 Y-33.307 Z-1.000 I-0.609 J-0.187 K0.000 F300.000
G3 X77.950 Y-33.493 Z-1.000 I-0.733 J-21.780 K0.000 F300.000
G3 X77.226 Y-33.844 Z-1.000 I0.136 J-1.201 K0.000 F300.000
G3 X77.028 Y-34.619 Z-1.000 I1.003 J-0.669 K0.000 F300.000
G2 X76.242 Y-35.138 Z-1.000 I-0.598 J0.051 K0.000 F300.000
G3 X74.225 Y-34.683 Z-1.000 I-2.370 J-5.816 K0.000 F300.000
G3 X73.472 Y-34.910 Z-1.000 I-0.081 J-1.094 K0.000 F300.000
G3 X73.375 Y-35.127 Z-1.000 I0.479 J-0.346 K0.000 F300.000
G3 X73.246 Y-36.031 Z-1.000 I4.359 J-1.080 K0.000 F300.000
G0 Z5.000
G0 X74.716 Y-36.939 Z5.000
G0 X74.716 Y-36.939 Z3.000
G1 X74.716 Y-36.939 Z-1.000 F300.000
G3 X74.595 Y-37.224 Z-1.000 I0.881 J-0.544 K0.000 F300.000
G3 X74.678 Y-39.597 Z-1.000 I16.275 J-0.616 K0.000 F300.000
G3 X74.903 Y-40.034 Z-1.000 I0.599 J0.033 K0.000 F300.000
G2 X75.945 Y-40.960 Z-1.000 I-3.563 J-5.055 K0.000 F300.000
G3 X76.401 Y-41.135 Z-1.000 I0.425 J0.424 K0.000 F300.000
G1 X76.785 Y-41.114 Z-1.000 F300.000
G3 X77.348 Y-40.433 Z-1.000 I-0.032 J0.599 K0.000 F300.000
G2 X77.069 Y-37.222 Z-1.000 I30.817 J4.291 K0.000 F300.000
G3 X76.806 Y-36.761 Z-1.000 I-0.599 J-0.037 K0.000 F300.000
G3 X75.830 Y-36.474 Z-1.000 I-1.458 J-3.156 K0.000 F300.000
G3 X74.716 Y-36.939 Z-1.000 I-0.233 J-1.009 K0.000 F300.000
G0 Z5.000
G0 X77.074 Y-37.295 Z5.000
G0 X77.074 Y-37.295 Z3.000
G1 X77.074 Y-37.295 Z-1.000 F300.000
G1 X78.399 Y-35.969 Z-1.000 F300.000
G1 X78.399 Y-36.692 Z-1.000 F300.000
G3 X78.807 Y-37.258 Z-1.000 I0.594 J-0.002 K0.000 F300.000
G1 X77.178 Y-38.887 Z-1.000 F300.000
G3 X77.346 Y-40.417 Z-1.000 I21.636 J1.600 K0.000 F300.000
G1 X78.553 Y-39.210 Z-1.000 F300.000
G2 X79.311 Y-38.451 Z-1.000 I0.605 J0.154 K0.000 F300.000
G1 X80.377 Y-37.386 Z-1.000 F300.000
G2 X81.657 Y-37.530 Z-1.000 I-0.984 J-14.455 K0.000 F300.000
G3 X81.995 Y-37.465 Z-1.000 I0.077 J0.506 K0.000 F300.000
G1 X80.862 Y-38.598 Z-1.000 F300.000
G2 X81.597 Y-38.699 Z-1.000 I-1.426 J-13.125 K0.000 F300.000
G2 X82.223 Y-38.933 Z-1.000 I-0.028 J-1.028 K0.000 F300.000
G1 X87.364 Y-33.793 Z-1.000 F300.000
G1 X87.785 Y-34.543 Z-1.000 F300.000
G1 X87.573 Y-34.702 Z-1.000 F300.000
G3 X85.080 Y-37.250 Z-1.000 I10.257 J-12.530 K0.000 F300.000
G3 X84.985 Y-37.869 Z-1.000 I0.426 J-0.382 K0.000 F300.000
G1 X82.410 Y-40.443 Z-1.000 F300.000
G0 Z5.000
G0 X82.410 Y-40.444 Z5.000
G0 X82.410 Y-40.444 Z3.000
G1 X82.410 Y-40.444 Z-1.000 F300.000
G1 X82.390 Y-39.331 Z-1.000 F300.000
G3 X81.894 Y-38.751 Z-1.000 I-0.600 J-0.011 K0.000 F300.000
G3 X79.192 Y-38.441 Z-1.000 I-3.928 J-22.276 K0.000 F300.000
G3 X78.543 Y-39.089 Z-1.000 I-0.052 J-0.598 K0.000 F300.000
G1 X78.664 Y-40.525 Z-1.000 F300.000
G3 X79.266 Y-41.074 Z-1.000 I0.598 J0.050 K0.000 F300.000
G1 X81.815 Y-41.055 Z-1.000 F300.000
G3 X82.410 Y-40.444 Z-1.000 I-0.005 J0.600 K0.000 F300.000
G0 Z5.000
G0 X82.471 Y-42.942 Z5.000
G0 X82.471 Y-42.942 Z3.000
G1 X82.471 Y-42.942 Z-1.000 F300.000
G3 X81.885 Y-42.342 Z-1.000 I-0.600 J-0.000 K0.000 F300.000
G3 X76.227 Y-42.282 Z-1.000 I-4.324 J-139.253 K0.000 F300.000
G1 X76.106 Y-42.294 Z-1.000 F300.000
G3 X75.588 Y-42.684 Z-1.000 I0.234 J-0.850 K0.000 F300.000
G3 X72.137 Y-40.228 Z-1.000 I-8.288 J-7.989 K0.000 F300.000
G1 X72.514 Y-39.010 Z-1.000 F300.000
G3 X73.248 Y-38.425 Z-1.000 I0.143 J0.573 K0.000 F300.000
G1 X73.227 Y-36.716 Z-1.000 F300.000
G2 X73.375 Y-35.127 Z-1.000 I6.285 J0.218 K0.000 F300.000
G2 X73.472 Y-34.910 Z-1.000 I0.577 J-0.129 K0.000 F300.000
G2 X74.572 Y-34.706 Z-1.000 I0.801 J-1.250 K0.000 F300.000
G1 X73.246 Y-36.031 Z-1.000 F300.000
G3 X73.239 Y-37.735 Z-1.000 I12.687 J-0.904 K0.000 F300.000
G1 X75.937 Y-35.037 Z-1.000 F300.000
G1 X76.242 Y-35.138 Z-1.000 F300.000
G3 X77.028 Y-34.619 Z-1.000 I0.189 J0.570 K0.000 F300.000
G2 X77.121 Y-34.029 Z-1.000 I1.447 J0.075 K0.000 F300.000
G2 X77.796 Y-33.538 Z-1.000 I0.786 J-0.371 K0.000 F300.000
G2 X79.318 Y-33.353 Z-1.000 I1.542 J-6.313 K0.000 F300.000
G1 X76.137 Y-36.535 Z-1.000 F300.000
G3 X75.830 Y-36.474 Z-1.000 I-0.454 J-1.496 K0.000 F300.000
G3 X74.640 Y-37.079 Z-1.000 I-0.221 J-1.037 K0.000 F300.000
G3 X74.598 Y-38.074 Z-1.000 I2.889 J-0.622 K0.000 F300.000
G1 X72.341 Y-40.330 Z-1.000 F300.000
G2 X73.426 Y-40.942 Z-1.000 I-3.378 J-7.255 K0.000 F300.000
G1 X74.691 Y-39.677 Z-1.000 F300.000
G3 X74.813 Y-39.945 Z-1.000 I0.471 J0.053 K0.000 F300.000
G3 X75.525 Y-40.540 Z-1.000 I3.469 J3.428 K0.000 F300.000
G1 X74.426 Y-41.640 Z-1.000 F300.000
G2 X75.335 Y-42.427 Z-1.000 I-4.451 J-6.054 K0.000 F300.000
G1 X76.640 Y-41.122 Z-1.000 F300.000
G0 Z5.000
G0 X75.335 Y-42.427 Z5.000
G0 X75.335 Y-42.427 Z3.000
G1 X75.335 Y-42.427 Z-1.000 F300.000
G1 X76.640 Y-41.122 Z-1.000 F300.000
G3 X77.346 Y-40.417 Z-1.000 I0.090 J0.616 K0.000 F300.000
G1 X78.553 Y-39.210 Z-1.000 F300.000
G1 X78.664 Y-40.525 Z-1.000 F300.000
G3 X78.726 Y-40.734 Z-1.000 I0.370 J-0.004 K0.000 F300.000
G1 X77.178 Y-42.282 Z-1.000 F300.000
G2 X78.874 Y-42.283 Z-1.000 I0.759 J-171.778 K0.000 F300.000
G1 X80.089 Y-41.068 Z-1.000 F300.000
G1 X81.799 Y-41.055 Z-1.000 F300.000
G1 X80.543 Y-42.311 Z-1.000 F300.000
G1 X81.885 Y-42.342 Z-1.000 F300.000
G2 X82.138 Y-42.413 Z-1.000 I0.016 J-0.430 K0.000 F300.000
G1 X83.717 Y-40.834 Z-1.000 F300.000
G1 X83.699 Y-40.188 Z-1.000 F300.000
G2 X84.759 Y-39.792 Z-1.000 I0.597 J0.018 K0.000 F300.000
G1 X85.832 Y-38.719 Z-1.000 F300.000
G2 X86.595 Y-39.652 Z-1.000 I-3.713 J-3.815 K0.000 F300.000
G1 X85.456 Y-40.792 Z-1.000 F300.000
G2 X86.013 Y-41.932 Z-1.000 I-7.940 J-4.592 K0.000 F300.000
G1 X87.214 Y-40.730 Z-1.000 F300.000
G2 X87.729 Y-41.913 Z-1.000 I-7.854 J-4.125 K0.000 F300.000
G1 X87.003 Y-42.639 Z-1.000 F300.000
G1 X87.819 Y-42.165 Z-1.000 F300.000
G3 X87.729 Y-41.913 Z-1.000 I-2.270 J-0.669 K0.000 F300.000
G0 Z5.000
G0 X82.191 Y-37.318 Z5.000
G0 X82.191 Y-37.318 Z3.000
G1 X82.191 Y-37.318 Z-1.000 F300.000
G3 X82.329 Y-36.921 Z-1.000 I-0.462 J0.383 K0.000 F300.000
G1 X82.289 Y-35.201 Z-1.000 F300.000
G3 X81.896 Y-34.652 Z-1.000 I-0.600 J-0.014 K0.000 F300.000
G3 X79.594 Y-34.579 Z-1.000 I-1.500 J-10.950 K0.000 F300.000
G3 X78.401 Y-35.546 Z-1.000 I0.008 J-1.229 K0.000 F300.000
G3 X78.399 Y-36.692 Z-1.000 I12.751 J-0.600 K0.000 F300.000
G3 X78.968 Y-37.292 Z-1.000 I0.600 J0.000 K0.000 F300.000
G2 X81.657 Y-37.530 Z-1.000 I-1.326 J-30.205 K0.000 F300.000
G3 X82.191 Y-37.318 Z-1.000 I0.073 J0.596 K0.000 F300.000
G0 Z5.000
G0 X82.256 Y-37.203 Z5.000
G0 X82.256 Y-37.203 Z3.000
G1 X82.256 Y-37.203 Z-1.000 F300.000
G1 X83.744 Y-35.715 Z-1.000 F300.000
G2 X83.516 Y-35.270 Z-1.000 I0.332 J0.451 K0.000 F300.000
G1 X83.493 Y-34.269 Z-1.000 F300.000
G1 X82.295 Y-35.467 Z-1.000 F300.000
G3 X82.052 Y-34.738 Z-1.000 I-0.732 J0.161 K0.000 F300.000
G3 X81.463 Y-34.603 Z-1.000 I-0.514 J-0.889 K0.000 F300.000
G1 X83.454 Y-32.611 Z-1.000 F300.000
G1 X83.450 Y-32.412 Z-1.000 F300.000
G1 X82.197 Y-32.484 Z-1.000 F300.000
G2 X81.612 Y-33.307 Z-1.000 I-0.609 J-0.187 K0.000 F300.000
G1 X81.057 Y-33.311 Z-1.000 F300.000
G1 X79.802 Y-34.566 Z-1.000 F300.000
G3 X78.490 Y-35.249 Z-1.000 I-0.065 J-1.477 K0.000 F300.000
G3 X78.399 Y-35.969 Z-1.000 I1.113 J-0.506 K0.000 F300.000
G1 X77.074 Y-37.295 Z-1.000 F300.000
G3 X76.640 Y-36.683 Z-1.000 I-0.609 J0.028 K0.000 F300.000
G1 X76.137 Y-36.535 Z-1.000 F300.000
G1 X79.318 Y-33.353 Z-1.000 F300.000
G0 Z5.000
G0 X80.597 Y-43.953 Z5.000
G0 X80.597 Y-43.953 Z3.000
G1 X80.597 Y-43.953 Z-1.000 F300.000
G1 X79.656 Y-44.895 Z-1.000 F300.000
G3 X79.686 Y-44.444 Z-1.000 I-0.497 J0.260 K0.000 F300.000
G1 X79.518 Y-43.961 Z-1.000 F300.000
G1 X80.597 Y-43.953 Z-1.000 F300.000
G1 X81.059 Y-43.950 Z-1.000 F300.000
G3 X81.391 Y-44.856 Z-1.000 I7.756 J2.329 K0.000 F300.000
G1 X79.308 Y-46.939 Z-1.000 F300.000
G1 X79.720 Y-46.934 Z-1.000 F300.000
G2 X80.354 Y-47.591 Z-1.000 I-0.006 J-0.641 K0.000 F300.000
G1 X82.700 Y-45.245 Z-1.000 F300.000
G2 X84.359 Y-45.283 Z-1.000 I-0.095 J-40.263 K0.000 F300.000
G1 X82.702 Y-46.939 Z-1.000 F300.000
G3 X81.922 Y-47.720 Z-1.000 I-0.170 J-0.611 K0.000 F300.000
G1 X80.738 Y-48.904 Z-1.000 F300.000
G1 X82.101 Y-48.763 Z-1.000 F300.000
G1 X81.922 Y-47.720 Z-1.000 F300.000
G0 Z5.000
G0 X79.371 Y-45.180 Z5.000
G0 X79.371 Y-45.180 Z3.000
G1 X79.371 Y-45.180 Z-1.000 F300.000
G1 X77.590 Y-46.961 Z-1.000 F300.000
G1 X76.523 Y-46.974 Z-1.000 F300.000
G3 X75.931 Y-47.587 Z-1.000 I0.008 J-0.600 K0.000 F300.000
G1 X75.953 Y-48.598 Z-1.000 F300.000
G1 X75.663 Y-48.888 Z-1.000 F300.000
G1 X74.198 Y-48.908 Z-1.000 F300.000
G1 X74.198 Y-48.655 Z-1.000 F300.000
G1 X77.564 Y-45.289 Z-1.000 F300.000
G1 X76.489 Y-45.322 Z-1.000 F300.000
G2 X76.032 Y-45.124 Z-1.000 I-0.034 J0.546 K0.000 F300.000
G1 X73.979 Y-47.178 Z-1.000 F300.000
G3 X73.586 Y-47.035 Z-1.000 I-0.375 J-0.419 K0.000 F300.000
G1 X72.400 Y-47.060 Z-1.000 F300.000
G1 X75.642 Y-43.817 Z-1.000 F300.000
G2 X75.357 Y-43.886 Z-1.000 I-0.437 J1.195 K0.000 F300.000
G1 X74.073 Y-43.927 Z-1.000 F300.000
G1 X74.097 Y-44.807 Z-1.000 F300.000
G2 X73.522 Y-45.423 Z-1.000 I-0.600 J-0.016 K0.000 F300.000
G1 X72.289 Y-45.474 Z-1.000 F300.000
G1 X72.166 Y-45.597 Z-1.000 F300.000
G1 X72.161 Y-45.479 Z-1.000 F300.000
G1 X72.289 Y-45.474 Z-1.000 F300.000
G0 Z5.000
G0 X75.683 Y-48.868 Z5.000
G0 X75.683 Y-48.868 Z3.000
G1 X75.683 Y-48.868 Z-1.000 F300.000
G1 X75.953 Y-48.598 Z-1.000 F300.000
G1 X75.959 Y-48.884 Z-1.000 F300.000
G1 X75.663 Y-48.888 Z-1.000 F300.000
G1 X75.683 Y-48.868 Z-1.000 F300.000
G1 X75.683 Y-48.868 Z-2.000 F300.000
G1 X75.953 Y-48.598 Z-2.000 F300.000
G1 X75.959 Y-48.884 Z-2.000 F300.000
G1 X75.663 Y-48.888 Z-2.000 F300.000
G1 X75.683 Y-48.868 Z-2.000 F300.000
G0 Z5.000
G0 X75.683 Y-48.888 Z5.000
G0 X75.683 Y-48.888 Z3.000
G1 X75.683 Y-48.888 Z-2.000 F300.000
G1 X74.198 Y-48.908 Z-2.000 F300.000
G1 X74.198 Y-47.635 Z-2.000 F300.000
G3 X73.586 Y-47.035 Z-2.000 I-0.600 J0.000 K0.000 F300.000
G1 X72.230 Y-47.064 Z-2.000 F300.000
G1 X72.161 Y-45.479 Z-2.000 F300.000
G1 X73.522 Y-45.423 Z-2.000 F300.000
G3 X74.097 Y-44.807 Z-2.000 I-0.025 J0.599 K0.000 F300.000
G1 X74.073 Y-43.927 Z-2.000 F300.000
G1 X75.357 Y-43.886 Z-2.000 F300.000
G3 X75.621 Y-43.806 Z-2.000 I0.016 J0.423 K0.000 F300.000
G3 X75.847 Y-43.861 Z-2.000 I0.191 J0.295 K0.000 F300.000
G1 X75.871 Y-44.739 Z-2.000 F300.000
G3 X76.489 Y-45.322 Z-2.000 I0.600 J0.016 K0.000 F300.000
G1 X79.138 Y-45.241 Z-2.000 F300.000
G3 X79.720 Y-44.628 Z-2.000 I-0.018 J0.600 K0.000 F300.000
G3 X79.518 Y-43.961 Z-2.000 I-2.216 J-0.307 K0.000 F300.000
G1 X81.059 Y-43.950 Z-2.000 F300.000
G3 X81.329 Y-44.711 Z-2.000 I7.773 J2.335 K0.000 F300.000
G3 X81.777 Y-45.216 Z-2.000 I0.764 J0.227 K0.000 F300.000
G2 X86.025 Y-45.365 Z-2.000 I-5.327 J-212.645 K0.000 F300.000
G2 X87.243 Y-45.645 Z-2.000 I-0.064 J-3.064 K0.000 F300.000
G2 X87.955 Y-46.954 Z-2.000 I-0.887 J-1.331 K0.000 F300.000
G2 X87.843 Y-48.587 Z-2.000 I-6.612 J-0.367 K0.000 F300.000
G1 X85.978 Y-48.730 Z-2.000 F300.000
G3 X86.008 Y-48.084 Z-2.000 I-4.227 J0.521 K0.000 F300.000
G3 X85.164 Y-47.077 Z-2.000 I-0.936 J0.074 K0.000 F300.000
G3 X82.515 Y-46.934 Z-2.000 I-2.316 J-18.386 K0.000 F300.000
G3 X81.907 Y-47.636 Z-2.000 I-0.016 J-0.600 K0.000 F300.000
G1 X82.101 Y-48.763 Z-2.000 F300.000
G1 X80.579 Y-48.921 Z-2.000 F300.000
G3 X80.313 Y-47.405 Z-2.000 I-14.426 J-1.750 K0.000 F300.000
G3 X79.720 Y-46.934 Z-2.000 I-0.586 J-0.129 K0.000 F300.000
G1 X76.523 Y-46.974 Z-2.000 F300.000
G3 X75.931 Y-47.587 Z-2.000 I0.008 J-0.600 K0.000 F300.000
G1 X75.959 Y-48.884 Z-2.000 F300.000
G1 X75.683 Y-48.888 Z-2.000 F300.000
G0 Z5.000
G0 X72.289 Y-45.474 Z5.000
G0 X72.289 Y-45.474 Z3.000
G1 X72.289 Y-45.474 Z-2.000 F300.000
G1 X72.161 Y-45.479 Z-2.000 F300.000
G1 X72.166 Y-45.597 Z-2.000 F300.000
G1 X72.289 Y-45.474 Z-2.000 F300.000
G1 X73.522 Y-45.423 Z-2.000 F300.000
G3 X74.097 Y-44.807 Z-2.000 I-0.025 J0.599 K0.000 F300.000
G1 X74.073 Y-43.927 Z-2.000 F300.000
G1 X75.357 Y-43.886 Z-2.000 F300.000
G3 X75.642 Y-43.817 Z-2.000 I-0.153 J1.264 K0.000 F300.000
G1 X72.400 Y-47.060 Z-2.000 F300.000
G1 X73.586 Y-47.035 Z-2.000 F300.000
G2 X73.979 Y-47.178 Z-2.000 I0.018 J-0.562 K0.000 F300.000
G1 X76.032 Y-45.124 Z-2.000 F300.000
G3 X76.489 Y-45.322 Z-2.000 I0.422 J0.348 K0.000 F300.000
G1 X77.564 Y-45.289 Z-2.000 F300.000
G1 X74.198 Y-48.655 Z-2.000 F300.000
G1 X74.198 Y-48.908 Z-2.000 F300.000
G1 X75.663 Y-48.888 Z-2.000 F300.000
G1 X75.953 Y-48.598 Z-2.000 F300.000
G1 X75.931 Y-47.587 Z-2.000 F300.000
G2 X76.523 Y-46.974 Z-2.000 I0.600 J0.013 K0.000 F300.000
G1 X77.590 Y-46.961 Z-2.000 F300.000
G1 X79.371 Y-45.180 Z-2.000 F300.000
G0 Z5.000
G0 X80.597 Y-43.953 Z5.000
G0 X80.597 Y-43.953 Z3.000
G1 X80.597 Y-43.953 Z-2.000 F300.000
G1 X79.656 Y-44.895 Z-2.000 F300.000
G3 X79.686 Y-44.444 Z-2.000 I-0.497 J0.260 K0.000 F300.000
G1 X79.518 Y-43.961 Z-2.000 F300.000
G1 X80.597 Y-43.953 Z-2.000 F300.000
G1 X81.059 Y-43.950 Z-2.000 F300.000
G3 X81.391 Y-44.856 Z-2.000 I7.756 J2.329 K0.000 F300.000
G1 X79.308 Y-46.939 Z-2.000 F300.000
G1 X79.720 Y-46.934 Z-2.000 F300.000
G2 X80.354 Y-47.591 Z-2.000 I-0.006 J-0.641 K0.000 F300.000
G1 X82.700 Y-45.245 Z-2.000 F300.000
G2 X84.359 Y-45.283 Z-2.000 I-0.095 J-40.263 K0.000 F300.000
G1 X82.702 Y-46.939 Z-2.000 F300.000
G3 X81.922 Y-47.720 Z-2.000 I-0.170 J-0.611 K0.000 F300.000
G1 X80.738 Y-48.904 Z-2.000 F300.000
G1 X82.101 Y-48.763 Z-2.000 F300.000
G1 X81.922 Y-47.720 Z-2.000 F300.000
G0 Z5.000
G0 X84.359 Y-45.283 Z5.000
G0 X84.359 Y-45.283 Z3.000
G1 X84.359 Y-45.283 Z-2.000 F300.000
G1 X82.702 Y-46.939 Z-2.000 F300.000
G2 X84.336 Y-47.002 Z-2.000 I-0.640 J-37.839 K0.000 F300.000
G1 X85.978 Y-45.361 Z-2.000 F300.000
G2 X87.332 Y-45.704 Z-2.000 I-0.018 J-2.922 K0.000 F300.000
G1 X85.704 Y-47.332 Z-2.000 F300.000
G2 X85.912 Y-47.636 Z-2.000 I-0.531 J-0.587 K0.000 F300.000
G2 X85.978 Y-48.730 Z-2.000 I-2.043 J-0.672 K0.000 F300.000
G1 X86.005 Y-48.728 Z-2.000 F300.000
G1 X87.934 Y-46.799 Z-2.000 F300.000
G1 X87.955 Y-46.954 Z-2.000 F300.000
G2 X87.843 Y-48.587 Z-2.000 I-6.612 J-0.367 K0.000 F300.000
G0 Z5.000
G0 X87.729 Y-41.913 Z5.000
G0 X87.729 Y-41.913 Z3.000
G1 X87.729 Y-41.913 Z-2.000 F300.000
G2 X87.819 Y-42.165 Z-2.000 I-2.180 J-0.921 K0.000 F300.000
G1 X87.003 Y-42.639 Z-2.000 F300.000
G1 X87.729 Y-41.913 Z-2.000 F300.000
G3 X87.214 Y-40.730 Z-2.000 I-8.369 J-2.943 K0.000 F300.000
G1 X86.013 Y-41.932 Z-2.000 F300.000
G3 X85.456 Y-40.792 Z-2.000 I-8.497 J-3.453 K0.000 F300.000
G1 X86.595 Y-39.652 Z-2.000 F300.000
G3 X85.832 Y-38.719 Z-2.000 I-4.477 J-2.881 K0.000 F300.000
G1 X84.759 Y-39.792 Z-2.000 F300.000
G3 X83.699 Y-40.188 Z-2.000 I-0.463 J-0.378 K0.000 F300.000
G1 X83.717 Y-40.834 Z-2.000 F300.000
G1 X82.138 Y-42.413 Z-2.000 F300.000
G3 X81.885 Y-42.342 Z-2.000 I-0.236 J-0.360 K0.000 F300.000
G1 X80.543 Y-42.311 Z-2.000 F300.000
G1 X81.799 Y-41.055 Z-2.000 F300.000
G1 X80.089 Y-41.068 Z-2.000 F300.000
G1 X78.874 Y-42.283 Z-2.000 F300.000
G3 X77.178 Y-42.282 Z-2.000 I-0.937 J-171.777 K0.000 F300.000
G1 X78.726 Y-40.734 Z-2.000 F300.000
G2 X78.664 Y-40.525 Z-2.000 I0.308 J0.205 K0.000 F300.000
G1 X78.553 Y-39.210 Z-2.000 F300.000
G1 X77.346 Y-40.417 Z-2.000 F300.000
G2 X76.640 Y-41.122 Z-2.000 I-0.616 J-0.090 K0.000 F300.000
G1 X75.335 Y-42.427 Z-2.000 F300.000
G0 Z5.000
G0 X76.081 Y-41.062 Z5.000
G0 X76.081 Y-41.062 Z3.000
G1 X76.081 Y-41.062 Z-2.000 F300.000
G3 X76.401 Y-41.135 Z-2.000 I0.288 J0.526 K0.000 F300.000
G1 X76.785 Y-41.114 Z-2.000 F300.000
G3 X77.348 Y-40.433 Z-2.000 I-0.032 J0.599 K0.000 F300.000
G2 X77.069 Y-37.222 Z-2.000 I30.817 J4.291 K0.000 F300.000
G3 X76.806 Y-36.761 Z-2.000 I-0.599 J-0.037 K0.000 F300.000
G3 X75.830 Y-36.474 Z-2.000 I-1.458 J-3.156 K0.000 F300.000
G3 X74.595 Y-37.224 Z-2.000 I-0.233 J-1.009 K0.000 F300.000
G3 X74.678 Y-39.597 Z-2.000 I16.275 J-0.616 K0.000 F300.000
G3 X74.903 Y-40.034 Z-2.000 I0.599 J0.033 K0.000 F300.000
G2 X75.945 Y-40.960 Z-2.000 I-3.563 J-5.055 K0.000 F300.000
G3 X76.081 Y-41.062 Z-2.000 I0.425 J0.424 K0.000 F300.000
G0 Z5.000
G0 X76.640 Y-41.122 Z5.000
G0 X76.640 Y-41.122 Z3.000
G1 X76.640 Y-41.122 Z-2.000 F300.000
G1 X75.335 Y-42.427 Z-2.000 F300.000
G3 X74.426 Y-41.640 Z-2.000 I-5.360 J-5.266 K0.000 F300.000
G1 X75.525 Y-40.540 Z-2.000 F300.000
G2 X74.813 Y-39.945 Z-2.000 I2.757 J4.023 K0.000 F300.000
G2 X74.691 Y-39.677 Z-2.000 I0.348 J0.321 K0.000 F300.000
G1 X73.426 Y-40.942 Z-2.000 F300.000
G3 X72.341 Y-40.330 Z-2.000 I-4.463 J-6.643 K0.000 F300.000
G1 X74.598 Y-38.074 Z-2.000 F300.000
G2 X74.640 Y-37.079 Z-2.000 I2.931 J0.372 K0.000 F300.000
G2 X75.830 Y-36.474 Z-2.000 I0.969 J-0.432 K0.000 F300.000
G2 X76.137 Y-36.535 Z-2.000 I-0.147 J-1.556 K0.000 F300.000
G1 X79.318 Y-33.353 Z-2.000 F300.000
G3 X77.796 Y-33.538 Z-2.000 I0.019 J-6.498 K0.000 F300.000
G3 X77.121 Y-34.029 Z-2.000 I0.110 J-0.862 K0.000 F300.000
G3 X77.028 Y-34.619 Z-2.000 I1.355 J-0.514 K0.000 F300.000
G2 X76.242 Y-35.138 Z-2.000 I-0.598 J0.051 K0.000 F300.000
G1 X75.937 Y-35.037 Z-2.000 F300.000
G1 X73.239 Y-37.735 Z-2.000 F300.000
G2 X73.246 Y-36.031 Z-2.000 I12.694 J0.800 K0.000 F300.000
G1 X74.572 Y-34.706 Z-2.000 F300.000
G3 X73.472 Y-34.910 Z-2.000 I-0.298 J-1.454 K0.000 F300.000
G3 X73.375 Y-35.127 Z-2.000 I0.479 J-0.346 K0.000 F300.000
G3 X73.227 Y-36.716 Z-2.000 I6.138 J-1.371 K0.000 F300.000
G1 X73.248 Y-38.425 Z-2.000 F300.000
G2 X72.514 Y-39.010 Z-2.000 I-0.591 J-0.012 K0.000 F300.000
G1 X72.137 Y-40.228 Z-2.000 F300.000
G2 X75.588 Y-42.684 Z-2.000 I-4.838 J-10.446 K0.000 F300.000
G2 X76.106 Y-42.294 Z-2.000 I0.753 J-0.460 K0.000 F300.000
G1 X76.227 Y-42.282 Z-2.000 F300.000
G2 X81.885 Y-42.342 Z-2.000 I1.333 J-139.313 K0.000 F300.000
G2 X82.471 Y-42.942 Z-2.000 I-0.014 J-0.600 K0.000 F300.000
G1 X82.471 Y-42.942 Z-2.000 F300.000
G1 X82.471 Y-43.278 Z-2.000 F300.000
G1 X83.783 Y-43.247 Z-2.000 F300.000
G1 X83.699 Y-40.188 Z-2.000 F300.000
G2 X84.775 Y-39.807 Z-2.000 I0.600 J0.017 K0.000 F300.000
G2 X86.393 Y-42.993 Z-2.000 I-7.413 J-5.769 K0.000 F300.000
G1 X87.819 Y-42.165 Z-2.000 F300.000
G3 X86.061 Y-38.956 Z-2.000 I-9.214 J-2.963 K0.000 F300.000
G3 X85.146 Y-38.102 Z-2.000 I-4.552 J-3.961 K0.000 F300.000
G2 X85.080 Y-37.250 Z-2.000 I0.386 J0.459 K0.000 F300.000
G2 X87.573 Y-34.702 Z-2.000 I12.750 J-9.982 K0.000 F300.000
G1 X87.785 Y-34.543 Z-2.000 F300.000
G1 X86.844 Y-32.867 Z-2.000 F300.000
G3 X84.602 Y-35.609 Z-2.000 I13.599 J-13.406 K0.000 F300.000
G2 X83.516 Y-35.270 Z-2.000 I-0.486 J0.352 K0.000 F300.000
G1 X83.450 Y-32.412 Z-2.000 F300.000
G1 X82.197 Y-32.484 Z-2.000 F300.000
G2 X81.612 Y-33.307 Z-2.000 I-0.609 J-0.187 K0.000 F300.000
G3 X77.950 Y-33.493 Z-2.000 I-0.733 J-21.780 K0.000 F300.000
G3 X77.226 Y-33.844 Z-2.000 I0.136 J-1.201 K0.000 F300.000
G3 X77.028 Y-34.619 Z-2.000 I1.003 J-0.669 K0.000 F300.000
G2 X76.242 Y-35.138 Z-2.000 I-0.598 J0.051 K0.000 F300.000
G3 X74.225 Y-34.683 Z-2.000 I-2.370 J-5.816 K0.000 F300.000
G3 X73.472 Y-34.910 Z-2.000 I-0.081 J-1.094 K0.000 F300.000
G3 X73.375 Y-35.127 Z-2.000 I0.479 J-0.346 K0.000 F300.000
G3 X73.246 Y-36.031 Z-2.000 I4.359 J-1.080 K0.000 F300.000
G0 Z5.000
G0 X77.074 Y-37.295 Z5.000
G0 X77.074 Y-37.295 Z3.000
G1 X77.074 Y-37.295 Z-2.000 F300.000
G1 X78.399 Y-35.969 Z-2.000 F300.000
G1 X78.399 Y-36.692 Z-2.000 F300.000
G3 X78.807 Y-37.258 Z-2.000 I0.594 J-0.002 K0.000 F300.000
G1 X77.178 Y-38.887 Z-2.000 F300.000
G3 X77.346 Y-40.417 Z-2.000 I21.636 J1.600 K0.000 F300.000
G1 X78.553 Y-39.210 Z-2.000 F300.000
G2 X79.311 Y-38.451 Z-2.000 I0.605 J0.154 K0.000 F300.000
G1 X80.377 Y-37.386 Z-2.000 F300.000
G2 X81.657 Y-37.530 Z-2.000 I-0.984 J-14.455 K0.000 F300.000
G3 X81.995 Y-37.465 Z-2.000 I0.077 J0.506 K0.000 F300.000
G1 X80.862 Y-38.598 Z-2.000 F300.000
G2 X81.597 Y-38.699 Z-2.000 I-1.426 J-13.125 K0.000 F300.000
G2 X82.223 Y-38.933 Z-2.000 I-0.028 J-1.028 K0.000 F300.000
G1 X87.364 Y-33.793 Z-2.000 F300.000
G1 X87.785 Y-34.543 Z-2.000 F300.000
G1 X87.573 Y-34.702 Z-2.000 F300.000
G3 X85.080 Y-37.250 Z-2.000 I10.257 J-12.530 K0.000 F300.000
G3 X84.985 Y-37.869 Z-2.000 I0.426 J-0.382 K0.000 F300.000
G1 X82.410 Y-40.443 Z-2.000 F300.000
G0 Z5.000
G0 X82.410 Y-40.444 Z5.000
G0 X82.410 Y-40.444 Z3.000
G1 X82.410 Y-40.444 Z-2.000 F300.000
G1 X82.390 Y-39.331 Z-2.000 F300.000
G3 X81.894 Y-38.751 Z-2.000 I-0.600 J-0.011 K0.000 F300.000
G3 X79.192 Y-38.441 Z-2.000 I-3.928 J-22.276 K0.000 F300.000
G3 X78.543 Y-39.089 Z-2.000 I-0.052 J-0.598 K0.000 F300.000
G1 X78.664 Y-40.525 Z-2.000 F300.000
G3 X79.266 Y-41.074 Z-2.000 I0.598 J0.050 K0.000 F300.000
G1 X81.815 Y-41.055 Z-2.000 F300.000
G3 X82.410 Y-40.444 Z-2.000 I-0.005 J0.600 K0.000 F300.000
G0 Z5.000
G0 X82.138 Y-42.413 Z5.000
G0 X82.138 Y-42.413 Z3.000
G1 X82.138 Y-42.413 Z-2.000 F300.000
G1 X83.717 Y-40.834 Z-2.000 F300.000
G1 X83.762 Y-42.486 Z-2.000 F300.000
G1 X82.981 Y-43.266 Z-2.000 F300.000
G1 X83.783 Y-43.247 Z-2.000 F300.000
G1 X83.762 Y-42.486 Z-2.000 F300.000
G0 Z5.000
G0 X81.936 Y-37.498 Z5.000
G0 X81.936 Y-37.498 Z3.000
G1 X81.936 Y-37.498 Z-2.000 F300.000
G3 X82.329 Y-36.921 Z-2.000 I-0.206 J0.563 K0.000 F300.000
G1 X82.289 Y-35.201 Z-2.000 F300.000
G3 X81.896 Y-34.652 Z-2.000 I-0.600 J-0.014 K0.000 F300.000
G3 X79.594 Y-34.579 Z-2.000 I-1.500 J-10.950 K0.000 F300.000
G3 X78.401 Y-35.546 Z-2.000 I0.008 J-1.229 K0.000 F300.000
G3 X78.399 Y-36.692 Z-2.000 I12.751 J-0.600 K0.000 F300.000
G3 X78.968 Y-37.292 Z-2.000 I0.600 J0.000 K0.000 F300.000
G2 X81.657 Y-37.530 Z-2.000 I-1.326 J-30.205 K0.000 F300.000
G3 X81.936 Y-37.498 Z-2.000 I0.073 J0.596 K0.000 F300.000
G0 Z5.000
G0 X82.256 Y-37.203 Z5.000
G0 X82.256 Y-37.203 Z3.000
G1 X82.256 Y-37.203 Z-2.000 F300.000
G1 X83.744 Y-35.715 Z-2.000 F300.000
G2 X83.516 Y-35.270 Z-2.000 I0.332 J0.451 K0.000 F300.000
G1 X83.493 Y-34.269 Z-2.000 F300.000
G1 X82.295 Y-35.467 Z-2.000 F300.000
G3 X82.052 Y-34.738 Z-2.000 I-0.732 J0.161 K0.000 F300.000
G3 X81.463 Y-34.603 Z-2.000 I-0.514 J-0.889 K0.000 F300.000
G1 X83.454 Y-32.611 Z-2.000 F300.000
G1 X83.450 Y-32.412 Z-2.000 F300.000
G1 X82.197 Y-32.484 Z-2.000 F300.000
G2 X81.612 Y-33.307 Z-2.000 I-0.609 J-0.187 K0.000 F300.000
G1 X81.057 Y-33.311 Z-2.000 F300.000
G1 X79.802 Y-34.566 Z-2.000 F300.000
G3 X78.490 Y-35.249 Z-2.000 I-0.065 J-1.477 K0.000 F300.000
G3 X78.399 Y-35.969 Z-2.000 I1.113 J-0.506 K0.000 F300.000
G1 X77.074 Y-37.295 Z-2.000 F300.000
G3 X76.640 Y-36.683 Z-2.000 I-0.609 J0.028 K0.000 F300.000
G1 X76.137 Y-36.535 Z-2.000 F300.000
G1 X79.318 Y-33.353 Z-2.000 F300.000
G0 Z5.000
G0 Z5.000
G0 X79.318 Y-33.353
G0 X80.757 Y-28.665
G0 X80.757 Y-28.665 Z3.000
G1 X80.757 Y-28.665 Z-1.000 F300.000
G1 X80.732 Y-26.993 Z-1.000 F300.000
G1 X79.024 Y-28.701 Z-1.000 F300.000
G1 X79.002 Y-27.026 Z-1.000 F300.000
G1 X80.705 Y-25.323 Z-1.000 F300.000
G3 X80.677 Y-23.654 Z-1.000 I-1131.384 J-18.193 K0.000 F300.000
G1 X78.979 Y-25.351 Z-1.000 F300.000
G3 X78.951 Y-23.683 Z-1.000 I-111.876 J-1.064 K0.000 F300.000
G1 X80.648 Y-21.985 Z-1.000 F300.000
G2 X80.620 Y-20.317 Z-1.000 I451.424 J8.547 K0.000 F300.000
G1 X78.916 Y-22.020 Z-1.000 F300.000
G1 X78.881 Y-20.358 Z-1.000 F300.000
G1 X80.593 Y-18.646 Z-1.000 F300.000
G1 X80.566 Y-16.977 Z-1.000 F300.000
G1 X78.844 Y-18.699 Z-1.000 F300.000
G1 X78.806 Y-17.040 Z-1.000 F300.000
G1 X80.536 Y-15.309 Z-1.000 F300.000
G3 X80.503 Y-13.645 Z-1.000 I-345.310 J-6.054 K0.000 F300.000
G1 X78.768 Y-15.380 Z-1.000 F300.000
G2 X78.732 Y-13.720 Z-1.000 I967.254 J22.154 K0.000 F300.000
G1 X80.299 Y-12.152 Z-1.000 F300.000
G1 X78.701 Y-12.283 Z-1.000 F300.000
G2 X79.024 Y-28.713 Z-1.000 I-1563.660 J-39.003 K0.000 F300.000
G1 X80.757 Y-28.665 Z-1.000 F300.000
G3 X80.466 Y-12.139 Z-1.000 I-2734.346 J-39.853 K0.000 F300.000
G1 X78.701 Y-12.283 Z-1.000 F300.000
G1 X78.732 Y-13.720 Z-1.000 F300.000
G1 X78.732 Y-13.720 Z-2.000 F300.000
G1 X78.701 Y-12.283 Z-2.000 F300.000
G1 X80.466 Y-12.139 Z-2.000 F300.000
G2 X80.757 Y-28.665 Z-2.000 I-2734.055 J-56.380 K0.000 F300.000
G1 X79.024 Y-28.713 Z-2.000 F300.000
G3 X78.701 Y-12.283 Z-2.000 I-1563.984 J-22.574 K0.000 F300.000
G1 X80.299 Y-12.152 Z-2.000 F300.000
G1 X78.732 Y-13.720 Z-2.000 F300.000
G3 X78.768 Y-15.380 Z-2.000 I967.291 J20.494 K0.000 F300.000
G1 X80.503 Y-13.645 Z-2.000 F300.000
G2 X80.536 Y-15.309 Z-2.000 I-345.277 J-7.718 K0.000 F300.000
G1 X78.806 Y-17.040 Z-2.000 F300.000
G1 X78.844 Y-18.699 Z-2.000 F300.000
G1 X80.566 Y-16.977 Z-2.000 F300.000
G1 X80.593 Y-18.646 Z-2.000 F300.000
G1 X78.881 Y-20.358 Z-2.000 F300.000
G1 X78.916 Y-22.020 Z-2.000 F300.000
G1 X80.620 Y-20.317 Z-2.000 F300.000
G3 X80.648 Y-21.985 Z-2.000 I451.452 J6.878 K0.000 F300.000
G1 X78.951 Y-23.683 Z-2.000 F300.000
G2 X78.979 Y-25.351 Z-2.000 I-111.847 J-2.733 K0.000 F300.000
G1 X80.677 Y-23.654 Z-2.000 F300.000
G2 X80.705 Y-25.323 Z-2.000 I-1131.356 J-19.862 K0.000 F300.000
G1 X79.002 Y-27.026 Z-2.000 F300.000
G1 X79.024 Y-28.701 Z-2.000 F300.000
G1 X80.732 Y-26.993 Z-2.000 F300.000
G1 X80.757 Y-28.665 Z-2.000 F300.000
G0 Z5.000
G0 Z5.000
G0 X80.757 Y-28.665
G0 X82.641 Y-8.477
G0 X82.641 Y-8.477 Z3.000
G1 X82.641 Y-8.477 Z-1.000 F300.000
G1 X83.327 Y-6.484 Z-1.000 F300.000
G1 X83.080 Y-6.342 Z-1.000 F300.000
G1 X81.550 Y-7.871 Z-1.000 F300.000
G3 X80.399 Y-7.326 Z-1.000 I-4.154 J-7.276 K0.000 F300.000
G1 X81.953 Y-5.771 Z-1.000 F300.000
G3 X80.738 Y-5.289 Z-1.000 I-3.944 J-8.180 K0.000 F300.000
G1 X79.158 Y-6.869 Z-1.000 F300.000
G3 X77.841 Y-6.489 Z-1.000 I-3.009 J-7.943 K0.000 F300.000
G1 X79.431 Y-4.899 Z-1.000 F300.000
G3 X78.038 Y-4.596 Z-1.000 I-3.483 J-12.624 K0.000 F300.000
G1 X76.420 Y-6.213 Z-1.000 F300.000
G3 X75.383 Y-6.099 Z-1.000 I-1.687 J-10.524 K0.000 F300.000
G1 X75.482 Y-5.455 Z-1.000 F300.000
G1 X76.576 Y-4.360 Z-1.000 F300.000
G3 X75.663 Y-4.273 Z-1.000 I-1.469 J-10.474 K0.000 F300.000
G1 X75.482 Y-5.455 Z-1.000 F300.000
G0 Z5.000
G0 X75.482 Z5.000
G0 X75.482 Z3.000
G1 X75.482 Y-5.455 Z-1.000 F300.000
G1 X75.663 Y-4.273 Z-1.000 F300.000
G2 X77.388 Y-4.474 Z-1.000 I-1.460 J-19.977 K0.000 F300.000
G2 X83.327 Y-6.484 Z-1.000 I-2.150 J-16.138 K0.000 F300.000
G1 X82.641 Y-8.477 Z-1.000 F300.000
G3 X75.383 Y-6.099 Z-1.000 I-8.484 J-13.626 K0.000 F300.000
G1 X75.482 Y-5.455 Z-1.000 F300.000
G1 X75.482 Y-5.455 Z-2.000 F300.000
G1 X75.663 Y-4.273 Z-2.000 F300.000
G2 X77.388 Y-4.474 Z-2.000 I-1.460 J-19.977 K0.000 F300.000
G2 X83.327 Y-6.484 Z-2.000 I-2.150 J-16.138 K0.000 F300.000
G1 X82.641 Y-8.477 Z-2.000 F300.000
G3 X75.383 Y-6.099 Z-2.000 I-8.484 J-13.626 K0.000 F300.000
G1 X75.482 Y-5.455 Z-2.000 F300.000
G0 Z5.000
G0 X75.482 Z5.000
G0 X75.482 Z3.000
G1 X75.482 Y-5.455 Z-2.000 F300.000
G1 X75.663 Y-4.273 Z-2.000 F300.000
G2 X76.576 Y-4.360 Z-2.000 I-0.556 J-10.562 K0.000 F300.000
G1 X75.482 Y-5.455 Z-2.000 F300.000
G1 X75.383 Y-6.099 Z-2.000 F300.000
G2 X76.420 Y-6.213 Z-2.000 I-0.650 J-10.638 K0.000 F300.000
G1 X78.038 Y-4.596 Z-2.000 F300.000
G2 X79.431 Y-4.899 Z-2.000 I-2.090 J-12.928 K0.000 F300.000
G1 X77.841 Y-6.489 Z-2.000 F300.000
G2 X79.158 Y-6.869 Z-2.000 I-1.692 J-8.323 K0.000 F300.000
G1 X80.738 Y-5.289 Z-2.000 F300.000
G2 X81.953 Y-5.771 Z-2.000 I-2.729 J-8.662 K0.000 F300.000
G1 X80.399 Y-7.326 Z-2.000 F300.000
G2 X81.550 Y-7.871 Z-2.000 I-3.003 J-7.822 K0.000 F300.000
G1 X83.080 Y-6.342 Z-2.000 F300.000
G1 X83.327 Y-6.484 Z-2.000 F300.000
G1 X82.641 Y-8.477 Z-2.000 F300.000
G0 Z5.000
G0 Z5.000
G0 X82.641 Y-8.477
G0 X82.629 Y11.872
G0 X82.629 Y11.872 Z3.000
G1 X82.629 Y11.872 Z-1.000 F300.000
G3 X72.800 Y11.724 Z-1.000 I0.210 J-338.255 K0.000 F300.000
G1 X72.743 Y13.212 Z-1.000 F300.000
G3 X73.365 Y13.884 Z-1.000 I0.020 J0.605 K0.000 F300.000
G2 X73.246 Y17.099 Z-1.000 I13.982 J2.126 K0.000 F300.000
G2 X73.992 Y18.136 Z-1.000 I1.066 J0.021 K0.000 F300.000
G2 X75.139 Y18.330 Z-1.000 I1.152 J-3.333 K0.000 F300.000
G2 X86.457 Y18.191 Z-1.000 I2.276 J-275.896 K0.000 F300.000
G2 X86.508 Y11.853 Z-1.000 I-393.594 J-6.347 K0.000 F300.000
G3 X82.629 Y11.872 Z-1.000 I-3.669 J-338.236 K0.000 F300.000
G0 Z5.000
G0 Y13.276 Z5.000
G0 Y13.276 Z3.000
G1 X82.629 Y13.276 Z-1.000 F300.000
G1 X84.237 Y13.276 Z-1.000 F300.000
G3 X84.808 Y13.690 Z-1.000 I-0.000 J0.600 K0.000 F300.000
G3 X84.756 Y16.121 Z-1.000 I-13.885 J0.917 K0.000 F300.000
G3 X84.168 Y16.681 Z-1.000 I-0.599 J-0.040 K0.000 F300.000
G1 X80.993 Y16.741 Z-1.000 F300.000
G3 X80.408 Y16.318 Z-1.000 I-0.011 J-0.600 K0.000 F300.000
G3 X80.463 Y13.842 Z-1.000 I23.982 J-0.710 K0.000 F300.000
G3 X81.062 Y13.276 Z-1.000 I0.599 J0.034 K0.000 F300.000
G1 X82.629 Y13.276 Z-1.000 F300.000
G0 Z5.000
G0 X82.839 Z5.000
G0 X82.839 Z3.000
G1 X82.839 Y13.276 Z-1.000 F300.000
G1 X81.413 Y11.849 Z-1.000 F300.000
G1 X79.708 Y11.841 Z-1.000 F300.000
G1 X81.142 Y13.276 Z-1.000 F300.000
G2 X80.463 Y13.842 Z-1.000 I-0.072 J0.605 K0.000 F300.000
G1 X80.439 Y14.269 Z-1.000 F300.000
G1 X78.003 Y11.833 Z-1.000 F300.000
G3 X76.284 Y11.811 Z-1.000 I0.122 J-78.179 K0.000 F300.000
G1 X77.729 Y13.256 Z-1.000 F300.000
G1 X76.031 Y13.256 Z-1.000 F300.000
G1 X74.555 Y11.779 Z-1.000 F300.000
G1 X72.802 Y11.724 Z-1.000 F300.000
G1 X74.896 Y13.818 Z-1.000 F300.000
G0 Z5.000
G0 X74.891 Y13.816 Z5.000
G0 X74.891 Y13.816 Z3.000
G1 X74.891 Y13.816 Z-1.000 F300.000
G3 X74.909 Y13.746 Z-1.000 I6.330 J1.653 K0.000 F300.000
G3 X75.499 Y13.256 Z-1.000 I0.590 J0.109 K0.000 F300.000
G1 X78.372 Y13.256 Z-1.000 F300.000
G3 X78.969 Y13.919 Z-1.000 I-0.000 J0.600 K0.000 F300.000
G2 X78.891 Y16.181 Z-1.000 I15.357 J1.659 K0.000 F300.000
G3 X78.302 Y16.781 Z-1.000 I-0.600 J0.000 K0.000 F300.000
G1 X75.996 Y16.822 Z-1.000 F300.000
G3 X74.690 Y15.849 Z-1.000 I-0.105 J-1.223 K0.000 F300.000
G3 X74.891 Y13.816 Z-1.000 I6.531 J-0.380 K0.000 F300.000
G0 Z5.000
G0 X73.355 Y13.973 Z5.000
G0 X73.355 Y13.973 Z3.000
G1 X73.355 Y13.973 Z-1.000 F300.000
G1 X74.671 Y15.289 Z-1.000 F300.000
G3 X74.896 Y13.818 Z-1.000 I9.257 J0.664 K0.000 F300.000
G1 X72.802 Y11.724 Z-1.000 F300.000
G1 X72.800 Y11.724 Z-1.000 F300.000
G0 Z5.000
G0 X74.183 Y18.196 Z5.000
G0 X74.183 Y18.196 Z3.000
G1 X74.183 Y18.196 Z-1.000 F300.000
G3 X73.274 Y17.286 Z-1.000 I0.169 J-1.078 K0.000 F300.000
G1 X74.183 Y18.196 Z-1.000 F300.000
G2 X76.013 Y18.329 Z-1.000 I1.345 J-5.842 K0.000 F300.000
G1 X73.222 Y15.538 Z-1.000 F300.000
G3 X73.355 Y13.973 Z-1.000 I10.475 J0.097 K0.000 F300.000
G1 X74.671 Y15.289 Z-1.000 F300.000
G2 X74.918 Y16.360 Z-1.000 I1.372 J0.247 K0.000 F300.000
G2 X76.200 Y16.819 Z-1.000 I1.052 J-0.920 K0.000 F300.000
G1 X77.702 Y18.320 Z-1.000 F300.000
G1 X79.390 Y18.312 Z-1.000 F300.000
G1 X77.868 Y16.789 Z-1.000 F300.000
G1 X78.302 Y16.781 Z-1.000 F300.000
G2 X78.891 Y16.115 Z-1.000 I-0.014 J-0.606 K0.000 F300.000
G1 X81.079 Y18.303 Z-1.000 F300.000
G2 X82.761 Y18.288 Z-1.000 I0.215 J-69.389 K0.000 F300.000
G1 X81.210 Y16.737 Z-1.000 F300.000
G3 X80.387 Y15.914 Z-1.000 I-0.178 J-0.645 K0.000 F300.000
G1 X78.919 Y14.446 Z-1.000 F300.000
G0 Z5.000
G0 X82.761 Y18.288 Z5.000
G0 X82.761 Y18.288 Z3.000
G1 X82.761 Y18.288 Z-1.000 F300.000
G1 X81.210 Y16.737 Z-1.000 F300.000
G1 X82.875 Y16.705 Z-1.000 F300.000
G1 X84.429 Y18.259 Z-1.000 F300.000
G2 X86.071 Y18.205 Z-1.000 I-0.678 J-44.972 K0.000 F300.000
G1 X84.460 Y16.593 Z-1.000 F300.000
G2 X84.718 Y16.294 Z-1.000 I-0.184 J-0.420 K0.000 F300.000
G2 X84.813 Y15.249 Z-1.000 I-9.905 J-1.432 K0.000 F300.000
G1 X86.472 Y16.908 Z-1.000 F300.000
G1 X86.492 Y15.231 Z-1.000 F300.000
G1 X83.118 Y11.857 Z-1.000 F300.000
G1 X84.822 Y11.864 Z-1.000 F300.000
G1 X86.501 Y13.543 Z-1.000 F300.000
G1 X86.508 Y11.853 Z-1.000 F300.000
G1 X86.508 Y11.853 Z-2.000 F300.000
G1 X86.501 Y13.543 Z-2.000 F300.000
G1 X84.822 Y11.864 Z-2.000 F300.000
G1 X83.118 Y11.857 Z-2.000 F300.000
G1 X86.492 Y15.231 Z-2.000 F300.000
G1 X86.472 Y16.908 Z-2.000 F300.000
G1 X84.813 Y15.249 Z-2.000 F300.000
G3 X84.718 Y16.294 Z-2.000 I-10.001 J-0.387 K0.000 F300.000
G3 X84.460 Y16.593 Z-2.000 I-0.442 J-0.121 K0.000 F300.000
G1 X86.071 Y18.205 Z-2.000 F300.000
G3 X84.429 Y18.259 Z-2.000 I-2.320 J-44.917 K0.000 F300.000
G1 X82.875 Y16.705 Z-2.000 F300.000
G1 X81.210 Y16.737 Z-2.000 F300.000
G1 X82.761 Y18.288 Z-2.000 F300.000
G0 Z5.000
G0 X82.761 Y18.287 Z5.000
G0 X82.761 Y18.287 Z3.000
G1 X82.761 Y18.287 Z-2.000 F300.000
G2 X86.457 Y18.191 Z-2.000 I-5.346 J-275.853 K0.000 F300.000
G2 X86.508 Y11.853 Z-2.000 I-393.594 J-6.347 K0.000 F300.000
G3 X72.800 Y11.724 Z-2.000 I-3.669 J-338.236 K0.000 F300.000
G1 X72.743 Y13.212 Z-2.000 F300.000
G3 X73.365 Y13.884 Z-2.000 I0.020 J0.605 K0.000 F300.000
G2 X73.246 Y17.099 Z-2.000 I13.982 J2.126 K0.000 F300.000
G2 X73.992 Y18.136 Z-2.000 I1.066 J0.021 K0.000 F300.000
G2 X75.139 Y18.330 Z-2.000 I1.152 J-3.333 K0.000 F300.000
G2 X82.761 Y18.287 Z-2.000 I2.276 J-275.896 K0.000 F300.000
G0 Z5.000
G0 X82.731 Y16.708 Z5.000
G0 X82.731 Y16.708 Z3.000
G1 X82.731 Y16.708 Z-2.000 F300.000
G1 X80.993 Y16.741 Z-2.000 F300.000
G3 X80.408 Y16.318 Z-2.000 I-0.011 J-0.600 K0.000 F300.000
G3 X80.463 Y13.842 Z-2.000 I23.982 J-0.710 K0.000 F300.000
G3 X81.062 Y13.276 Z-2.000 I0.599 J0.034 K0.000 F300.000
G1 X84.237 Y13.276 Z-2.000 F300.000
G3 X84.808 Y13.690 Z-2.000 I-0.000 J0.600 K0.000 F300.000
G3 X84.756 Y16.121 Z-2.000 I-13.885 J0.917 K0.000 F300.000
G3 X84.168 Y16.681 Z-2.000 I-0.599 J-0.040 K0.000 F300.000
G1 X82.731 Y16.708 Z-2.000 F300.000
G0 Z5.000
G0 X82.839 Y13.276 Z5.000
G0 X82.839 Y13.276 Z3.000
G1 X82.839 Y13.276 Z-2.000 F300.000
G1 X81.413 Y11.849 Z-2.000 F300.000
G1 X79.708 Y11.841 Z-2.000 F300.000
G1 X81.142 Y13.276 Z-2.000 F300.000
G2 X80.463 Y13.842 Z-2.000 I-0.072 J0.605 K0.000 F300.000
G1 X80.439 Y14.269 Z-2.000 F300.000
G1 X78.003 Y11.833 Z-2.000 F300.000
G3 X76.284 Y11.811 Z-2.000 I0.122 J-78.179 K0.000 F300.000
G1 X77.729 Y13.256 Z-2.000 F300.000
G1 X76.031 Y13.256 Z-2.000 F300.000
G1 X74.555 Y11.779 Z-2.000 F300.000
G1 X72.802 Y11.724 Z-2.000 F300.000
G1 X74.896 Y13.818 Z-2.000 F300.000
G0 Z5.000
G0 X74.891 Y13.816 Z5.000
G0 X74.891 Y13.816 Z3.000
G1 X74.891 Y13.816 Z-2.000 F300.000
G3 X74.909 Y13.746 Z-2.000 I6.330 J1.653 K0.000 F300.000
G3 X75.499 Y13.256 Z-2.000 I0.590 J0.109 K0.000 F300.000
G1 X78.372 Y13.256 Z-2.000 F300.000
G3 X78.969 Y13.919 Z-2.000 I-0.000 J0.600 K0.000 F300.000
G2 X78.891 Y16.181 Z-2.000 I15.357 J1.659 K0.000 F300.000
G3 X78.302 Y16.781 Z-2.000 I-0.600 J0.000 K0.000 F300.000
G1 X75.996 Y16.822 Z-2.000 F300.000
G3 X74.690 Y15.849 Z-2.000 I-0.105 J-1.223 K0.000 F300.000
G3 X74.891 Y13.816 Z-2.000 I6.531 J-0.380 K0.000 F300.000
G0 Z5.000
G0 X73.355 Y13.973 Z5.000
G0 X73.355 Y13.973 Z3.000
G1 X73.355 Y13.973 Z-2.000 F300.000
G1 X74.671 Y15.289 Z-2.000 F300.000
G3 X74.896 Y13.818 Z-2.000 I9.257 J0.664 K0.000 F300.000
G1 X72.802 Y11.724 Z-2.000 F300.000
G1 X72.800 Y11.724 Z-2.000 F300.000
G0 Z5.000
G0 X74.183 Y18.196 Z5.000
G0 X74.183 Y18.196 Z3.000
G1 X74.183 Y18.196 Z-2.000 F300.000
G3 X73.274 Y17.286 Z-2.000 I0.169 J-1.078 K0.000 F300.000
G1 X74.183 Y18.196 Z-2.000 F300.000
G2 X76.013 Y18.329 Z-2.000 I1.345 J-5.842 K0.000 F300.000
G1 X73.222 Y15.538 Z-2.000 F300.000
G3 X73.355 Y13.973 Z-2.000 I10.475 J0.097 K0.000 F300.000
G1 X74.671 Y15.289 Z-2.000 F300.000
G2 X74.918 Y16.360 Z-2.000 I1.372 J0.247 K0.000 F300.000
G2 X76.200 Y16.819 Z-2.000 I1.052 J-0.920 K0.000 F300.000
G1 X77.702 Y18.320 Z-2.000 F300.000
G1 X79.390 Y18.312 Z-2.000 F300.000
G1 X77.868 Y16.789 Z-2.000 F300.000
G1 X78.302 Y16.781 Z-2.000 F300.000
G2 X78.891 Y16.115 Z-2.000 I-0.014 J-0.606 K0.000 F300.000
G1 X81.079 Y18.303 Z-2.000 F300.000
G2 X82.761 Y18.288 Z-2.000 I0.215 J-69.389 K0.000 F300.000
G1 X81.210 Y16.737 Z-2.000 F300.000
G3 X80.387 Y15.914 Z-2.000 I-0.178 J-0.645 K0.000 F300.000
G1 X78.919 Y14.446 Z-2.000 F300.000
G0 Z5.000
G0 Z5.000
G0 X78.919 Y14.446
G0 X79.646 Y21.665
G0 X79.646 Y21.665 Z3.000
G1 X79.646 Y21.665 Z-1.000 F300.000
G2 X79.668 Y21.687 Z-1.000 I0.013 J0.008 K0.000 F300.000
G1 X79.646 Y21.665 Z-1.000 F300.000
G2 X82.198 Y22.807 Z-1.000 I4.373 J-6.346 K0.000 F300.000
G1 X82.762 Y21.386 Z-1.000 F300.000
G3 X80.097 Y20.386 Z-1.000 I2.604 J-10.987 K0.000 F300.000
G1 X79.646 Y21.665 Z-1.000 F300.000
G1 X80.089 Y20.411 Z-1.000 F300.000
