(Exported by FreeCAD)
(Post Processor: script_module)
(Output Time:2026-07-21 16:01:19.234048)
(Begin preamble)
G17 G90
G21
(Begin operation: Fixture)
(Path: Fixture)
G54
(Finish operation: Fixture)
(Begin operation: 30degree_Vbit001)
(Path: 30degree_Vbit001)
(30degree_Vbit001)
(Begin toolchange)
( M6 T3 )
M3 S10000
(Finish operation: 30degree_Vbit001)
(Begin operation: Profile)
(Path: Profile)
(Profile)
(Uncompensated Tool Path)
G0 Z5.000
G0 X0.000 Y0.000
G0 X-31.456 Y-10.424
G0 X-31.456 Y-10.424 Z3.000
G1 X-31.456 Y-10.424 Z-0.100 F300.000
G2 X-31.693 Y-10.737 Z-0.100 I-0.226 J-0.075 K0.000 F300.000
G3 X-35.764 Y-12.559 Z-0.100 I22.624 J-56.024 K0.000 F300.000
G2 X-35.764 Y-12.205 Z-0.100 I0.002 J0.177 K0.000 F300.000
G2 X-31.567 Y-10.291 Z-0.100 I22.433 J-43.635 K0.000 F300.000
G2 X-31.456 Y-10.424 Z-0.100 I-0.116 J-0.208 K0.000 F300.000
G0 Z5.000
G0 Z5.000
G0 X-31.456 Y-10.424
G0 X-31.310 Y-12.062
G0 X-31.310 Y-12.062 Z3.000
G1 X-31.310 Y-12.062 Z-0.100 F300.000
G2 X-31.439 Y-12.439 Z-0.100 I-0.077 J-0.184 K0.000 F300.000
G3 X-34.633 Y-13.633 Z-0.100 I2.854 J-12.501 K0.000 F300.000
G2 X-34.633 Y-13.104 Z-0.100 I0.021 J0.265 K0.000 F300.000
G2 X-31.310 Y-12.062 Z-0.100 I4.304 J-7.909 K0.000 F300.000
G0 Z5.000
G0 Z5.000
G0 X-31.310 Y-12.062
G0 X-31.427 Y-15.027
G0 X-31.427 Y-15.027 Z3.000
G1 X-31.427 Y-15.027 Z-0.100 F300.000
G2 X-31.184 Y-15.038 Z-0.100 I-1.511 J-38.406 K0.000 F300.000
G2 X-31.248 Y-15.478 Z-0.100 I-0.216 J-0.193 K0.000 F300.000
G3 X-34.722 Y-15.519 Z-0.100 I-1.303 J-36.483 K0.000 F300.000
G2 X-34.544 Y-15.031 Z-0.100 I0.091 J0.243 K0.000 F300.000
G2 X-31.427 Y-15.027 Z-0.100 I1.607 J-38.402 K0.000 F300.000
G0 Z5.000
G0 Z5.000
G0 X-31.427 Y-15.027
G0 X-35.250 Y-9.648
G0 X-35.250 Y-9.648 Z3.000
G1 X-35.250 Y-9.648 Z-0.100 F300.000
G2 X-35.654 Y-9.673 Z-0.100 I-0.222 J0.312 K0.000 F300.000
G3 X-42.656 Y-11.664 Z-0.100 I-1.264 J-8.861 K0.000 F300.000
G2 X-42.894 Y-11.253 Z-0.100 I-0.016 J0.265 K0.000 F300.000
G2 X-35.106 Y-9.224 Z-0.100 I4.350 J-0.737 K0.000 F300.000
G2 X-35.250 Y-9.648 Z-0.100 I-0.367 J-0.111 K0.000 F300.000
G0 Z5.000
G0 Z5.000
G0 X-35.250 Y-9.648
G0 X-40.522 Y-2.243
G0 X-40.522 Y-2.243 Z3.000
G1 X-40.522 Y-2.243 Z-0.100 F300.000
G2 X-40.655 Y-2.286 Z-0.100 I-0.133 J0.187 K0.000 F300.000
G2 X-40.805 Y-1.846 Z-0.100 I0.010 J0.249 K0.000 F300.000
G2 X-37.030 Y1.875 Z-0.100 I7.038 J-3.366 K0.000 F300.000
G2 X-37.038 Y1.351 Z-0.100 I-0.016 J-0.262 K0.000 F300.000
G3 X-40.509 Y-2.233 Z-0.100 I3.169 J-6.542 K0.000 F300.000
G2 X-40.522 Y-2.243 Z-0.100 I-0.146 J0.177 K0.000 F300.000
G0 Z5.000
G0 Z5.000
G0 X-40.522 Y-2.243
G0 X-47.140 Y-14.589
G0 X-47.140 Y-14.589 Z3.000
G1 X-47.140 Y-14.589 Z-0.100 F300.000
G2 X-48.039 Y-16.896 Z-0.100 I-2.323 J-0.423 K0.000 F300.000
G2 X-47.882 Y-17.350 Z-0.100 I-6.803 J-2.613 K0.000 F300.000
G2 X-46.829 Y-18.202 Z-0.100 I-1.429 J-2.843 K0.000 F300.000
G2 X-47.300 Y-18.299 Z-0.100 I-0.242 J-0.019 K0.000 F300.000
G3 X-47.859 Y-17.859 Z-0.100 I-2.031 J-2.002 K0.000 F300.000
G2 X-48.017 Y-18.851 Z-0.100 I-5.363 J0.347 K0.000 F300.000
G2 X-48.231 Y-18.922 Z-0.100 I-0.214 J0.284 K0.000 F300.000
G2 X-48.447 Y-18.812 Z-0.100 I-0.024 J0.221 K0.000 F300.000
G3 X-48.449 Y-16.950 Z-0.100 I-8.924 J0.924 K0.000 F300.000
G2 X-49.673 Y-15.178 Z-0.100 I0.923 J1.947 K0.000 F300.000
G2 X-47.140 Y-14.589 Z-0.100 I1.946 J-2.628 K0.000 F300.000
G0 Z5.000
G0 Z5.000
G0 X-47.140 Y-14.589
G0 X-53.260 Y-13.592
G0 X-53.260 Y-13.592 Z3.000
G1 X-53.260 Y-13.592 Z-0.100 F300.000
G2 X-54.077 Y-13.952 Z-0.100 I-0.526 J0.086 K0.000 F300.000
G3 X-60.392 Y-15.343 Z-0.100 I-1.770 J-6.991 K0.000 F300.000
G2 X-60.649 Y-15.387 Z-0.100 I-0.257 J0.729 K0.000 F300.000
G2 X-61.227 Y-15.089 Z-0.100 I-0.025 J0.660 K0.000 F300.000
G2 X-53.253 Y-13.492 Z-0.100 I4.294 J-0.733 K0.000 F300.000
G2 X-53.260 Y-13.592 Z-0.100 I-0.533 J-0.014 K0.000 F300.000
G0 Z5.000
G0 Z5.000
G0 X-53.260 Y-13.592
G0 X-61.656 Y-17.649
G0 X-61.656 Y-17.649 Z3.000
G1 X-61.656 Y-17.649 Z-0.100 F300.000
G2 X-61.970 Y-17.925 Z-0.100 I-0.196 J-0.095 K0.000 F300.000
G3 X-65.650 Y-17.981 Z-0.100 I-1.632 J-13.650 K0.000 F300.000
G2 X-65.646 Y-17.636 Z-0.100 I0.106 J0.171 K0.000 F300.000
G2 X-61.666 Y-17.629 Z-0.100 I2.007 J-9.744 K0.000 F300.000
G2 X-61.656 Y-17.649 Z-0.100 I-0.185 J-0.114 K0.000 F300.000
G0 Z5.000
G0 Z5.000
G0 X-61.656 Y-17.649
G0 X-62.121 Y-18.570
G0 X-62.121 Y-18.570 Z3.000
G1 X-62.121 Y-18.570 Z-0.100 F300.000
G2 X-62.209 Y-18.944 Z-0.100 I-0.114 J-0.171 K0.000 F300.000
G3 X-65.131 Y-19.431 Z-0.100 I0.159 J-9.960 K0.000 F300.000
G2 X-65.320 Y-19.230 Z-0.100 I0.006 J0.195 K0.000 F300.000
G2 X-65.118 Y-19.042 Z-0.100 I0.195 J-0.006 K0.000 F300.000
G2 X-62.121 Y-18.570 Z-0.100 I2.736 J-7.620 K0.000 F300.000
G0 Z5.000
G0 Z5.000
G0 X-62.121 Y-18.570
G0 X-62.213 Y-20.115
G0 X-62.213 Y-20.115 Z3.000
G1 X-62.213 Y-20.115 Z-0.100 F300.000
G2 X-62.172 Y-20.500 Z-0.100 I-0.186 J-0.214 K0.000 F300.000
G3 X-65.573 Y-21.658 Z-0.100 I0.796 J-7.912 K0.000 F300.000
G2 X-65.705 Y-21.264 Z-0.100 I0.013 J0.223 K0.000 F300.000
G2 X-62.213 Y-20.115 Z-0.100 I4.171 J-6.798 K0.000 F300.000
G0 Z5.000
G0 Z5.000
G0 X-62.213 Y-20.115
G0 X-61.027 Y-6.653
G0 X-61.027 Y-6.653 Z3.000
G1 X-61.027 Y-6.653 Z-0.100 F300.000
G2 X-61.169 Y-6.462 Z-0.100 I0.014 J0.158 K0.000 F300.000
G3 X-64.984 Y-2.212 Z-0.100 I-7.090 J-2.528 K0.000 F300.000
G2 X-64.722 Y-1.920 Z-0.100 I0.190 J0.093 K0.000 F300.000
G2 X-60.730 Y-6.448 Z-0.100 I-3.109 J-6.765 K0.000 F300.000
G2 X-60.998 Y-6.653 Z-0.100 I-0.268 J0.074 K0.000 F300.000
G2 X-61.027 Y-6.653 Z-0.100 I-0.016 J0.158 K0.000 F300.000
G0 Z5.000
G0 Z5.000
(Finish operation: Profile)
(Begin operation: Profile001)
(Path: Profile001)
(Profile001)
(Uncompensated Tool Path)
G0 Z5.000
G0 X-36.832 Y-8.665
G0 Z3.000
G1 X-36.832 Y-8.665 Z-0.100 F300.000
G2 X-36.124 Y-9.615 Z-0.100 I-2.038 J-2.258 K0.000 F300.000
G3 X-41.905 Y-11.126 Z-0.100 I-0.828 J-8.647 K0.000 F300.000
G2 X-36.832 Y-8.665 Z-0.100 I3.035 J0.203 K0.000 F300.000
G0 Z5.000
G0 Z5.000
G0 X-36.832 Y-8.665
G0 X-54.680 Y-13.745
G0 X-54.680 Y-13.745 Z3.000
G1 X-54.680 Y-13.745 Z-0.100 F300.000
G2 X-54.658 Y-13.828 Z-0.100 I-2.605 J-0.741 K0.000 F300.000
G3 X-59.938 Y-15.026 Z-0.100 I-1.305 J-6.488 K0.000 F300.000
G2 X-54.680 Y-13.745 Z-0.100 I2.654 J0.539 K0.000 F300.000
G0 Z5.000
G0 Z5.000
(Finish operation: Profile001)
(Begin postamble)
M5
G17 G90
M2
