(Exported by FreeCAD)
(Post Processor: script_module)
(Output Time:2026-07-21 16:25:53.862164)
(Begin preamble)
G17 G90
G21
(Begin operation: Fixture)
(Path: Fixture)
G54
(Finish operation: Fixture)
(Begin operation: 3175mm001)
(Path: 3175mm001)
(3175mm001)
(Begin toolchange)
( M6 T2 )
M3 S10000
(Finish operation: 3175mm001)
(Begin operation: Profile002)
(Path: Profile002)
(Profile002)
(Compensated Tool Path. Diameter: 3.17)
G0 Z5.000
G0 X0.000 Y0.000
G0 X-16.035 Y11.122
G0 X-16.035 Y11.122 Z3.000
G1 X-16.035 Y11.122 Z-1.500 F300.000
G3 X-15.833 Y11.437 Z-1.500 I-4.155 J2.882 K0.000 F300.000
G3 X-15.443 Y14.173 Z-1.500 I-3.860 J1.947 K0.000 F300.000
G3 X-16.484 Y16.990 Z-1.500 I-5.616 J-0.475 K0.000 F300.000
G3 X-18.068 Y18.372 Z-1.500 I-3.488 J-2.398 K0.000 F300.000
G3 X-22.844 Y20.025 Z-1.500 I-7.025 J-12.566 K0.000 F300.000
G3 X-27.051 Y20.614 Z-1.500 I-9.184 J-50.295 K0.000 F300.000
G3 X-44.286 Y21.984 Z-1.500 I-31.242 J-284.029 K0.000 F300.000
G1 X-49.417 Y21.980 Z-1.500 F300.000
G3 X-56.774 Y21.435 Z-1.500 I45.730 J-666.657 K0.000 F300.000
G2 X-60.520 Y21.186 Z-1.500 I-17.819 J239.654 K0.000 F300.000
G1 X-60.721 Y21.160 Z-1.500 F300.000
G1 X-63.840 Y20.558 Z-1.500 F300.000
G1 X-64.121 Y20.476 Z-1.500 F300.000
G1 X-66.200 Y19.656 Z-1.500 F300.000
G3 X-66.692 Y19.348 Z-1.500 I0.582 J-1.474 K0.000 F300.000
G1 X-68.059 Y18.089 Z-1.500 F300.000
G3 X-68.521 Y17.321 Z-1.500 I1.073 J-1.166 K0.000 F300.000
G1 X-68.904 Y15.843 Z-1.500 F300.000
G1 X-68.954 Y15.446 Z-1.500 F300.000
G1 X-68.954 Y13.804 Z-1.500 F300.000
G1 X-68.901 Y13.396 Z-1.500 F300.000
G1 X-68.244 Y10.934 Z-1.500 F300.000
G3 X-67.886 Y10.276 Z-1.500 I1.531 J0.408 K0.000 F300.000
G1 X-66.244 Y8.470 Z-1.500 F300.000
G3 X-65.796 Y8.127 Z-1.500 I1.173 J1.066 K0.000 F300.000
G1 X-63.881 Y7.142 Z-1.500 F300.000
G1 X-63.713 Y7.068 Z-1.500 F300.000
G1 X-61.524 Y6.247 Z-1.500 F300.000
G1 X-61.287 Y6.179 Z-1.500 F300.000
G1 X-59.427 Y5.796 Z-1.500 F300.000
G1 X-59.223 Y5.767 Z-1.500 F300.000
G1 X-56.864 Y5.599 Z-1.500 F300.000
G1 X-53.691 Y5.599 Z-1.500 F300.000
G1 X-53.489 Y5.612 Z-1.500 F300.000
G3 X-47.630 Y6.393 Z-1.500 I-18.387 J160.284 K0.000 F300.000
G3 X-43.135 Y7.261 Z-1.500 I-10.574 J66.811 K0.000 F300.000
G2 X-31.112 Y8.140 Z-1.500 I17.255 J-153.461 K0.000 F300.000
G1 X-29.335 Y8.224 Z-1.500 F300.000
G1 X-25.581 Y8.226 Z-1.500 F300.000
G1 X-22.319 Y8.386 Z-1.500 F300.000
G3 X-20.686 Y8.629 Z-1.500 I-0.935 J11.916 K0.000 F300.000
G1 X-18.685 Y9.204 Z-1.500 F300.000
G3 X-17.493 Y9.726 Z-1.500 I-1.451 J4.938 K0.000 F300.000
G3 X-16.035 Y11.122 Z-1.500 I-2.697 J4.277 K0.000 F300.000
G1 X-16.035 Y11.122 Z-3.500 F300.000
G3 X-15.833 Y11.437 Z-3.500 I-4.155 J2.882 K0.000 F300.000
G3 X-15.443 Y14.173 Z-3.500 I-3.860 J1.947 K0.000 F300.000
G3 X-16.484 Y16.990 Z-3.500 I-5.616 J-0.475 K0.000 F300.000
G3 X-18.068 Y18.372 Z-3.500 I-3.488 J-2.398 K0.000 F300.000
G3 X-22.844 Y20.025 Z-3.500 I-7.025 J-12.566 K0.000 F300.000
G3 X-27.051 Y20.614 Z-3.500 I-9.184 J-50.295 K0.000 F300.000
G3 X-44.286 Y21.984 Z-3.500 I-31.242 J-284.029 K0.000 F300.000
G1 X-49.417 Y21.980 Z-3.500 F300.000
G3 X-56.774 Y21.435 Z-3.500 I45.730 J-666.657 K0.000 F300.000
G2 X-60.520 Y21.186 Z-3.500 I-17.819 J239.654 K0.000 F300.000
G1 X-60.721 Y21.160 Z-3.500 F300.000
G1 X-63.840 Y20.558 Z-3.500 F300.000
G1 X-64.121 Y20.476 Z-3.500 F300.000
G1 X-66.200 Y19.656 Z-3.500 F300.000
G3 X-66.692 Y19.348 Z-3.500 I0.582 J-1.474 K0.000 F300.000
G1 X-68.059 Y18.089 Z-3.500 F300.000
G3 X-68.521 Y17.321 Z-3.500 I1.073 J-1.166 K0.000 F300.000
G1 X-68.904 Y15.843 Z-3.500 F300.000
G1 X-68.954 Y15.446 Z-3.500 F300.000
G1 X-68.954 Y13.804 Z-3.500 F300.000
G1 X-68.901 Y13.396 Z-3.500 F300.000
G1 X-68.244 Y10.934 Z-3.500 F300.000
G3 X-67.886 Y10.276 Z-3.500 I1.531 J0.408 K0.000 F300.000
G1 X-66.244 Y8.470 Z-3.500 F300.000
G3 X-65.796 Y8.127 Z-3.500 I1.173 J1.066 K0.000 F300.000
G1 X-63.881 Y7.142 Z-3.500 F300.000
G1 X-63.713 Y7.068 Z-3.500 F300.000
G1 X-61.524 Y6.247 Z-3.500 F300.000
G1 X-61.287 Y6.179 Z-3.500 F300.000
G1 X-59.427 Y5.796 Z-3.500 F300.000
G1 X-59.223 Y5.767 Z-3.500 F300.000
G1 X-56.864 Y5.599 Z-3.500 F300.000
G1 X-53.691 Y5.599 Z-3.500 F300.000
G1 X-53.489 Y5.612 Z-3.500 F300.000
G3 X-47.630 Y6.393 Z-3.500 I-18.387 J160.284 K0.000 F300.000
G3 X-43.135 Y7.261 Z-3.500 I-10.574 J66.811 K0.000 F300.000
G2 X-31.112 Y8.140 Z-3.500 I17.255 J-153.461 K0.000 F300.000
G1 X-29.335 Y8.224 Z-3.500 F300.000
G1 X-25.581 Y8.226 Z-3.500 F300.000
G1 X-22.319 Y8.386 Z-3.500 F300.000
G3 X-20.686 Y8.629 Z-3.500 I-0.935 J11.916 K0.000 F300.000
G1 X-18.685 Y9.204 Z-3.500 F300.000
G3 X-17.493 Y9.726 Z-3.500 I-1.451 J4.938 K0.000 F300.000
G3 X-16.035 Y11.122 Z-3.500 I-2.697 J4.277 K0.000 F300.000
G1 X-16.035 Y11.122 Z-5.500 F300.000
G3 X-15.833 Y11.437 Z-5.500 I-4.155 J2.882 K0.000 F300.000
G3 X-15.443 Y14.173 Z-5.500 I-3.860 J1.947 K0.000 F300.000
G3 X-16.484 Y16.990 Z-5.500 I-5.616 J-0.475 K0.000 F300.000
G3 X-18.068 Y18.372 Z-5.500 I-3.488 J-2.398 K0.000 F300.000
G3 X-22.844 Y20.025 Z-5.500 I-7.025 J-12.566 K0.000 F300.000
G3 X-27.051 Y20.614 Z-5.500 I-9.184 J-50.295 K0.000 F300.000
G3 X-44.286 Y21.984 Z-5.500 I-31.242 J-284.029 K0.000 F300.000
G1 X-49.417 Y21.980 Z-5.500 F300.000
G3 X-56.774 Y21.435 Z-5.500 I45.730 J-666.657 K0.000 F300.000
G2 X-60.520 Y21.186 Z-5.500 I-17.819 J239.654 K0.000 F300.000
G1 X-60.721 Y21.160 Z-5.500 F300.000
G1 X-63.840 Y20.558 Z-5.500 F300.000
G1 X-64.121 Y20.476 Z-5.500 F300.000
G1 X-66.200 Y19.656 Z-5.500 F300.000
G3 X-66.692 Y19.348 Z-5.500 I0.582 J-1.474 K0.000 F300.000
G1 X-68.059 Y18.089 Z-5.500 F300.000
G3 X-68.521 Y17.321 Z-5.500 I1.073 J-1.166 K0.000 F300.000
G1 X-68.904 Y15.843 Z-5.500 F300.000
G1 X-68.954 Y15.446 Z-5.500 F300.000
G1 X-68.954 Y13.804 Z-5.500 F300.000
G1 X-68.901 Y13.396 Z-5.500 F300.000
G1 X-68.244 Y10.934 Z-5.500 F300.000
G3 X-67.886 Y10.276 Z-5.500 I1.531 J0.408 K0.000 F300.000
G1 X-66.244 Y8.470 Z-5.500 F300.000
G3 X-65.796 Y8.127 Z-5.500 I1.173 J1.066 K0.000 F300.000
G1 X-63.881 Y7.142 Z-5.500 F300.000
G1 X-63.713 Y7.068 Z-5.500 F300.000
G1 X-61.524 Y6.247 Z-5.500 F300.000
G1 X-61.287 Y6.179 Z-5.500 F300.000
G1 X-59.427 Y5.796 Z-5.500 F300.000
G1 X-59.223 Y5.767 Z-5.500 F300.000
G1 X-56.864 Y5.599 Z-5.500 F300.000
G1 X-53.691 Y5.599 Z-5.500 F300.000
G1 X-53.489 Y5.612 Z-5.500 F300.000
G3 X-47.630 Y6.393 Z-5.500 I-18.387 J160.284 K0.000 F300.000
G3 X-43.135 Y7.261 Z-5.500 I-10.574 J66.811 K0.000 F300.000
G2 X-31.112 Y8.140 Z-5.500 I17.255 J-153.461 K0.000 F300.000
G1 X-29.335 Y8.224 Z-5.500 F300.000
G1 X-25.581 Y8.226 Z-5.500 F300.000
G1 X-22.319 Y8.386 Z-5.500 F300.000
G3 X-20.686 Y8.629 Z-5.500 I-0.935 J11.916 K0.000 F300.000
G1 X-18.685 Y9.204 Z-5.500 F300.000
G3 X-17.493 Y9.726 Z-5.500 I-1.451 J4.938 K0.000 F300.000
G3 X-16.035 Y11.122 Z-5.500 I-2.697 J4.277 K0.000 F300.000
G1 X-16.035 Y11.122 Z-7.500 F300.000
G3 X-15.833 Y11.437 Z-7.500 I-4.155 J2.882 K0.000 F300.000
G3 X-15.443 Y14.173 Z-7.500 I-3.860 J1.947 K0.000 F300.000
G3 X-16.484 Y16.990 Z-7.500 I-5.616 J-0.475 K0.000 F300.000
G3 X-18.068 Y18.372 Z-7.500 I-3.488 J-2.398 K0.000 F300.000
G3 X-22.844 Y20.025 Z-7.500 I-7.025 J-12.566 K0.000 F300.000
G3 X-27.051 Y20.614 Z-7.500 I-9.184 J-50.295 K0.000 F300.000
G3 X-44.286 Y21.984 Z-7.500 I-31.242 J-284.029 K0.000 F300.000
G1 X-49.417 Y21.980 Z-7.500 F300.000
G3 X-56.774 Y21.435 Z-7.500 I45.730 J-666.657 K0.000 F300.000
G2 X-60.520 Y21.186 Z-7.500 I-17.819 J239.654 K0.000 F300.000
G1 X-60.721 Y21.160 Z-7.500 F300.000
G1 X-63.840 Y20.558 Z-7.500 F300.000
G1 X-64.121 Y20.476 Z-7.500 F300.000
G1 X-66.200 Y19.656 Z-7.500 F300.000
G3 X-66.692 Y19.348 Z-7.500 I0.582 J-1.474 K0.000 F300.000
G1 X-68.059 Y18.089 Z-7.500 F300.000
G3 X-68.521 Y17.321 Z-7.500 I1.073 J-1.166 K0.000 F300.000
G1 X-68.904 Y15.843 Z-7.500 F300.000
G1 X-68.954 Y15.446 Z-7.500 F300.000
G1 X-68.954 Y13.804 Z-7.500 F300.000
G1 X-68.901 Y13.396 Z-7.500 F300.000
G1 X-68.244 Y10.934 Z-7.500 F300.000
G3 X-67.886 Y10.276 Z-7.500 I1.531 J0.408 K0.000 F300.000
G1 X-66.244 Y8.470 Z-7.500 F300.000
G3 X-65.796 Y8.127 Z-7.500 I1.173 J1.066 K0.000 F300.000
G1 X-63.881 Y7.142 Z-7.500 F300.000
G1 X-63.713 Y7.068 Z-7.500 F300.000
G1 X-61.524 Y6.247 Z-7.500 F300.000
G1 X-61.287 Y6.179 Z-7.500 F300.000
G1 X-59.427 Y5.796 Z-7.500 F300.000
G1 X-59.223 Y5.767 Z-7.500 F300.000
G1 X-56.864 Y5.599 Z-7.500 F300.000
G1 X-53.691 Y5.599 Z-7.500 F300.000
G1 X-53.489 Y5.612 Z-7.500 F300.000
G3 X-47.630 Y6.393 Z-7.500 I-18.387 J160.284 K0.000 F300.000
G3 X-43.135 Y7.261 Z-7.500 I-10.574 J66.811 K0.000 F300.000
G2 X-31.112 Y8.140 Z-7.500 I17.255 J-153.461 K0.000 F300.000
G1 X-29.335 Y8.224 Z-7.500 F300.000
G1 X-25.581 Y8.226 Z-7.500 F300.000
G1 X-22.319 Y8.386 Z-7.500 F300.000
G3 X-20.686 Y8.629 Z-7.500 I-0.935 J11.916 K0.000 F300.000
G1 X-18.685 Y9.204 Z-7.500 F300.000
G3 X-17.493 Y9.726 Z-7.500 I-1.451 J4.938 K0.000 F300.000
G3 X-16.035 Y11.122 Z-7.500 I-2.697 J4.277 K0.000 F300.000
G1 X-16.035 Y11.122 Z-9.500 F300.000
G3 X-15.833 Y11.437 Z-9.500 I-4.155 J2.882 K0.000 F300.000
G3 X-15.443 Y14.173 Z-9.500 I-3.860 J1.947 K0.000 F300.000
G3 X-16.484 Y16.990 Z-9.500 I-5.616 J-0.475 K0.000 F300.000
G3 X-18.068 Y18.372 Z-9.500 I-3.488 J-2.398 K0.000 F300.000
G3 X-22.844 Y20.025 Z-9.500 I-7.025 J-12.566 K0.000 F300.000
G3 X-27.051 Y20.614 Z-9.500 I-9.184 J-50.295 K0.000 F300.000
G3 X-44.286 Y21.984 Z-9.500 I-31.242 J-284.029 K0.000 F300.000
G1 X-49.417 Y21.980 Z-9.500 F300.000
G3 X-56.774 Y21.435 Z-9.500 I45.730 J-666.657 K0.000 F300.000
G2 X-60.520 Y21.186 Z-9.500 I-17.819 J239.654 K0.000 F300.000
G1 X-60.721 Y21.160 Z-9.500 F300.000
G1 X-63.840 Y20.558 Z-9.500 F300.000
G1 X-64.121 Y20.476 Z-9.500 F300.000
G1 X-66.200 Y19.656 Z-9.500 F300.000
G3 X-66.692 Y19.348 Z-9.500 I0.582 J-1.474 K0.000 F300.000
G1 X-68.059 Y18.089 Z-9.500 F300.000
G3 X-68.521 Y17.321 Z-9.500 I1.073 J-1.166 K0.000 F300.000
G1 X-68.904 Y15.843 Z-9.500 F300.000
G1 X-68.954 Y15.446 Z-9.500 F300.000
G1 X-68.954 Y13.804 Z-9.500 F300.000
G1 X-68.901 Y13.396 Z-9.500 F300.000
G1 X-68.244 Y10.934 Z-9.500 F300.000
G3 X-67.886 Y10.276 Z-9.500 I1.531 J0.408 K0.000 F300.000
G1 X-66.244 Y8.470 Z-9.500 F300.000
G3 X-65.796 Y8.127 Z-9.500 I1.173 J1.066 K0.000 F300.000
G1 X-63.881 Y7.142 Z-9.500 F300.000
G1 X-63.713 Y7.068 Z-9.500 F300.000
G1 X-61.524 Y6.247 Z-9.500 F300.000
G1 X-61.287 Y6.179 Z-9.500 F300.000
G1 X-59.427 Y5.796 Z-9.500 F300.000
G1 X-59.223 Y5.767 Z-9.500 F300.000
G1 X-56.864 Y5.599 Z-9.500 F300.000
G1 X-53.691 Y5.599 Z-9.500 F300.000
G1 X-53.489 Y5.612 Z-9.500 F300.000
G3 X-47.630 Y6.393 Z-9.500 I-18.387 J160.284 K0.000 F300.000
G3 X-43.135 Y7.261 Z-9.500 I-10.574 J66.811 K0.000 F300.000
G2 X-31.112 Y8.140 Z-9.500 I17.255 J-153.461 K0.000 F300.000
G1 X-29.335 Y8.224 Z-9.500 F300.000
G1 X-25.581 Y8.226 Z-9.500 F300.000
G1 X-22.319 Y8.386 Z-9.500 F300.000
G3 X-20.686 Y8.629 Z-9.500 I-0.935 J11.916 K0.000 F300.000
G1 X-18.685 Y9.204 Z-9.500 F300.000
G3 X-17.493 Y9.726 Z-9.500 I-1.451 J4.938 K0.000 F300.000
G3 X-16.035 Y11.122 Z-9.500 I-2.697 J4.277 K0.000 F300.000
G1 X-16.035 Y11.122 Z-10.500 F300.000
G3 X-15.833 Y11.437 Z-10.500 I-4.155 J2.882 K0.000 F300.000
G3 X-15.443 Y14.173 Z-10.500 I-3.860 J1.947 K0.000 F300.000
G3 X-16.484 Y16.990 Z-10.500 I-5.616 J-0.475 K0.000 F300.000
G3 X-18.068 Y18.372 Z-10.500 I-3.488 J-2.398 K0.000 F300.000
G3 X-22.844 Y20.025 Z-10.500 I-7.025 J-12.566 K0.000 F300.000
G3 X-27.051 Y20.614 Z-10.500 I-9.184 J-50.295 K0.000 F300.000
G3 X-44.286 Y21.984 Z-10.500 I-31.242 J-284.029 K0.000 F300.000
G1 X-49.417 Y21.980 Z-10.500 F300.000
G3 X-56.774 Y21.435 Z-10.500 I45.730 J-666.657 K0.000 F300.000
G2 X-60.520 Y21.186 Z-10.500 I-17.819 J239.654 K0.000 F300.000
G1 X-60.721 Y21.160 Z-10.500 F300.000
G1 X-63.840 Y20.558 Z-10.500 F300.000
G1 X-64.121 Y20.476 Z-10.500 F300.000
G1 X-66.200 Y19.656 Z-10.500 F300.000
G3 X-66.692 Y19.348 Z-10.500 I0.582 J-1.474 K0.000 F300.000
G1 X-68.059 Y18.089 Z-10.500 F300.000
G3 X-68.521 Y17.321 Z-10.500 I1.073 J-1.166 K0.000 F300.000
G1 X-68.904 Y15.843 Z-10.500 F300.000
G1 X-68.954 Y15.446 Z-10.500 F300.000
G1 X-68.954 Y13.804 Z-10.500 F300.000
G1 X-68.901 Y13.396 Z-10.500 F300.000
G1 X-68.244 Y10.934 Z-10.500 F300.000
G3 X-67.886 Y10.276 Z-10.500 I1.531 J0.408 K0.000 F300.000
G1 X-66.244 Y8.470 Z-10.500 F300.000
G3 X-65.796 Y8.127 Z-10.500 I1.173 J1.066 K0.000 F300.000
G1 X-63.881 Y7.142 Z-10.500 F300.000
G1 X-63.713 Y7.068 Z-10.500 F300.000
G1 X-61.524 Y6.247 Z-10.500 F300.000
G1 X-61.287 Y6.179 Z-10.500 F300.000
G1 X-59.427 Y5.796 Z-10.500 F300.000
G1 X-59.223 Y5.767 Z-10.500 F300.000
G1 X-56.864 Y5.599 Z-10.500 F300.000
G1 X-53.691 Y5.599 Z-10.500 F300.000
G1 X-53.489 Y5.612 Z-10.500 F300.000
G3 X-47.630 Y6.393 Z-10.500 I-18.387 J160.284 K0.000 F300.000
G3 X-43.135 Y7.261 Z-10.500 I-10.574 J66.811 K0.000 F300.000
G2 X-31.112 Y8.140 Z-10.500 I17.255 J-153.461 K0.000 F300.000
G1 X-29.335 Y8.224 Z-10.500 F300.000
G1 X-25.581 Y8.226 Z-10.500 F300.000
G1 X-22.319 Y8.386 Z-10.500 F300.000
G3 X-20.686 Y8.629 Z-10.500 I-0.935 J11.916 K0.000 F300.000
G1 X-18.685 Y9.204 Z-10.500 F300.000
G3 X-17.493 Y9.726 Z-10.500 I-1.451 J4.938 K0.000 F300.000
G3 X-16.035 Y11.122 Z-10.500 I-2.697 J4.277 K0.000 F300.000
G0 Z5.000
G0 Z5.000
G0 X-16.035 Y11.122
G0 X-13.761 Y-4.908
G0 X-13.761 Y-4.908 Z3.000
G1 X-13.761 Y-4.908 Z-1.500 F300.000
G3 X-22.124 Y-6.599 Z-1.500 I10.241 J-72.194 K0.000 F300.000
G3 X-24.315 Y-7.284 Z-1.500 I3.688 J-15.635 K0.000 F300.000
G2 X-25.122 Y-7.561 Z-1.500 I-8.039 J22.101 K0.000 F300.000
G3 X-28.604 Y-3.902 Z-1.500 I-12.876 J-8.768 K0.000 F300.000
G3 X-31.521 Y-2.143 Z-1.500 I-10.549 J-14.189 K0.000 F300.000
G3 X-31.800 Y1.206 Z-1.500 I-25.294 J-0.419 K0.000 F300.000
G3 X-32.736 Y4.603 Z-1.500 I-32.868 J-7.236 K0.000 F300.000
G3 X-33.398 Y5.771 Z-1.500 I-4.523 J-1.790 K0.000 F300.000
G3 X-35.599 Y6.980 Z-1.500 I-2.606 J-2.135 K0.000 F300.000
G3 X-37.118 Y6.623 Z-1.500 I-0.097 J-2.994 K0.000 F300.000
G3 X-41.304 Y2.982 Z-1.500 I11.907 J-17.920 K0.000 F300.000
G3 X-43.555 Y0.228 Z-1.500 I20.725 J-19.236 K0.000 F300.000
G3 X-47.407 Y0.054 Z-1.500 I-0.930 J-22.168 K0.000 F300.000
G3 X-56.261 Y-2.276 Z-1.500 I3.552 J-31.496 K0.000 F300.000
G3 X-58.977 Y-3.738 Z-1.500 I13.763 J-28.809 K0.000 F300.000
G3 X-62.690 Y0.058 Z-1.500 I-19.460 J-15.322 K0.000 F300.000
G3 X-64.513 Y1.385 Z-1.500 I-8.037 J-9.124 K0.000 F300.000
G3 X-67.848 Y0.528 Z-1.500 I-1.125 J-2.541 K0.000 F300.000
G3 X-68.527 Y-0.661 Z-1.500 I3.250 J-2.643 K0.000 F300.000
G3 X-69.445 Y-4.033 Z-1.500 I44.475 J-13.912 K0.000 F300.000
G3 X-69.659 Y-4.971 Z-1.500 I6.900 J-2.069 K0.000 F300.000
G1 X-69.845 Y-6.809 Z-1.500 F300.000
G1 X-69.845 Y-8.792 Z-1.500 F300.000
G3 X-70.473 Y-9.798 Z-1.500 I5.488 J-4.125 K0.000 F300.000
G1 X-70.642 Y-10.193 Z-1.500 F300.000
G3 X-71.002 Y-11.606 Z-1.500 I7.266 J-2.602 K0.000 F300.000
G3 X-71.136 Y-13.665 Z-1.500 I17.534 J-2.177 K0.000 F300.000
G3 X-72.586 Y-15.369 Z-1.500 I14.403 J-13.723 K0.000 F300.000
G3 X-73.807 Y-17.810 Z-1.500 I16.557 J-9.811 K0.000 F300.000
G3 X-74.622 Y-21.173 Z-1.500 I18.101 J-6.164 K0.000 F300.000
G1 X-74.622 Y-23.463 Z-1.500 F300.000
G3 X-73.037 Y-25.048 Z-1.500 I1.585 J0.000 K0.000 F300.000
G1 X38.352 Y-25.048 Z-1.500 F300.000
G3 X39.910 Y-23.168 Z-1.500 I-0.000 J1.585 K0.000 F300.000
G3 X39.618 Y-21.876 Z-1.500 I-5.486 J-0.559 K0.000 F300.000
G3 X37.410 Y-17.696 Z-1.500 I-27.479 J-11.846 K0.000 F300.000
G1 X36.265 Y-16.199 Z-1.500 F300.000
G1 X36.140 Y-16.055 Z-1.500 F300.000
G1 X34.263 Y-14.142 Z-1.500 F300.000
G1 X32.898 Y-12.997 Z-1.500 F300.000
G1 X32.752 Y-12.889 Z-1.500 F300.000
G3 X25.936 Y-8.944 Z-1.500 I-28.675 J-41.687 K0.000 F300.000
G3 X11.523 Y-5.048 Z-1.500 I-21.635 J-51.425 K0.000 F300.000
G1 X6.867 Y-4.516 Z-1.500 F300.000
G1 X3.557 Y-4.270 Z-1.500 F300.000
G1 X-7.099 Y-4.273 Z-1.500 F300.000
G3 X-13.761 Y-4.908 Z-1.500 I3.578 J-72.829 K0.000 F300.000
G1 X-13.761 Y-4.908 Z-3.500 F300.000
G3 X-22.124 Y-6.599 Z-3.500 I10.241 J-72.194 K0.000 F300.000
G3 X-24.315 Y-7.284 Z-3.500 I3.688 J-15.635 K0.000 F300.000
G2 X-25.122 Y-7.561 Z-3.500 I-8.039 J22.101 K0.000 F300.000
G3 X-28.604 Y-3.902 Z-3.500 I-12.876 J-8.768 K0.000 F300.000
G3 X-31.521 Y-2.143 Z-3.500 I-10.549 J-14.189 K0.000 F300.000
G3 X-31.800 Y1.206 Z-3.500 I-25.294 J-0.419 K0.000 F300.000
G3 X-32.736 Y4.603 Z-3.500 I-32.868 J-7.236 K0.000 F300.000
G3 X-33.398 Y5.771 Z-3.500 I-4.523 J-1.790 K0.000 F300.000
G3 X-35.599 Y6.980 Z-3.500 I-2.606 J-2.135 K0.000 F300.000
G3 X-37.118 Y6.623 Z-3.500 I-0.097 J-2.994 K0.000 F300.000
G3 X-41.304 Y2.982 Z-3.500 I11.907 J-17.920 K0.000 F300.000
G3 X-43.555 Y0.228 Z-3.500 I20.725 J-19.236 K0.000 F300.000
G3 X-47.407 Y0.054 Z-3.500 I-0.930 J-22.168 K0.000 F300.000
G3 X-56.261 Y-2.276 Z-3.500 I3.552 J-31.496 K0.000 F300.000
G3 X-58.977 Y-3.738 Z-3.500 I13.763 J-28.809 K0.000 F300.000
G3 X-62.690 Y0.058 Z-3.500 I-19.460 J-15.322 K0.000 F300.000
G3 X-64.513 Y1.385 Z-3.500 I-8.037 J-9.124 K0.000 F300.000
G3 X-67.848 Y0.528 Z-3.500 I-1.125 J-2.541 K0.000 F300.000
G3 X-68.527 Y-0.661 Z-3.500 I3.250 J-2.643 K0.000 F300.000
G3 X-69.445 Y-4.033 Z-3.500 I44.475 J-13.912 K0.000 F300.000
G3 X-69.659 Y-4.971 Z-3.500 I6.900 J-2.069 K0.000 F300.000
G1 X-69.845 Y-6.809 Z-3.500 F300.000
G1 X-69.845 Y-8.792 Z-3.500 F300.000
G3 X-70.473 Y-9.798 Z-3.500 I5.488 J-4.125 K0.000 F300.000
G1 X-70.642 Y-10.193 Z-3.500 F300.000
G3 X-71.002 Y-11.606 Z-3.500 I7.266 J-2.602 K0.000 F300.000
G3 X-71.136 Y-13.665 Z-3.500 I17.534 J-2.177 K0.000 F300.000
G3 X-72.586 Y-15.369 Z-3.500 I14.403 J-13.723 K0.000 F300.000
G3 X-73.807 Y-17.810 Z-3.500 I16.557 J-9.811 K0.000 F300.000
G3 X-74.622 Y-21.173 Z-3.500 I18.101 J-6.164 K0.000 F300.000
G1 X-74.622 Y-23.463 Z-3.500 F300.000
G3 X-73.037 Y-25.048 Z-3.500 I1.585 J0.000 K0.000 F300.000
G1 X38.352 Y-25.048 Z-3.500 F300.000
G3 X39.910 Y-23.168 Z-3.500 I-0.000 J1.585 K0.000 F300.000
G3 X39.618 Y-21.876 Z-3.500 I-5.486 J-0.559 K0.000 F300.000
G3 X37.410 Y-17.696 Z-3.500 I-27.479 J-11.846 K0.000 F300.000
G1 X36.265 Y-16.199 Z-3.500 F300.000
G1 X36.140 Y-16.055 Z-3.500 F300.000
G1 X34.263 Y-14.142 Z-3.500 F300.000
G1 X32.898 Y-12.997 Z-3.500 F300.000
G1 X32.752 Y-12.889 Z-3.500 F300.000
G3 X25.936 Y-8.944 Z-3.500 I-28.675 J-41.687 K0.000 F300.000
G3 X11.523 Y-5.048 Z-3.500 I-21.635 J-51.425 K0.000 F300.000
G1 X6.867 Y-4.516 Z-3.500 F300.000
G1 X3.557 Y-4.270 Z-3.500 F300.000
G1 X-7.099 Y-4.273 Z-3.500 F300.000
G3 X-13.761 Y-4.908 Z-3.500 I3.578 J-72.829 K0.000 F300.000
G1 X-13.761 Y-4.908 Z-5.500 F300.000
G3 X-22.124 Y-6.599 Z-5.500 I10.241 J-72.194 K0.000 F300.000
G3 X-24.315 Y-7.284 Z-5.500 I3.688 J-15.635 K0.000 F300.000
G2 X-25.122 Y-7.561 Z-5.500 I-8.039 J22.101 K0.000 F300.000
G3 X-28.604 Y-3.902 Z-5.500 I-12.876 J-8.768 K0.000 F300.000
G3 X-31.521 Y-2.143 Z-5.500 I-10.549 J-14.189 K0.000 F300.000
G3 X-31.800 Y1.206 Z-5.500 I-25.294 J-0.419 K0.000 F300.000
G3 X-32.736 Y4.603 Z-5.500 I-32.868 J-7.236 K0.000 F300.000
G3 X-33.398 Y5.771 Z-5.500 I-4.523 J-1.790 K0.000 F300.000
G3 X-35.599 Y6.980 Z-5.500 I-2.606 J-2.135 K0.000 F300.000
G3 X-37.118 Y6.623 Z-5.500 I-0.097 J-2.994 K0.000 F300.000
G3 X-41.304 Y2.982 Z-5.500 I11.907 J-17.920 K0.000 F300.000
G3 X-43.555 Y0.228 Z-5.500 I20.725 J-19.236 K0.000 F300.000
G3 X-47.407 Y0.054 Z-5.500 I-0.930 J-22.168 K0.000 F300.000
G3 X-56.261 Y-2.276 Z-5.500 I3.552 J-31.496 K0.000 F300.000
G3 X-58.977 Y-3.738 Z-5.500 I13.763 J-28.809 K0.000 F300.000
G3 X-62.690 Y0.058 Z-5.500 I-19.460 J-15.322 K0.000 F300.000
G3 X-64.513 Y1.385 Z-5.500 I-8.037 J-9.124 K0.000 F300.000
G3 X-67.848 Y0.528 Z-5.500 I-1.125 J-2.541 K0.000 F300.000
G3 X-68.527 Y-0.661 Z-5.500 I3.250 J-2.643 K0.000 F300.000
G3 X-69.445 Y-4.033 Z-5.500 I44.475 J-13.912 K0.000 F300.000
G3 X-69.659 Y-4.971 Z-5.500 I6.900 J-2.069 K0.000 F300.000
G1 X-69.845 Y-6.809 Z-5.500 F300.000
G1 X-69.845 Y-8.792 Z-5.500 F300.000
G3 X-70.473 Y-9.798 Z-5.500 I5.488 J-4.125 K0.000 F300.000
G1 X-70.642 Y-10.193 Z-5.500 F300.000
G3 X-71.002 Y-11.606 Z-5.500 I7.266 J-2.602 K0.000 F300.000
G3 X-71.136 Y-13.665 Z-5.500 I17.534 J-2.177 K0.000 F300.000
G3 X-72.586 Y-15.369 Z-5.500 I14.403 J-13.723 K0.000 F300.000
G3 X-73.807 Y-17.810 Z-5.500 I16.557 J-9.811 K0.000 F300.000
G3 X-74.622 Y-21.173 Z-5.500 I18.101 J-6.164 K0.000 F300.000
G1 X-74.622 Y-23.463 Z-5.500 F300.000
G3 X-73.037 Y-25.048 Z-5.500 I1.585 J0.000 K0.000 F300.000
G1 X38.352 Y-25.048 Z-5.500 F300.000
G3 X39.910 Y-23.168 Z-5.500 I-0.000 J1.585 K0.000 F300.000
G3 X39.618 Y-21.876 Z-5.500 I-5.486 J-0.559 K0.000 F300.000
G3 X37.410 Y-17.696 Z-5.500 I-27.479 J-11.846 K0.000 F300.000
G1 X36.265 Y-16.199 Z-5.500 F300.000
G1 X36.140 Y-16.055 Z-5.500 F300.000
G1 X34.263 Y-14.142 Z-5.500 F300.000
G1 X32.898 Y-12.997 Z-5.500 F300.000
G1 X32.752 Y-12.889 Z-5.500 F300.000
G3 X25.936 Y-8.944 Z-5.500 I-28.675 J-41.687 K0.000 F300.000
G3 X11.523 Y-5.048 Z-5.500 I-21.635 J-51.425 K0.000 F300.000
G1 X6.867 Y-4.516 Z-5.500 F300.000
G1 X3.557 Y-4.270 Z-5.500 F300.000
G1 X-7.099 Y-4.273 Z-5.500 F300.000
G3 X-13.761 Y-4.908 Z-5.500 I3.578 J-72.829 K0.000 F300.000
G1 X-13.761 Y-4.908 Z-7.500 F300.000
G3 X-22.124 Y-6.599 Z-7.500 I10.241 J-72.194 K0.000 F300.000
G3 X-24.315 Y-7.284 Z-7.500 I3.688 J-15.635 K0.000 F300.000
G2 X-25.122 Y-7.561 Z-7.500 I-8.039 J22.101 K0.000 F300.000
G3 X-28.604 Y-3.902 Z-7.500 I-12.876 J-8.768 K0.000 F300.000
G3 X-31.521 Y-2.143 Z-7.500 I-10.549 J-14.189 K0.000 F300.000
G3 X-31.800 Y1.206 Z-7.500 I-25.294 J-0.419 K0.000 F300.000
G3 X-32.736 Y4.603 Z-7.500 I-32.868 J-7.236 K0.000 F300.000
G3 X-33.398 Y5.771 Z-7.500 I-4.523 J-1.790 K0.000 F300.000
G3 X-35.599 Y6.980 Z-7.500 I-2.606 J-2.135 K0.000 F300.000
G3 X-37.118 Y6.623 Z-7.500 I-0.097 J-2.994 K0.000 F300.000
G3 X-41.304 Y2.982 Z-7.500 I11.907 J-17.920 K0.000 F300.000
G3 X-43.555 Y0.228 Z-7.500 I20.725 J-19.236 K0.000 F300.000
G3 X-47.407 Y0.054 Z-7.500 I-0.930 J-22.168 K0.000 F300.000
G3 X-56.261 Y-2.276 Z-7.500 I3.552 J-31.496 K0.000 F300.000
G3 X-58.977 Y-3.738 Z-7.500 I13.763 J-28.809 K0.000 F300.000
G3 X-62.690 Y0.058 Z-7.500 I-19.460 J-15.322 K0.000 F300.000
G3 X-64.513 Y1.385 Z-7.500 I-8.037 J-9.124 K0.000 F300.000
G3 X-67.848 Y0.528 Z-7.500 I-1.125 J-2.541 K0.000 F300.000
G3 X-68.527 Y-0.661 Z-7.500 I3.250 J-2.643 K0.000 F300.000
G3 X-69.445 Y-4.033 Z-7.500 I44.475 J-13.912 K0.000 F300.000
G3 X-69.659 Y-4.971 Z-7.500 I6.900 J-2.069 K0.000 F300.000
G1 X-69.845 Y-6.809 Z-7.500 F300.000
G1 X-69.845 Y-8.792 Z-7.500 F300.000
G3 X-70.473 Y-9.798 Z-7.500 I5.488 J-4.125 K0.000 F300.000
G1 X-70.642 Y-10.193 Z-7.500 F300.000
G3 X-71.002 Y-11.606 Z-7.500 I7.266 J-2.602 K0.000 F300.000
G3 X-71.136 Y-13.665 Z-7.500 I17.534 J-2.177 K0.000 F300.000
G3 X-72.586 Y-15.369 Z-7.500 I14.403 J-13.723 K0.000 F300.000
G3 X-73.807 Y-17.810 Z-7.500 I16.557 J-9.811 K0.000 F300.000
G3 X-74.622 Y-21.173 Z-7.500 I18.101 J-6.164 K0.000 F300.000
G1 X-74.622 Y-23.463 Z-7.500 F300.000
G3 X-73.037 Y-25.048 Z-7.500 I1.585 J0.000 K0.000 F300.000
G1 X38.352 Y-25.048 Z-7.500 F300.000
G3 X39.910 Y-23.168 Z-7.500 I-0.000 J1.585 K0.000 F300.000
G3 X39.618 Y-21.876 Z-7.500 I-5.486 J-0.559 K0.000 F300.000
G3 X37.410 Y-17.696 Z-7.500 I-27.479 J-11.846 K0.000 F300.000
G1 X36.265 Y-16.199 Z-7.500 F300.000
G1 X36.140 Y-16.055 Z-7.500 F300.000
G1 X34.263 Y-14.142 Z-7.500 F300.000
G1 X32.898 Y-12.997 Z-7.500 F300.000
G1 X32.752 Y-12.889 Z-7.500 F300.000
G3 X25.936 Y-8.944 Z-7.500 I-28.675 J-41.687 K0.000 F300.000
G3 X11.523 Y-5.048 Z-7.500 I-21.635 J-51.425 K0.000 F300.000
G1 X6.867 Y-4.516 Z-7.500 F300.000
G1 X3.557 Y-4.270 Z-7.500 F300.000
G1 X-7.099 Y-4.273 Z-7.500 F300.000
G3 X-13.761 Y-4.908 Z-7.500 I3.578 J-72.829 K0.000 F300.000
G1 X-13.761 Y-4.908 Z-9.500 F300.000
G3 X-22.124 Y-6.599 Z-9.500 I10.241 J-72.194 K0.000 F300.000
G3 X-24.315 Y-7.284 Z-9.500 I3.688 J-15.635 K0.000 F300.000
G2 X-25.122 Y-7.561 Z-9.500 I-8.039 J22.101 K0.000 F300.000
G3 X-28.604 Y-3.902 Z-9.500 I-12.876 J-8.768 K0.000 F300.000
G3 X-31.521 Y-2.143 Z-9.500 I-10.549 J-14.189 K0.000 F300.000
G3 X-31.800 Y1.206 Z-9.500 I-25.294 J-0.419 K0.000 F300.000
G3 X-32.736 Y4.603 Z-9.500 I-32.868 J-7.236 K0.000 F300.000
G3 X-33.398 Y5.771 Z-9.500 I-4.523 J-1.790 K0.000 F300.000
G3 X-35.599 Y6.980 Z-9.500 I-2.606 J-2.135 K0.000 F300.000
G3 X-37.118 Y6.623 Z-9.500 I-0.097 J-2.994 K0.000 F300.000
G3 X-41.304 Y2.982 Z-9.500 I11.907 J-17.920 K0.000 F300.000
G3 X-43.555 Y0.228 Z-9.500 I20.725 J-19.236 K0.000 F300.000
G3 X-47.407 Y0.054 Z-9.500 I-0.930 J-22.168 K0.000 F300.000
G3 X-56.261 Y-2.276 Z-9.500 I3.552 J-31.496 K0.000 F300.000
G3 X-58.977 Y-3.738 Z-9.500 I13.763 J-28.809 K0.000 F300.000
G3 X-62.690 Y0.058 Z-9.500 I-19.460 J-15.322 K0.000 F300.000
G3 X-64.513 Y1.385 Z-9.500 I-8.037 J-9.124 K0.000 F300.000
G3 X-67.848 Y0.528 Z-9.500 I-1.125 J-2.541 K0.000 F300.000
G3 X-68.527 Y-0.661 Z-9.500 I3.250 J-2.643 K0.000 F300.000
G3 X-69.445 Y-4.033 Z-9.500 I44.475 J-13.912 K0.000 F300.000
G3 X-69.659 Y-4.971 Z-9.500 I6.900 J-2.069 K0.000 F300.000
G1 X-69.845 Y-6.809 Z-9.500 F300.000
G1 X-69.845 Y-8.792 Z-9.500 F300.000
G3 X-70.473 Y-9.798 Z-9.500 I5.488 J-4.125 K0.000 F300.000
G1 X-70.642 Y-10.193 Z-9.500 F300.000
G3 X-71.002 Y-11.606 Z-9.500 I7.266 J-2.602 K0.000 F300.000
G3 X-71.136 Y-13.665 Z-9.500 I17.534 J-2.177 K0.000 F300.000
G3 X-72.586 Y-15.369 Z-9.500 I14.403 J-13.723 K0.000 F300.000
G3 X-73.807 Y-17.810 Z-9.500 I16.557 J-9.811 K0.000 F300.000
G3 X-74.622 Y-21.173 Z-9.500 I18.101 J-6.164 K0.000 F300.000
G1 X-74.622 Y-23.463 Z-9.500 F300.000
G3 X-73.037 Y-25.048 Z-9.500 I1.585 J0.000 K0.000 F300.000
G1 X38.352 Y-25.048 Z-9.500 F300.000
G3 X39.910 Y-23.168 Z-9.500 I-0.000 J1.585 K0.000 F300.000
G3 X39.618 Y-21.876 Z-9.500 I-5.486 J-0.559 K0.000 F300.000
G3 X37.410 Y-17.696 Z-9.500 I-27.479 J-11.846 K0.000 F300.000
G1 X36.265 Y-16.199 Z-9.500 F300.000
G1 X36.140 Y-16.055 Z-9.500 F300.000
G1 X34.263 Y-14.142 Z-9.500 F300.000
G1 X32.898 Y-12.997 Z-9.500 F300.000
G1 X32.752 Y-12.889 Z-9.500 F300.000
G3 X25.936 Y-8.944 Z-9.500 I-28.675 J-41.687 K0.000 F300.000
G3 X11.523 Y-5.048 Z-9.500 I-21.635 J-51.425 K0.000 F300.000
G1 X6.867 Y-4.516 Z-9.500 F300.000
G1 X3.557 Y-4.270 Z-9.500 F300.000
G1 X-7.099 Y-4.273 Z-9.500 F300.000
G3 X-13.761 Y-4.908 Z-9.500 I3.578 J-72.829 K0.000 F300.000
G1 X-13.761 Y-4.908 Z-10.500 F300.000
G3 X-22.124 Y-6.599 Z-10.500 I10.241 J-72.194 K0.000 F300.000
G3 X-24.315 Y-7.284 Z-10.500 I3.688 J-15.635 K0.000 F300.000
G2 X-25.122 Y-7.561 Z-10.500 I-8.039 J22.101 K0.000 F300.000
G3 X-28.604 Y-3.902 Z-10.500 I-12.876 J-8.768 K0.000 F300.000
G3 X-31.521 Y-2.143 Z-10.500 I-10.549 J-14.189 K0.000 F300.000
G3 X-31.800 Y1.206 Z-10.500 I-25.294 J-0.419 K0.000 F300.000
G3 X-32.736 Y4.603 Z-10.500 I-32.868 J-7.236 K0.000 F300.000
G3 X-33.398 Y5.771 Z-10.500 I-4.523 J-1.790 K0.000 F300.000
G3 X-35.599 Y6.980 Z-10.500 I-2.606 J-2.135 K0.000 F300.000
G3 X-37.118 Y6.623 Z-10.500 I-0.097 J-2.994 K0.000 F300.000
G3 X-41.304 Y2.982 Z-10.500 I11.907 J-17.920 K0.000 F300.000
G3 X-43.555 Y0.228 Z-10.500 I20.725 J-19.236 K0.000 F300.000
G3 X-47.407 Y0.054 Z-10.500 I-0.930 J-22.168 K0.000 F300.000
G3 X-56.261 Y-2.276 Z-10.500 I3.552 J-31.496 K0.000 F300.000
G3 X-58.977 Y-3.738 Z-10.500 I13.763 J-28.809 K0.000 F300.000
G3 X-62.690 Y0.058 Z-10.500 I-19.460 J-15.322 K0.000 F300.000
G3 X-64.513 Y1.385 Z-10.500 I-8.037 J-9.124 K0.000 F300.000
G3 X-67.848 Y0.528 Z-10.500 I-1.125 J-2.541 K0.000 F300.000
G3 X-68.527 Y-0.661 Z-10.500 I3.250 J-2.643 K0.000 F300.000
G3 X-69.445 Y-4.033 Z-10.500 I44.475 J-13.912 K0.000 F300.000
G3 X-69.659 Y-4.971 Z-10.500 I6.900 J-2.069 K0.000 F300.000
G1 X-69.845 Y-6.809 Z-10.500 F300.000
G1 X-69.845 Y-8.792 Z-10.500 F300.000
G3 X-70.473 Y-9.798 Z-10.500 I5.488 J-4.125 K0.000 F300.000
G1 X-70.642 Y-10.193 Z-10.500 F300.000
G3 X-71.002 Y-11.606 Z-10.500 I7.266 J-2.602 K0.000 F300.000
G3 X-71.136 Y-13.665 Z-10.500 I17.534 J-2.177 K0.000 F300.000
G3 X-72.586 Y-15.369 Z-10.500 I14.403 J-13.723 K0.000 F300.000
G3 X-73.807 Y-17.810 Z-10.500 I16.557 J-9.811 K0.000 F300.000
G3 X-74.622 Y-21.173 Z-10.500 I18.101 J-6.164 K0.000 F300.000
G1 X-74.622 Y-23.463 Z-10.500 F300.000
G3 X-73.037 Y-25.048 Z-10.500 I1.585 J0.000 K0.000 F300.000
G1 X38.352 Y-25.048 Z-10.500 F300.000
G3 X39.910 Y-23.168 Z-10.500 I-0.000 J1.585 K0.000 F300.000
G3 X39.618 Y-21.876 Z-10.500 I-5.486 J-0.559 K0.000 F300.000
G3 X37.410 Y-17.696 Z-10.500 I-27.479 J-11.846 K0.000 F300.000
G1 X36.265 Y-16.199 Z-10.500 F300.000
G1 X36.140 Y-16.055 Z-10.500 F300.000
G1 X34.263 Y-14.142 Z-10.500 F300.000
G1 X32.898 Y-12.997 Z-10.500 F300.000
G1 X32.752 Y-12.889 Z-10.500 F300.000
G3 X25.936 Y-8.944 Z-10.500 I-28.675 J-41.687 K0.000 F300.000
G3 X11.523 Y-5.048 Z-10.500 I-21.635 J-51.425 K0.000 F300.000
G1 X6.867 Y-4.516 Z-10.500 F300.000
G1 X3.557 Y-4.270 Z-10.500 F300.000
G1 X-7.099 Y-4.273 Z-10.500 F300.000
G3 X-13.761 Y-4.908 Z-10.500 I3.578 J-72.829 K0.000 F300.000
G0 Z5.000
G0 Z5.000
G0 X-13.761 Y-4.908
G0 X14.907 Y0.958
G0 X14.907 Y0.958 Z3.000
G1 X14.907 Y0.958 Z-1.500 F300.000
G3 X15.175 Y0.052 Z-1.500 I5.366 J1.098 K0.000 F300.000
G1 X15.393 Y-0.281 Z-1.500 F300.000
G3 X16.390 Y-1.416 Z-1.500 I7.232 J5.347 K0.000 F300.000
G3 X18.591 Y-3.051 Z-1.500 I11.742 J13.504 K0.000 F300.000
G3 X22.313 Y-6.119 Z-1.500 I94.050 J110.328 K0.000 F300.000
G2 X24.392 Y-7.822 Z-1.500 I-138.682 J-171.380 K0.000 F300.000
G1 X24.546 Y-7.934 Z-1.500 F300.000
G1 X27.792 Y-10.003 Z-1.500 F300.000
G1 X30.131 Y-11.229 Z-1.500 F300.000
G1 X33.264 Y-12.606 Z-1.500 F300.000
G1 X33.510 Y-12.691 Z-1.500 F300.000
G1 X37.767 Y-13.767 Z-1.500 F300.000
G1 X41.740 Y-14.351 Z-1.500 F300.000
G1 X44.122 Y-14.481 Z-1.500 F300.000
G1 X53.750 Y-14.475 Z-1.500 F300.000
G3 X60.329 Y-13.858 Z-1.500 I-18.142 J228.665 K0.000 F300.000
G3 X67.258 Y-12.586 Z-1.500 I-68.029 J390.041 K0.000 F300.000
G1 X71.022 Y-11.677 Z-1.500 F300.000
G2 X77.806 Y-9.665 Z-1.500 I43.605 J-134.571 K0.000 F300.000
G1 X78.128 Y-9.537 Z-1.500 F300.000
G1 X80.993 Y-8.003 Z-1.500 F300.000
G1 X84.008 Y-5.974 Z-1.500 F300.000
G3 X84.482 Y-5.474 Z-1.500 I-0.885 J1.315 K0.000 F300.000
G1 X86.047 Y-2.865 Z-1.500 F300.000
G1 X86.217 Y-2.469 Z-1.500 F300.000
G1 X87.376 Y1.763 Z-1.500 F300.000
G1 X87.419 Y1.974 Z-1.500 F300.000
G1 X87.825 Y5.035 Z-1.500 F300.000
G1 X87.839 Y5.243 Z-1.500 F300.000
G1 X87.829 Y8.757 Z-1.500 F300.000
G1 X87.479 Y11.939 Z-1.500 F300.000
G3 X87.286 Y12.541 Z-1.500 I-1.575 J-0.173 K0.000 F300.000
G1 X85.818 Y15.161 Z-1.500 F300.000
G1 X85.636 Y15.420 Z-1.500 F300.000
G1 X83.473 Y17.933 Z-1.500 F300.000
G1 X83.155 Y18.215 Z-1.500 F300.000
G3 X79.161 Y20.792 Z-1.500 I-55.173 J-81.135 K0.000 F300.000
G1 X78.759 Y20.969 Z-1.500 F300.000
G1 X76.182 Y21.701 Z-1.500 F300.000
G1 X75.928 Y21.751 Z-1.500 F300.000
G1 X73.128 Y22.069 Z-1.500 F300.000
G1 X72.949 Y22.079 Z-1.500 F300.000
G1 X70.205 Y22.079 Z-1.500 F300.000
G1 X69.792 Y22.025 Z-1.500 F300.000
G1 X66.866 Y21.232 Z-1.500 F300.000
G1 X64.540 Y20.435 Z-1.500 F300.000
G2 X59.733 Y18.281 Z-1.500 I-55.111 J116.511 K0.000 F300.000
G1 X57.258 Y17.691 Z-1.500 F300.000
G1 X54.660 Y17.299 Z-1.500 F300.000
G2 X49.286 Y17.177 Z-1.500 I-4.034 J59.609 K0.000 F300.000
G2 X45.031 Y17.623 Z-1.500 I3.983 J58.535 K0.000 F300.000
G3 X39.453 Y18.191 Z-1.500 I-18.719 J-156.303 K0.000 F300.000
G1 X38.988 Y18.164 Z-1.500 F300.000
G1 X37.461 Y17.846 Z-1.500 F300.000
G3 X36.950 Y17.642 Z-1.500 I0.323 J-1.552 K0.000 F300.000
G1 X35.614 Y16.814 Z-1.500 F300.000
G3 X35.129 Y16.345 Z-1.500 I0.834 J-1.348 K0.000 F300.000
G3 X34.186 Y14.273 Z-1.500 I3.495 J-2.841 K0.000 F300.000
G3 X34.181 Y12.921 Z-1.500 I5.013 J-0.696 K0.000 F300.000
G3 X34.992 Y10.582 Z-1.500 I11.003 J2.508 K0.000 F300.000
G3 X36.645 Y8.357 Z-1.500 I11.481 J6.800 K0.000 F300.000
G1 X36.997 Y8.057 Z-1.500 F300.000
G3 X40.953 Y5.744 Z-1.500 I30.305 J47.312 K0.000 F300.000
G3 X44.925 Y4.070 Z-1.500 I31.318 J68.759 K0.000 F300.000
G2 X49.015 Y2.016 Z-1.500 I-61.633 J-127.755 K0.000 F300.000
G2 X54.937 Y-1.812 Z-1.500 I-42.059 J-71.576 K0.000 F300.000
G1 X55.542 Y-2.161 Z-1.500 F300.000
G2 X52.911 Y-2.337 Z-1.500 I-79.033 J1164.160 K0.000 F300.000
G1 X52.911 Y-2.337 Z-1.500 F300.000
G3 X49.275 Y-2.657 Z-1.500 I7.687 J-108.032 K0.000 F300.000
G2 X45.352 Y-2.974 Z-1.500 I-46.701 J554.802 K0.000 F300.000
G2 X41.305 Y-2.700 Z-1.500 I-0.932 J16.301 K0.000 F300.000
G2 X33.921 Y-0.941 Z-1.500 I15.935 J83.277 K0.000 F300.000
G1 X31.578 Y-0.177 Z-1.500 F300.000
G2 X27.228 Y2.095 Z-1.500 I22.910 J49.166 K0.000 F300.000
G1 X25.057 Y3.032 Z-1.500 F300.000
G3 X20.985 Y4.938 Z-1.500 I-16.595 J-30.156 K0.000 F300.000
G1 X19.407 Y5.333 Z-1.500 F300.000
G1 X18.879 Y5.374 Z-1.500 F300.000
G1 X17.732 Y5.269 Z-1.500 F300.000
G3 X17.128 Y5.088 Z-1.500 I0.143 J-1.578 K0.000 F300.000
G3 X15.960 Y4.418 Z-1.500 I2.391 J-5.519 K0.000 F300.000
G3 X14.995 Y3.253 Z-1.500 I4.069 J-4.350 K0.000 F300.000
G3 X14.815 Y2.519 Z-1.500 I1.405 J-0.735 K0.000 F300.000
G3 X14.907 Y0.958 Z-1.500 I5.457 J-0.463 K0.000 F300.000
G1 X14.907 Y0.958 Z-3.500 F300.000
G3 X15.175 Y0.052 Z-3.500 I5.366 J1.098 K0.000 F300.000
G1 X15.393 Y-0.281 Z-3.500 F300.000
G3 X16.390 Y-1.416 Z-3.500 I7.232 J5.347 K0.000 F300.000
G3 X18.591 Y-3.051 Z-3.500 I11.742 J13.504 K0.000 F300.000
G3 X22.313 Y-6.119 Z-3.500 I94.050 J110.328 K0.000 F300.000
G2 X24.392 Y-7.822 Z-3.500 I-138.682 J-171.380 K0.000 F300.000
G1 X24.546 Y-7.934 Z-3.500 F300.000
G1 X27.792 Y-10.003 Z-3.500 F300.000
G1 X30.131 Y-11.229 Z-3.500 F300.000
G1 X33.264 Y-12.606 Z-3.500 F300.000
G1 X33.510 Y-12.691 Z-3.500 F300.000
G1 X37.767 Y-13.767 Z-3.500 F300.000
G1 X41.740 Y-14.351 Z-3.500 F300.000
G1 X44.122 Y-14.481 Z-3.500 F300.000
G1 X53.750 Y-14.475 Z-3.500 F300.000
G3 X60.329 Y-13.858 Z-3.500 I-18.142 J228.665 K0.000 F300.000
G3 X67.258 Y-12.586 Z-3.500 I-68.029 J390.041 K0.000 F300.000
G1 X71.022 Y-11.677 Z-3.500 F300.000
G2 X77.806 Y-9.665 Z-3.500 I43.605 J-134.571 K0.000 F300.000
G1 X78.128 Y-9.537 Z-3.500 F300.000
G1 X80.993 Y-8.003 Z-3.500 F300.000
G1 X84.008 Y-5.974 Z-3.500 F300.000
G3 X84.482 Y-5.474 Z-3.500 I-0.885 J1.315 K0.000 F300.000
G1 X86.047 Y-2.865 Z-3.500 F300.000
G1 X86.217 Y-2.469 Z-3.500 F300.000
G1 X87.376 Y1.763 Z-3.500 F300.000
G1 X87.419 Y1.974 Z-3.500 F300.000
G1 X87.825 Y5.035 Z-3.500 F300.000
G1 X87.839 Y5.243 Z-3.500 F300.000
G1 X87.829 Y8.757 Z-3.500 F300.000
G1 X87.479 Y11.939 Z-3.500 F300.000
G3 X87.286 Y12.541 Z-3.500 I-1.575 J-0.173 K0.000 F300.000
G1 X85.818 Y15.161 Z-3.500 F300.000
G1 X85.636 Y15.420 Z-3.500 F300.000
G1 X83.473 Y17.933 Z-3.500 F300.000
G1 X83.155 Y18.215 Z-3.500 F300.000
G3 X79.161 Y20.792 Z-3.500 I-55.173 J-81.135 K0.000 F300.000
G1 X78.759 Y20.969 Z-3.500 F300.000
G1 X76.182 Y21.701 Z-3.500 F300.000
G1 X75.928 Y21.751 Z-3.500 F300.000
G1 X73.128 Y22.069 Z-3.500 F300.000
G1 X72.949 Y22.079 Z-3.500 F300.000
G1 X70.205 Y22.079 Z-3.500 F300.000
G1 X69.792 Y22.025 Z-3.500 F300.000
G1 X66.866 Y21.232 Z-3.500 F300.000
G1 X64.540 Y20.435 Z-3.500 F300.000
G2 X59.733 Y18.281 Z-3.500 I-55.111 J116.511 K0.000 F300.000
G1 X57.258 Y17.691 Z-3.500 F300.000
G1 X54.660 Y17.299 Z-3.500 F300.000
G2 X49.286 Y17.177 Z-3.500 I-4.034 J59.609 K0.000 F300.000
G2 X45.031 Y17.623 Z-3.500 I3.983 J58.535 K0.000 F300.000
G3 X39.453 Y18.191 Z-3.500 I-18.719 J-156.303 K0.000 F300.000
G1 X38.988 Y18.164 Z-3.500 F300.000
G1 X37.461 Y17.846 Z-3.500 F300.000
G3 X36.950 Y17.642 Z-3.500 I0.323 J-1.552 K0.000 F300.000
G1 X35.614 Y16.814 Z-3.500 F300.000
G3 X35.129 Y16.345 Z-3.500 I0.834 J-1.348 K0.000 F300.000
G3 X34.186 Y14.273 Z-3.500 I3.495 J-2.841 K0.000 F300.000
G3 X34.181 Y12.921 Z-3.500 I5.013 J-0.696 K0.000 F300.000
G3 X34.992 Y10.582 Z-3.500 I11.003 J2.508 K0.000 F300.000
G3 X36.645 Y8.357 Z-3.500 I11.481 J6.800 K0.000 F300.000
G1 X36.997 Y8.057 Z-3.500 F300.000
G3 X40.953 Y5.744 Z-3.500 I30.305 J47.312 K0.000 F300.000
G3 X44.925 Y4.070 Z-3.500 I31.318 J68.759 K0.000 F300.000
G2 X49.015 Y2.016 Z-3.500 I-61.633 J-127.755 K0.000 F300.000
G2 X54.937 Y-1.812 Z-3.500 I-42.059 J-71.576 K0.000 F300.000
G1 X55.542 Y-2.161 Z-3.500 F300.000
G2 X52.911 Y-2.337 Z-3.500 I-79.033 J1164.160 K0.000 F300.000
G1 X52.911 Y-2.337 Z-3.500 F300.000
G3 X49.275 Y-2.657 Z-3.500 I7.687 J-108.032 K0.000 F300.000
G2 X45.352 Y-2.974 Z-3.500 I-46.701 J554.802 K0.000 F300.000
G2 X41.305 Y-2.700 Z-3.500 I-0.932 J16.301 K0.000 F300.000
G2 X33.921 Y-0.941 Z-3.500 I15.935 J83.277 K0.000 F300.000
G1 X31.578 Y-0.177 Z-3.500 F300.000
G2 X27.228 Y2.095 Z-3.500 I22.910 J49.166 K0.000 F300.000
G1 X25.057 Y3.032 Z-3.500 F300.000
G3 X20.985 Y4.938 Z-3.500 I-16.595 J-30.156 K0.000 F300.000
G1 X19.407 Y5.333 Z-3.500 F300.000
G1 X18.879 Y5.374 Z-3.500 F300.000
G1 X17.732 Y5.269 Z-3.500 F300.000
G3 X17.128 Y5.088 Z-3.500 I0.143 J-1.578 K0.000 F300.000
G3 X15.960 Y4.418 Z-3.500 I2.391 J-5.519 K0.000 F300.000
G3 X14.995 Y3.253 Z-3.500 I4.069 J-4.350 K0.000 F300.000
G3 X14.815 Y2.519 Z-3.500 I1.405 J-0.735 K0.000 F300.000
G3 X14.907 Y0.958 Z-3.500 I5.457 J-0.463 K0.000 F300.000
G1 X14.907 Y0.958 Z-5.500 F300.000
G3 X15.175 Y0.052 Z-5.500 I5.366 J1.098 K0.000 F300.000
G1 X15.393 Y-0.281 Z-5.500 F300.000
G3 X16.390 Y-1.416 Z-5.500 I7.232 J5.347 K0.000 F300.000
G3 X18.591 Y-3.051 Z-5.500 I11.742 J13.504 K0.000 F300.000
G3 X22.313 Y-6.119 Z-5.500 I94.050 J110.328 K0.000 F300.000
G2 X24.392 Y-7.822 Z-5.500 I-138.682 J-171.380 K0.000 F300.000
G1 X24.546 Y-7.934 Z-5.500 F300.000
G1 X27.792 Y-10.003 Z-5.500 F300.000
G1 X30.131 Y-11.229 Z-5.500 F300.000
G1 X33.264 Y-12.606 Z-5.500 F300.000
G1 X33.510 Y-12.691 Z-5.500 F300.000
G1 X37.767 Y-13.767 Z-5.500 F300.000
G1 X41.740 Y-14.351 Z-5.500 F300.000
G1 X44.122 Y-14.481 Z-5.500 F300.000
G1 X53.750 Y-14.475 Z-5.500 F300.000
G3 X60.329 Y-13.858 Z-5.500 I-18.142 J228.665 K0.000 F300.000
G3 X67.258 Y-12.586 Z-5.500 I-68.029 J390.041 K0.000 F300.000
G1 X71.022 Y-11.677 Z-5.500 F300.000
G2 X77.806 Y-9.665 Z-5.500 I43.605 J-134.571 K0.000 F300.000
G1 X78.128 Y-9.537 Z-5.500 F300.000
G1 X80.993 Y-8.003 Z-5.500 F300.000
G1 X84.008 Y-5.974 Z-5.500 F300.000
G3 X84.482 Y-5.474 Z-5.500 I-0.885 J1.315 K0.000 F300.000
G1 X86.047 Y-2.865 Z-5.500 F300.000
G1 X86.217 Y-2.469 Z-5.500 F300.000
G1 X87.376 Y1.763 Z-5.500 F300.000
G1 X87.419 Y1.974 Z-5.500 F300.000
G1 X87.825 Y5.035 Z-5.500 F300.000
G1 X87.839 Y5.243 Z-5.500 F300.000
G1 X87.829 Y8.757 Z-5.500 F300.000
G1 X87.479 Y11.939 Z-5.500 F300.000
G3 X87.286 Y12.541 Z-5.500 I-1.575 J-0.173 K0.000 F300.000
G1 X85.818 Y15.161 Z-5.500 F300.000
G1 X85.636 Y15.420 Z-5.500 F300.000
G1 X83.473 Y17.933 Z-5.500 F300.000
G1 X83.155 Y18.215 Z-5.500 F300.000
G3 X79.161 Y20.792 Z-5.500 I-55.173 J-81.135 K0.000 F300.000
G1 X78.759 Y20.969 Z-5.500 F300.000
G1 X76.182 Y21.701 Z-5.500 F300.000
G1 X75.928 Y21.751 Z-5.500 F300.000
G1 X73.128 Y22.069 Z-5.500 F300.000
G1 X72.949 Y22.079 Z-5.500 F300.000
G1 X70.205 Y22.079 Z-5.500 F300.000
G1 X69.792 Y22.025 Z-5.500 F300.000
G1 X66.866 Y21.232 Z-5.500 F300.000
G1 X64.540 Y20.435 Z-5.500 F300.000
G2 X59.733 Y18.281 Z-5.500 I-55.111 J116.511 K0.000 F300.000
G1 X57.258 Y17.691 Z-5.500 F300.000
G1 X54.660 Y17.299 Z-5.500 F300.000
G2 X49.286 Y17.177 Z-5.500 I-4.034 J59.609 K0.000 F300.000
G2 X45.031 Y17.623 Z-5.500 I3.983 J58.535 K0.000 F300.000
G3 X39.453 Y18.191 Z-5.500 I-18.719 J-156.303 K0.000 F300.000
G1 X38.988 Y18.164 Z-5.500 F300.000
G1 X37.461 Y17.846 Z-5.500 F300.000
G3 X36.950 Y17.642 Z-5.500 I0.323 J-1.552 K0.000 F300.000
G1 X35.614 Y16.814 Z-5.500 F300.000
G3 X35.129 Y16.345 Z-5.500 I0.834 J-1.348 K0.000 F300.000
G3 X34.186 Y14.273 Z-5.500 I3.495 J-2.841 K0.000 F300.000
G3 X34.181 Y12.921 Z-5.500 I5.013 J-0.696 K0.000 F300.000
G3 X34.992 Y10.582 Z-5.500 I11.003 J2.508 K0.000 F300.000
G3 X36.645 Y8.357 Z-5.500 I11.481 J6.800 K0.000 F300.000
G1 X36.997 Y8.057 Z-5.500 F300.000
G3 X40.953 Y5.744 Z-5.500 I30.305 J47.312 K0.000 F300.000
G3 X44.925 Y4.070 Z-5.500 I31.318 J68.759 K0.000 F300.000
G2 X49.015 Y2.016 Z-5.500 I-61.633 J-127.755 K0.000 F300.000
G2 X54.937 Y-1.812 Z-5.500 I-42.059 J-71.576 K0.000 F300.000
G1 X55.542 Y-2.161 Z-5.500 F300.000
G2 X52.911 Y-2.337 Z-5.500 I-79.033 J1164.160 K0.000 F300.000
G1 X52.911 Y-2.337 Z-5.500 F300.000
G3 X49.275 Y-2.657 Z-5.500 I7.687 J-108.032 K0.000 F300.000
G2 X45.352 Y-2.974 Z-5.500 I-46.701 J554.802 K0.000 F300.000
G2 X41.305 Y-2.700 Z-5.500 I-0.932 J16.301 K0.000 F300.000
G2 X33.921 Y-0.941 Z-5.500 I15.935 J83.277 K0.000 F300.000
G1 X31.578 Y-0.177 Z-5.500 F300.000
G2 X27.228 Y2.095 Z-5.500 I22.910 J49.166 K0.000 F300.000
G1 X25.057 Y3.032 Z-5.500 F300.000
G3 X20.985 Y4.938 Z-5.500 I-16.595 J-30.156 K0.000 F300.000
G1 X19.407 Y5.333 Z-5.500 F300.000
G1 X18.879 Y5.374 Z-5.500 F300.000
G1 X17.732 Y5.269 Z-5.500 F300.000
G3 X17.128 Y5.088 Z-5.500 I0.143 J-1.578 K0.000 F300.000
G3 X15.960 Y4.418 Z-5.500 I2.391 J-5.519 K0.000 F300.000
G3 X14.995 Y3.253 Z-5.500 I4.069 J-4.350 K0.000 F300.000
G3 X14.815 Y2.519 Z-5.500 I1.405 J-0.735 K0.000 F300.000
G3 X14.907 Y0.958 Z-5.500 I5.457 J-0.463 K0.000 F300.000
G1 X14.907 Y0.958 Z-7.500 F300.000
G3 X15.175 Y0.052 Z-7.500 I5.366 J1.098 K0.000 F300.000
G1 X15.393 Y-0.281 Z-7.500 F300.000
G3 X16.390 Y-1.416 Z-7.500 I7.232 J5.347 K0.000 F300.000
G3 X18.591 Y-3.051 Z-7.500 I11.742 J13.504 K0.000 F300.000
G3 X22.313 Y-6.119 Z-7.500 I94.050 J110.328 K0.000 F300.000
G2 X24.392 Y-7.822 Z-7.500 I-138.682 J-171.380 K0.000 F300.000
G1 X24.546 Y-7.934 Z-7.500 F300.000
G1 X27.792 Y-10.003 Z-7.500 F300.000
G1 X30.131 Y-11.229 Z-7.500 F300.000
G1 X33.264 Y-12.606 Z-7.500 F300.000
G1 X33.510 Y-12.691 Z-7.500 F300.000
G1 X37.767 Y-13.767 Z-7.500 F300.000
G1 X41.740 Y-14.351 Z-7.500 F300.000
G1 X44.122 Y-14.481 Z-7.500 F300.000
G1 X53.750 Y-14.475 Z-7.500 F300.000
G3 X60.329 Y-13.858 Z-7.500 I-18.142 J228.665 K0.000 F300.000
G3 X67.258 Y-12.586 Z-7.500 I-68.029 J390.041 K0.000 F300.000
G1 X71.022 Y-11.677 Z-7.500 F300.000
G2 X77.806 Y-9.665 Z-7.500 I43.605 J-134.571 K0.000 F300.000
G1 X78.128 Y-9.537 Z-7.500 F300.000
G1 X80.993 Y-8.003 Z-7.500 F300.000
G1 X84.008 Y-5.974 Z-7.500 F300.000
G3 X84.482 Y-5.474 Z-7.500 I-0.885 J1.315 K0.000 F300.000
G1 X86.047 Y-2.865 Z-7.500 F300.000
G1 X86.217 Y-2.469 Z-7.500 F300.000
G1 X87.376 Y1.763 Z-7.500 F300.000
G1 X87.419 Y1.974 Z-7.500 F300.000
G1 X87.825 Y5.035 Z-7.500 F300.000
G1 X87.839 Y5.243 Z-7.500 F300.000
G1 X87.829 Y8.757 Z-7.500 F300.000
G1 X87.479 Y11.939 Z-7.500 F300.000
G3 X87.286 Y12.541 Z-7.500 I-1.575 J-0.173 K0.000 F300.000
G1 X85.818 Y15.161 Z-7.500 F300.000
G1 X85.636 Y15.420 Z-7.500 F300.000
G1 X83.473 Y17.933 Z-7.500 F300.000
G1 X83.155 Y18.215 Z-7.500 F300.000
G3 X79.161 Y20.792 Z-7.500 I-55.173 J-81.135 K0.000 F300.000
G1 X78.759 Y20.969 Z-7.500 F300.000
G1 X76.182 Y21.701 Z-7.500 F300.000
G1 X75.928 Y21.751 Z-7.500 F300.000
G1 X73.128 Y22.069 Z-7.500 F300.000
G1 X72.949 Y22.079 Z-7.500 F300.000
G1 X70.205 Y22.079 Z-7.500 F300.000
G1 X69.792 Y22.025 Z-7.500 F300.000
G1 X66.866 Y21.232 Z-7.500 F300.000
G1 X64.540 Y20.435 Z-7.500 F300.000
G2 X59.733 Y18.281 Z-7.500 I-55.111 J116.511 K0.000 F300.000
G1 X57.258 Y17.691 Z-7.500 F300.000
G1 X54.660 Y17.299 Z-7.500 F300.000
G2 X49.286 Y17.177 Z-7.500 I-4.034 J59.609 K0.000 F300.000
G2 X45.031 Y17.623 Z-7.500 I3.983 J58.535 K0.000 F300.000
G3 X39.453 Y18.191 Z-7.500 I-18.719 J-156.303 K0.000 F300.000
G1 X38.988 Y18.164 Z-7.500 F300.000
G1 X37.461 Y17.846 Z-7.500 F300.000
G3 X36.950 Y17.642 Z-7.500 I0.323 J-1.552 K0.000 F300.000
G1 X35.614 Y16.814 Z-7.500 F300.000
G3 X35.129 Y16.345 Z-7.500 I0.834 J-1.348 K0.000 F300.000
G3 X34.186 Y14.273 Z-7.500 I3.495 J-2.841 K0.000 F300.000
G3 X34.181 Y12.921 Z-7.500 I5.013 J-0.696 K0.000 F300.000
G3 X34.992 Y10.582 Z-7.500 I11.003 J2.508 K0.000 F300.000
G3 X36.645 Y8.357 Z-7.500 I11.481 J6.800 K0.000 F300.000
G1 X36.997 Y8.057 Z-7.500 F300.000
G3 X40.953 Y5.744 Z-7.500 I30.305 J47.312 K0.000 F300.000
G3 X44.925 Y4.070 Z-7.500 I31.318 J68.759 K0.000 F300.000
G2 X49.015 Y2.016 Z-7.500 I-61.633 J-127.755 K0.000 F300.000
G2 X54.937 Y-1.812 Z-7.500 I-42.059 J-71.576 K0.000 F300.000
G1 X55.542 Y-2.161 Z-7.500 F300.000
G2 X52.911 Y-2.337 Z-7.500 I-79.033 J1164.160 K0.000 F300.000
G1 X52.911 Y-2.337 Z-7.500 F300.000
G3 X49.275 Y-2.657 Z-7.500 I7.687 J-108.032 K0.000 F300.000
G2 X45.352 Y-2.974 Z-7.500 I-46.701 J554.802 K0.000 F300.000
G2 X41.305 Y-2.700 Z-7.500 I-0.932 J16.301 K0.000 F300.000
G2 X33.921 Y-0.941 Z-7.500 I15.935 J83.277 K0.000 F300.000
G1 X31.578 Y-0.177 Z-7.500 F300.000
G2 X27.228 Y2.095 Z-7.500 I22.910 J49.166 K0.000 F300.000
G1 X25.057 Y3.032 Z-7.500 F300.000
G3 X20.985 Y4.938 Z-7.500 I-16.595 J-30.156 K0.000 F300.000
G1 X19.407 Y5.333 Z-7.500 F300.000
G1 X18.879 Y5.374 Z-7.500 F300.000
G1 X17.732 Y5.269 Z-7.500 F300.000
G3 X17.128 Y5.088 Z-7.500 I0.143 J-1.578 K0.000 F300.000
G3 X15.960 Y4.418 Z-7.500 I2.391 J-5.519 K0.000 F300.000
G3 X14.995 Y3.253 Z-7.500 I4.069 J-4.350 K0.000 F300.000
G3 X14.815 Y2.519 Z-7.500 I1.405 J-0.735 K0.000 F300.000
G3 X14.907 Y0.958 Z-7.500 I5.457 J-0.463 K0.000 F300.000
G1 X14.907 Y0.958 Z-9.500 F300.000
G3 X15.175 Y0.052 Z-9.500 I5.366 J1.098 K0.000 F300.000
G1 X15.393 Y-0.281 Z-9.500 F300.000
G3 X16.390 Y-1.416 Z-9.500 I7.232 J5.347 K0.000 F300.000
G3 X18.591 Y-3.051 Z-9.500 I11.742 J13.504 K0.000 F300.000
G3 X22.313 Y-6.119 Z-9.500 I94.050 J110.328 K0.000 F300.000
G2 X24.392 Y-7.822 Z-9.500 I-138.682 J-171.380 K0.000 F300.000
G1 X24.546 Y-7.934 Z-9.500 F300.000
G1 X27.792 Y-10.003 Z-9.500 F300.000
G1 X30.131 Y-11.229 Z-9.500 F300.000
G1 X33.264 Y-12.606 Z-9.500 F300.000
G1 X33.510 Y-12.691 Z-9.500 F300.000
G1 X37.767 Y-13.767 Z-9.500 F300.000
G1 X41.740 Y-14.351 Z-9.500 F300.000
G1 X44.122 Y-14.481 Z-9.500 F300.000
G1 X53.750 Y-14.475 Z-9.500 F300.000
G3 X60.329 Y-13.858 Z-9.500 I-18.142 J228.665 K0.000 F300.000
G3 X67.258 Y-12.586 Z-9.500 I-68.029 J390.041 K0.000 F300.000
G1 X71.022 Y-11.677 Z-9.500 F300.000
G2 X77.806 Y-9.665 Z-9.500 I43.605 J-134.571 K0.000 F300.000
G1 X78.128 Y-9.537 Z-9.500 F300.000
G1 X80.993 Y-8.003 Z-9.500 F300.000
G1 X84.008 Y-5.974 Z-9.500 F300.000
G3 X84.482 Y-5.474 Z-9.500 I-0.885 J1.315 K0.000 F300.000
G1 X86.047 Y-2.865 Z-9.500 F300.000
G1 X86.217 Y-2.469 Z-9.500 F300.000
G1 X87.376 Y1.763 Z-9.500 F300.000
G1 X87.419 Y1.974 Z-9.500 F300.000
G1 X87.825 Y5.035 Z-9.500 F300.000
G1 X87.839 Y5.243 Z-9.500 F300.000
G1 X87.829 Y8.757 Z-9.500 F300.000
G1 X87.479 Y11.939 Z-9.500 F300.000
G3 X87.286 Y12.541 Z-9.500 I-1.575 J-0.173 K0.000 F300.000
G1 X85.818 Y15.161 Z-9.500 F300.000
G1 X85.636 Y15.420 Z-9.500 F300.000
G1 X83.473 Y17.933 Z-9.500 F300.000
G1 X83.155 Y18.215 Z-9.500 F300.000
G3 X79.161 Y20.792 Z-9.500 I-55.173 J-81.135 K0.000 F300.000
G1 X78.759 Y20.969 Z-9.500 F300.000
G1 X76.182 Y21.701 Z-9.500 F300.000
G1 X75.928 Y21.751 Z-9.500 F300.000
G1 X73.128 Y22.069 Z-9.500 F300.000
G1 X72.949 Y22.079 Z-9.500 F300.000
G1 X70.205 Y22.079 Z-9.500 F300.000
G1 X69.792 Y22.025 Z-9.500 F300.000
G1 X66.866 Y21.232 Z-9.500 F300.000
G1 X64.540 Y20.435 Z-9.500 F300.000
G2 X59.733 Y18.281 Z-9.500 I-55.111 J116.511 K0.000 F300.000
G1 X57.258 Y17.691 Z-9.500 F300.000
G1 X54.660 Y17.299 Z-9.500 F300.000
G2 X49.286 Y17.177 Z-9.500 I-4.034 J59.609 K0.000 F300.000
G2 X45.031 Y17.623 Z-9.500 I3.983 J58.535 K0.000 F300.000
G3 X39.453 Y18.191 Z-9.500 I-18.719 J-156.303 K0.000 F300.000
G1 X38.988 Y18.164 Z-9.500 F300.000
G1 X37.461 Y17.846 Z-9.500 F300.000
G3 X36.950 Y17.642 Z-9.500 I0.323 J-1.552 K0.000 F300.000
G1 X35.614 Y16.814 Z-9.500 F300.000
G3 X35.129 Y16.345 Z-9.500 I0.834 J-1.348 K0.000 F300.000
G3 X34.186 Y14.273 Z-9.500 I3.495 J-2.841 K0.000 F300.000
G3 X34.181 Y12.921 Z-9.500 I5.013 J-0.696 K0.000 F300.000
G3 X34.992 Y10.582 Z-9.500 I11.003 J2.508 K0.000 F300.000
G3 X36.645 Y8.357 Z-9.500 I11.481 J6.800 K0.000 F300.000
G1 X36.997 Y8.057 Z-9.500 F300.000
G3 X40.953 Y5.744 Z-9.500 I30.305 J47.312 K0.000 F300.000
G3 X44.925 Y4.070 Z-9.500 I31.318 J68.759 K0.000 F300.000
G2 X49.015 Y2.016 Z-9.500 I-61.633 J-127.755 K0.000 F300.000
G2 X54.937 Y-1.812 Z-9.500 I-42.059 J-71.576 K0.000 F300.000
G1 X55.542 Y-2.161 Z-9.500 F300.000
G2 X52.911 Y-2.337 Z-9.500 I-79.033 J1164.160 K0.000 F300.000
G1 X52.911 Y-2.337 Z-9.500 F300.000
G3 X49.275 Y-2.657 Z-9.500 I7.687 J-108.032 K0.000 F300.000
G2 X45.352 Y-2.974 Z-9.500 I-46.701 J554.802 K0.000 F300.000
G2 X41.305 Y-2.700 Z-9.500 I-0.932 J16.301 K0.000 F300.000
G2 X33.921 Y-0.941 Z-9.500 I15.935 J83.277 K0.000 F300.000
G1 X31.578 Y-0.177 Z-9.500 F300.000
G2 X27.228 Y2.095 Z-9.500 I22.910 J49.166 K0.000 F300.000
G1 X25.057 Y3.032 Z-9.500 F300.000
G3 X20.985 Y4.938 Z-9.500 I-16.595 J-30.156 K0.000 F300.000
G1 X19.407 Y5.333 Z-9.500 F300.000
G1 X18.879 Y5.374 Z-9.500 F300.000
G1 X17.732 Y5.269 Z-9.500 F300.000
G3 X17.128 Y5.088 Z-9.500 I0.143 J-1.578 K0.000 F300.000
G3 X15.960 Y4.418 Z-9.500 I2.391 J-5.519 K0.000 F300.000
G3 X14.995 Y3.253 Z-9.500 I4.069 J-4.350 K0.000 F300.000
G3 X14.815 Y2.519 Z-9.500 I1.405 J-0.735 K0.000 F300.000
G3 X14.907 Y0.958 Z-9.500 I5.457 J-0.463 K0.000 F300.000
G1 X14.907 Y0.958 Z-10.500 F300.000
G3 X15.175 Y0.052 Z-10.500 I5.366 J1.098 K0.000 F300.000
G1 X15.393 Y-0.281 Z-10.500 F300.000
G3 X16.390 Y-1.416 Z-10.500 I7.232 J5.347 K0.000 F300.000
G3 X18.591 Y-3.051 Z-10.500 I11.742 J13.504 K0.000 F300.000
G3 X22.313 Y-6.119 Z-10.500 I94.050 J110.328 K0.000 F300.000
G2 X24.392 Y-7.822 Z-10.500 I-138.682 J-171.380 K0.000 F300.000
G1 X24.546 Y-7.934 Z-10.500 F300.000
G1 X27.792 Y-10.003 Z-10.500 F300.000
G1 X30.131 Y-11.229 Z-10.500 F300.000
G1 X33.264 Y-12.606 Z-10.500 F300.000
G1 X33.510 Y-12.691 Z-10.500 F300.000
G1 X37.767 Y-13.767 Z-10.500 F300.000
G1 X41.740 Y-14.351 Z-10.500 F300.000
G1 X44.122 Y-14.481 Z-10.500 F300.000
G1 X53.750 Y-14.475 Z-10.500 F300.000
G3 X60.329 Y-13.858 Z-10.500 I-18.142 J228.665 K0.000 F300.000
G3 X67.258 Y-12.586 Z-10.500 I-68.029 J390.041 K0.000 F300.000
G1 X71.022 Y-11.677 Z-10.500 F300.000
G2 X77.806 Y-9.665 Z-10.500 I43.605 J-134.571 K0.000 F300.000
G1 X78.128 Y-9.537 Z-10.500 F300.000
G1 X80.993 Y-8.003 Z-10.500 F300.000
G1 X84.008 Y-5.974 Z-10.500 F300.000
G3 X84.482 Y-5.474 Z-10.500 I-0.885 J1.315 K0.000 F300.000
G1 X86.047 Y-2.865 Z-10.500 F300.000
G1 X86.217 Y-2.469 Z-10.500 F300.000
G1 X87.376 Y1.763 Z-10.500 F300.000
G1 X87.419 Y1.974 Z-10.500 F300.000
G1 X87.825 Y5.035 Z-10.500 F300.000
G1 X87.839 Y5.243 Z-10.500 F300.000
G1 X87.829 Y8.757 Z-10.500 F300.000
G1 X87.479 Y11.939 Z-10.500 F300.000
G3 X87.286 Y12.541 Z-10.500 I-1.575 J-0.173 K0.000 F300.000
G1 X85.818 Y15.161 Z-10.500 F300.000
G1 X85.636 Y15.420 Z-10.500 F300.000
G1 X83.473 Y17.933 Z-10.500 F300.000
G1 X83.155 Y18.215 Z-10.500 F300.000
G3 X79.161 Y20.792 Z-10.500 I-55.173 J-81.135 K0.000 F300.000
G1 X78.759 Y20.969 Z-10.500 F300.000
G1 X76.182 Y21.701 Z-10.500 F300.000
G1 X75.928 Y21.751 Z-10.500 F300.000
G1 X73.128 Y22.069 Z-10.500 F300.000
G1 X72.949 Y22.079 Z-10.500 F300.000
G1 X70.205 Y22.079 Z-10.500 F300.000
G1 X69.792 Y22.025 Z-10.500 F300.000
G1 X66.866 Y21.232 Z-10.500 F300.000
G1 X64.540 Y20.435 Z-10.500 F300.000
G2 X59.733 Y18.281 Z-10.500 I-55.111 J116.511 K0.000 F300.000
G1 X57.258 Y17.691 Z-10.500 F300.000
G1 X54.660 Y17.299 Z-10.500 F300.000
G2 X49.286 Y17.177 Z-10.500 I-4.034 J59.609 K0.000 F300.000
G2 X45.031 Y17.623 Z-10.500 I3.983 J58.535 K0.000 F300.000
G3 X39.453 Y18.191 Z-10.500 I-18.719 J-156.303 K0.000 F300.000
G1 X38.988 Y18.164 Z-10.500 F300.000
G1 X37.461 Y17.846 Z-10.500 F300.000
G3 X36.950 Y17.642 Z-10.500 I0.323 J-1.552 K0.000 F300.000
G1 X35.614 Y16.814 Z-10.500 F300.000
G3 X35.129 Y16.345 Z-10.500 I0.834 J-1.348 K0.000 F300.000
G3 X34.186 Y14.273 Z-10.500 I3.495 J-2.841 K0.000 F300.000
G3 X34.181 Y12.921 Z-10.500 I5.013 J-0.696 K0.000 F300.000
G3 X34.992 Y10.582 Z-10.500 I11.003 J2.508 K0.000 F300.000
G3 X36.645 Y8.357 Z-10.500 I11.481 J6.800 K0.000 F300.000
G1 X36.997 Y8.057 Z-10.500 F300.000
G3 X40.953 Y5.744 Z-10.500 I30.305 J47.312 K0.000 F300.000
G3 X44.925 Y4.070 Z-10.500 I31.318 J68.759 K0.000 F300.000
G2 X49.015 Y2.016 Z-10.500 I-61.633 J-127.755 K0.000 F300.000
G2 X54.937 Y-1.812 Z-10.500 I-42.059 J-71.576 K0.000 F300.000
G1 X55.542 Y-2.161 Z-10.500 F300.000
G2 X52.911 Y-2.337 Z-10.500 I-79.033 J1164.160 K0.000 F300.000
G1 X52.911 Y-2.337 Z-10.500 F300.000
G3 X49.275 Y-2.657 Z-10.500 I7.687 J-108.032 K0.000 F300.000
G2 X45.352 Y-2.974 Z-10.500 I-46.701 J554.802 K0.000 F300.000
G2 X41.305 Y-2.700 Z-10.500 I-0.932 J16.301 K0.000 F300.000
G2 X33.921 Y-0.941 Z-10.500 I15.935 J83.277 K0.000 F300.000
G1 X31.578 Y-0.177 Z-10.500 F300.000
G2 X27.228 Y2.095 Z-10.500 I22.910 J49.166 K0.000 F300.000
G1 X25.057 Y3.032 Z-10.500 F300.000
G3 X20.985 Y4.938 Z-10.500 I-16.595 J-30.156 K0.000 F300.000
G1 X19.407 Y5.333 Z-10.500 F300.000
G1 X18.879 Y5.374 Z-10.500 F300.000
G1 X17.732 Y5.269 Z-10.500 F300.000
G3 X17.128 Y5.088 Z-10.500 I0.143 J-1.578 K0.000 F300.000
G3 X15.960 Y4.418 Z-10.500 I2.391 J-5.519 K0.000 F300.000
G3 X14.995 Y3.253 Z-10.500 I4.069 J-4.350 K0.000 F300.000
G3 X14.815 Y2.519 Z-10.500 I1.405 J-0.735 K0.000 F300.000
G3 X14.907 Y0.958 Z-10.500 I5.457 J-0.463 K0.000 F300.000
G0 Z5.000
G0 Z5.000
(Finish operation: Profile002)
(Begin postamble)
M5
G17 G90
M2
