(Exported by FreeCAD)
(Post Processor: script_module)
(Output Time:2025-03-08 15:28:20.734024)
(Begin preamble)
G17 G90
G21
(Begin operation: Fixture)
(Path: Fixture)
G54
(Finish operation: Fixture)
(Begin operation: 2mm_Endmill001)
(Path: 2mm_Endmill001)
(2mm_Endmill001)
(Begin toolchange)
( M6 T2 )
M3 S13000
(Finish operation: 2mm_Endmill001)
(Begin operation: Profile)
(Path: Profile)
(Profile)
(Compensated Tool Path. Diameter: 2.0)
G0 Z5.000
G0 X0.000 Y0.000
G0 X23.499 Y-5.672
G0 X23.499 Y-5.672 Z3.000
G1 X23.499 Y-5.672 Z-2.000 F600.000
G1 X28.653 Y15.683 Z-2.000 F600.000
G2 X29.718 Y16.444 Z-2.000 I0.972 J-0.235 K0.000 F600.000
G1 X32.530 Y16.183 Z-2.000 F600.000
G1 X37.017 Y16.000 Z-2.000 F600.000
G3 X41.347 Y16.172 Z-2.000 I0.437 J43.621 K0.000 F600.000
G2 X44.296 Y16.445 Z-2.000 I6.591 J-55.094 K0.000 F600.000
G2 X45.347 Y15.683 Z-2.000 I0.079 J-0.997 K0.000 F600.000
G1 X51.972 Y-11.765 Z-2.000 F600.000
G1 X52.000 Y-12.000 Z-2.000 F600.000
G1 X52.000 Y-33.000 Z-2.000 F600.000
G1 X60.484 Y-33.000 Z-2.000 F600.000
G2 X61.470 Y-33.832 Z-2.000 I-0.000 J-1.000 K0.000 F600.000
G2 X62.482 Y-42.136 Z-2.000 I-64.857 J-12.114 K0.000 F600.000
G2 X61.934 Y-60.566 Z-2.000 I-134.221 J-5.237 K0.000 F600.000
G1 X61.880 Y-60.816 Z-2.000 F600.000
G1 X59.840 Y-66.545 Z-2.000 F600.000
G1 X59.740 Y-66.748 Z-2.000 F600.000
G2 X58.022 Y-68.239 Z-2.000 I-8.666 J8.247 K0.000 F600.000
G3 X57.241 Y-69.137 Z-2.000 I1.283 J-1.907 K0.000 F600.000
G3 X56.984 Y-71.059 Z-2.000 I4.553 J-1.586 K0.000 F600.000
G2 X56.247 Y-72.344 Z-2.000 I-1.633 J0.082 K0.000 F600.000
G2 X55.022 Y-72.742 Z-2.000 I-1.568 J2.744 K0.000 F600.000
G3 X55.191 Y-73.813 Z-2.000 I15.838 J1.942 K0.000 F600.000
G2 X55.446 Y-75.446 Z-2.000 I-7.638 J-2.029 K0.000 F600.000
G2 X54.427 Y-77.453 Z-2.000 I-1.978 J-0.258 K0.000 F600.000
G2 X52.553 Y-77.865 Z-2.000 I-1.978 J4.525 K0.000 F600.000
G2 X48.305 Y-77.914 Z-2.000 I-2.494 J32.396 K0.000 F600.000
G2 X46.309 Y-77.712 Z-2.000 I0.181 J11.761 K0.000 F600.000
G2 X44.925 Y-76.894 Z-2.000 I0.375 J2.215 K0.000 F600.000
G2 X44.559 Y-75.242 Z-2.000 I1.926 J1.293 K0.000 F600.000
G3 X45.003 Y-72.561 Z-2.000 I-45.100 J8.847 K0.000 F600.000
G1 X44.200 Y-72.407 Z-2.000 F600.000
G2 X43.021 Y-71.088 Z-2.000 I0.403 J1.547 K0.000 F600.000
G3 X42.833 Y-68.472 Z-2.000 I-14.370 J0.282 K0.000 F600.000
G3 X42.476 Y-68.023 Z-2.000 I-0.599 J-0.110 K0.000 F600.000
G2 X41.502 Y-67.525 Z-2.000 I0.456 J2.093 K0.000 F600.000
G1 X40.836 Y-66.773 Z-2.000 F600.000
G3 X38.967 Y-63.927 Z-2.000 I-22.565 J-12.778 K0.000 F600.000
G3 X37.115 Y-63.011 Z-2.000 I-1.935 J-1.580 K0.000 F600.000
G1 X35.521 Y-63.497 Z-2.000 F600.000
G3 X34.609 Y-64.450 Z-2.000 I2.801 J-3.590 K0.000 F600.000
G3 X33.208 Y-66.727 Z-2.000 I57.858 J-37.183 K0.000 F600.000
G2 X31.640 Y-68.000 Z-2.000 I-2.353 J1.296 K0.000 F600.000
G3 X31.167 Y-68.477 Z-2.000 I0.073 J-0.546 K0.000 F600.000
G3 X30.999 Y-70.791 Z-2.000 I9.184 J-1.829 K0.000 F600.000
G2 X30.710 Y-71.778 Z-2.000 I-1.584 J-0.071 K0.000 F600.000
G2 X29.005 Y-72.619 Z-2.000 I-1.840 J1.583 K0.000 F600.000
G3 X29.177 Y-73.744 Z-2.000 I15.692 J1.824 K0.000 F600.000
G2 X29.444 Y-75.404 Z-2.000 I-8.406 J-2.203 K0.000 F600.000
G2 X28.683 Y-77.289 Z-2.000 I-1.997 J-0.291 K0.000 F600.000
G2 X27.029 Y-77.826 Z-2.000 I-1.824 J2.803 K0.000 F600.000
G2 X22.362 Y-77.917 Z-2.000 I-2.977 J33.096 K0.000 F600.000
G2 X20.352 Y-77.721 Z-2.000 I0.198 J12.460 K0.000 F600.000
G2 X18.953 Y-76.930 Z-2.000 I0.360 J2.270 K0.000 F600.000
G2 X18.555 Y-75.296 Z-2.000 I1.852 J1.316 K0.000 F600.000
G3 X18.997 Y-72.610 Z-2.000 I-57.352 J10.815 K0.000 F600.000
G1 X17.855 Y-72.300 Z-2.000 F600.000
G2 X17.178 Y-71.675 Z-2.000 I0.263 J0.965 K0.000 F600.000
G2 X16.985 Y-70.030 Z-2.000 I61.525 J8.058 K0.000 F600.000
G3 X16.447 Y-68.665 Z-2.000 I-2.189 J-0.073 K0.000 F600.000
G3 X15.137 Y-67.558 Z-2.000 I-18.285 J-20.312 K0.000 F600.000
G2 X12.882 Y-64.646 Z-2.000 I3.814 J5.283 K0.000 F600.000
G2 X12.172 Y-61.453 Z-2.000 I16.965 J5.445 K0.000 F600.000
G2 X11.434 Y-45.538 Z-2.000 I129.899 J13.999 K0.000 F600.000
G2 X12.530 Y-33.831 Z-2.000 I63.282 J-0.020 K0.000 F600.000
G2 X13.516 Y-33.000 Z-2.000 I0.986 J-0.169 K0.000 F600.000
G1 X22.000 Y-33.000 Z-2.000 F600.000
G1 X22.000 Y-12.000 Z-2.000 F600.000
G1 X22.028 Y-11.765 Z-2.000 F600.000
G1 X23.499 Y-5.672 Z-2.000 F600.000
G0 Z5.000
G0 X34.902 Y24.997 Z5.000
G0 X34.902 Y24.997 Z3.000
G1 X34.902 Y24.997 Z-2.000 F600.000
G1 X34.743 Y25.066 Z-2.000 F600.000
G2 X32.717 Y27.525 Z-2.000 I5.161 J6.316 K0.000 F600.000
G1 X32.717 Y27.525 Z-2.000 F600.000
G1 X32.409 Y28.030 Z-2.000 F600.000
G3 X31.358 Y29.600 Z-2.000 I-7.783 J-4.074 K0.000 F600.000
G3 X30.744 Y29.970 Z-2.000 I-0.710 J-0.484 K0.000 F600.000
G3 X29.817 Y29.753 Z-2.000 I0.273 J-3.255 K0.000 F600.000
G2 X27.323 Y28.774 Z-2.000 I-11.538 J25.745 K0.000 F600.000
G2 X25.379 Y29.657 Z-2.000 I-0.436 J1.621 K0.000 F600.000
G3 X24.610 Y30.401 Z-2.000 I-0.918 J-0.180 K0.000 F600.000
G3 X23.136 Y30.121 Z-2.000 I0.090 J-4.499 K0.000 F600.000
G3 X20.412 Y28.896 Z-2.000 I15.378 J-37.834 K0.000 F600.000
G2 X18.732 Y28.151 Z-2.000 I-4.324 J7.480 K0.000 F600.000
G2 X17.463 Y28.574 Z-2.000 I-0.345 J1.080 K0.000 F600.000
G2 X17.302 Y29.658 Z-2.000 I1.028 J0.707 K0.000 F600.000
G3 X17.849 Y32.191 Z-2.000 I-13.742 J4.292 K0.000 F600.000
G3 X17.908 Y40.031 Z-2.000 I-78.456 J4.514 K0.000 F600.000
G2 X16.238 Y41.808 Z-2.000 I2.841 J4.343 K0.000 F600.000
G2 X16.235 Y47.578 Z-2.000 I5.669 J2.887 K0.000 F600.000
G2 X17.815 Y48.925 Z-2.000 I2.669 J-1.531 K0.000 F600.000
G2 X18.544 Y55.964 Z-2.000 I40.548 J-0.641 K0.000 F600.000
G2 X20.493 Y62.458 Z-2.000 I28.844 J-5.121 K0.000 F600.000
G2 X21.692 Y64.704 Z-2.000 I10.589 J-4.211 K0.000 F600.000
G2 X19.717 Y66.132 Z-2.000 I2.736 J5.863 K0.000 F600.000
G2 X19.374 Y75.997 Z-2.000 I5.702 J5.137 K0.000 F600.000
G2 X27.299 Y77.661 Z-2.000 I4.903 J-3.650 K0.000 F600.000
G2 X30.808 Y71.605 Z-2.000 I-3.919 J-6.315 K0.000 F600.000
G2 X34.767 Y72.302 Z-2.000 I4.357 J-13.171 K0.000 F600.000
G3 X39.841 Y72.311 Z-2.000 I1.841 J368.169 K0.000 F600.000
G2 X45.189 Y71.605 Z-2.000 I0.756 J-14.874 K0.000 F600.000
G2 X46.898 Y76.111 Z-2.000 I7.538 J-0.281 K0.000 F600.000
G2 X55.456 Y77.181 Z-2.000 I4.816 J-3.766 K0.000 F600.000
G2 X56.893 Y66.938 Z-2.000 I-4.837 J-5.901 K0.000 F600.000
G2 X54.313 Y64.695 Z-2.000 I-5.282 J3.470 K0.000 F600.000
G2 X54.908 Y63.731 Z-2.000 I-13.721 J-9.140 K0.000 F600.000
G2 X56.663 Y59.273 Z-2.000 I-26.735 J-13.098 K0.000 F600.000
G2 X58.181 Y48.920 Z-2.000 I-38.095 J-10.872 K0.000 F600.000
G2 X59.638 Y47.799 Z-2.000 I-0.903 J-2.682 K0.000 F600.000
G2 X60.389 Y43.732 Z-2.000 I-5.352 J-3.091 K0.000 F600.000
G2 X58.088 Y40.036 Z-2.000 I-5.090 J0.604 K0.000 F600.000
G3 X58.082 Y33.162 Z-2.000 I78.291 J-3.509 K0.000 F600.000
G3 X58.678 Y29.706 Z-2.000 I12.099 J0.307 K0.000 F600.000
G2 X57.674 Y28.103 Z-2.000 I-1.106 J-0.423 K0.000 F600.000
G2 X56.434 Y28.478 Z-2.000 I0.160 J2.766 K0.000 F600.000
G3 X53.323 Y29.934 Z-2.000 I-26.005 J-51.518 K0.000 F600.000
G3 X51.459 Y30.399 Z-2.000 I-1.939 J-3.806 K0.000 F600.000
G3 X50.738 Y29.906 Z-2.000 I-0.002 J-0.770 K0.000 F600.000
G2 X48.612 Y28.785 Z-2.000 I-1.633 J0.519 K0.000 F600.000
G3 X45.655 Y29.917 Z-2.000 I-34.086 J-84.599 K0.000 F600.000
G3 X44.895 Y29.791 Z-2.000 I-0.283 J-0.645 K0.000 F600.000
G1 X44.490 Y29.227 Z-2.000 F600.000
G2 X44.042 Y28.303 Z-2.000 I-175.269 J84.483 K0.000 F600.000
G2 X42.777 Y26.075 Z-2.000 I-11.223 J4.896 K0.000 F600.000
G2 X39.828 Y24.153 Z-2.000 I-4.109 J3.082 K0.000 F600.000
G2 X37.683 Y24.067 Z-2.000 I-1.289 J5.374 K0.000 F600.000
G1 X34.902 Y24.997 Z-2.000 F600.000
G0 Z5.000
G0 X62.259 Y17.761 Z5.000
G0 X62.259 Y17.761 Z3.000
G1 X62.259 Y17.761 Z-2.000 F600.000
G2 X63.043 Y19.882 Z-2.000 I11.435 J-3.025 K0.000 F600.000
G2 X78.499 Y15.034 Z-2.000 I6.957 J-4.882 K0.000 F600.000
G1 X78.500 Y8.000 Z-2.000 F600.000
G1 X78.489 Y7.850 Z-2.000 F600.000
G1 X75.000 Y-15.076 Z-2.000 F600.000
G1 X75.000 Y-25.000 Z-2.000 F600.000
G2 X72.098 Y-27.995 Z-2.000 I-3.003 J0.006 K0.000 F600.000
G1 X69.000 Y-28.000 Z-2.000 F600.000
G2 X66.005 Y-25.098 Z-2.000 I0.006 J3.003 K0.000 F600.000
G1 X66.000 Y-5.116 Z-2.000 F600.000
G1 X61.741 Y12.989 Z-2.000 F600.000
G2 X62.135 Y17.246 Z-2.000 I13.937 J0.859 K0.000 F600.000
G2 X62.259 Y17.761 Z-2.000 I11.559 J-2.510 K0.000 F600.000
G0 Z5.000
G0 X82.394 Y28.686 Z5.000
G0 X82.394 Y28.686 Z3.000
G1 X82.394 Y28.686 Z-2.000 F600.000
G2 X82.302 Y29.658 Z-2.000 I1.096 J0.595 K0.000 F600.000
G3 X82.849 Y32.191 Z-2.000 I-13.742 J4.292 K0.000 F600.000
G3 X82.908 Y40.031 Z-2.000 I-78.456 J4.514 K0.000 F600.000
G2 X81.238 Y41.808 Z-2.000 I2.841 J4.343 K0.000 F600.000
G2 X81.235 Y47.578 Z-2.000 I5.669 J2.887 K0.000 F600.000
G2 X82.815 Y48.925 Z-2.000 I2.669 J-1.531 K0.000 F600.000
G2 X83.544 Y55.964 Z-2.000 I40.548 J-0.641 K0.000 F600.000
G2 X85.493 Y62.458 Z-2.000 I28.844 J-5.121 K0.000 F600.000
G2 X86.692 Y64.704 Z-2.000 I10.589 J-4.211 K0.000 F600.000
G2 X84.717 Y66.132 Z-2.000 I2.736 J5.863 K0.000 F600.000
G2 X84.374 Y75.997 Z-2.000 I5.702 J5.137 K0.000 F600.000
G2 X92.299 Y77.661 Z-2.000 I4.903 J-3.650 K0.000 F600.000
G2 X95.808 Y71.605 Z-2.000 I-3.919 J-6.315 K0.000 F600.000
G2 X99.767 Y72.302 Z-2.000 I4.357 J-13.171 K0.000 F600.000
G3 X104.841 Y72.311 Z-2.000 I1.841 J368.169 K0.000 F600.000
G2 X110.189 Y71.605 Z-2.000 I0.756 J-14.874 K0.000 F600.000
G2 X111.898 Y76.111 Z-2.000 I7.538 J-0.281 K0.000 F600.000
G2 X120.456 Y77.181 Z-2.000 I4.816 J-3.766 K0.000 F600.000
G2 X121.893 Y66.938 Z-2.000 I-4.837 J-5.901 K0.000 F600.000
G2 X119.313 Y64.695 Z-2.000 I-5.282 J3.470 K0.000 F600.000
G2 X119.908 Y63.731 Z-2.000 I-13.721 J-9.140 K0.000 F600.000
G2 X121.663 Y59.273 Z-2.000 I-26.735 J-13.098 K0.000 F600.000
G2 X123.181 Y48.920 Z-2.000 I-38.095 J-10.872 K0.000 F600.000
G2 X124.638 Y47.799 Z-2.000 I-0.903 J-2.682 K0.000 F600.000
G2 X125.389 Y43.732 Z-2.000 I-5.352 J-3.091 K0.000 F600.000
G2 X123.088 Y40.036 Z-2.000 I-5.090 J0.604 K0.000 F600.000
G3 X123.082 Y33.162 Z-2.000 I78.291 J-3.509 K0.000 F600.000
G3 X123.678 Y29.706 Z-2.000 I12.099 J0.307 K0.000 F600.000
G2 X122.674 Y28.103 Z-2.000 I-1.106 J-0.423 K0.000 F600.000
G2 X121.434 Y28.478 Z-2.000 I0.160 J2.766 K0.000 F600.000
G3 X118.323 Y29.934 Z-2.000 I-26.005 J-51.518 K0.000 F600.000
G3 X116.459 Y30.399 Z-2.000 I-1.939 J-3.806 K0.000 F600.000
G3 X115.738 Y29.906 Z-2.000 I-0.002 J-0.770 K0.000 F600.000
G2 X113.612 Y28.785 Z-2.000 I-1.633 J0.519 K0.000 F600.000
G3 X110.655 Y29.917 Z-2.000 I-34.087 J-84.600 K0.000 F600.000
G3 X109.895 Y29.791 Z-2.000 I-0.283 J-0.645 K0.000 F600.000
G1 X109.490 Y29.227 Z-2.000 F600.000
G2 X109.042 Y28.303 Z-2.000 I-175.269 J84.483 K0.000 F600.000
G2 X107.777 Y26.075 Z-2.000 I-11.223 J4.896 K0.000 F600.000
G2 X104.828 Y24.153 Z-2.000 I-4.109 J3.082 K0.000 F600.000
G2 X102.683 Y24.067 Z-2.000 I-1.289 J5.374 K0.000 F600.000
G1 X99.902 Y24.997 Z-2.000 F600.000
G1 X99.743 Y25.066 Z-2.000 F600.000
G2 X97.717 Y27.525 Z-2.000 I5.161 J6.316 K0.000 F600.000
G1 X97.717 Y27.525 Z-2.000 F600.000
G1 X97.409 Y28.030 Z-2.000 F600.000
G3 X96.358 Y29.600 Z-2.000 I-7.783 J-4.074 K0.000 F600.000
G3 X95.744 Y29.970 Z-2.000 I-0.710 J-0.484 K0.000 F600.000
G3 X94.817 Y29.753 Z-2.000 I0.273 J-3.255 K0.000 F600.000
G2 X92.323 Y28.774 Z-2.000 I-11.538 J25.745 K0.000 F600.000
G2 X90.379 Y29.657 Z-2.000 I-0.436 J1.621 K0.000 F600.000
G3 X89.610 Y30.401 Z-2.000 I-0.918 J-0.180 K0.000 F600.000
G3 X88.136 Y30.121 Z-2.000 I0.090 J-4.499 K0.000 F600.000
G3 X85.412 Y28.896 Z-2.000 I15.378 J-37.834 K0.000 F600.000
G2 X83.732 Y28.151 Z-2.000 I-4.324 J7.480 K0.000 F600.000
G2 X82.463 Y28.574 Z-2.000 I-0.345 J1.080 K0.000 F600.000
G2 X82.394 Y28.686 Z-2.000 I1.028 J0.707 K0.000 F600.000
G0 Z5.000
G0 X93.947 Y16.183 Z5.000
G0 X93.947 Y16.183 Z3.000
G1 X93.947 Y16.183 Z-2.000 F600.000
G2 X94.718 Y16.444 Z-2.000 I0.679 J-0.734 K0.000 F600.000
G1 X97.530 Y16.183 Z-2.000 F600.000
G1 X102.017 Y16.000 Z-2.000 F600.000
G3 X106.347 Y16.172 Z-2.000 I0.437 J43.621 K0.000 F600.000
G2 X109.296 Y16.445 Z-2.000 I6.591 J-55.094 K0.000 F600.000
G2 X110.347 Y15.683 Z-2.000 I0.079 J-0.997 K0.000 F600.000
G1 X116.972 Y-11.765 Z-2.000 F600.000
G1 X117.000 Y-12.000 Z-2.000 F600.000
G1 X117.000 Y-33.000 Z-2.000 F600.000
G1 X125.484 Y-33.000 Z-2.000 F600.000
G2 X126.470 Y-33.832 Z-2.000 I-0.000 J-1.000 K0.000 F600.000
G2 X127.482 Y-42.136 Z-2.000 I-64.857 J-12.114 K0.000 F600.000
G2 X126.934 Y-60.566 Z-2.000 I-134.221 J-5.237 K0.000 F600.000
G1 X126.880 Y-60.816 Z-2.000 F600.000
G1 X124.840 Y-66.545 Z-2.000 F600.000
G1 X124.740 Y-66.748 Z-2.000 F600.000
G2 X123.022 Y-68.239 Z-2.000 I-8.666 J8.247 K0.000 F600.000
G3 X122.241 Y-69.137 Z-2.000 I1.283 J-1.907 K0.000 F600.000
G3 X121.984 Y-71.059 Z-2.000 I4.553 J-1.586 K0.000 F600.000
G2 X121.247 Y-72.344 Z-2.000 I-1.633 J0.082 K0.000 F600.000
G2 X120.022 Y-72.742 Z-2.000 I-1.568 J2.744 K0.000 F600.000
G3 X120.191 Y-73.813 Z-2.000 I15.838 J1.942 K0.000 F600.000
G2 X120.446 Y-75.446 Z-2.000 I-7.638 J-2.029 K0.000 F600.000
G2 X119.427 Y-77.453 Z-2.000 I-1.978 J-0.258 K0.000 F600.000
G2 X117.553 Y-77.865 Z-2.000 I-1.978 J4.525 K0.000 F600.000
G2 X113.305 Y-77.914 Z-2.000 I-2.494 J32.396 K0.000 F600.000
G2 X111.309 Y-77.712 Z-2.000 I0.181 J11.761 K0.000 F600.000
G2 X109.925 Y-76.894 Z-2.000 I0.375 J2.215 K0.000 F600.000
G2 X109.559 Y-75.242 Z-2.000 I1.927 J1.293 K0.000 F600.000
G3 X110.003 Y-72.561 Z-2.000 I-45.100 J8.847 K0.000 F600.000
G1 X109.200 Y-72.407 Z-2.000 F600.000
G2 X108.021 Y-71.088 Z-2.000 I0.403 J1.547 K0.000 F600.000
G3 X107.833 Y-68.472 Z-2.000 I-14.370 J0.282 K0.000 F600.000
G3 X107.476 Y-68.023 Z-2.000 I-0.599 J-0.110 K0.000 F600.000
G2 X106.502 Y-67.525 Z-2.000 I0.456 J2.093 K0.000 F600.000
G1 X105.836 Y-66.773 Z-2.000 F600.000
G3 X103.967 Y-63.927 Z-2.000 I-22.565 J-12.778 K0.000 F600.000
G3 X102.115 Y-63.011 Z-2.000 I-1.935 J-1.580 K0.000 F600.000
G1 X100.521 Y-63.497 Z-2.000 F600.000
G3 X99.609 Y-64.450 Z-2.000 I2.801 J-3.590 K0.000 F600.000
G3 X98.208 Y-66.727 Z-2.000 I57.856 J-37.182 K0.000 F600.000
G2 X96.640 Y-68.000 Z-2.000 I-2.353 J1.296 K0.000 F600.000
G3 X96.167 Y-68.477 Z-2.000 I0.073 J-0.546 K0.000 F600.000
G3 X95.999 Y-70.791 Z-2.000 I9.184 J-1.829 K0.000 F600.000
G2 X95.710 Y-71.778 Z-2.000 I-1.584 J-0.071 K0.000 F600.000
G2 X94.005 Y-72.619 Z-2.000 I-1.840 J1.583 K0.000 F600.000
G3 X94.177 Y-73.744 Z-2.000 I15.693 J1.824 K0.000 F600.000
G2 X94.444 Y-75.404 Z-2.000 I-8.406 J-2.203 K0.000 F600.000
G2 X93.683 Y-77.289 Z-2.000 I-1.997 J-0.291 K0.000 F600.000
G2 X92.029 Y-77.826 Z-2.000 I-1.824 J2.803 K0.000 F600.000
G2 X87.362 Y-77.917 Z-2.000 I-2.977 J33.096 K0.000 F600.000
G2 X85.352 Y-77.721 Z-2.000 I0.198 J12.460 K0.000 F600.000
G2 X83.953 Y-76.930 Z-2.000 I0.360 J2.270 K0.000 F600.000
G2 X83.555 Y-75.296 Z-2.000 I1.852 J1.316 K0.000 F600.000
G3 X83.997 Y-72.610 Z-2.000 I-57.351 J10.815 K0.000 F600.000
G1 X82.855 Y-72.300 Z-2.000 F600.000
G2 X82.178 Y-71.675 Z-2.000 I0.263 J0.965 K0.000 F600.000
G2 X81.985 Y-70.030 Z-2.000 I61.523 J8.058 K0.000 F600.000
G3 X81.447 Y-68.665 Z-2.000 I-2.189 J-0.073 K0.000 F600.000
G3 X80.137 Y-67.558 Z-2.000 I-18.285 J-20.312 K0.000 F600.000
G2 X77.882 Y-64.646 Z-2.000 I3.814 J5.283 K0.000 F600.000
G2 X77.172 Y-61.453 Z-2.000 I16.965 J5.445 K0.000 F600.000
G2 X76.434 Y-45.538 Z-2.000 I129.899 J13.999 K0.000 F600.000
G2 X77.530 Y-33.831 Z-2.000 I63.282 J-0.020 K0.000 F600.000
G2 X78.516 Y-33.000 Z-2.000 I0.986 J-0.169 K0.000 F600.000
G1 X87.000 Y-33.000 Z-2.000 F600.000
G1 X87.000 Y-12.000 Z-2.000 F600.000
G1 X87.028 Y-11.765 Z-2.000 F600.000
G1 X93.653 Y15.683 Z-2.000 F600.000
G2 X93.947 Y16.183 Z-2.000 I0.972 J-0.235 K0.000 F600.000
G0 Z5.000
G0 X123.735 Y14.593 Z5.000
G0 X123.735 Y14.593 Z3.000
G1 X123.735 Y14.593 Z-2.000 F600.000
G2 X124.135 Y17.246 Z-2.000 I13.943 J-0.744 K0.000 F600.000
G2 X125.043 Y19.882 Z-2.000 I11.559 J-2.510 K0.000 F600.000
G2 X140.499 Y15.034 Z-2.000 I6.957 J-4.882 K0.000 F600.000
G1 X140.500 Y8.000 Z-2.000 F600.000
G1 X140.489 Y7.850 Z-2.000 F600.000
G1 X137.000 Y-15.076 Z-2.000 F600.000
G1 X137.000 Y-25.000 Z-2.000 F600.000
G2 X134.098 Y-27.995 Z-2.000 I-3.003 J0.006 K0.000 F600.000
G1 X131.000 Y-28.000 Z-2.000 F600.000
G2 X128.005 Y-25.098 Z-2.000 I0.006 J3.003 K0.000 F600.000
G1 X128.000 Y-5.116 Z-2.000 F600.000
G1 X123.741 Y12.989 Z-2.000 F600.000
G2 X123.735 Y14.593 Z-2.000 I13.937 J0.859 K0.000 F600.000
G0 Z5.000
G0 X142.478 Y28.553 Z5.000
G0 X142.478 Y28.553 Z3.000
G1 X142.478 Y28.553 Z-2.000 F600.000
G2 X142.463 Y28.574 Z-2.000 I0.909 J0.677 K0.000 F600.000
G2 X142.302 Y29.658 Z-2.000 I1.028 J0.707 K0.000 F600.000
G3 X142.849 Y32.191 Z-2.000 I-13.742 J4.292 K0.000 F600.000
G3 X142.908 Y40.031 Z-2.000 I-78.456 J4.514 K0.000 F600.000
G2 X141.238 Y41.808 Z-2.000 I2.841 J4.343 K0.000 F600.000
G2 X141.235 Y47.578 Z-2.000 I5.669 J2.887 K0.000 F600.000
G2 X142.815 Y48.925 Z-2.000 I2.669 J-1.531 K0.000 F600.000
G2 X143.544 Y55.964 Z-2.000 I40.548 J-0.641 K0.000 F600.000
G2 X145.493 Y62.458 Z-2.000 I28.844 J-5.121 K0.000 F600.000
G2 X146.692 Y64.704 Z-2.000 I10.589 J-4.211 K0.000 F600.000
G2 X144.717 Y66.132 Z-2.000 I2.736 J5.863 K0.000 F600.000
G2 X144.374 Y75.997 Z-2.000 I5.702 J5.137 K0.000 F600.000
G2 X152.299 Y77.661 Z-2.000 I4.903 J-3.650 K0.000 F600.000
G2 X155.808 Y71.605 Z-2.000 I-3.919 J-6.315 K0.000 F600.000
G2 X159.767 Y72.302 Z-2.000 I4.357 J-13.171 K0.000 F600.000
G3 X164.841 Y72.311 Z-2.000 I1.841 J368.169 K0.000 F600.000
G2 X170.189 Y71.605 Z-2.000 I0.756 J-14.874 K0.000 F600.000
G2 X171.898 Y76.111 Z-2.000 I7.538 J-0.281 K0.000 F600.000
G2 X180.456 Y77.181 Z-2.000 I4.816 J-3.766 K0.000 F600.000
G2 X181.893 Y66.938 Z-2.000 I-4.837 J-5.901 K0.000 F600.000
G2 X179.313 Y64.695 Z-2.000 I-5.282 J3.470 K0.000 F600.000
G2 X179.908 Y63.731 Z-2.000 I-13.721 J-9.140 K0.000 F600.000
G2 X181.663 Y59.273 Z-2.000 I-26.735 J-13.098 K0.000 F600.000
G2 X183.181 Y48.920 Z-2.000 I-38.095 J-10.872 K0.000 F600.000
G2 X184.638 Y47.799 Z-2.000 I-0.903 J-2.682 K0.000 F600.000
G2 X185.389 Y43.732 Z-2.000 I-5.352 J-3.091 K0.000 F600.000
G2 X183.088 Y40.036 Z-2.000 I-5.090 J0.604 K0.000 F600.000
G3 X183.082 Y33.162 Z-2.000 I78.291 J-3.509 K0.000 F600.000
G3 X183.678 Y29.706 Z-2.000 I12.099 J0.307 K0.000 F600.000
G2 X182.674 Y28.103 Z-2.000 I-1.106 J-0.423 K0.000 F600.000
G2 X181.434 Y28.478 Z-2.000 I0.160 J2.766 K0.000 F600.000
G3 X178.323 Y29.934 Z-2.000 I-26.005 J-51.518 K0.000 F600.000
G3 X176.459 Y30.399 Z-2.000 I-1.939 J-3.806 K0.000 F600.000
G3 X175.738 Y29.906 Z-2.000 I-0.002 J-0.770 K0.000 F600.000
G2 X173.612 Y28.785 Z-2.000 I-1.633 J0.519 K0.000 F600.000
G3 X170.655 Y29.917 Z-2.000 I-34.086 J-84.599 K0.000 F600.000
G3 X169.895 Y29.791 Z-2.000 I-0.283 J-0.645 K0.000 F600.000
G1 X169.490 Y29.227 Z-2.000 F600.000
G2 X169.042 Y28.303 Z-2.000 I-175.269 J84.483 K0.000 F600.000
G2 X167.777 Y26.075 Z-2.000 I-11.223 J4.896 K0.000 F600.000
G2 X164.828 Y24.153 Z-2.000 I-4.109 J3.082 K0.000 F600.000
G2 X162.683 Y24.067 Z-2.000 I-1.289 J5.374 K0.000 F600.000
G1 X159.902 Y24.997 Z-2.000 F600.000
G1 X159.743 Y25.066 Z-2.000 F600.000
G2 X157.717 Y27.525 Z-2.000 I5.161 J6.316 K0.000 F600.000
G1 X157.717 Y27.525 Z-2.000 F600.000
G1 X157.409 Y28.030 Z-2.000 F600.000
G3 X156.358 Y29.600 Z-2.000 I-7.783 J-4.074 K0.000 F600.000
G3 X155.744 Y29.970 Z-2.000 I-0.710 J-0.484 K0.000 F600.000
G3 X154.817 Y29.753 Z-2.000 I0.273 J-3.255 K0.000 F600.000
G2 X152.323 Y28.774 Z-2.000 I-11.538 J25.745 K0.000 F600.000
G2 X150.379 Y29.657 Z-2.000 I-0.436 J1.621 K0.000 F600.000
G3 X149.610 Y30.401 Z-2.000 I-0.918 J-0.180 K0.000 F600.000
G3 X148.136 Y30.121 Z-2.000 I0.090 J-4.499 K0.000 F600.000
G3 X145.412 Y28.896 Z-2.000 I15.378 J-37.834 K0.000 F600.000
G2 X143.732 Y28.151 Z-2.000 I-4.324 J7.480 K0.000 F600.000
G2 X142.478 Y28.553 Z-2.000 I-0.345 J1.080 K0.000 F600.000
G0 Z5.000
G0 X153.946 Y16.182 Z5.000
G0 X153.946 Y16.182 Z3.000
G1 X153.946 Y16.182 Z-2.000 F600.000
G2 X154.718 Y16.444 Z-2.000 I0.680 J-0.733 K0.000 F600.000
G1 X157.530 Y16.183 Z-2.000 F600.000
G1 X162.017 Y16.000 Z-2.000 F600.000
G3 X166.347 Y16.172 Z-2.000 I0.437 J43.621 K0.000 F600.000
G2 X169.296 Y16.445 Z-2.000 I6.591 J-55.094 K0.000 F600.000
G2 X170.347 Y15.683 Z-2.000 I0.079 J-0.997 K0.000 F600.000
G1 X176.972 Y-11.765 Z-2.000 F600.000
G1 X177.000 Y-12.000 Z-2.000 F600.000
G1 X177.000 Y-33.000 Z-2.000 F600.000
G1 X185.484 Y-33.000 Z-2.000 F600.000
G2 X186.470 Y-33.832 Z-2.000 I-0.000 J-1.000 K0.000 F600.000
G2 X187.482 Y-42.136 Z-2.000 I-64.857 J-12.114 K0.000 F600.000
G2 X186.934 Y-60.566 Z-2.000 I-134.221 J-5.237 K0.000 F600.000
G1 X186.880 Y-60.816 Z-2.000 F600.000
G1 X184.840 Y-66.545 Z-2.000 F600.000
G1 X184.740 Y-66.748 Z-2.000 F600.000
G2 X183.022 Y-68.239 Z-2.000 I-8.666 J8.247 K0.000 F600.000
G3 X182.241 Y-69.137 Z-2.000 I1.283 J-1.907 K0.000 F600.000
G3 X181.984 Y-71.059 Z-2.000 I4.553 J-1.586 K0.000 F600.000
G2 X181.247 Y-72.344 Z-2.000 I-1.633 J0.082 K0.000 F600.000
G2 X180.022 Y-72.742 Z-2.000 I-1.568 J2.744 K0.000 F600.000
G3 X180.191 Y-73.813 Z-2.000 I15.838 J1.942 K0.000 F600.000
G2 X180.446 Y-75.446 Z-2.000 I-7.638 J-2.029 K0.000 F600.000
G2 X179.427 Y-77.453 Z-2.000 I-1.978 J-0.258 K0.000 F600.000
G2 X177.553 Y-77.865 Z-2.000 I-1.978 J4.525 K0.000 F600.000
G2 X173.305 Y-77.914 Z-2.000 I-2.494 J32.396 K0.000 F600.000
G2 X171.309 Y-77.712 Z-2.000 I0.181 J11.761 K0.000 F600.000
G2 X169.925 Y-76.894 Z-2.000 I0.375 J2.215 K0.000 F600.000
G2 X169.559 Y-75.242 Z-2.000 I1.926 J1.293 K0.000 F600.000
G3 X170.003 Y-72.561 Z-2.000 I-45.100 J8.847 K0.000 F600.000
G1 X169.200 Y-72.407 Z-2.000 F600.000
G2 X168.021 Y-71.088 Z-2.000 I0.403 J1.547 K0.000 F600.000
G3 X167.833 Y-68.472 Z-2.000 I-14.370 J0.282 K0.000 F600.000
G3 X167.476 Y-68.023 Z-2.000 I-0.599 J-0.110 K0.000 F600.000
G2 X166.502 Y-67.525 Z-2.000 I0.456 J2.093 K0.000 F600.000
G1 X165.836 Y-66.773 Z-2.000 F600.000
G3 X163.967 Y-63.927 Z-2.000 I-22.565 J-12.778 K0.000 F600.000
G3 X162.115 Y-63.011 Z-2.000 I-1.935 J-1.580 K0.000 F600.000
G1 X160.521 Y-63.497 Z-2.000 F600.000
G3 X159.609 Y-64.450 Z-2.000 I2.801 J-3.590 K0.000 F600.000
G3 X158.208 Y-66.727 Z-2.000 I57.858 J-37.183 K0.000 F600.000
G2 X156.640 Y-68.000 Z-2.000 I-2.353 J1.296 K0.000 F600.000
G3 X156.167 Y-68.477 Z-2.000 I0.073 J-0.546 K0.000 F600.000
G3 X155.999 Y-70.791 Z-2.000 I9.184 J-1.829 K0.000 F600.000
G2 X155.710 Y-71.778 Z-2.000 I-1.584 J-0.071 K0.000 F600.000
G2 X154.005 Y-72.619 Z-2.000 I-1.840 J1.583 K0.000 F600.000
G3 X154.177 Y-73.744 Z-2.000 I15.693 J1.824 K0.000 F600.000
G2 X154.444 Y-75.404 Z-2.000 I-8.406 J-2.203 K0.000 F600.000
G2 X153.683 Y-77.289 Z-2.000 I-1.997 J-0.291 K0.000 F600.000
G2 X152.029 Y-77.826 Z-2.000 I-1.824 J2.803 K0.000 F600.000
G2 X147.362 Y-77.917 Z-2.000 I-2.977 J33.096 K0.000 F600.000
G2 X145.352 Y-77.721 Z-2.000 I0.198 J12.460 K0.000 F600.000
G2 X143.953 Y-76.930 Z-2.000 I0.360 J2.270 K0.000 F600.000
G2 X143.555 Y-75.296 Z-2.000 I1.852 J1.316 K0.000 F600.000
G3 X143.997 Y-72.610 Z-2.000 I-57.352 J10.815 K0.000 F600.000
G1 X142.855 Y-72.300 Z-2.000 F600.000
G2 X142.178 Y-71.675 Z-2.000 I0.263 J0.965 K0.000 F600.000
G2 X141.985 Y-70.030 Z-2.000 I61.525 J8.058 K0.000 F600.000
G3 X141.447 Y-68.665 Z-2.000 I-2.189 J-0.073 K0.000 F600.000
G3 X140.137 Y-67.558 Z-2.000 I-18.285 J-20.312 K0.000 F600.000
G2 X137.882 Y-64.646 Z-2.000 I3.814 J5.283 K0.000 F600.000
G2 X137.172 Y-61.453 Z-2.000 I16.965 J5.445 K0.000 F600.000
G2 X136.434 Y-45.538 Z-2.000 I129.899 J13.999 K0.000 F600.000
G2 X137.530 Y-33.831 Z-2.000 I63.282 J-0.020 K0.000 F600.000
G2 X138.516 Y-33.000 Z-2.000 I0.986 J-0.169 K0.000 F600.000
G1 X147.000 Y-33.000 Z-2.000 F600.000
G1 X147.000 Y-12.000 Z-2.000 F600.000
G1 X147.028 Y-11.765 Z-2.000 F600.000
G1 X153.653 Y15.683 Z-2.000 F600.000
G2 X153.946 Y16.182 Z-2.000 I0.972 J-0.235 K0.000 F600.000
G0 Z5.000
G0 X195.501 Y16.189 Z5.000
G0 X195.501 Y16.189 Z3.000
G1 X195.501 Y16.189 Z-2.000 F600.000
G1 X195.500 Y23.000 Z-2.000 F600.000
G1 X195.511 Y23.150 Z-2.000 F600.000
G1 X199.000 Y46.076 Z-2.000 F600.000
G1 X199.000 Y56.000 Z-2.000 F600.000
G2 X201.902 Y58.995 Z-2.000 I3.003 J-0.006 K0.000 F600.000
G1 X205.000 Y59.000 Z-2.000 F600.000
G2 X207.995 Y56.098 Z-2.000 I-0.006 J-3.003 K0.000 F600.000
G1 X208.000 Y36.116 Z-2.000 F600.000
G1 X212.259 Y18.011 Z-2.000 F600.000
G2 X211.101 Y11.376 Z-2.000 I-15.302 J-0.747 K0.000 F600.000
G2 X205.344 Y7.608 Z-2.000 I-7.025 J4.450 K0.000 F600.000
G2 X195.501 Y15.966 Z-2.000 I-1.344 J8.392 K0.000 F600.000
G1 X195.501 Y16.189 Z-2.000 F600.000
G0 Z5.000
G0 X217.180 Y0.071 Z5.000
G0 X217.180 Y0.071 Z3.000
G1 X217.180 Y0.071 Z-2.000 F600.000
G2 X232.499 Y-4.966 Z-2.000 I6.820 J-5.071 K0.000 F600.000
G1 X232.500 Y-12.000 Z-2.000 F600.000
G1 X232.489 Y-12.150 Z-2.000 F600.000
G1 X229.000 Y-35.076 Z-2.000 F600.000
G1 X229.000 Y-45.000 Z-2.000 F600.000
G2 X226.098 Y-47.995 Z-2.000 I-3.003 J0.006 K0.000 F600.000
G1 X223.000 Y-48.000 Z-2.000 F600.000
G2 X220.005 Y-45.098 Z-2.000 I0.006 J3.003 K0.000 F600.000
G1 X220.000 Y-25.116 Z-2.000 F600.000
G1 X215.741 Y-7.011 Z-2.000 F600.000
G2 X216.135 Y-2.754 Z-2.000 I13.937 J0.859 K0.000 F600.000
G2 X217.043 Y-0.118 Z-2.000 I11.559 J-2.510 K0.000 F600.000
G2 X217.180 Y0.071 Z-2.000 I6.957 J-4.882 K0.000 F600.000
G0 Z5.000
G0 X222.432 Y27.055 Z5.000
G0 X222.432 Y27.055 Z3.000
G1 X222.432 Y27.055 Z-2.000 F600.000
G2 X220.005 Y29.902 Z-2.000 I0.574 J2.947 K0.000 F600.000
G1 X220.000 Y49.884 Z-2.000 F600.000
G1 X215.741 Y67.989 Z-2.000 F600.000
G2 X216.135 Y72.246 Z-2.000 I13.937 J0.859 K0.000 F600.000
G2 X217.043 Y74.882 Z-2.000 I11.559 J-2.510 K0.000 F600.000
G2 X232.499 Y70.034 Z-2.000 I6.957 J-4.882 K0.000 F600.000
G1 X232.500 Y63.000 Z-2.000 F600.000
G1 X232.489 Y62.850 Z-2.000 F600.000
G1 X229.000 Y39.924 Z-2.000 F600.000
G1 X229.000 Y30.000 Z-2.000 F600.000
G2 X226.098 Y27.005 Z-2.000 I-3.003 J0.006 K0.000 F600.000
G1 X223.000 Y27.000 Z-2.000 F600.000
G2 X222.432 Y27.055 Z-2.000 I0.006 J3.003 K0.000 F600.000
G0 Z5.000
G0 X206.839 Y-26.121 Z5.000
G0 X206.839 Y-26.121 Z3.000
G1 X206.839 Y-26.121 Z-2.000 F600.000
G2 X208.995 Y-28.902 Z-2.000 I-0.845 J-2.881 K0.000 F600.000
G1 X209.000 Y-48.884 Z-2.000 F600.000
G1 X213.259 Y-66.989 Z-2.000 F600.000
G2 X212.101 Y-73.624 Z-2.000 I-15.302 J-0.747 K0.000 F600.000
G2 X206.344 Y-77.392 Z-2.000 I-7.025 J4.450 K0.000 F600.000
G2 X196.501 Y-69.034 Z-2.000 I-1.344 J8.392 K0.000 F600.000
G1 X196.500 Y-62.000 Z-2.000 F600.000
G1 X196.511 Y-61.850 Z-2.000 F600.000
G1 X200.000 Y-38.924 Z-2.000 F600.000
G1 X200.000 Y-29.000 Z-2.000 F600.000
G2 X202.902 Y-26.005 Z-2.000 I3.003 J-0.006 K0.000 F600.000
G1 X206.000 Y-26.000 Z-2.000 F600.000
G2 X206.839 Y-26.121 Z-2.000 I-0.006 J-3.003 K0.000 F600.000
G1 X206.839 Y-26.121 Z-4.000 F600.000
G2 X208.995 Y-28.902 Z-4.000 I-0.845 J-2.881 K0.000 F600.000
G1 X209.000 Y-48.884 Z-4.000 F600.000
G1 X213.259 Y-66.989 Z-4.000 F600.000
G2 X212.101 Y-73.624 Z-4.000 I-15.302 J-0.747 K0.000 F600.000
G2 X206.344 Y-77.392 Z-4.000 I-7.025 J4.450 K0.000 F600.000
G2 X196.501 Y-69.034 Z-4.000 I-1.344 J8.392 K0.000 F600.000
G1 X196.500 Y-62.000 Z-4.000 F600.000
G1 X196.511 Y-61.850 Z-4.000 F600.000
G1 X200.000 Y-38.924 Z-4.000 F600.000
G1 X200.000 Y-29.000 Z-4.000 F600.000
G2 X202.902 Y-26.005 Z-4.000 I3.003 J-0.006 K0.000 F600.000
G1 X206.000 Y-26.000 Z-4.000 F600.000
G2 X206.839 Y-26.121 Z-4.000 I-0.006 J-3.003 K0.000 F600.000
G0 Z5.000
G0 X219.534 Y-23.135 Z5.000
G0 X219.534 Y-23.135 Z3.000
G1 X219.534 Y-23.135 Z-4.000 F600.000
G1 X215.741 Y-7.011 Z-4.000 F600.000
G2 X216.135 Y-2.754 Z-4.000 I13.937 J0.859 K0.000 F600.000
G2 X217.043 Y-0.118 Z-4.000 I11.559 J-2.510 K0.000 F600.000
G2 X232.499 Y-4.966 Z-4.000 I6.957 J-4.882 K0.000 F600.000
G1 X232.500 Y-12.000 Z-4.000 F600.000
G1 X232.489 Y-12.150 Z-4.000 F600.000
G1 X229.000 Y-35.076 Z-4.000 F600.000
G1 X229.000 Y-45.000 Z-4.000 F600.000
G2 X226.098 Y-47.995 Z-4.000 I-3.003 J0.006 K0.000 F600.000
G1 X223.000 Y-48.000 Z-4.000 F600.000
G2 X220.005 Y-45.098 Z-4.000 I0.006 J3.003 K0.000 F600.000
G1 X220.000 Y-25.116 Z-4.000 F600.000
G1 X219.534 Y-23.135 Z-4.000 F600.000
G0 Z5.000
G0 X207.143 Y8.097 Z5.000
G0 X207.143 Y8.097 Z3.000
G1 X207.143 Y8.097 Z-4.000 F600.000
G2 X205.344 Y7.608 Z-4.000 I-3.067 J7.730 K0.000 F600.000
G2 X195.501 Y15.966 Z-4.000 I-1.344 J8.392 K0.000 F600.000
G1 X195.500 Y23.000 Z-4.000 F600.000
G1 X195.511 Y23.150 Z-4.000 F600.000
G1 X199.000 Y46.076 Z-4.000 F600.000
G1 X199.000 Y56.000 Z-4.000 F600.000
G2 X201.902 Y58.995 Z-4.000 I3.003 J-0.006 K0.000 F600.000
G1 X205.000 Y59.000 Z-4.000 F600.000
G2 X207.995 Y56.098 Z-4.000 I-0.006 J-3.003 K0.000 F600.000
G1 X208.000 Y36.116 Z-4.000 F600.000
G1 X212.259 Y18.011 Z-4.000 F600.000
G2 X211.101 Y11.376 Z-4.000 I-15.302 J-0.747 K0.000 F600.000
G2 X207.143 Y8.097 Z-4.000 I-7.025 J4.450 K0.000 F600.000
G0 Z5.000
G0 X221.245 Y27.571 Z5.000
G0 X221.245 Y27.571 Z3.000
G1 X221.245 Y27.571 Z-4.000 F600.000
G2 X220.005 Y29.902 Z-4.000 I1.761 J2.432 K0.000 F600.000
G1 X220.000 Y49.884 Z-4.000 F600.000
G1 X215.741 Y67.989 Z-4.000 F600.000
G2 X216.135 Y72.246 Z-4.000 I13.937 J0.859 K0.000 F600.000
G2 X217.043 Y74.882 Z-4.000 I11.559 J-2.510 K0.000 F600.000
G2 X232.499 Y70.034 Z-4.000 I6.957 J-4.882 K0.000 F600.000
G1 X232.500 Y63.000 Z-4.000 F600.000
G1 X232.489 Y62.850 Z-4.000 F600.000
G1 X229.000 Y39.924 Z-4.000 F600.000
G1 X229.000 Y30.000 Z-4.000 F600.000
G2 X226.098 Y27.005 Z-4.000 I-3.003 J0.006 K0.000 F600.000
G1 X223.000 Y27.000 Z-4.000 F600.000
G2 X221.245 Y27.571 Z-4.000 I0.006 J3.003 K0.000 F600.000
G0 Z5.000
G0 X183.755 Y29.230 Z5.000
G0 X183.755 Y29.230 Z3.000
G1 X183.755 Y29.230 Z-4.000 F600.000
G2 X182.674 Y28.103 Z-4.000 I-1.183 J0.052 K0.000 F600.000
G2 X181.434 Y28.478 Z-4.000 I0.160 J2.766 K0.000 F600.000
G3 X178.323 Y29.934 Z-4.000 I-26.005 J-51.518 K0.000 F600.000
G3 X176.459 Y30.399 Z-4.000 I-1.939 J-3.806 K0.000 F600.000
G3 X175.738 Y29.906 Z-4.000 I-0.002 J-0.770 K0.000 F600.000
G2 X173.612 Y28.785 Z-4.000 I-1.633 J0.519 K0.000 F600.000
G3 X170.655 Y29.917 Z-4.000 I-34.086 J-84.599 K0.000 F600.000
G3 X169.895 Y29.791 Z-4.000 I-0.283 J-0.645 K0.000 F600.000
G1 X169.490 Y29.227 Z-4.000 F600.000
G2 X169.042 Y28.303 Z-4.000 I-175.269 J84.483 K0.000 F600.000
G2 X167.777 Y26.075 Z-4.000 I-11.223 J4.896 K0.000 F600.000
G2 X164.828 Y24.153 Z-4.000 I-4.109 J3.082 K0.000 F600.000
G2 X162.683 Y24.067 Z-4.000 I-1.289 J5.374 K0.000 F600.000
G1 X159.902 Y24.997 Z-4.000 F600.000
G1 X159.743 Y25.066 Z-4.000 F600.000
G2 X157.717 Y27.525 Z-4.000 I5.161 J6.316 K0.000 F600.000
G1 X157.717 Y27.525 Z-4.000 F600.000
G1 X157.409 Y28.030 Z-4.000 F600.000
G3 X156.358 Y29.600 Z-4.000 I-7.783 J-4.074 K0.000 F600.000
G3 X155.744 Y29.970 Z-4.000 I-0.710 J-0.484 K0.000 F600.000
G3 X154.817 Y29.753 Z-4.000 I0.273 J-3.255 K0.000 F600.000
G2 X152.323 Y28.774 Z-4.000 I-11.538 J25.745 K0.000 F600.000
G2 X150.379 Y29.657 Z-4.000 I-0.436 J1.621 K0.000 F600.000
G3 X149.610 Y30.401 Z-4.000 I-0.918 J-0.180 K0.000 F600.000
G3 X148.136 Y30.121 Z-4.000 I0.090 J-4.499 K0.000 F600.000
G3 X145.412 Y28.896 Z-4.000 I15.378 J-37.834 K0.000 F600.000
G2 X143.732 Y28.151 Z-4.000 I-4.324 J7.480 K0.000 F600.000
G2 X142.463 Y28.574 Z-4.000 I-0.345 J1.080 K0.000 F600.000
G2 X142.302 Y29.658 Z-4.000 I1.028 J0.707 K0.000 F600.000
G3 X142.849 Y32.191 Z-4.000 I-13.742 J4.292 K0.000 F600.000
G3 X142.908 Y40.031 Z-4.000 I-78.456 J4.514 K0.000 F600.000
G2 X141.238 Y41.808 Z-4.000 I2.841 J4.343 K0.000 F600.000
G2 X141.235 Y47.578 Z-4.000 I5.669 J2.887 K0.000 F600.000
G2 X142.815 Y48.925 Z-4.000 I2.669 J-1.531 K0.000 F600.000
G2 X143.544 Y55.964 Z-4.000 I40.548 J-0.641 K0.000 F600.000
G2 X145.493 Y62.458 Z-4.000 I28.844 J-5.121 K0.000 F600.000
G2 X146.692 Y64.704 Z-4.000 I10.589 J-4.211 K0.000 F600.000
G2 X144.717 Y66.132 Z-4.000 I2.736 J5.863 K0.000 F600.000
G2 X144.374 Y75.997 Z-4.000 I5.702 J5.137 K0.000 F600.000
G2 X152.299 Y77.661 Z-4.000 I4.903 J-3.650 K0.000 F600.000
G2 X155.808 Y71.605 Z-4.000 I-3.919 J-6.315 K0.000 F600.000
G2 X159.767 Y72.302 Z-4.000 I4.357 J-13.171 K0.000 F600.000
G3 X164.841 Y72.311 Z-4.000 I1.841 J368.169 K0.000 F600.000
G2 X170.189 Y71.605 Z-4.000 I0.756 J-14.874 K0.000 F600.000
G2 X171.898 Y76.111 Z-4.000 I7.538 J-0.281 K0.000 F600.000
G2 X180.456 Y77.181 Z-4.000 I4.816 J-3.766 K0.000 F600.000
G2 X181.893 Y66.938 Z-4.000 I-4.837 J-5.901 K0.000 F600.000
G2 X179.313 Y64.695 Z-4.000 I-5.282 J3.470 K0.000 F600.000
G2 X179.908 Y63.731 Z-4.000 I-13.721 J-9.140 K0.000 F600.000
G2 X181.663 Y59.273 Z-4.000 I-26.735 J-13.098 K0.000 F600.000
G2 X183.181 Y48.920 Z-4.000 I-38.095 J-10.872 K0.000 F600.000
G2 X184.638 Y47.799 Z-4.000 I-0.903 J-2.682 K0.000 F600.000
G2 X185.389 Y43.732 Z-4.000 I-5.352 J-3.091 K0.000 F600.000
G2 X183.088 Y40.036 Z-4.000 I-5.090 J0.604 K0.000 F600.000
G3 X183.082 Y33.162 Z-4.000 I78.291 J-3.509 K0.000 F600.000
G3 X183.678 Y29.706 Z-4.000 I12.099 J0.307 K0.000 F600.000
G2 X183.755 Y29.230 Z-4.000 I-1.106 J-0.423 K0.000 F600.000
G0 Z5.000
G0 X170.097 Y16.140 Z5.000
G0 X170.097 Y16.140 Z3.000
G1 X170.097 Y16.140 Z-4.000 F600.000
G2 X170.347 Y15.683 Z-4.000 I-0.722 J-0.692 K0.000 F600.000
G1 X176.972 Y-11.765 Z-4.000 F600.000
G1 X177.000 Y-12.000 Z-4.000 F600.000
G1 X177.000 Y-33.000 Z-4.000 F600.000
G1 X185.484 Y-33.000 Z-4.000 F600.000
G2 X186.470 Y-33.832 Z-4.000 I-0.000 J-1.000 K0.000 F600.000
G2 X187.482 Y-42.136 Z-4.000 I-64.857 J-12.114 K0.000 F600.000
G2 X186.934 Y-60.566 Z-4.000 I-134.221 J-5.237 K0.000 F600.000
G1 X186.880 Y-60.816 Z-4.000 F600.000
G1 X184.840 Y-66.545 Z-4.000 F600.000
G1 X184.740 Y-66.748 Z-4.000 F600.000
G2 X183.022 Y-68.239 Z-4.000 I-8.666 J8.247 K0.000 F600.000
G3 X182.241 Y-69.137 Z-4.000 I1.283 J-1.907 K0.000 F600.000
G3 X181.984 Y-71.059 Z-4.000 I4.553 J-1.586 K0.000 F600.000
G2 X181.247 Y-72.344 Z-4.000 I-1.633 J0.082 K0.000 F600.000
G2 X180.022 Y-72.742 Z-4.000 I-1.568 J2.744 K0.000 F600.000
G3 X180.191 Y-73.813 Z-4.000 I15.838 J1.942 K0.000 F600.000
G2 X180.446 Y-75.446 Z-4.000 I-7.638 J-2.029 K0.000 F600.000
G2 X179.427 Y-77.453 Z-4.000 I-1.978 J-0.258 K0.000 F600.000
G2 X177.553 Y-77.865 Z-4.000 I-1.978 J4.525 K0.000 F600.000
G2 X173.305 Y-77.914 Z-4.000 I-2.494 J32.396 K0.000 F600.000
G2 X171.309 Y-77.712 Z-4.000 I0.181 J11.761 K0.000 F600.000
G2 X169.925 Y-76.894 Z-4.000 I0.375 J2.215 K0.000 F600.000
G2 X169.559 Y-75.242 Z-4.000 I1.926 J1.293 K0.000 F600.000
G3 X170.003 Y-72.561 Z-4.000 I-45.100 J8.847 K0.000 F600.000
G1 X169.200 Y-72.407 Z-4.000 F600.000
G2 X168.021 Y-71.088 Z-4.000 I0.403 J1.547 K0.000 F600.000
G3 X167.833 Y-68.472 Z-4.000 I-14.370 J0.282 K0.000 F600.000
G3 X167.476 Y-68.023 Z-4.000 I-0.599 J-0.110 K0.000 F600.000
G2 X166.502 Y-67.525 Z-4.000 I0.456 J2.093 K0.000 F600.000
G1 X165.836 Y-66.773 Z-4.000 F600.000
G3 X163.967 Y-63.927 Z-4.000 I-22.565 J-12.778 K0.000 F600.000
G3 X162.115 Y-63.011 Z-4.000 I-1.935 J-1.580 K0.000 F600.000
G1 X160.521 Y-63.497 Z-4.000 F600.000
G3 X159.609 Y-64.450 Z-4.000 I2.801 J-3.590 K0.000 F600.000
G3 X158.208 Y-66.727 Z-4.000 I57.858 J-37.183 K0.000 F600.000
G2 X156.640 Y-68.000 Z-4.000 I-2.353 J1.296 K0.000 F600.000
G3 X156.167 Y-68.477 Z-4.000 I0.073 J-0.546 K0.000 F600.000
G3 X155.999 Y-70.791 Z-4.000 I9.184 J-1.829 K0.000 F600.000
G2 X155.710 Y-71.778 Z-4.000 I-1.584 J-0.071 K0.000 F600.000
G2 X154.005 Y-72.619 Z-4.000 I-1.840 J1.583 K0.000 F600.000
G3 X154.177 Y-73.744 Z-4.000 I15.693 J1.824 K0.000 F600.000
G2 X154.444 Y-75.404 Z-4.000 I-8.406 J-2.203 K0.000 F600.000
G2 X153.683 Y-77.289 Z-4.000 I-1.997 J-0.291 K0.000 F600.000
G2 X152.029 Y-77.826 Z-4.000 I-1.824 J2.803 K0.000 F600.000
G2 X147.362 Y-77.917 Z-4.000 I-2.977 J33.096 K0.000 F600.000
G2 X145.352 Y-77.721 Z-4.000 I0.198 J12.460 K0.000 F600.000
G2 X143.953 Y-76.930 Z-4.000 I0.360 J2.270 K0.000 F600.000
G2 X143.555 Y-75.296 Z-4.000 I1.852 J1.316 K0.000 F600.000
G3 X143.997 Y-72.610 Z-4.000 I-57.352 J10.815 K0.000 F600.000
G1 X142.855 Y-72.300 Z-4.000 F600.000
G2 X142.178 Y-71.675 Z-4.000 I0.263 J0.965 K0.000 F600.000
G2 X141.985 Y-70.030 Z-4.000 I61.525 J8.058 K0.000 F600.000
G3 X141.447 Y-68.665 Z-4.000 I-2.189 J-0.073 K0.000 F600.000
G3 X140.137 Y-67.558 Z-4.000 I-18.285 J-20.312 K0.000 F600.000
G2 X137.882 Y-64.646 Z-4.000 I3.814 J5.283 K0.000 F600.000
G2 X137.172 Y-61.453 Z-4.000 I16.965 J5.445 K0.000 F600.000
G2 X136.434 Y-45.538 Z-4.000 I129.899 J13.999 K0.000 F600.000
G2 X137.530 Y-33.831 Z-4.000 I63.282 J-0.020 K0.000 F600.000
G2 X138.516 Y-33.000 Z-4.000 I0.986 J-0.169 K0.000 F600.000
G1 X147.000 Y-33.000 Z-4.000 F600.000
G1 X147.000 Y-12.000 Z-4.000 F600.000
G1 X147.028 Y-11.765 Z-4.000 F600.000
G1 X153.653 Y15.683 Z-4.000 F600.000
G2 X154.718 Y16.444 Z-4.000 I0.972 J-0.235 K0.000 F600.000
G1 X157.530 Y16.183 Z-4.000 F600.000
G1 X162.017 Y16.000 Z-4.000 F600.000
G3 X166.347 Y16.172 Z-4.000 I0.437 J43.621 K0.000 F600.000
G2 X169.296 Y16.445 Z-4.000 I6.591 J-55.094 K0.000 F600.000
G2 X170.097 Y16.140 Z-4.000 I0.079 J-0.997 K0.000 F600.000
G0 Z5.000
G0 X140.495 Y15.254 Z5.000
G0 X140.495 Y15.254 Z3.000
G1 X140.495 Y15.254 Z-4.000 F600.000
G2 X140.499 Y15.034 Z-4.000 I-8.495 J-0.254 K0.000 F600.000
G1 X140.500 Y8.000 Z-4.000 F600.000
G1 X140.489 Y7.850 Z-4.000 F600.000
G1 X137.000 Y-15.076 Z-4.000 F600.000
G1 X137.000 Y-25.000 Z-4.000 F600.000
G2 X134.098 Y-27.995 Z-4.000 I-3.003 J0.006 K0.000 F600.000
G1 X131.000 Y-28.000 Z-4.000 F600.000
G2 X128.005 Y-25.098 Z-4.000 I0.006 J3.003 K0.000 F600.000
G1 X128.000 Y-5.116 Z-4.000 F600.000
G1 X123.741 Y12.989 Z-4.000 F600.000
G2 X124.135 Y17.246 Z-4.000 I13.937 J0.859 K0.000 F600.000
G2 X125.043 Y19.882 Z-4.000 I11.559 J-2.510 K0.000 F600.000
G2 X140.495 Y15.254 Z-4.000 I6.957 J-4.882 K0.000 F600.000
G0 Z5.000
G0 X123.504 Y28.553 Z5.000
G0 X123.504 Y28.553 Z3.000
G1 X123.504 Y28.553 Z-4.000 F600.000
G2 X122.674 Y28.103 Z-4.000 I-0.932 J0.730 K0.000 F600.000
G2 X121.434 Y28.478 Z-4.000 I0.160 J2.766 K0.000 F600.000
G3 X118.323 Y29.934 Z-4.000 I-26.005 J-51.518 K0.000 F600.000
G3 X116.459 Y30.399 Z-4.000 I-1.939 J-3.806 K0.000 F600.000
G3 X115.738 Y29.906 Z-4.000 I-0.002 J-0.770 K0.000 F600.000
G2 X113.612 Y28.785 Z-4.000 I-1.633 J0.519 K0.000 F600.000
G3 X110.655 Y29.917 Z-4.000 I-34.087 J-84.600 K0.000 F600.000
G3 X109.895 Y29.791 Z-4.000 I-0.283 J-0.645 K0.000 F600.000
G1 X109.490 Y29.227 Z-4.000 F600.000
G2 X109.042 Y28.303 Z-4.000 I-175.269 J84.483 K0.000 F600.000
G2 X107.777 Y26.075 Z-4.000 I-11.223 J4.896 K0.000 F600.000
G2 X104.828 Y24.153 Z-4.000 I-4.109 J3.082 K0.000 F600.000
G2 X102.683 Y24.067 Z-4.000 I-1.289 J5.374 K0.000 F600.000
G1 X99.902 Y24.997 Z-4.000 F600.000
G1 X99.743 Y25.066 Z-4.000 F600.000
G2 X97.717 Y27.525 Z-4.000 I5.161 J6.316 K0.000 F600.000
G1 X97.717 Y27.525 Z-4.000 F600.000
G1 X97.409 Y28.030 Z-4.000 F600.000
G3 X96.358 Y29.600 Z-4.000 I-7.783 J-4.074 K0.000 F600.000
G3 X95.744 Y29.970 Z-4.000 I-0.710 J-0.484 K0.000 F600.000
G3 X94.817 Y29.753 Z-4.000 I0.273 J-3.255 K0.000 F600.000
G2 X92.323 Y28.774 Z-4.000 I-11.538 J25.745 K0.000 F600.000
G2 X90.379 Y29.657 Z-4.000 I-0.436 J1.621 K0.000 F600.000
G3 X89.610 Y30.401 Z-4.000 I-0.918 J-0.180 K0.000 F600.000
G3 X88.136 Y30.121 Z-4.000 I0.090 J-4.499 K0.000 F600.000
G3 X85.412 Y28.896 Z-4.000 I15.378 J-37.834 K0.000 F600.000
G2 X83.732 Y28.151 Z-4.000 I-4.324 J7.480 K0.000 F600.000
G2 X82.463 Y28.574 Z-4.000 I-0.345 J1.080 K0.000 F600.000
G2 X82.302 Y29.658 Z-4.000 I1.028 J0.707 K0.000 F600.000
G3 X82.849 Y32.191 Z-4.000 I-13.742 J4.292 K0.000 F600.000
G3 X82.908 Y40.031 Z-4.000 I-78.456 J4.514 K0.000 F600.000
G2 X81.238 Y41.808 Z-4.000 I2.841 J4.343 K0.000 F600.000
G2 X81.235 Y47.578 Z-4.000 I5.669 J2.887 K0.000 F600.000
G2 X82.815 Y48.925 Z-4.000 I2.669 J-1.531 K0.000 F600.000
G2 X83.544 Y55.964 Z-4.000 I40.548 J-0.641 K0.000 F600.000
G2 X85.493 Y62.458 Z-4.000 I28.844 J-5.121 K0.000 F600.000
G2 X86.692 Y64.704 Z-4.000 I10.589 J-4.211 K0.000 F600.000
G2 X84.717 Y66.132 Z-4.000 I2.736 J5.863 K0.000 F600.000
G2 X84.374 Y75.997 Z-4.000 I5.702 J5.137 K0.000 F600.000
G2 X92.299 Y77.661 Z-4.000 I4.903 J-3.650 K0.000 F600.000
G2 X95.808 Y71.605 Z-4.000 I-3.919 J-6.315 K0.000 F600.000
G2 X99.767 Y72.302 Z-4.000 I4.357 J-13.171 K0.000 F600.000
G3 X104.841 Y72.311 Z-4.000 I1.841 J368.169 K0.000 F600.000
G2 X110.189 Y71.605 Z-4.000 I0.756 J-14.874 K0.000 F600.000
G2 X111.898 Y76.111 Z-4.000 I7.538 J-0.281 K0.000 F600.000
G2 X120.456 Y77.181 Z-4.000 I4.816 J-3.766 K0.000 F600.000
G2 X121.893 Y66.938 Z-4.000 I-4.837 J-5.901 K0.000 F600.000
G2 X119.313 Y64.695 Z-4.000 I-5.282 J3.470 K0.000 F600.000
G2 X119.908 Y63.731 Z-4.000 I-13.721 J-9.140 K0.000 F600.000
G2 X121.663 Y59.273 Z-4.000 I-26.735 J-13.098 K0.000 F600.000
G2 X123.181 Y48.920 Z-4.000 I-38.095 J-10.872 K0.000 F600.000
G2 X124.638 Y47.799 Z-4.000 I-0.903 J-2.682 K0.000 F600.000
G2 X125.389 Y43.732 Z-4.000 I-5.352 J-3.091 K0.000 F600.000
G2 X123.088 Y40.036 Z-4.000 I-5.090 J0.604 K0.000 F600.000
G3 X123.082 Y33.162 Z-4.000 I78.291 J-3.509 K0.000 F600.000
G3 X123.678 Y29.706 Z-4.000 I12.099 J0.307 K0.000 F600.000
G2 X123.504 Y28.553 Z-4.000 I-1.106 J-0.423 K0.000 F600.000
G0 Z5.000
G0 X110.108 Y16.128 Z5.000
G0 X110.108 Y16.128 Z3.000
G1 X110.108 Y16.128 Z-4.000 F600.000
G2 X110.347 Y15.683 Z-4.000 I-0.733 J-0.680 K0.000 F600.000
G1 X116.972 Y-11.765 Z-4.000 F600.000
G1 X117.000 Y-12.000 Z-4.000 F600.000
G1 X117.000 Y-33.000 Z-4.000 F600.000
G1 X125.484 Y-33.000 Z-4.000 F600.000
G2 X126.470 Y-33.832 Z-4.000 I-0.000 J-1.000 K0.000 F600.000
G2 X127.482 Y-42.136 Z-4.000 I-64.857 J-12.114 K0.000 F600.000
G2 X126.934 Y-60.566 Z-4.000 I-134.221 J-5.237 K0.000 F600.000
G1 X126.880 Y-60.816 Z-4.000 F600.000
G1 X124.840 Y-66.545 Z-4.000 F600.000
G1 X124.740 Y-66.748 Z-4.000 F600.000
G2 X123.022 Y-68.239 Z-4.000 I-8.666 J8.247 K0.000 F600.000
G3 X122.241 Y-69.137 Z-4.000 I1.283 J-1.907 K0.000 F600.000
G3 X121.984 Y-71.059 Z-4.000 I4.553 J-1.586 K0.000 F600.000
G2 X121.247 Y-72.344 Z-4.000 I-1.633 J0.082 K0.000 F600.000
G2 X120.022 Y-72.742 Z-4.000 I-1.568 J2.744 K0.000 F600.000
G3 X120.191 Y-73.813 Z-4.000 I15.838 J1.942 K0.000 F600.000
G2 X120.446 Y-75.446 Z-4.000 I-7.638 J-2.029 K0.000 F600.000
G2 X119.427 Y-77.453 Z-4.000 I-1.978 J-0.258 K0.000 F600.000
G2 X117.553 Y-77.865 Z-4.000 I-1.978 J4.525 K0.000 F600.000
G2 X113.305 Y-77.914 Z-4.000 I-2.494 J32.396 K0.000 F600.000
G2 X111.309 Y-77.712 Z-4.000 I0.181 J11.761 K0.000 F600.000
G2 X109.925 Y-76.894 Z-4.000 I0.375 J2.215 K0.000 F600.000
G2 X109.559 Y-75.242 Z-4.000 I1.927 J1.293 K0.000 F600.000
G3 X110.003 Y-72.561 Z-4.000 I-45.100 J8.847 K0.000 F600.000
G1 X109.200 Y-72.407 Z-4.000 F600.000
G2 X108.021 Y-71.088 Z-4.000 I0.403 J1.547 K0.000 F600.000
G3 X107.833 Y-68.472 Z-4.000 I-14.370 J0.282 K0.000 F600.000
G3 X107.476 Y-68.023 Z-4.000 I-0.599 J-0.110 K0.000 F600.000
G2 X106.502 Y-67.525 Z-4.000 I0.456 J2.093 K0.000 F600.000
G1 X105.836 Y-66.773 Z-4.000 F600.000
G3 X103.967 Y-63.927 Z-4.000 I-22.565 J-12.778 K0.000 F600.000
G3 X102.115 Y-63.011 Z-4.000 I-1.935 J-1.580 K0.000 F600.000
G1 X100.521 Y-63.497 Z-4.000 F600.000
G3 X99.609 Y-64.450 Z-4.000 I2.801 J-3.590 K0.000 F600.000
G3 X98.208 Y-66.727 Z-4.000 I57.856 J-37.182 K0.000 F600.000
G2 X96.640 Y-68.000 Z-4.000 I-2.353 J1.296 K0.000 F600.000
G3 X96.167 Y-68.477 Z-4.000 I0.073 J-0.546 K0.000 F600.000
G3 X95.999 Y-70.791 Z-4.000 I9.184 J-1.829 K0.000 F600.000
G2 X95.710 Y-71.778 Z-4.000 I-1.584 J-0.071 K0.000 F600.000
G2 X94.005 Y-72.619 Z-4.000 I-1.840 J1.583 K0.000 F600.000
G3 X94.177 Y-73.744 Z-4.000 I15.693 J1.824 K0.000 F600.000
G2 X94.444 Y-75.404 Z-4.000 I-8.406 J-2.203 K0.000 F600.000
G2 X93.683 Y-77.289 Z-4.000 I-1.997 J-0.291 K0.000 F600.000
G2 X92.029 Y-77.826 Z-4.000 I-1.824 J2.803 K0.000 F600.000
G2 X87.362 Y-77.917 Z-4.000 I-2.977 J33.096 K0.000 F600.000
G2 X85.352 Y-77.721 Z-4.000 I0.198 J12.460 K0.000 F600.000
G2 X83.953 Y-76.930 Z-4.000 I0.360 J2.270 K0.000 F600.000
G2 X83.555 Y-75.296 Z-4.000 I1.852 J1.316 K0.000 F600.000
G3 X83.997 Y-72.610 Z-4.000 I-57.351 J10.815 K0.000 F600.000
G1 X82.855 Y-72.300 Z-4.000 F600.000
G2 X82.178 Y-71.675 Z-4.000 I0.263 J0.965 K0.000 F600.000
G2 X81.985 Y-70.030 Z-4.000 I61.523 J8.058 K0.000 F600.000
G3 X81.447 Y-68.665 Z-4.000 I-2.189 J-0.073 K0.000 F600.000
G3 X80.137 Y-67.558 Z-4.000 I-18.285 J-20.312 K0.000 F600.000
G2 X77.882 Y-64.646 Z-4.000 I3.814 J5.283 K0.000 F600.000
G2 X77.172 Y-61.453 Z-4.000 I16.965 J5.445 K0.000 F600.000
G2 X76.434 Y-45.538 Z-4.000 I129.899 J13.999 K0.000 F600.000
G2 X77.530 Y-33.831 Z-4.000 I63.282 J-0.020 K0.000 F600.000
G2 X78.516 Y-33.000 Z-4.000 I0.986 J-0.169 K0.000 F600.000
G1 X87.000 Y-33.000 Z-4.000 F600.000
G1 X87.000 Y-12.000 Z-4.000 F600.000
G1 X87.028 Y-11.765 Z-4.000 F600.000
G1 X93.653 Y15.683 Z-4.000 F600.000
G2 X94.718 Y16.444 Z-4.000 I0.972 J-0.235 K0.000 F600.000
G1 X97.530 Y16.183 Z-4.000 F600.000
G1 X102.017 Y16.000 Z-4.000 F600.000
G3 X106.347 Y16.172 Z-4.000 I0.437 J43.621 K0.000 F600.000
G2 X109.296 Y16.445 Z-4.000 I6.591 J-55.094 K0.000 F600.000
G2 X110.108 Y16.128 Z-4.000 I0.079 J-0.997 K0.000 F600.000
G0 Z5.000
G0 X78.496 Y15.239 Z5.000
G0 X78.496 Y15.239 Z3.000
G1 X78.496 Y15.239 Z-4.000 F600.000
G2 X78.499 Y15.034 Z-4.000 I-8.496 J-0.239 K0.000 F600.000
G1 X78.500 Y8.000 Z-4.000 F600.000
G1 X78.489 Y7.850 Z-4.000 F600.000
G1 X75.000 Y-15.076 Z-4.000 F600.000
G1 X75.000 Y-25.000 Z-4.000 F600.000
G2 X72.098 Y-27.995 Z-4.000 I-3.003 J0.006 K0.000 F600.000
G1 X69.000 Y-28.000 Z-4.000 F600.000
G2 X66.005 Y-25.098 Z-4.000 I0.006 J3.003 K0.000 F600.000
G1 X66.000 Y-5.116 Z-4.000 F600.000
G1 X61.741 Y12.989 Z-4.000 F600.000
G2 X62.135 Y17.246 Z-4.000 I13.937 J0.859 K0.000 F600.000
G2 X63.043 Y19.882 Z-4.000 I11.559 J-2.510 K0.000 F600.000
G2 X78.496 Y15.239 Z-4.000 I6.957 J-4.882 K0.000 F600.000
G0 Z5.000
G0 X58.555 Y28.623 Z5.000
G0 X58.555 Y28.623 Z3.000
G1 X58.555 Y28.623 Z-4.000 F600.000
G2 X57.674 Y28.103 Z-4.000 I-0.983 J0.660 K0.000 F600.000
G2 X56.434 Y28.478 Z-4.000 I0.160 J2.766 K0.000 F600.000
G3 X53.323 Y29.934 Z-4.000 I-26.005 J-51.518 K0.000 F600.000
G3 X51.459 Y30.399 Z-4.000 I-1.939 J-3.806 K0.000 F600.000
G3 X50.738 Y29.906 Z-4.000 I-0.002 J-0.770 K0.000 F600.000
G2 X48.612 Y28.785 Z-4.000 I-1.633 J0.519 K0.000 F600.000
G3 X45.655 Y29.917 Z-4.000 I-34.086 J-84.599 K0.000 F600.000
G3 X44.895 Y29.791 Z-4.000 I-0.283 J-0.645 K0.000 F600.000
G1 X44.490 Y29.227 Z-4.000 F600.000
G2 X44.042 Y28.303 Z-4.000 I-175.269 J84.483 K0.000 F600.000
G2 X42.777 Y26.075 Z-4.000 I-11.223 J4.896 K0.000 F600.000
G2 X39.828 Y24.153 Z-4.000 I-4.109 J3.082 K0.000 F600.000
G2 X37.683 Y24.067 Z-4.000 I-1.289 J5.374 K0.000 F600.000
G1 X34.902 Y24.997 Z-4.000 F600.000
G1 X34.743 Y25.066 Z-4.000 F600.000
G2 X32.717 Y27.525 Z-4.000 I5.161 J6.316 K0.000 F600.000
G1 X32.717 Y27.525 Z-4.000 F600.000
G1 X32.409 Y28.030 Z-4.000 F600.000
G3 X31.358 Y29.600 Z-4.000 I-7.783 J-4.074 K0.000 F600.000
G3 X30.744 Y29.970 Z-4.000 I-0.710 J-0.484 K0.000 F600.000
G3 X29.817 Y29.753 Z-4.000 I0.273 J-3.255 K0.000 F600.000
G2 X27.323 Y28.774 Z-4.000 I-11.538 J25.745 K0.000 F600.000
G2 X25.379 Y29.657 Z-4.000 I-0.436 J1.621 K0.000 F600.000
G3 X24.610 Y30.401 Z-4.000 I-0.918 J-0.180 K0.000 F600.000
G3 X23.136 Y30.121 Z-4.000 I0.090 J-4.499 K0.000 F600.000
G3 X20.412 Y28.896 Z-4.000 I15.378 J-37.834 K0.000 F600.000
G2 X18.732 Y28.151 Z-4.000 I-4.324 J7.480 K0.000 F600.000
G2 X17.463 Y28.574 Z-4.000 I-0.345 J1.080 K0.000 F600.000
G2 X17.302 Y29.658 Z-4.000 I1.028 J0.707 K0.000 F600.000
G3 X17.849 Y32.191 Z-4.000 I-13.742 J4.292 K0.000 F600.000
G3 X17.908 Y40.031 Z-4.000 I-78.456 J4.514 K0.000 F600.000
G2 X16.238 Y41.808 Z-4.000 I2.841 J4.343 K0.000 F600.000
G2 X16.235 Y47.578 Z-4.000 I5.669 J2.887 K0.000 F600.000
G2 X17.815 Y48.925 Z-4.000 I2.669 J-1.531 K0.000 F600.000
G2 X18.544 Y55.964 Z-4.000 I40.548 J-0.641 K0.000 F600.000
G2 X20.493 Y62.458 Z-4.000 I28.844 J-5.121 K0.000 F600.000
G2 X21.692 Y64.704 Z-4.000 I10.589 J-4.211 K0.000 F600.000
G2 X19.717 Y66.132 Z-4.000 I2.736 J5.863 K0.000 F600.000
G2 X19.374 Y75.997 Z-4.000 I5.702 J5.137 K0.000 F600.000
G2 X27.299 Y77.661 Z-4.000 I4.903 J-3.650 K0.000 F600.000
G2 X30.808 Y71.605 Z-4.000 I-3.919 J-6.315 K0.000 F600.000
G2 X34.767 Y72.302 Z-4.000 I4.357 J-13.171 K0.000 F600.000
G3 X39.841 Y72.311 Z-4.000 I1.841 J368.169 K0.000 F600.000
G2 X45.189 Y71.605 Z-4.000 I0.756 J-14.874 K0.000 F600.000
G2 X46.898 Y76.111 Z-4.000 I7.538 J-0.281 K0.000 F600.000
G2 X55.456 Y77.181 Z-4.000 I4.816 J-3.766 K0.000 F600.000
G2 X56.893 Y66.938 Z-4.000 I-4.837 J-5.901 K0.000 F600.000
G2 X54.313 Y64.695 Z-4.000 I-5.282 J3.470 K0.000 F600.000
G2 X54.908 Y63.731 Z-4.000 I-13.721 J-9.140 K0.000 F600.000
G2 X56.663 Y59.273 Z-4.000 I-26.735 J-13.098 K0.000 F600.000
G2 X58.181 Y48.920 Z-4.000 I-38.095 J-10.872 K0.000 F600.000
G2 X59.638 Y47.799 Z-4.000 I-0.903 J-2.682 K0.000 F600.000
G2 X60.389 Y43.732 Z-4.000 I-5.352 J-3.091 K0.000 F600.000
G2 X58.088 Y40.036 Z-4.000 I-5.090 J0.604 K0.000 F600.000
G3 X58.082 Y33.162 Z-4.000 I78.291 J-3.509 K0.000 F600.000
G3 X58.678 Y29.706 Z-4.000 I12.099 J0.307 K0.000 F600.000
G2 X58.555 Y28.623 Z-4.000 I-1.106 J-0.423 K0.000 F600.000
G0 Z5.000
G0 X45.107 Y16.129 Z5.000
G0 X45.107 Y16.129 Z3.000
G1 X45.107 Y16.129 Z-4.000 F600.000
G2 X45.347 Y15.683 Z-4.000 I-0.733 J-0.681 K0.000 F600.000
G1 X51.972 Y-11.765 Z-4.000 F600.000
G1 X52.000 Y-12.000 Z-4.000 F600.000
G1 X52.000 Y-33.000 Z-4.000 F600.000
G1 X60.484 Y-33.000 Z-4.000 F600.000
G2 X61.470 Y-33.832 Z-4.000 I-0.000 J-1.000 K0.000 F600.000
G2 X62.482 Y-42.136 Z-4.000 I-64.857 J-12.114 K0.000 F600.000
G2 X61.934 Y-60.566 Z-4.000 I-134.221 J-5.237 K0.000 F600.000
G1 X61.880 Y-60.816 Z-4.000 F600.000
G1 X59.840 Y-66.545 Z-4.000 F600.000
G1 X59.740 Y-66.748 Z-4.000 F600.000
G2 X58.022 Y-68.239 Z-4.000 I-8.666 J8.247 K0.000 F600.000
G3 X57.241 Y-69.137 Z-4.000 I1.283 J-1.907 K0.000 F600.000
G3 X56.984 Y-71.059 Z-4.000 I4.553 J-1.586 K0.000 F600.000
G2 X56.247 Y-72.344 Z-4.000 I-1.633 J0.082 K0.000 F600.000
G2 X55.022 Y-72.742 Z-4.000 I-1.568 J2.744 K0.000 F600.000
G3 X55.191 Y-73.813 Z-4.000 I15.838 J1.942 K0.000 F600.000
G2 X55.446 Y-75.446 Z-4.000 I-7.638 J-2.029 K0.000 F600.000
G2 X54.427 Y-77.453 Z-4.000 I-1.978 J-0.258 K0.000 F600.000
G2 X52.553 Y-77.865 Z-4.000 I-1.978 J4.525 K0.000 F600.000
G2 X48.305 Y-77.914 Z-4.000 I-2.494 J32.396 K0.000 F600.000
G2 X46.309 Y-77.712 Z-4.000 I0.181 J11.761 K0.000 F600.000
G2 X44.925 Y-76.894 Z-4.000 I0.375 J2.215 K0.000 F600.000
G2 X44.559 Y-75.242 Z-4.000 I1.926 J1.293 K0.000 F600.000
G3 X45.003 Y-72.561 Z-4.000 I-45.100 J8.847 K0.000 F600.000
G1 X44.200 Y-72.407 Z-4.000 F600.000
G2 X43.021 Y-71.088 Z-4.000 I0.403 J1.547 K0.000 F600.000
G3 X42.833 Y-68.472 Z-4.000 I-14.370 J0.282 K0.000 F600.000
G3 X42.476 Y-68.023 Z-4.000 I-0.599 J-0.110 K0.000 F600.000
G2 X41.502 Y-67.525 Z-4.000 I0.456 J2.093 K0.000 F600.000
G1 X40.836 Y-66.773 Z-4.000 F600.000
G3 X38.967 Y-63.927 Z-4.000 I-22.565 J-12.778 K0.000 F600.000
G3 X37.115 Y-63.011 Z-4.000 I-1.935 J-1.580 K0.000 F600.000
G1 X35.521 Y-63.497 Z-4.000 F600.000
G3 X34.609 Y-64.450 Z-4.000 I2.801 J-3.590 K0.000 F600.000
G3 X33.208 Y-66.727 Z-4.000 I57.858 J-37.183 K0.000 F600.000
G2 X31.640 Y-68.000 Z-4.000 I-2.353 J1.296 K0.000 F600.000
G3 X31.167 Y-68.477 Z-4.000 I0.073 J-0.546 K0.000 F600.000
G3 X30.999 Y-70.791 Z-4.000 I9.184 J-1.829 K0.000 F600.000
G2 X30.710 Y-71.778 Z-4.000 I-1.584 J-0.071 K0.000 F600.000
G2 X29.005 Y-72.619 Z-4.000 I-1.840 J1.583 K0.000 F600.000
G3 X29.177 Y-73.744 Z-4.000 I15.692 J1.824 K0.000 F600.000
G2 X29.444 Y-75.404 Z-4.000 I-8.406 J-2.203 K0.000 F600.000
G2 X28.683 Y-77.289 Z-4.000 I-1.997 J-0.291 K0.000 F600.000
G2 X27.029 Y-77.826 Z-4.000 I-1.824 J2.803 K0.000 F600.000
G2 X22.362 Y-77.917 Z-4.000 I-2.977 J33.096 K0.000 F600.000
G2 X20.352 Y-77.721 Z-4.000 I0.198 J12.460 K0.000 F600.000
G2 X18.953 Y-76.930 Z-4.000 I0.360 J2.270 K0.000 F600.000
G2 X18.555 Y-75.296 Z-4.000 I1.852 J1.316 K0.000 F600.000
G3 X18.997 Y-72.610 Z-4.000 I-57.352 J10.815 K0.000 F600.000
G1 X17.855 Y-72.300 Z-4.000 F600.000
G2 X17.178 Y-71.675 Z-4.000 I0.263 J0.965 K0.000 F600.000
G2 X16.985 Y-70.030 Z-4.000 I61.525 J8.058 K0.000 F600.000
G3 X16.447 Y-68.665 Z-4.000 I-2.189 J-0.073 K0.000 F600.000
G3 X15.137 Y-67.558 Z-4.000 I-18.285 J-20.312 K0.000 F600.000
G2 X12.882 Y-64.646 Z-4.000 I3.814 J5.283 K0.000 F600.000
G2 X12.172 Y-61.453 Z-4.000 I16.965 J5.445 K0.000 F600.000
G2 X11.434 Y-45.538 Z-4.000 I129.899 J13.999 K0.000 F600.000
G2 X12.530 Y-33.831 Z-4.000 I63.282 J-0.020 K0.000 F600.000
G2 X13.516 Y-33.000 Z-4.000 I0.986 J-0.169 K0.000 F600.000
G1 X22.000 Y-33.000 Z-4.000 F600.000
G1 X22.000 Y-12.000 Z-4.000 F600.000
G1 X22.028 Y-11.765 Z-4.000 F600.000
G1 X28.653 Y15.683 Z-4.000 F600.000
G2 X29.718 Y16.444 Z-4.000 I0.972 J-0.235 K0.000 F600.000
G1 X32.530 Y16.183 Z-4.000 F600.000
G1 X37.017 Y16.000 Z-4.000 F600.000
G3 X41.347 Y16.172 Z-4.000 I0.437 J43.621 K0.000 F600.000
G2 X44.296 Y16.445 Z-4.000 I6.591 J-55.094 K0.000 F600.000
G2 X45.107 Y16.129 Z-4.000 I0.079 J-0.997 K0.000 F600.000
G1 X45.107 Y16.129 Z-6.000 F600.000
G2 X45.347 Y15.683 Z-6.000 I-0.733 J-0.681 K0.000 F600.000
G1 X51.972 Y-11.765 Z-6.000 F600.000
G1 X52.000 Y-12.000 Z-6.000 F600.000
G1 X52.000 Y-33.000 Z-6.000 F600.000
G1 X60.484 Y-33.000 Z-6.000 F600.000
G2 X61.470 Y-33.832 Z-6.000 I-0.000 J-1.000 K0.000 F600.000
G2 X62.482 Y-42.136 Z-6.000 I-64.857 J-12.114 K0.000 F600.000
G2 X61.934 Y-60.566 Z-6.000 I-134.221 J-5.237 K0.000 F600.000
G1 X61.880 Y-60.816 Z-6.000 F600.000
G1 X59.840 Y-66.545 Z-6.000 F600.000
G1 X59.740 Y-66.748 Z-6.000 F600.000
G2 X58.022 Y-68.239 Z-6.000 I-8.666 J8.247 K0.000 F600.000
G3 X57.241 Y-69.137 Z-6.000 I1.283 J-1.907 K0.000 F600.000
G3 X56.984 Y-71.059 Z-6.000 I4.553 J-1.586 K0.000 F600.000
G2 X56.247 Y-72.344 Z-6.000 I-1.633 J0.082 K0.000 F600.000
G2 X55.022 Y-72.742 Z-6.000 I-1.568 J2.744 K0.000 F600.000
G3 X55.191 Y-73.813 Z-6.000 I15.838 J1.942 K0.000 F600.000
G2 X55.446 Y-75.446 Z-6.000 I-7.638 J-2.029 K0.000 F600.000
G2 X54.427 Y-77.453 Z-6.000 I-1.978 J-0.258 K0.000 F600.000
G2 X52.553 Y-77.865 Z-6.000 I-1.978 J4.525 K0.000 F600.000
G2 X48.305 Y-77.914 Z-6.000 I-2.494 J32.396 K0.000 F600.000
G2 X46.309 Y-77.712 Z-6.000 I0.181 J11.761 K0.000 F600.000
G2 X44.925 Y-76.894 Z-6.000 I0.375 J2.215 K0.000 F600.000
G2 X44.559 Y-75.242 Z-6.000 I1.926 J1.293 K0.000 F600.000
G3 X45.003 Y-72.561 Z-6.000 I-45.100 J8.847 K0.000 F600.000
G1 X44.200 Y-72.407 Z-6.000 F600.000
G2 X43.021 Y-71.088 Z-6.000 I0.403 J1.547 K0.000 F600.000
G3 X42.833 Y-68.472 Z-6.000 I-14.370 J0.282 K0.000 F600.000
G3 X42.476 Y-68.023 Z-6.000 I-0.599 J-0.110 K0.000 F600.000
G2 X41.502 Y-67.525 Z-6.000 I0.456 J2.093 K0.000 F600.000
G1 X40.836 Y-66.773 Z-6.000 F600.000
G3 X38.967 Y-63.927 Z-6.000 I-22.565 J-12.778 K0.000 F600.000
G3 X37.115 Y-63.011 Z-6.000 I-1.935 J-1.580 K0.000 F600.000
G1 X35.521 Y-63.497 Z-6.000 F600.000
G3 X34.609 Y-64.450 Z-6.000 I2.801 J-3.590 K0.000 F600.000
G3 X33.208 Y-66.727 Z-6.000 I57.858 J-37.183 K0.000 F600.000
G2 X31.640 Y-68.000 Z-6.000 I-2.353 J1.296 K0.000 F600.000
G3 X31.167 Y-68.477 Z-6.000 I0.073 J-0.546 K0.000 F600.000
G3 X30.999 Y-70.791 Z-6.000 I9.184 J-1.829 K0.000 F600.000
G2 X30.710 Y-71.778 Z-6.000 I-1.584 J-0.071 K0.000 F600.000
G2 X29.005 Y-72.619 Z-6.000 I-1.840 J1.583 K0.000 F600.000
G3 X29.177 Y-73.744 Z-6.000 I15.692 J1.824 K0.000 F600.000
G2 X29.444 Y-75.404 Z-6.000 I-8.406 J-2.203 K0.000 F600.000
G2 X28.683 Y-77.289 Z-6.000 I-1.997 J-0.291 K0.000 F600.000
G2 X27.029 Y-77.826 Z-6.000 I-1.824 J2.803 K0.000 F600.000
G2 X22.362 Y-77.917 Z-6.000 I-2.977 J33.096 K0.000 F600.000
G2 X20.352 Y-77.721 Z-6.000 I0.198 J12.460 K0.000 F600.000
G2 X18.953 Y-76.930 Z-6.000 I0.360 J2.270 K0.000 F600.000
G2 X18.555 Y-75.296 Z-6.000 I1.852 J1.316 K0.000 F600.000
G3 X18.997 Y-72.610 Z-6.000 I-57.352 J10.815 K0.000 F600.000
G1 X17.855 Y-72.300 Z-6.000 F600.000
G2 X17.178 Y-71.675 Z-6.000 I0.263 J0.965 K0.000 F600.000
G2 X16.985 Y-70.030 Z-6.000 I61.525 J8.058 K0.000 F600.000
G3 X16.447 Y-68.665 Z-6.000 I-2.189 J-0.073 K0.000 F600.000
G3 X15.137 Y-67.558 Z-6.000 I-18.285 J-20.312 K0.000 F600.000
G2 X12.882 Y-64.646 Z-6.000 I3.814 J5.283 K0.000 F600.000
G2 X12.172 Y-61.453 Z-6.000 I16.965 J5.445 K0.000 F600.000
G2 X11.434 Y-45.538 Z-6.000 I129.899 J13.999 K0.000 F600.000
G2 X12.530 Y-33.831 Z-6.000 I63.282 J-0.020 K0.000 F600.000
G2 X13.516 Y-33.000 Z-6.000 I0.986 J-0.169 K0.000 F600.000
G1 X22.000 Y-33.000 Z-6.000 F600.000
G1 X22.000 Y-12.000 Z-6.000 F600.000
G1 X22.028 Y-11.765 Z-6.000 F600.000
G1 X28.653 Y15.683 Z-6.000 F600.000
G2 X29.718 Y16.444 Z-6.000 I0.972 J-0.235 K0.000 F600.000
G1 X32.530 Y16.183 Z-6.000 F600.000
G1 X37.017 Y16.000 Z-6.000 F600.000
G3 X41.347 Y16.172 Z-6.000 I0.437 J43.621 K0.000 F600.000
G2 X44.296 Y16.445 Z-6.000 I6.591 J-55.094 K0.000 F600.000
G2 X45.107 Y16.129 Z-6.000 I0.079 J-0.997 K0.000 F600.000
G0 Z5.000
G0 X40.944 Y24.552 Z5.000
G0 X40.944 Y24.552 Z3.000
G1 X40.944 Y24.552 Z-6.000 F600.000
G2 X39.828 Y24.153 Z-6.000 I-2.276 J4.605 K0.000 F600.000
G2 X37.683 Y24.067 Z-6.000 I-1.289 J5.374 K0.000 F600.000
G1 X34.902 Y24.997 Z-6.000 F600.000
G1 X34.743 Y25.066 Z-6.000 F600.000
G2 X32.717 Y27.525 Z-6.000 I5.161 J6.316 K0.000 F600.000
G1 X32.717 Y27.525 Z-6.000 F600.000
G1 X32.409 Y28.030 Z-6.000 F600.000
G3 X31.358 Y29.600 Z-6.000 I-7.783 J-4.074 K0.000 F600.000
G3 X30.744 Y29.970 Z-6.000 I-0.710 J-0.484 K0.000 F600.000
G3 X29.817 Y29.753 Z-6.000 I0.273 J-3.255 K0.000 F600.000
G2 X27.323 Y28.774 Z-6.000 I-11.538 J25.745 K0.000 F600.000
G2 X25.379 Y29.657 Z-6.000 I-0.436 J1.621 K0.000 F600.000
G3 X24.610 Y30.401 Z-6.000 I-0.918 J-0.180 K0.000 F600.000
G3 X23.136 Y30.121 Z-6.000 I0.090 J-4.499 K0.000 F600.000
G3 X20.412 Y28.896 Z-6.000 I15.378 J-37.834 K0.000 F600.000
G2 X18.732 Y28.151 Z-6.000 I-4.324 J7.480 K0.000 F600.000
G2 X17.463 Y28.574 Z-6.000 I-0.345 J1.080 K0.000 F600.000
G2 X17.302 Y29.658 Z-6.000 I1.028 J0.707 K0.000 F600.000
G3 X17.849 Y32.191 Z-6.000 I-13.742 J4.292 K0.000 F600.000
G3 X17.908 Y40.031 Z-6.000 I-78.456 J4.514 K0.000 F600.000
G2 X16.238 Y41.808 Z-6.000 I2.841 J4.343 K0.000 F600.000
G2 X16.235 Y47.578 Z-6.000 I5.669 J2.887 K0.000 F600.000
G2 X17.815 Y48.925 Z-6.000 I2.669 J-1.531 K0.000 F600.000
G2 X18.544 Y55.964 Z-6.000 I40.548 J-0.641 K0.000 F600.000
G2 X20.493 Y62.458 Z-6.000 I28.844 J-5.121 K0.000 F600.000
G2 X21.692 Y64.704 Z-6.000 I10.589 J-4.211 K0.000 F600.000
G2 X19.717 Y66.132 Z-6.000 I2.736 J5.863 K0.000 F600.000
G2 X19.374 Y75.997 Z-6.000 I5.702 J5.137 K0.000 F600.000
G2 X27.299 Y77.661 Z-6.000 I4.903 J-3.650 K0.000 F600.000
G2 X30.808 Y71.605 Z-6.000 I-3.919 J-6.315 K0.000 F600.000
G2 X34.767 Y72.302 Z-6.000 I4.357 J-13.171 K0.000 F600.000
G3 X39.841 Y72.311 Z-6.000 I1.841 J368.169 K0.000 F600.000
G2 X45.189 Y71.605 Z-6.000 I0.756 J-14.874 K0.000 F600.000
G2 X46.898 Y76.111 Z-6.000 I7.538 J-0.281 K0.000 F600.000
G2 X55.456 Y77.181 Z-6.000 I4.816 J-3.766 K0.000 F600.000
G2 X56.893 Y66.938 Z-6.000 I-4.837 J-5.901 K0.000 F600.000
G2 X54.313 Y64.695 Z-6.000 I-5.282 J3.470 K0.000 F600.000
G2 X54.908 Y63.731 Z-6.000 I-13.721 J-9.140 K0.000 F600.000
G2 X56.663 Y59.273 Z-6.000 I-26.735 J-13.098 K0.000 F600.000
G2 X58.181 Y48.920 Z-6.000 I-38.095 J-10.872 K0.000 F600.000
G2 X59.638 Y47.799 Z-6.000 I-0.903 J-2.682 K0.000 F600.000
G2 X60.389 Y43.732 Z-6.000 I-5.352 J-3.091 K0.000 F600.000
G2 X58.088 Y40.036 Z-6.000 I-5.090 J0.604 K0.000 F600.000
G3 X58.082 Y33.162 Z-6.000 I78.291 J-3.509 K0.000 F600.000
G3 X58.678 Y29.706 Z-6.000 I12.099 J0.307 K0.000 F600.000
G2 X57.674 Y28.103 Z-6.000 I-1.106 J-0.423 K0.000 F600.000
G2 X56.434 Y28.478 Z-6.000 I0.160 J2.766 K0.000 F600.000
G3 X53.323 Y29.934 Z-6.000 I-26.005 J-51.518 K0.000 F600.000
G3 X51.459 Y30.399 Z-6.000 I-1.939 J-3.806 K0.000 F600.000
G3 X50.738 Y29.906 Z-6.000 I-0.002 J-0.770 K0.000 F600.000
G2 X48.612 Y28.785 Z-6.000 I-1.633 J0.519 K0.000 F600.000
G3 X45.655 Y29.917 Z-6.000 I-34.086 J-84.599 K0.000 F600.000
G3 X44.895 Y29.791 Z-6.000 I-0.283 J-0.645 K0.000 F600.000
G1 X44.490 Y29.227 Z-6.000 F600.000
G2 X44.042 Y28.303 Z-6.000 I-175.269 J84.483 K0.000 F600.000
G2 X42.777 Y26.075 Z-6.000 I-11.223 J4.896 K0.000 F600.000
G2 X40.944 Y24.552 Z-6.000 I-4.109 J3.082 K0.000 F600.000
G0 Z5.000
G0 X62.363 Y18.132 Z5.000
G0 X62.363 Y18.132 Z3.000
G1 X62.363 Y18.132 Z-6.000 F600.000
G2 X63.043 Y19.882 Z-6.000 I11.331 J-3.396 K0.000 F600.000
G2 X78.499 Y15.034 Z-6.000 I6.957 J-4.882 K0.000 F600.000
G1 X78.500 Y8.000 Z-6.000 F600.000
G1 X78.489 Y7.850 Z-6.000 F600.000
G1 X75.000 Y-15.076 Z-6.000 F600.000
G1 X75.000 Y-25.000 Z-6.000 F600.000
G2 X72.098 Y-27.995 Z-6.000 I-3.003 J0.006 K0.000 F600.000
G1 X69.000 Y-28.000 Z-6.000 F600.000
G2 X66.005 Y-25.098 Z-6.000 I0.006 J3.003 K0.000 F600.000
G1 X66.000 Y-5.116 Z-6.000 F600.000
G1 X61.741 Y12.989 Z-6.000 F600.000
G2 X62.135 Y17.246 Z-6.000 I13.937 J0.859 K0.000 F600.000
G2 X62.363 Y18.132 Z-6.000 I11.559 J-2.510 K0.000 F600.000
G0 Z5.000
G0 X82.388 Y28.699 Z5.000
G0 X82.388 Y28.699 Z3.000
G1 X82.388 Y28.699 Z-6.000 F600.000
G2 X82.302 Y29.658 Z-6.000 I1.103 J0.582 K0.000 F600.000
G3 X82.849 Y32.191 Z-6.000 I-13.742 J4.292 K0.000 F600.000
G3 X82.908 Y40.031 Z-6.000 I-78.456 J4.514 K0.000 F600.000
G2 X81.238 Y41.808 Z-6.000 I2.841 J4.343 K0.000 F600.000
G2 X81.235 Y47.578 Z-6.000 I5.669 J2.887 K0.000 F600.000
G2 X82.815 Y48.925 Z-6.000 I2.669 J-1.531 K0.000 F600.000
G2 X83.544 Y55.964 Z-6.000 I40.548 J-0.641 K0.000 F600.000
G2 X85.493 Y62.458 Z-6.000 I28.844 J-5.121 K0.000 F600.000
G2 X86.692 Y64.704 Z-6.000 I10.589 J-4.211 K0.000 F600.000
G2 X84.717 Y66.132 Z-6.000 I2.736 J5.863 K0.000 F600.000
G2 X84.374 Y75.997 Z-6.000 I5.702 J5.137 K0.000 F600.000
G2 X92.299 Y77.661 Z-6.000 I4.903 J-3.650 K0.000 F600.000
G2 X95.808 Y71.605 Z-6.000 I-3.919 J-6.315 K0.000 F600.000
G2 X99.767 Y72.302 Z-6.000 I4.357 J-13.171 K0.000 F600.000
G3 X104.841 Y72.311 Z-6.000 I1.841 J368.169 K0.000 F600.000
G2 X110.189 Y71.605 Z-6.000 I0.756 J-14.874 K0.000 F600.000
G2 X111.898 Y76.111 Z-6.000 I7.538 J-0.281 K0.000 F600.000
G2 X120.456 Y77.181 Z-6.000 I4.816 J-3.766 K0.000 F600.000
G2 X121.893 Y66.938 Z-6.000 I-4.837 J-5.901 K0.000 F600.000
G2 X119.313 Y64.695 Z-6.000 I-5.282 J3.470 K0.000 F600.000
G2 X119.908 Y63.731 Z-6.000 I-13.721 J-9.140 K0.000 F600.000
G2 X121.663 Y59.273 Z-6.000 I-26.735 J-13.098 K0.000 F600.000
G2 X123.181 Y48.920 Z-6.000 I-38.095 J-10.872 K0.000 F600.000
G2 X124.638 Y47.799 Z-6.000 I-0.903 J-2.682 K0.000 F600.000
G2 X125.389 Y43.732 Z-6.000 I-5.352 J-3.091 K0.000 F600.000
G2 X123.088 Y40.036 Z-6.000 I-5.090 J0.604 K0.000 F600.000
G3 X123.082 Y33.162 Z-6.000 I78.291 J-3.509 K0.000 F600.000
G3 X123.678 Y29.706 Z-6.000 I12.099 J0.307 K0.000 F600.000
G2 X122.674 Y28.103 Z-6.000 I-1.106 J-0.423 K0.000 F600.000
G2 X121.434 Y28.478 Z-6.000 I0.160 J2.766 K0.000 F600.000
G3 X118.323 Y29.934 Z-6.000 I-26.005 J-51.518 K0.000 F600.000
G3 X116.459 Y30.399 Z-6.000 I-1.939 J-3.806 K0.000 F600.000
G3 X115.738 Y29.906 Z-6.000 I-0.002 J-0.770 K0.000 F600.000
G2 X113.612 Y28.785 Z-6.000 I-1.633 J0.519 K0.000 F600.000
G3 X110.655 Y29.917 Z-6.000 I-34.087 J-84.600 K0.000 F600.000
G3 X109.895 Y29.791 Z-6.000 I-0.283 J-0.645 K0.000 F600.000
G1 X109.490 Y29.227 Z-6.000 F600.000
G2 X109.042 Y28.303 Z-6.000 I-175.269 J84.483 K0.000 F600.000
G2 X107.777 Y26.075 Z-6.000 I-11.223 J4.896 K0.000 F600.000
G2 X104.828 Y24.153 Z-6.000 I-4.109 J3.082 K0.000 F600.000
G2 X102.683 Y24.067 Z-6.000 I-1.289 J5.374 K0.000 F600.000
G1 X99.902 Y24.997 Z-6.000 F600.000
G1 X99.743 Y25.066 Z-6.000 F600.000
G2 X97.717 Y27.525 Z-6.000 I5.161 J6.316 K0.000 F600.000
G1 X97.717 Y27.525 Z-6.000 F600.000
G1 X97.409 Y28.030 Z-6.000 F600.000
G3 X96.358 Y29.600 Z-6.000 I-7.783 J-4.074 K0.000 F600.000
G3 X95.744 Y29.970 Z-6.000 I-0.710 J-0.484 K0.000 F600.000
G3 X94.817 Y29.753 Z-6.000 I0.273 J-3.255 K0.000 F600.000
G2 X92.323 Y28.774 Z-6.000 I-11.538 J25.745 K0.000 F600.000
G2 X90.379 Y29.657 Z-6.000 I-0.436 J1.621 K0.000 F600.000
G3 X89.610 Y30.401 Z-6.000 I-0.918 J-0.180 K0.000 F600.000
G3 X88.136 Y30.121 Z-6.000 I0.090 J-4.499 K0.000 F600.000
G3 X85.412 Y28.896 Z-6.000 I15.378 J-37.834 K0.000 F600.000
G2 X83.732 Y28.151 Z-6.000 I-4.324 J7.480 K0.000 F600.000
G2 X82.463 Y28.574 Z-6.000 I-0.345 J1.080 K0.000 F600.000
G2 X82.388 Y28.699 Z-6.000 I1.028 J0.707 K0.000 F600.000
G0 Z5.000
G0 X93.947 Y16.183 Z5.000
G0 X93.947 Y16.183 Z3.000
G1 X93.947 Y16.183 Z-6.000 F600.000
G2 X94.718 Y16.444 Z-6.000 I0.678 J-0.735 K0.000 F600.000
G1 X97.530 Y16.183 Z-6.000 F600.000
G1 X102.017 Y16.000 Z-6.000 F600.000
G3 X106.347 Y16.172 Z-6.000 I0.437 J43.621 K0.000 F600.000
G2 X109.296 Y16.445 Z-6.000 I6.591 J-55.094 K0.000 F600.000
G2 X110.347 Y15.683 Z-6.000 I0.079 J-0.997 K0.000 F600.000
G1 X116.972 Y-11.765 Z-6.000 F600.000
G1 X117.000 Y-12.000 Z-6.000 F600.000
G1 X117.000 Y-33.000 Z-6.000 F600.000
G1 X125.484 Y-33.000 Z-6.000 F600.000
G2 X126.470 Y-33.832 Z-6.000 I-0.000 J-1.000 K0.000 F600.000
G2 X127.482 Y-42.136 Z-6.000 I-64.857 J-12.114 K0.000 F600.000
G2 X126.934 Y-60.566 Z-6.000 I-134.221 J-5.237 K0.000 F600.000
G1 X126.880 Y-60.816 Z-6.000 F600.000
G1 X124.840 Y-66.545 Z-6.000 F600.000
G1 X124.740 Y-66.748 Z-6.000 F600.000
G2 X123.022 Y-68.239 Z-6.000 I-8.666 J8.247 K0.000 F600.000
G3 X122.241 Y-69.137 Z-6.000 I1.283 J-1.907 K0.000 F600.000
G3 X121.984 Y-71.059 Z-6.000 I4.553 J-1.586 K0.000 F600.000
G2 X121.247 Y-72.344 Z-6.000 I-1.633 J0.082 K0.000 F600.000
G2 X120.022 Y-72.742 Z-6.000 I-1.568 J2.744 K0.000 F600.000
G3 X120.191 Y-73.813 Z-6.000 I15.838 J1.942 K0.000 F600.000
G2 X120.446 Y-75.446 Z-6.000 I-7.638 J-2.029 K0.000 F600.000
G2 X119.427 Y-77.453 Z-6.000 I-1.978 J-0.258 K0.000 F600.000
G2 X117.553 Y-77.865 Z-6.000 I-1.978 J4.525 K0.000 F600.000
G2 X113.305 Y-77.914 Z-6.000 I-2.494 J32.396 K0.000 F600.000
G2 X111.309 Y-77.712 Z-6.000 I0.181 J11.761 K0.000 F600.000
G2 X109.925 Y-76.894 Z-6.000 I0.375 J2.215 K0.000 F600.000
G2 X109.559 Y-75.242 Z-6.000 I1.927 J1.293 K0.000 F600.000
G3 X110.003 Y-72.561 Z-6.000 I-45.100 J8.847 K0.000 F600.000
G1 X109.200 Y-72.407 Z-6.000 F600.000
G2 X108.021 Y-71.088 Z-6.000 I0.403 J1.547 K0.000 F600.000
G3 X107.833 Y-68.472 Z-6.000 I-14.370 J0.282 K0.000 F600.000
G3 X107.476 Y-68.023 Z-6.000 I-0.599 J-0.110 K0.000 F600.000
G2 X106.502 Y-67.525 Z-6.000 I0.456 J2.093 K0.000 F600.000
G1 X105.836 Y-66.773 Z-6.000 F600.000
G3 X103.967 Y-63.927 Z-6.000 I-22.565 J-12.778 K0.000 F600.000
G3 X102.115 Y-63.011 Z-6.000 I-1.935 J-1.580 K0.000 F600.000
G1 X100.521 Y-63.497 Z-6.000 F600.000
G3 X99.609 Y-64.450 Z-6.000 I2.801 J-3.590 K0.000 F600.000
G3 X98.208 Y-66.727 Z-6.000 I57.856 J-37.182 K0.000 F600.000
G2 X96.640 Y-68.000 Z-6.000 I-2.353 J1.296 K0.000 F600.000
G3 X96.167 Y-68.477 Z-6.000 I0.073 J-0.546 K0.000 F600.000
G3 X95.999 Y-70.791 Z-6.000 I9.184 J-1.829 K0.000 F600.000
G2 X95.710 Y-71.778 Z-6.000 I-1.584 J-0.071 K0.000 F600.000
G2 X94.005 Y-72.619 Z-6.000 I-1.840 J1.583 K0.000 F600.000
G3 X94.177 Y-73.744 Z-6.000 I15.693 J1.824 K0.000 F600.000
G2 X94.444 Y-75.404 Z-6.000 I-8.406 J-2.203 K0.000 F600.000
G2 X93.683 Y-77.289 Z-6.000 I-1.997 J-0.291 K0.000 F600.000
G2 X92.029 Y-77.826 Z-6.000 I-1.824 J2.803 K0.000 F600.000
G2 X87.362 Y-77.917 Z-6.000 I-2.977 J33.096 K0.000 F600.000
G2 X85.352 Y-77.721 Z-6.000 I0.198 J12.460 K0.000 F600.000
G2 X83.953 Y-76.930 Z-6.000 I0.360 J2.270 K0.000 F600.000
G2 X83.555 Y-75.296 Z-6.000 I1.852 J1.316 K0.000 F600.000
G3 X83.997 Y-72.610 Z-6.000 I-57.351 J10.815 K0.000 F600.000
G1 X82.855 Y-72.300 Z-6.000 F600.000
G2 X82.178 Y-71.675 Z-6.000 I0.263 J0.965 K0.000 F600.000
G2 X81.985 Y-70.030 Z-6.000 I61.523 J8.058 K0.000 F600.000
G3 X81.447 Y-68.665 Z-6.000 I-2.189 J-0.073 K0.000 F600.000
G3 X80.137 Y-67.558 Z-6.000 I-18.285 J-20.312 K0.000 F600.000
G2 X77.882 Y-64.646 Z-6.000 I3.814 J5.283 K0.000 F600.000
G2 X77.172 Y-61.453 Z-6.000 I16.965 J5.445 K0.000 F600.000
G2 X76.434 Y-45.538 Z-6.000 I129.899 J13.999 K0.000 F600.000
G2 X77.530 Y-33.831 Z-6.000 I63.282 J-0.020 K0.000 F600.000
G2 X78.516 Y-33.000 Z-6.000 I0.986 J-0.169 K0.000 F600.000
G1 X87.000 Y-33.000 Z-6.000 F600.000
G1 X87.000 Y-12.000 Z-6.000 F600.000
G1 X87.028 Y-11.765 Z-6.000 F600.000
G1 X93.653 Y15.683 Z-6.000 F600.000
G2 X93.947 Y16.183 Z-6.000 I0.972 J-0.235 K0.000 F600.000
G0 Z5.000
G0 X123.735 Y14.593 Z5.000
G0 X123.735 Y14.593 Z3.000
G1 X123.735 Y14.593 Z-6.000 F600.000
G2 X124.135 Y17.246 Z-6.000 I13.943 J-0.744 K0.000 F600.000
G2 X125.043 Y19.882 Z-6.000 I11.559 J-2.510 K0.000 F600.000
G2 X140.499 Y15.034 Z-6.000 I6.957 J-4.882 K0.000 F600.000
G1 X140.500 Y8.000 Z-6.000 F600.000
G1 X140.489 Y7.850 Z-6.000 F600.000
G1 X137.000 Y-15.076 Z-6.000 F600.000
G1 X137.000 Y-25.000 Z-6.000 F600.000
G2 X134.098 Y-27.995 Z-6.000 I-3.003 J0.006 K0.000 F600.000
G1 X131.000 Y-28.000 Z-6.000 F600.000
G2 X128.005 Y-25.098 Z-6.000 I0.006 J3.003 K0.000 F600.000
G1 X128.000 Y-5.116 Z-6.000 F600.000
G1 X123.741 Y12.989 Z-6.000 F600.000
G2 X123.735 Y14.593 Z-6.000 I13.937 J0.859 K0.000 F600.000
G0 Z5.000
G0 X142.478 Y28.553 Z5.000
G0 X142.478 Y28.553 Z3.000
G1 X142.478 Y28.553 Z-6.000 F600.000
G2 X142.463 Y28.574 Z-6.000 I0.909 J0.677 K0.000 F600.000
G2 X142.302 Y29.658 Z-6.000 I1.028 J0.707 K0.000 F600.000
G3 X142.849 Y32.191 Z-6.000 I-13.742 J4.292 K0.000 F600.000
G3 X142.908 Y40.031 Z-6.000 I-78.456 J4.514 K0.000 F600.000
G2 X141.238 Y41.808 Z-6.000 I2.841 J4.343 K0.000 F600.000
G2 X141.235 Y47.578 Z-6.000 I5.669 J2.887 K0.000 F600.000
G2 X142.815 Y48.925 Z-6.000 I2.669 J-1.531 K0.000 F600.000
G2 X143.544 Y55.964 Z-6.000 I40.548 J-0.641 K0.000 F600.000
G2 X145.493 Y62.458 Z-6.000 I28.844 J-5.121 K0.000 F600.000
G2 X146.692 Y64.704 Z-6.000 I10.589 J-4.211 K0.000 F600.000
G2 X144.717 Y66.132 Z-6.000 I2.736 J5.863 K0.000 F600.000
G2 X144.374 Y75.997 Z-6.000 I5.702 J5.137 K0.000 F600.000
G2 X152.299 Y77.661 Z-6.000 I4.903 J-3.650 K0.000 F600.000
G2 X155.808 Y71.605 Z-6.000 I-3.919 J-6.315 K0.000 F600.000
G2 X159.767 Y72.302 Z-6.000 I4.357 J-13.171 K0.000 F600.000
G3 X164.841 Y72.311 Z-6.000 I1.841 J368.169 K0.000 F600.000
G2 X170.189 Y71.605 Z-6.000 I0.756 J-14.874 K0.000 F600.000
G2 X171.898 Y76.111 Z-6.000 I7.538 J-0.281 K0.000 F600.000
G2 X180.456 Y77.181 Z-6.000 I4.816 J-3.766 K0.000 F600.000
G2 X181.893 Y66.938 Z-6.000 I-4.837 J-5.901 K0.000 F600.000
G2 X179.313 Y64.695 Z-6.000 I-5.282 J3.470 K0.000 F600.000
G2 X179.908 Y63.731 Z-6.000 I-13.721 J-9.140 K0.000 F600.000
G2 X181.663 Y59.273 Z-6.000 I-26.735 J-13.098 K0.000 F600.000
G2 X183.181 Y48.920 Z-6.000 I-38.095 J-10.872 K0.000 F600.000
G2 X184.638 Y47.799 Z-6.000 I-0.903 J-2.682 K0.000 F600.000
G2 X185.389 Y43.732 Z-6.000 I-5.352 J-3.091 K0.000 F600.000
G2 X183.088 Y40.036 Z-6.000 I-5.090 J0.604 K0.000 F600.000
G3 X183.082 Y33.162 Z-6.000 I78.291 J-3.509 K0.000 F600.000
G3 X183.678 Y29.706 Z-6.000 I12.099 J0.307 K0.000 F600.000
G2 X182.674 Y28.103 Z-6.000 I-1.106 J-0.423 K0.000 F600.000
G2 X181.434 Y28.478 Z-6.000 I0.160 J2.766 K0.000 F600.000
G3 X178.323 Y29.934 Z-6.000 I-26.005 J-51.518 K0.000 F600.000
G3 X176.459 Y30.399 Z-6.000 I-1.939 J-3.806 K0.000 F600.000
G3 X175.738 Y29.906 Z-6.000 I-0.002 J-0.770 K0.000 F600.000
G2 X173.612 Y28.785 Z-6.000 I-1.633 J0.519 K0.000 F600.000
G3 X170.655 Y29.917 Z-6.000 I-34.086 J-84.599 K0.000 F600.000
G3 X169.895 Y29.791 Z-6.000 I-0.283 J-0.645 K0.000 F600.000
G1 X169.490 Y29.227 Z-6.000 F600.000
G2 X169.042 Y28.303 Z-6.000 I-175.269 J84.483 K0.000 F600.000
G2 X167.777 Y26.075 Z-6.000 I-11.223 J4.896 K0.000 F600.000
G2 X164.828 Y24.153 Z-6.000 I-4.109 J3.082 K0.000 F600.000
G2 X162.683 Y24.067 Z-6.000 I-1.289 J5.374 K0.000 F600.000
G1 X159.902 Y24.997 Z-6.000 F600.000
G1 X159.743 Y25.066 Z-6.000 F600.000
G2 X157.717 Y27.525 Z-6.000 I5.161 J6.316 K0.000 F600.000
G1 X157.717 Y27.525 Z-6.000 F600.000
G1 X157.409 Y28.030 Z-6.000 F600.000
G3 X156.358 Y29.600 Z-6.000 I-7.783 J-4.074 K0.000 F600.000
G3 X155.744 Y29.970 Z-6.000 I-0.710 J-0.484 K0.000 F600.000
G3 X154.817 Y29.753 Z-6.000 I0.273 J-3.255 K0.000 F600.000
G2 X152.323 Y28.774 Z-6.000 I-11.538 J25.745 K0.000 F600.000
G2 X150.379 Y29.657 Z-6.000 I-0.436 J1.621 K0.000 F600.000
G3 X149.610 Y30.401 Z-6.000 I-0.918 J-0.180 K0.000 F600.000
G3 X148.136 Y30.121 Z-6.000 I0.090 J-4.499 K0.000 F600.000
G3 X145.412 Y28.896 Z-6.000 I15.378 J-37.834 K0.000 F600.000
G2 X143.732 Y28.151 Z-6.000 I-4.324 J7.480 K0.000 F600.000
G2 X142.478 Y28.553 Z-6.000 I-0.345 J1.080 K0.000 F600.000
G0 Z5.000
G0 X153.946 Y16.182 Z5.000
G0 X153.946 Y16.182 Z3.000
G1 X153.946 Y16.182 Z-6.000 F600.000
G2 X154.718 Y16.444 Z-6.000 I0.680 J-0.733 K0.000 F600.000
G1 X157.530 Y16.183 Z-6.000 F600.000
G1 X162.017 Y16.000 Z-6.000 F600.000
G3 X166.347 Y16.172 Z-6.000 I0.437 J43.621 K0.000 F600.000
G2 X169.296 Y16.445 Z-6.000 I6.591 J-55.094 K0.000 F600.000
G2 X170.347 Y15.683 Z-6.000 I0.079 J-0.997 K0.000 F600.000
G1 X176.972 Y-11.765 Z-6.000 F600.000
G1 X177.000 Y-12.000 Z-6.000 F600.000
G1 X177.000 Y-33.000 Z-6.000 F600.000
G1 X185.484 Y-33.000 Z-6.000 F600.000
G2 X186.470 Y-33.832 Z-6.000 I-0.000 J-1.000 K0.000 F600.000
G2 X187.482 Y-42.136 Z-6.000 I-64.857 J-12.114 K0.000 F600.000
G2 X186.934 Y-60.566 Z-6.000 I-134.221 J-5.237 K0.000 F600.000
G1 X186.880 Y-60.816 Z-6.000 F600.000
G1 X184.840 Y-66.545 Z-6.000 F600.000
G1 X184.740 Y-66.748 Z-6.000 F600.000
G2 X183.022 Y-68.239 Z-6.000 I-8.666 J8.247 K0.000 F600.000
G3 X182.241 Y-69.137 Z-6.000 I1.283 J-1.907 K0.000 F600.000
G3 X181.984 Y-71.059 Z-6.000 I4.553 J-1.586 K0.000 F600.000
G2 X181.247 Y-72.344 Z-6.000 I-1.633 J0.082 K0.000 F600.000
G2 X180.022 Y-72.742 Z-6.000 I-1.568 J2.744 K0.000 F600.000
G3 X180.191 Y-73.813 Z-6.000 I15.838 J1.942 K0.000 F600.000
G2 X180.446 Y-75.446 Z-6.000 I-7.638 J-2.029 K0.000 F600.000
G2 X179.427 Y-77.453 Z-6.000 I-1.978 J-0.258 K0.000 F600.000
G2 X177.553 Y-77.865 Z-6.000 I-1.978 J4.525 K0.000 F600.000
G2 X173.305 Y-77.914 Z-6.000 I-2.494 J32.396 K0.000 F600.000
G2 X171.309 Y-77.712 Z-6.000 I0.181 J11.761 K0.000 F600.000
G2 X169.925 Y-76.894 Z-6.000 I0.375 J2.215 K0.000 F600.000
G2 X169.559 Y-75.242 Z-6.000 I1.926 J1.293 K0.000 F600.000
G3 X170.003 Y-72.561 Z-6.000 I-45.100 J8.847 K0.000 F600.000
G1 X169.200 Y-72.407 Z-6.000 F600.000
G2 X168.021 Y-71.088 Z-6.000 I0.403 J1.547 K0.000 F600.000
G3 X167.833 Y-68.472 Z-6.000 I-14.370 J0.282 K0.000 F600.000
G3 X167.476 Y-68.023 Z-6.000 I-0.599 J-0.110 K0.000 F600.000
G2 X166.502 Y-67.525 Z-6.000 I0.456 J2.093 K0.000 F600.000
G1 X165.836 Y-66.773 Z-6.000 F600.000
G3 X163.967 Y-63.927 Z-6.000 I-22.565 J-12.778 K0.000 F600.000
G3 X162.115 Y-63.011 Z-6.000 I-1.935 J-1.580 K0.000 F600.000
G1 X160.521 Y-63.497 Z-6.000 F600.000
G3 X159.609 Y-64.450 Z-6.000 I2.801 J-3.590 K0.000 F600.000
G3 X158.208 Y-66.727 Z-6.000 I57.858 J-37.183 K0.000 F600.000
G2 X156.640 Y-68.000 Z-6.000 I-2.353 J1.296 K0.000 F600.000
G3 X156.167 Y-68.477 Z-6.000 I0.073 J-0.546 K0.000 F600.000
G3 X155.999 Y-70.791 Z-6.000 I9.184 J-1.829 K0.000 F600.000
G2 X155.710 Y-71.778 Z-6.000 I-1.584 J-0.071 K0.000 F600.000
G2 X154.005 Y-72.619 Z-6.000 I-1.840 J1.583 K0.000 F600.000
G3 X154.177 Y-73.744 Z-6.000 I15.693 J1.824 K0.000 F600.000
G2 X154.444 Y-75.404 Z-6.000 I-8.406 J-2.203 K0.000 F600.000
G2 X153.683 Y-77.289 Z-6.000 I-1.997 J-0.291 K0.000 F600.000
G2 X152.029 Y-77.826 Z-6.000 I-1.824 J2.803 K0.000 F600.000
G2 X147.362 Y-77.917 Z-6.000 I-2.977 J33.096 K0.000 F600.000
G2 X145.352 Y-77.721 Z-6.000 I0.198 J12.460 K0.000 F600.000
G2 X143.953 Y-76.930 Z-6.000 I0.360 J2.270 K0.000 F600.000
G2 X143.555 Y-75.296 Z-6.000 I1.852 J1.316 K0.000 F600.000
G3 X143.997 Y-72.610 Z-6.000 I-57.352 J10.815 K0.000 F600.000
G1 X142.855 Y-72.300 Z-6.000 F600.000
G2 X142.178 Y-71.675 Z-6.000 I0.263 J0.965 K0.000 F600.000
G2 X141.985 Y-70.030 Z-6.000 I61.525 J8.058 K0.000 F600.000
G3 X141.447 Y-68.665 Z-6.000 I-2.189 J-0.073 K0.000 F600.000
G3 X140.137 Y-67.558 Z-6.000 I-18.285 J-20.312 K0.000 F600.000
G2 X137.882 Y-64.646 Z-6.000 I3.814 J5.283 K0.000 F600.000
G2 X137.172 Y-61.453 Z-6.000 I16.965 J5.445 K0.000 F600.000
G2 X136.434 Y-45.538 Z-6.000 I129.899 J13.999 K0.000 F600.000
G2 X137.530 Y-33.831 Z-6.000 I63.282 J-0.020 K0.000 F600.000
G2 X138.516 Y-33.000 Z-6.000 I0.986 J-0.169 K0.000 F600.000
G1 X147.000 Y-33.000 Z-6.000 F600.000
G1 X147.000 Y-12.000 Z-6.000 F600.000
G1 X147.028 Y-11.765 Z-6.000 F600.000
G1 X153.653 Y15.683 Z-6.000 F600.000
G2 X153.946 Y16.182 Z-6.000 I0.972 J-0.235 K0.000 F600.000
G0 Z5.000
G0 X195.501 Y16.189 Z5.000
G0 X195.501 Y16.189 Z3.000
G1 X195.501 Y16.189 Z-6.000 F600.000
G1 X195.500 Y23.000 Z-6.000 F600.000
G1 X195.511 Y23.150 Z-6.000 F600.000
G1 X199.000 Y46.076 Z-6.000 F600.000
G1 X199.000 Y56.000 Z-6.000 F600.000
G2 X201.902 Y58.995 Z-6.000 I3.003 J-0.006 K0.000 F600.000
G1 X205.000 Y59.000 Z-6.000 F600.000
G2 X207.995 Y56.098 Z-6.000 I-0.006 J-3.003 K0.000 F600.000
G1 X208.000 Y36.116 Z-6.000 F600.000
G1 X212.259 Y18.011 Z-6.000 F600.000
G2 X211.101 Y11.376 Z-6.000 I-15.302 J-0.747 K0.000 F600.000
G2 X205.344 Y7.608 Z-6.000 I-7.025 J4.450 K0.000 F600.000
G2 X195.501 Y15.966 Z-6.000 I-1.344 J8.392 K0.000 F600.000
G1 X195.501 Y16.189 Z-6.000 F600.000
G0 Z5.000
G0 X217.180 Y0.071 Z5.000
G0 X217.180 Y0.071 Z3.000
G1 X217.180 Y0.071 Z-6.000 F600.000
G2 X232.499 Y-4.966 Z-6.000 I6.820 J-5.071 K0.000 F600.000
G1 X232.500 Y-12.000 Z-6.000 F600.000
G1 X232.489 Y-12.150 Z-6.000 F600.000
G1 X229.000 Y-35.076 Z-6.000 F600.000
G1 X229.000 Y-45.000 Z-6.000 F600.000
G2 X226.098 Y-47.995 Z-6.000 I-3.003 J0.006 K0.000 F600.000
G1 X223.000 Y-48.000 Z-6.000 F600.000
G2 X220.005 Y-45.098 Z-6.000 I0.006 J3.003 K0.000 F600.000
G1 X220.000 Y-25.116 Z-6.000 F600.000
G1 X215.741 Y-7.011 Z-6.000 F600.000
G2 X216.135 Y-2.754 Z-6.000 I13.937 J0.859 K0.000 F600.000
G2 X217.043 Y-0.118 Z-6.000 I11.559 J-2.510 K0.000 F600.000
G2 X217.180 Y0.071 Z-6.000 I6.957 J-4.882 K0.000 F600.000
G0 Z5.000
G0 X222.432 Y27.055 Z5.000
G0 X222.432 Y27.055 Z3.000
G1 X222.432 Y27.055 Z-6.000 F600.000
G2 X220.005 Y29.902 Z-6.000 I0.574 J2.947 K0.000 F600.000
G1 X220.000 Y49.884 Z-6.000 F600.000
G1 X215.741 Y67.989 Z-6.000 F600.000
G2 X216.135 Y72.246 Z-6.000 I13.937 J0.859 K0.000 F600.000
G2 X217.043 Y74.882 Z-6.000 I11.559 J-2.510 K0.000 F600.000
G2 X232.499 Y70.034 Z-6.000 I6.957 J-4.882 K0.000 F600.000
G1 X232.500 Y63.000 Z-6.000 F600.000
G1 X232.489 Y62.850 Z-6.000 F600.000
G1 X229.000 Y39.924 Z-6.000 F600.000
G1 X229.000 Y30.000 Z-6.000 F600.000
G2 X226.098 Y27.005 Z-6.000 I-3.003 J0.006 K0.000 F600.000
G1 X223.000 Y27.000 Z-6.000 F600.000
G2 X222.432 Y27.055 Z-6.000 I0.006 J3.003 K0.000 F600.000
G0 Z5.000
G0 X206.839 Y-26.121 Z5.000
G0 X206.839 Y-26.121 Z3.000
G1 X206.839 Y-26.121 Z-6.000 F600.000
G2 X208.995 Y-28.902 Z-6.000 I-0.845 J-2.881 K0.000 F600.000
G1 X209.000 Y-48.884 Z-6.000 F600.000
G1 X213.259 Y-66.989 Z-6.000 F600.000
G2 X212.101 Y-73.624 Z-6.000 I-15.302 J-0.747 K0.000 F600.000
G2 X206.344 Y-77.392 Z-6.000 I-7.025 J4.450 K0.000 F600.000
G2 X196.501 Y-69.034 Z-6.000 I-1.344 J8.392 K0.000 F600.000
G1 X196.500 Y-62.000 Z-6.000 F600.000
G1 X196.511 Y-61.850 Z-6.000 F600.000
G1 X200.000 Y-38.924 Z-6.000 F600.000
G1 X200.000 Y-29.000 Z-6.000 F600.000
G2 X202.902 Y-26.005 Z-6.000 I3.003 J-0.006 K0.000 F600.000
G1 X206.000 Y-26.000 Z-6.000 F600.000
G2 X206.839 Y-26.121 Z-6.000 I-0.006 J-3.003 K0.000 F600.000
G1 X206.839 Y-26.121 Z-8.000 F600.000
G2 X208.995 Y-28.902 Z-8.000 I-0.845 J-2.881 K0.000 F600.000
G1 X209.000 Y-48.884 Z-8.000 F600.000
G1 X213.259 Y-66.989 Z-8.000 F600.000
G2 X212.101 Y-73.624 Z-8.000 I-15.302 J-0.747 K0.000 F600.000
G2 X206.344 Y-77.392 Z-8.000 I-7.025 J4.450 K0.000 F600.000
G2 X196.501 Y-69.034 Z-8.000 I-1.344 J8.392 K0.000 F600.000
G1 X196.500 Y-62.000 Z-8.000 F600.000
G1 X196.511 Y-61.850 Z-8.000 F600.000
G1 X200.000 Y-38.924 Z-8.000 F600.000
G1 X200.000 Y-29.000 Z-8.000 F600.000
G2 X202.902 Y-26.005 Z-8.000 I3.003 J-0.006 K0.000 F600.000
G1 X206.000 Y-26.000 Z-8.000 F600.000
G2 X206.839 Y-26.121 Z-8.000 I-0.006 J-3.003 K0.000 F600.000
G0 Z5.000
G0 X219.534 Y-23.135 Z5.000
G0 X219.534 Y-23.135 Z3.000
G1 X219.534 Y-23.135 Z-8.000 F600.000
G1 X215.741 Y-7.011 Z-8.000 F600.000
G2 X216.135 Y-2.754 Z-8.000 I13.937 J0.859 K0.000 F600.000
G2 X217.043 Y-0.118 Z-8.000 I11.559 J-2.510 K0.000 F600.000
G2 X232.499 Y-4.966 Z-8.000 I6.957 J-4.882 K0.000 F600.000
G1 X232.500 Y-12.000 Z-8.000 F600.000
G1 X232.489 Y-12.150 Z-8.000 F600.000
G1 X229.000 Y-35.076 Z-8.000 F600.000
G1 X229.000 Y-45.000 Z-8.000 F600.000
G2 X226.098 Y-47.995 Z-8.000 I-3.003 J0.006 K0.000 F600.000
G1 X223.000 Y-48.000 Z-8.000 F600.000
G2 X220.005 Y-45.098 Z-8.000 I0.006 J3.003 K0.000 F600.000
G1 X220.000 Y-25.116 Z-8.000 F600.000
G1 X219.534 Y-23.135 Z-8.000 F600.000
G0 Z5.000
G0 X207.143 Y8.097 Z5.000
G0 X207.143 Y8.097 Z3.000
G1 X207.143 Y8.097 Z-8.000 F600.000
G2 X205.344 Y7.608 Z-8.000 I-3.067 J7.730 K0.000 F600.000
G2 X195.501 Y15.966 Z-8.000 I-1.344 J8.392 K0.000 F600.000
G1 X195.500 Y23.000 Z-8.000 F600.000
G1 X195.511 Y23.150 Z-8.000 F600.000
G1 X199.000 Y46.076 Z-8.000 F600.000
G1 X199.000 Y56.000 Z-8.000 F600.000
G2 X201.902 Y58.995 Z-8.000 I3.003 J-0.006 K0.000 F600.000
G1 X205.000 Y59.000 Z-8.000 F600.000
G2 X207.995 Y56.098 Z-8.000 I-0.006 J-3.003 K0.000 F600.000
G1 X208.000 Y36.116 Z-8.000 F600.000
G1 X212.259 Y18.011 Z-8.000 F600.000
G2 X211.101 Y11.376 Z-8.000 I-15.302 J-0.747 K0.000 F600.000
G2 X207.143 Y8.097 Z-8.000 I-7.025 J4.450 K0.000 F600.000
G0 Z5.000
G0 X221.245 Y27.571 Z5.000
G0 X221.245 Y27.571 Z3.000
G1 X221.245 Y27.571 Z-8.000 F600.000
G2 X220.005 Y29.902 Z-8.000 I1.761 J2.432 K0.000 F600.000
G1 X220.000 Y49.884 Z-8.000 F600.000
G1 X215.741 Y67.989 Z-8.000 F600.000
G2 X216.135 Y72.246 Z-8.000 I13.937 J0.859 K0.000 F600.000
G2 X217.043 Y74.882 Z-8.000 I11.559 J-2.510 K0.000 F600.000
G2 X232.499 Y70.034 Z-8.000 I6.957 J-4.882 K0.000 F600.000
G1 X232.500 Y63.000 Z-8.000 F600.000
G1 X232.489 Y62.850 Z-8.000 F600.000
G1 X229.000 Y39.924 Z-8.000 F600.000
G1 X229.000 Y30.000 Z-8.000 F600.000
G2 X226.098 Y27.005 Z-8.000 I-3.003 J0.006 K0.000 F600.000
G1 X223.000 Y27.000 Z-8.000 F600.000
G2 X221.245 Y27.571 Z-8.000 I0.006 J3.003 K0.000 F600.000
G0 Z5.000
G0 X183.755 Y29.230 Z5.000
G0 X183.755 Y29.230 Z3.000
G1 X183.755 Y29.230 Z-8.000 F600.000
G2 X182.674 Y28.103 Z-8.000 I-1.183 J0.052 K0.000 F600.000
G2 X181.434 Y28.478 Z-8.000 I0.160 J2.766 K0.000 F600.000
G3 X178.323 Y29.934 Z-8.000 I-26.005 J-51.518 K0.000 F600.000
G3 X176.459 Y30.399 Z-8.000 I-1.939 J-3.806 K0.000 F600.000
G3 X175.738 Y29.906 Z-8.000 I-0.002 J-0.770 K0.000 F600.000
G2 X173.612 Y28.785 Z-8.000 I-1.633 J0.519 K0.000 F600.000
G3 X170.655 Y29.917 Z-8.000 I-34.086 J-84.599 K0.000 F600.000
G3 X169.895 Y29.791 Z-8.000 I-0.283 J-0.645 K0.000 F600.000
G1 X169.490 Y29.227 Z-8.000 F600.000
G2 X169.042 Y28.303 Z-8.000 I-175.269 J84.483 K0.000 F600.000
G2 X167.777 Y26.075 Z-8.000 I-11.223 J4.896 K0.000 F600.000
G2 X164.828 Y24.153 Z-8.000 I-4.109 J3.082 K0.000 F600.000
G2 X162.683 Y24.067 Z-8.000 I-1.289 J5.374 K0.000 F600.000
G1 X159.902 Y24.997 Z-8.000 F600.000
G1 X159.743 Y25.066 Z-8.000 F600.000
G2 X157.717 Y27.525 Z-8.000 I5.161 J6.316 K0.000 F600.000
G1 X157.717 Y27.525 Z-8.000 F600.000
G1 X157.409 Y28.030 Z-8.000 F600.000
G3 X156.358 Y29.600 Z-8.000 I-7.783 J-4.074 K0.000 F600.000
G3 X155.744 Y29.970 Z-8.000 I-0.710 J-0.484 K0.000 F600.000
G3 X154.817 Y29.753 Z-8.000 I0.273 J-3.255 K0.000 F600.000
G2 X152.323 Y28.774 Z-8.000 I-11.538 J25.745 K0.000 F600.000
G2 X150.379 Y29.657 Z-8.000 I-0.436 J1.621 K0.000 F600.000
G3 X149.610 Y30.401 Z-8.000 I-0.918 J-0.180 K0.000 F600.000
G3 X148.136 Y30.121 Z-8.000 I0.090 J-4.499 K0.000 F600.000
G3 X145.412 Y28.896 Z-8.000 I15.378 J-37.834 K0.000 F600.000
G2 X143.732 Y28.151 Z-8.000 I-4.324 J7.480 K0.000 F600.000
G2 X142.463 Y28.574 Z-8.000 I-0.345 J1.080 K0.000 F600.000
G2 X142.302 Y29.658 Z-8.000 I1.028 J0.707 K0.000 F600.000
G3 X142.849 Y32.191 Z-8.000 I-13.742 J4.292 K0.000 F600.000
G3 X142.908 Y40.031 Z-8.000 I-78.456 J4.514 K0.000 F600.000
G2 X141.238 Y41.808 Z-8.000 I2.841 J4.343 K0.000 F600.000
G2 X141.235 Y47.578 Z-8.000 I5.669 J2.887 K0.000 F600.000
G2 X142.815 Y48.925 Z-8.000 I2.669 J-1.531 K0.000 F600.000
G2 X143.544 Y55.964 Z-8.000 I40.548 J-0.641 K0.000 F600.000
G2 X145.493 Y62.458 Z-8.000 I28.844 J-5.121 K0.000 F600.000
G2 X146.692 Y64.704 Z-8.000 I10.589 J-4.211 K0.000 F600.000
G2 X144.717 Y66.132 Z-8.000 I2.736 J5.863 K0.000 F600.000
G2 X144.374 Y75.997 Z-8.000 I5.702 J5.137 K0.000 F600.000
G2 X152.299 Y77.661 Z-8.000 I4.903 J-3.650 K0.000 F600.000
G2 X155.808 Y71.605 Z-8.000 I-3.919 J-6.315 K0.000 F600.000
G2 X159.767 Y72.302 Z-8.000 I4.357 J-13.171 K0.000 F600.000
G3 X164.841 Y72.311 Z-8.000 I1.841 J368.169 K0.000 F600.000
G2 X170.189 Y71.605 Z-8.000 I0.756 J-14.874 K0.000 F600.000
G2 X171.898 Y76.111 Z-8.000 I7.538 J-0.281 K0.000 F600.000
G2 X180.456 Y77.181 Z-8.000 I4.816 J-3.766 K0.000 F600.000
G2 X181.893 Y66.938 Z-8.000 I-4.837 J-5.901 K0.000 F600.000
G2 X179.313 Y64.695 Z-8.000 I-5.282 J3.470 K0.000 F600.000
G2 X179.908 Y63.731 Z-8.000 I-13.721 J-9.140 K0.000 F600.000
G2 X181.663 Y59.273 Z-8.000 I-26.735 J-13.098 K0.000 F600.000
G2 X183.181 Y48.920 Z-8.000 I-38.095 J-10.872 K0.000 F600.000
G2 X184.638 Y47.799 Z-8.000 I-0.903 J-2.682 K0.000 F600.000
G2 X185.389 Y43.732 Z-8.000 I-5.352 J-3.091 K0.000 F600.000
G2 X183.088 Y40.036 Z-8.000 I-5.090 J0.604 K0.000 F600.000
G3 X183.082 Y33.162 Z-8.000 I78.291 J-3.509 K0.000 F600.000
G3 X183.678 Y29.706 Z-8.000 I12.099 J0.307 K0.000 F600.000
G2 X183.755 Y29.230 Z-8.000 I-1.106 J-0.423 K0.000 F600.000
G0 Z5.000
G0 X170.097 Y16.140 Z5.000
G0 X170.097 Y16.140 Z3.000
G1 X170.097 Y16.140 Z-8.000 F600.000
G2 X170.347 Y15.683 Z-8.000 I-0.722 J-0.692 K0.000 F600.000
G1 X176.972 Y-11.765 Z-8.000 F600.000
G1 X177.000 Y-12.000 Z-8.000 F600.000
G1 X177.000 Y-33.000 Z-8.000 F600.000
G1 X185.484 Y-33.000 Z-8.000 F600.000
G2 X186.470 Y-33.832 Z-8.000 I-0.000 J-1.000 K0.000 F600.000
G2 X187.482 Y-42.136 Z-8.000 I-64.857 J-12.114 K0.000 F600.000
G2 X186.934 Y-60.566 Z-8.000 I-134.221 J-5.237 K0.000 F600.000
G1 X186.880 Y-60.816 Z-8.000 F600.000
G1 X184.840 Y-66.545 Z-8.000 F600.000
G1 X184.740 Y-66.748 Z-8.000 F600.000
G2 X183.022 Y-68.239 Z-8.000 I-8.666 J8.247 K0.000 F600.000
G3 X182.241 Y-69.137 Z-8.000 I1.283 J-1.907 K0.000 F600.000
G3 X181.984 Y-71.059 Z-8.000 I4.553 J-1.586 K0.000 F600.000
G2 X181.247 Y-72.344 Z-8.000 I-1.633 J0.082 K0.000 F600.000
G2 X180.022 Y-72.742 Z-8.000 I-1.568 J2.744 K0.000 F600.000
G3 X180.191 Y-73.813 Z-8.000 I15.838 J1.942 K0.000 F600.000
G2 X180.446 Y-75.446 Z-8.000 I-7.638 J-2.029 K0.000 F600.000
G2 X179.427 Y-77.453 Z-8.000 I-1.978 J-0.258 K0.000 F600.000
G2 X177.553 Y-77.865 Z-8.000 I-1.978 J4.525 K0.000 F600.000
G2 X173.305 Y-77.914 Z-8.000 I-2.494 J32.396 K0.000 F600.000
G2 X171.309 Y-77.712 Z-8.000 I0.181 J11.761 K0.000 F600.000
G2 X169.925 Y-76.894 Z-8.000 I0.375 J2.215 K0.000 F600.000
G2 X169.559 Y-75.242 Z-8.000 I1.926 J1.293 K0.000 F600.000
G3 X170.003 Y-72.561 Z-8.000 I-45.100 J8.847 K0.000 F600.000
G1 X169.200 Y-72.407 Z-8.000 F600.000
G2 X168.021 Y-71.088 Z-8.000 I0.403 J1.547 K0.000 F600.000
G3 X167.833 Y-68.472 Z-8.000 I-14.370 J0.282 K0.000 F600.000
G3 X167.476 Y-68.023 Z-8.000 I-0.599 J-0.110 K0.000 F600.000
G2 X166.502 Y-67.525 Z-8.000 I0.456 J2.093 K0.000 F600.000
G1 X165.836 Y-66.773 Z-8.000 F600.000
G3 X163.967 Y-63.927 Z-8.000 I-22.565 J-12.778 K0.000 F600.000
G3 X162.115 Y-63.011 Z-8.000 I-1.935 J-1.580 K0.000 F600.000
G1 X160.521 Y-63.497 Z-8.000 F600.000
G3 X159.609 Y-64.450 Z-8.000 I2.801 J-3.590 K0.000 F600.000
G3 X158.208 Y-66.727 Z-8.000 I57.858 J-37.183 K0.000 F600.000
G2 X156.640 Y-68.000 Z-8.000 I-2.353 J1.296 K0.000 F600.000
G3 X156.167 Y-68.477 Z-8.000 I0.073 J-0.546 K0.000 F600.000
G3 X155.999 Y-70.791 Z-8.000 I9.184 J-1.829 K0.000 F600.000
G2 X155.710 Y-71.778 Z-8.000 I-1.584 J-0.071 K0.000 F600.000
G2 X154.005 Y-72.619 Z-8.000 I-1.840 J1.583 K0.000 F600.000
G3 X154.177 Y-73.744 Z-8.000 I15.693 J1.824 K0.000 F600.000
G2 X154.444 Y-75.404 Z-8.000 I-8.406 J-2.203 K0.000 F600.000
G2 X153.683 Y-77.289 Z-8.000 I-1.997 J-0.291 K0.000 F600.000
G2 X152.029 Y-77.826 Z-8.000 I-1.824 J2.803 K0.000 F600.000
G2 X147.362 Y-77.917 Z-8.000 I-2.977 J33.096 K0.000 F600.000
G2 X145.352 Y-77.721 Z-8.000 I0.198 J12.460 K0.000 F600.000
G2 X143.953 Y-76.930 Z-8.000 I0.360 J2.270 K0.000 F600.000
G2 X143.555 Y-75.296 Z-8.000 I1.852 J1.316 K0.000 F600.000
G3 X143.997 Y-72.610 Z-8.000 I-57.352 J10.815 K0.000 F600.000
G1 X142.855 Y-72.300 Z-8.000 F600.000
G2 X142.178 Y-71.675 Z-8.000 I0.263 J0.965 K0.000 F600.000
G2 X141.985 Y-70.030 Z-8.000 I61.525 J8.058 K0.000 F600.000
G3 X141.447 Y-68.665 Z-8.000 I-2.189 J-0.073 K0.000 F600.000
G3 X140.137 Y-67.558 Z-8.000 I-18.285 J-20.312 K0.000 F600.000
G2 X137.882 Y-64.646 Z-8.000 I3.814 J5.283 K0.000 F600.000
G2 X137.172 Y-61.453 Z-8.000 I16.965 J5.445 K0.000 F600.000
G2 X136.434 Y-45.538 Z-8.000 I129.899 J13.999 K0.000 F600.000
G2 X137.530 Y-33.831 Z-8.000 I63.282 J-0.020 K0.000 F600.000
G2 X138.516 Y-33.000 Z-8.000 I0.986 J-0.169 K0.000 F600.000
G1 X147.000 Y-33.000 Z-8.000 F600.000
G1 X147.000 Y-12.000 Z-8.000 F600.000
G1 X147.028 Y-11.765 Z-8.000 F600.000
G1 X153.653 Y15.683 Z-8.000 F600.000
G2 X154.718 Y16.444 Z-8.000 I0.972 J-0.235 K0.000 F600.000
G1 X157.530 Y16.183 Z-8.000 F600.000
G1 X162.017 Y16.000 Z-8.000 F600.000
G3 X166.347 Y16.172 Z-8.000 I0.437 J43.621 K0.000 F600.000
G2 X169.296 Y16.445 Z-8.000 I6.591 J-55.094 K0.000 F600.000
G2 X170.097 Y16.140 Z-8.000 I0.079 J-0.997 K0.000 F600.000
G0 Z5.000
G0 X140.495 Y15.254 Z5.000
G0 X140.495 Y15.254 Z3.000
G1 X140.495 Y15.254 Z-8.000 F600.000
G2 X140.499 Y15.034 Z-8.000 I-8.495 J-0.254 K0.000 F600.000
G1 X140.500 Y8.000 Z-8.000 F600.000
G1 X140.489 Y7.850 Z-8.000 F600.000
G1 X137.000 Y-15.076 Z-8.000 F600.000
G1 X137.000 Y-25.000 Z-8.000 F600.000
G2 X134.098 Y-27.995 Z-8.000 I-3.003 J0.006 K0.000 F600.000
G1 X131.000 Y-28.000 Z-8.000 F600.000
G2 X128.005 Y-25.098 Z-8.000 I0.006 J3.003 K0.000 F600.000
G1 X128.000 Y-5.116 Z-8.000 F600.000
G1 X123.741 Y12.989 Z-8.000 F600.000
G2 X124.135 Y17.246 Z-8.000 I13.937 J0.859 K0.000 F600.000
G2 X125.043 Y19.882 Z-8.000 I11.559 J-2.510 K0.000 F600.000
G2 X140.495 Y15.254 Z-8.000 I6.957 J-4.882 K0.000 F600.000
G0 Z5.000
G0 X123.504 Y28.553 Z5.000
G0 X123.504 Y28.553 Z3.000
G1 X123.504 Y28.553 Z-8.000 F600.000
G2 X122.674 Y28.103 Z-8.000 I-0.932 J0.730 K0.000 F600.000
G2 X121.434 Y28.478 Z-8.000 I0.160 J2.766 K0.000 F600.000
G3 X118.323 Y29.934 Z-8.000 I-26.005 J-51.518 K0.000 F600.000
G3 X116.459 Y30.399 Z-8.000 I-1.939 J-3.806 K0.000 F600.000
G3 X115.738 Y29.906 Z-8.000 I-0.002 J-0.770 K0.000 F600.000
G2 X113.612 Y28.785 Z-8.000 I-1.633 J0.519 K0.000 F600.000
G3 X110.655 Y29.917 Z-8.000 I-34.087 J-84.600 K0.000 F600.000
G3 X109.895 Y29.791 Z-8.000 I-0.283 J-0.645 K0.000 F600.000
G1 X109.490 Y29.227 Z-8.000 F600.000
G2 X109.042 Y28.303 Z-8.000 I-175.269 J84.483 K0.000 F600.000
G2 X107.777 Y26.075 Z-8.000 I-11.223 J4.896 K0.000 F600.000
G2 X104.828 Y24.153 Z-8.000 I-4.109 J3.082 K0.000 F600.000
G2 X102.683 Y24.067 Z-8.000 I-1.289 J5.374 K0.000 F600.000
G1 X99.902 Y24.997 Z-8.000 F600.000
G1 X99.743 Y25.066 Z-8.000 F600.000
G2 X97.717 Y27.525 Z-8.000 I5.161 J6.316 K0.000 F600.000
G1 X97.717 Y27.525 Z-8.000 F600.000
G1 X97.409 Y28.030 Z-8.000 F600.000
G3 X96.358 Y29.600 Z-8.000 I-7.783 J-4.074 K0.000 F600.000
G3 X95.744 Y29.970 Z-8.000 I-0.710 J-0.484 K0.000 F600.000
G3 X94.817 Y29.753 Z-8.000 I0.273 J-3.255 K0.000 F600.000
G2 X92.323 Y28.774 Z-8.000 I-11.538 J25.745 K0.000 F600.000
G2 X90.379 Y29.657 Z-8.000 I-0.436 J1.621 K0.000 F600.000
G3 X89.610 Y30.401 Z-8.000 I-0.918 J-0.180 K0.000 F600.000
G3 X88.136 Y30.121 Z-8.000 I0.090 J-4.499 K0.000 F600.000
G3 X85.412 Y28.896 Z-8.000 I15.378 J-37.834 K0.000 F600.000
G2 X83.732 Y28.151 Z-8.000 I-4.324 J7.480 K0.000 F600.000
G2 X82.463 Y28.574 Z-8.000 I-0.345 J1.080 K0.000 F600.000
G2 X82.302 Y29.658 Z-8.000 I1.028 J0.707 K0.000 F600.000
G3 X82.849 Y32.191 Z-8.000 I-13.742 J4.292 K0.000 F600.000
G3 X82.908 Y40.031 Z-8.000 I-78.456 J4.514 K0.000 F600.000
G2 X81.238 Y41.808 Z-8.000 I2.841 J4.343 K0.000 F600.000
G2 X81.235 Y47.578 Z-8.000 I5.669 J2.887 K0.000 F600.000
G2 X82.815 Y48.925 Z-8.000 I2.669 J-1.531 K0.000 F600.000
G2 X83.544 Y55.964 Z-8.000 I40.548 J-0.641 K0.000 F600.000
G2 X85.493 Y62.458 Z-8.000 I28.844 J-5.121 K0.000 F600.000
G2 X86.692 Y64.704 Z-8.000 I10.589 J-4.211 K0.000 F600.000
G2 X84.717 Y66.132 Z-8.000 I2.736 J5.863 K0.000 F600.000
G2 X84.374 Y75.997 Z-8.000 I5.702 J5.137 K0.000 F600.000
G2 X92.299 Y77.661 Z-8.000 I4.903 J-3.650 K0.000 F600.000
G2 X95.808 Y71.605 Z-8.000 I-3.919 J-6.315 K0.000 F600.000
G2 X99.767 Y72.302 Z-8.000 I4.357 J-13.171 K0.000 F600.000
G3 X104.841 Y72.311 Z-8.000 I1.841 J368.169 K0.000 F600.000
G2 X110.189 Y71.605 Z-8.000 I0.756 J-14.874 K0.000 F600.000
G2 X111.898 Y76.111 Z-8.000 I7.538 J-0.281 K0.000 F600.000
G2 X120.456 Y77.181 Z-8.000 I4.816 J-3.766 K0.000 F600.000
G2 X121.893 Y66.938 Z-8.000 I-4.837 J-5.901 K0.000 F600.000
G2 X119.313 Y64.695 Z-8.000 I-5.282 J3.470 K0.000 F600.000
G2 X119.908 Y63.731 Z-8.000 I-13.721 J-9.140 K0.000 F600.000
G2 X121.663 Y59.273 Z-8.000 I-26.735 J-13.098 K0.000 F600.000
G2 X123.181 Y48.920 Z-8.000 I-38.095 J-10.872 K0.000 F600.000
G2 X124.638 Y47.799 Z-8.000 I-0.903 J-2.682 K0.000 F600.000
G2 X125.389 Y43.732 Z-8.000 I-5.352 J-3.091 K0.000 F600.000
G2 X123.088 Y40.036 Z-8.000 I-5.090 J0.604 K0.000 F600.000
G3 X123.082 Y33.162 Z-8.000 I78.291 J-3.509 K0.000 F600.000
G3 X123.678 Y29.706 Z-8.000 I12.099 J0.307 K0.000 F600.000
G2 X123.504 Y28.553 Z-8.000 I-1.106 J-0.423 K0.000 F600.000
G0 Z5.000
G0 X110.108 Y16.128 Z5.000
G0 X110.108 Y16.128 Z3.000
G1 X110.108 Y16.128 Z-8.000 F600.000
G2 X110.347 Y15.683 Z-8.000 I-0.733 J-0.680 K0.000 F600.000
G1 X116.972 Y-11.765 Z-8.000 F600.000
G1 X117.000 Y-12.000 Z-8.000 F600.000
G1 X117.000 Y-33.000 Z-8.000 F600.000
G1 X125.484 Y-33.000 Z-8.000 F600.000
G2 X126.470 Y-33.832 Z-8.000 I-0.000 J-1.000 K0.000 F600.000
G2 X127.482 Y-42.136 Z-8.000 I-64.857 J-12.114 K0.000 F600.000
G2 X126.934 Y-60.566 Z-8.000 I-134.221 J-5.237 K0.000 F600.000
G1 X126.880 Y-60.816 Z-8.000 F600.000
G1 X124.840 Y-66.545 Z-8.000 F600.000
G1 X124.740 Y-66.748 Z-8.000 F600.000
G2 X123.022 Y-68.239 Z-8.000 I-8.666 J8.247 K0.000 F600.000
G3 X122.241 Y-69.137 Z-8.000 I1.283 J-1.907 K0.000 F600.000
G3 X121.984 Y-71.059 Z-8.000 I4.553 J-1.586 K0.000 F600.000
G2 X121.247 Y-72.344 Z-8.000 I-1.633 J0.082 K0.000 F600.000
G2 X120.022 Y-72.742 Z-8.000 I-1.568 J2.744 K0.000 F600.000
G3 X120.191 Y-73.813 Z-8.000 I15.838 J1.942 K0.000 F600.000
G2 X120.446 Y-75.446 Z-8.000 I-7.638 J-2.029 K0.000 F600.000
G2 X119.427 Y-77.453 Z-8.000 I-1.978 J-0.258 K0.000 F600.000
G2 X117.553 Y-77.865 Z-8.000 I-1.978 J4.525 K0.000 F600.000
G2 X113.305 Y-77.914 Z-8.000 I-2.494 J32.396 K0.000 F600.000
G2 X111.309 Y-77.712 Z-8.000 I0.181 J11.761 K0.000 F600.000
G2 X109.925 Y-76.894 Z-8.000 I0.375 J2.215 K0.000 F600.000
G2 X109.559 Y-75.242 Z-8.000 I1.927 J1.293 K0.000 F600.000
G3 X110.003 Y-72.561 Z-8.000 I-45.100 J8.847 K0.000 F600.000
G1 X109.200 Y-72.407 Z-8.000 F600.000
G2 X108.021 Y-71.088 Z-8.000 I0.403 J1.547 K0.000 F600.000
G3 X107.833 Y-68.472 Z-8.000 I-14.370 J0.282 K0.000 F600.000
G3 X107.476 Y-68.023 Z-8.000 I-0.599 J-0.110 K0.000 F600.000
G2 X106.502 Y-67.525 Z-8.000 I0.456 J2.093 K0.000 F600.000
G1 X105.836 Y-66.773 Z-8.000 F600.000
G3 X103.967 Y-63.927 Z-8.000 I-22.565 J-12.778 K0.000 F600.000
G3 X102.115 Y-63.011 Z-8.000 I-1.935 J-1.580 K0.000 F600.000
G1 X100.521 Y-63.497 Z-8.000 F600.000
G3 X99.609 Y-64.450 Z-8.000 I2.801 J-3.590 K0.000 F600.000
G3 X98.208 Y-66.727 Z-8.000 I57.856 J-37.182 K0.000 F600.000
G2 X96.640 Y-68.000 Z-8.000 I-2.353 J1.296 K0.000 F600.000
G3 X96.167 Y-68.477 Z-8.000 I0.073 J-0.546 K0.000 F600.000
G3 X95.999 Y-70.791 Z-8.000 I9.184 J-1.829 K0.000 F600.000
G2 X95.710 Y-71.778 Z-8.000 I-1.584 J-0.071 K0.000 F600.000
G2 X94.005 Y-72.619 Z-8.000 I-1.840 J1.583 K0.000 F600.000
G3 X94.177 Y-73.744 Z-8.000 I15.693 J1.824 K0.000 F600.000
G2 X94.444 Y-75.404 Z-8.000 I-8.406 J-2.203 K0.000 F600.000
G2 X93.683 Y-77.289 Z-8.000 I-1.997 J-0.291 K0.000 F600.000
G2 X92.029 Y-77.826 Z-8.000 I-1.824 J2.803 K0.000 F600.000
G2 X87.362 Y-77.917 Z-8.000 I-2.977 J33.096 K0.000 F600.000
G2 X85.352 Y-77.721 Z-8.000 I0.198 J12.460 K0.000 F600.000
G2 X83.953 Y-76.930 Z-8.000 I0.360 J2.270 K0.000 F600.000
G2 X83.555 Y-75.296 Z-8.000 I1.852 J1.316 K0.000 F600.000
G3 X83.997 Y-72.610 Z-8.000 I-57.351 J10.815 K0.000 F600.000
G1 X82.855 Y-72.300 Z-8.000 F600.000
G2 X82.178 Y-71.675 Z-8.000 I0.263 J0.965 K0.000 F600.000
G2 X81.985 Y-70.030 Z-8.000 I61.523 J8.058 K0.000 F600.000
G3 X81.447 Y-68.665 Z-8.000 I-2.189 J-0.073 K0.000 F600.000
G3 X80.137 Y-67.558 Z-8.000 I-18.285 J-20.312 K0.000 F600.000
G2 X77.882 Y-64.646 Z-8.000 I3.814 J5.283 K0.000 F600.000
G2 X77.172 Y-61.453 Z-8.000 I16.965 J5.445 K0.000 F600.000
G2 X76.434 Y-45.538 Z-8.000 I129.899 J13.999 K0.000 F600.000
G2 X77.530 Y-33.831 Z-8.000 I63.282 J-0.020 K0.000 F600.000
G2 X78.516 Y-33.000 Z-8.000 I0.986 J-0.169 K0.000 F600.000
G1 X87.000 Y-33.000 Z-8.000 F600.000
G1 X87.000 Y-12.000 Z-8.000 F600.000
G1 X87.028 Y-11.765 Z-8.000 F600.000
G1 X93.653 Y15.683 Z-8.000 F600.000
G2 X94.718 Y16.444 Z-8.000 I0.972 J-0.235 K0.000 F600.000
G1 X97.530 Y16.183 Z-8.000 F600.000
G1 X102.017 Y16.000 Z-8.000 F600.000
G3 X106.347 Y16.172 Z-8.000 I0.437 J43.621 K0.000 F600.000
G2 X109.296 Y16.445 Z-8.000 I6.591 J-55.094 K0.000 F600.000
G2 X110.108 Y16.128 Z-8.000 I0.079 J-0.997 K0.000 F600.000
G0 Z5.000
G0 X78.496 Y15.239 Z5.000
G0 X78.496 Y15.239 Z3.000
G1 X78.496 Y15.239 Z-8.000 F600.000
G2 X78.499 Y15.034 Z-8.000 I-8.496 J-0.239 K0.000 F600.000
G1 X78.500 Y8.000 Z-8.000 F600.000
G1 X78.489 Y7.850 Z-8.000 F600.000
G1 X75.000 Y-15.076 Z-8.000 F600.000
G1 X75.000 Y-25.000 Z-8.000 F600.000
G2 X72.098 Y-27.995 Z-8.000 I-3.003 J0.006 K0.000 F600.000
G1 X69.000 Y-28.000 Z-8.000 F600.000
G2 X66.005 Y-25.098 Z-8.000 I0.006 J3.003 K0.000 F600.000
G1 X66.000 Y-5.116 Z-8.000 F600.000
G1 X61.741 Y12.989 Z-8.000 F600.000
G2 X62.135 Y17.246 Z-8.000 I13.937 J0.859 K0.000 F600.000
G2 X63.043 Y19.882 Z-8.000 I11.559 J-2.510 K0.000 F600.000
G2 X78.496 Y15.239 Z-8.000 I6.957 J-4.882 K0.000 F600.000
G0 Z5.000
G0 X58.555 Y28.623 Z5.000
G0 X58.555 Y28.623 Z3.000
G1 X58.555 Y28.623 Z-8.000 F600.000
G2 X57.674 Y28.103 Z-8.000 I-0.983 J0.660 K0.000 F600.000
G2 X56.434 Y28.478 Z-8.000 I0.160 J2.766 K0.000 F600.000
G3 X53.323 Y29.934 Z-8.000 I-26.005 J-51.518 K0.000 F600.000
G3 X51.459 Y30.399 Z-8.000 I-1.939 J-3.806 K0.000 F600.000
G3 X50.738 Y29.906 Z-8.000 I-0.002 J-0.770 K0.000 F600.000
G2 X48.612 Y28.785 Z-8.000 I-1.633 J0.519 K0.000 F600.000
G3 X45.655 Y29.917 Z-8.000 I-34.086 J-84.599 K0.000 F600.000
G3 X44.895 Y29.791 Z-8.000 I-0.283 J-0.645 K0.000 F600.000
G1 X44.490 Y29.227 Z-8.000 F600.000
G2 X44.042 Y28.303 Z-8.000 I-175.269 J84.483 K0.000 F600.000
G2 X42.777 Y26.075 Z-8.000 I-11.223 J4.896 K0.000 F600.000
