(Exported by FreeCAD)
(Post Processor: script_module)
(Output Time:2025-03-08 15:22:09.953406)
(Begin preamble)
G17 G90
G21
(Begin operation: Fixture)
(Path: Fixture)
G54
(Finish operation: Fixture)
(Begin operation: 2mm_Endmill001)
(Path: 2mm_Endmill001)
(2mm_Endmill001)
(Begin toolchange)
( M6 T2 )
M3 S13000
(Finish operation: 2mm_Endmill001)
(Begin operation: Profile)
(Path: Profile)
(Profile)
(Compensated Tool Path. Diameter: 2.0)
G0 Z5.000
G0 X0.000 Y0.000
G0 X35.734 Y2.465
G0 X35.734 Y2.465 Z3.000
G1 X35.734 Y2.465 Z-2.000 F600.000
G2 X35.442 Y13.780 Z-2.000 I131.102 J9.045 K0.000 F600.000
G2 X37.096 Y27.917 Z-2.000 I64.628 J-0.395 K0.000 F600.000
G3 X38.308 Y33.633 Z-2.000 I-96.331 J23.424 K0.000 F600.000
G3 X37.970 Y37.993 Z-2.000 I-8.185 J1.559 K0.000 F600.000
G2 X35.693 Y43.856 Z-2.000 I42.022 J19.699 K0.000 F600.000
G2 X37.042 Y48.976 Z-2.000 I4.671 J1.507 K0.000 F600.000
G2 X39.227 Y49.152 Z-2.000 I1.201 J-1.267 K0.000 F600.000
G2 X40.115 Y48.331 Z-2.000 I-30.121 J-33.498 K0.000 F600.000
G3 X40.651 Y48.100 Z-2.000 I0.506 J0.437 K0.000 F600.000
G3 X40.908 Y48.394 Z-2.000 I-0.184 J0.421 K0.000 F600.000
G3 X41.319 Y49.530 Z-2.000 I-12.236 J5.063 K0.000 F600.000
G2 X43.279 Y56.762 Z-2.000 I187.383 J-46.919 K0.000 F600.000
G1 X43.092 Y58.554 Z-2.000 F600.000
G2 X43.915 Y75.498 Z-2.000 I0.905 J8.448 K0.000 F600.000
G1 X52.872 Y75.479 Z-2.000 F600.000
G1 X61.029 Y75.000 Z-2.000 F600.000
G3 X63.568 Y75.045 Z-2.000 I0.571 J39.916 K0.000 F600.000
G3 X67.927 Y75.424 Z-2.000 I-11.659 J159.219 K0.000 F600.000
G2 X78.037 Y75.500 Z-2.000 I6.635 J-209.996 K0.000 F600.000
G2 X78.660 Y58.536 Z-2.000 I-0.033 J-8.495 K0.000 F600.000
G3 X78.582 Y58.163 Z-2.000 I1.147 J-0.435 K0.000 F600.000
G3 X78.788 Y56.385 Z-2.000 I7.354 J-0.049 K0.000 F600.000
G2 X80.265 Y51.141 Z-2.000 I-266.162 J-77.800 K0.000 F600.000
G3 X80.870 Y48.909 Z-2.000 I25.657 J5.756 K0.000 F600.000
G3 X81.296 Y48.119 Z-2.000 I1.697 J0.405 K0.000 F600.000
G3 X81.745 Y48.218 Z-2.000 I0.092 J0.651 K0.000 F600.000
G3 X82.458 Y48.861 Z-2.000 I-9.526 J11.283 K0.000 F600.000
G2 X84.703 Y49.184 Z-2.000 I1.307 J-1.117 K0.000 F600.000
G2 X86.473 Y44.557 Z-2.000 I-3.014 J-3.805 K0.000 F600.000
G2 X84.499 Y39.067 Z-2.000 I-29.490 J7.505 K0.000 F600.000
G3 X83.549 Y34.921 Z-2.000 I7.146 J-3.820 K0.000 F600.000
G3 X84.362 Y30.239 Z-2.000 I40.503 J4.624 K0.000 F600.000
G2 X86.587 Y13.490 Z-2.000 I-66.767 J-17.391 K0.000 F600.000
G2 X85.945 Y-1.469 Z-2.000 I-139.201 J-1.522 K0.000 F600.000
G2 X85.489 Y-4.381 Z-2.000 I-24.251 J2.307 K0.000 F600.000
G2 X83.462 Y-8.054 Z-2.000 I-6.526 J1.206 K0.000 F600.000
G3 X81.906 Y-9.345 Z-2.000 I73.510 J-90.180 K0.000 F600.000
G3 X81.040 Y-10.783 Z-2.000 I1.351 J-1.793 K0.000 F600.000
G2 X80.900 Y-12.389 Z-2.000 I-95.593 J7.544 K0.000 F600.000
G2 X80.168 Y-13.264 Z-2.000 I-0.996 J0.089 K0.000 F600.000
G1 X78.062 Y-13.842 Z-2.000 F600.000
G1 X77.797 Y-13.878 Z-2.000 F600.000
G1 X72.203 Y-13.878 Z-2.000 F600.000
G2 X70.244 Y-13.762 Z-2.000 I1.684 J45.317 K0.000 F600.000
G2 X68.135 Y-13.400 Z-2.000 I0.196 J7.477 K0.000 F600.000
G2 X67.040 Y-12.180 Z-2.000 I0.472 J1.524 K0.000 F600.000
G3 X66.931 Y-9.960 Z-2.000 I-88.696 J-3.238 K0.000 F600.000
G3 X66.606 Y-9.098 Z-2.000 I-1.342 J-0.015 K0.000 F600.000
G2 X65.737 Y-8.716 Z-2.000 I7.881 J19.094 K0.000 F600.000
G2 X64.614 Y-7.468 Z-2.000 I2.522 J3.397 K0.000 F600.000
G3 X63.617 Y-5.794 Z-2.000 I-24.590 J-13.518 K0.000 F600.000
G1 X62.960 Y-4.947 Z-2.000 F600.000
G1 X60.822 Y-4.013 Z-2.000 F600.000
G3 X59.212 Y-4.727 Z-2.000 I0.149 J-2.506 K0.000 F600.000
G3 X57.216 Y-7.712 Z-2.000 I12.951 J-10.822 K0.000 F600.000
G2 X56.407 Y-8.624 Z-2.000 I-2.526 J1.426 K0.000 F600.000
G2 X55.444 Y-9.115 Z-2.000 I-5.043 J8.690 K0.000 F600.000
G1 X55.032 Y-9.856 Z-2.000 F600.000
G1 X54.785 Y-10.149 Z-2.000 F600.000
G1 X50.424 Y-13.657 Z-2.000 F600.000
G2 X49.797 Y-13.878 Z-2.000 I-0.627 J0.779 K0.000 F600.000
G1 X44.203 Y-13.878 Z-2.000 F600.000
G2 X42.807 Y-13.720 Z-2.000 I0.152 J7.618 K0.000 F600.000
G2 X41.409 Y-13.044 Z-2.000 I0.184 J2.163 K0.000 F600.000
G2 X40.999 Y-11.438 Z-2.000 I1.826 J1.322 K0.000 F600.000
G3 X40.291 Y-9.511 Z-2.000 I-2.377 J0.220 K0.000 F600.000
G2 X38.804 Y-8.282 Z-2.000 I44.339 J55.166 K0.000 F600.000
G2 X36.955 Y-5.826 Z-2.000 I3.969 J4.913 K0.000 F600.000
G2 X36.161 Y-2.406 Z-2.000 I15.749 J5.456 K0.000 F600.000
G2 X35.734 Y2.465 Z-2.000 I130.675 J13.916 K0.000 F600.000
G0 Z5.000
G0 X35.745 Y-36.835 Z5.000
G0 X35.745 Y-36.835 Z3.000
G1 X35.745 Y-36.835 Z-2.000 F600.000
G1 X38.040 Y-36.841 Z-2.000 F600.000
G2 X48.652 Y-37.060 Z-2.000 I-160.348 J-8045.178 K0.000 F600.000
G3 X51.568 Y-36.857 Z-2.000 I0.566 J12.965 K0.000 F600.000
G3 X53.146 Y-35.575 Z-2.000 I-0.251 J1.920 K0.000 F600.000
G3 X53.519 Y-33.597 Z-2.000 I-13.333 J3.541 K0.000 F600.000
G2 X54.549 Y-32.743 Z-2.000 I0.989 J-0.146 K0.000 F600.000
G3 X55.791 Y-32.731 Z-2.000 I0.563 J5.904 K0.000 F600.000
G3 X61.833 Y-29.892 Z-2.000 I-2.265 J12.667 K0.000 F600.000
G3 X62.127 Y-29.518 Z-2.000 I-0.963 J1.059 K0.000 F600.000
G2 X62.357 Y-28.957 Z-2.000 I1.737 J-0.384 K0.000 F600.000
G2 X63.847 Y-27.119 Z-2.000 I16.187 J-11.608 K0.000 F600.000
G2 X65.943 Y-26.554 Z-2.000 I1.492 J-1.366 K0.000 F600.000
G2 X68.092 Y-28.243 Z-2.000 I-1.683 J-4.354 K0.000 F600.000
G2 X69.761 Y-31.994 Z-2.000 I-10.828 J-7.066 K0.000 F600.000
G2 X70.778 Y-38.261 Z-2.000 I-39.669 J-9.652 K0.000 F600.000
G2 X71.171 Y-45.001 Z-2.000 I-147.690 J-11.995 K0.000 F600.000
G2 X70.839 Y-64.535 Z-2.000 I-193.261 J-6.485 K0.000 F600.000
G2 X70.037 Y-70.316 Z-2.000 I-42.065 J2.888 K0.000 F600.000
G2 X68.535 Y-74.531 Z-2.000 I-14.402 J2.757 K0.000 F600.000
G2 X66.618 Y-76.617 Z-2.000 I-4.857 J2.540 K0.000 F600.000
G2 X65.790 Y-76.969 Z-2.000 I-1.413 J2.177 K0.000 F600.000
G2 X64.064 Y-76.556 Z-2.000 I-0.444 J1.962 K0.000 F600.000
G2 X62.712 Y-75.001 Z-2.000 I9.693 J9.790 K0.000 F600.000
G2 X62.194 Y-74.186 Z-2.000 I1.799 J1.716 K0.000 F600.000
G3 X62.041 Y-73.811 Z-2.000 I-0.805 J-0.109 K0.000 F600.000
G3 X61.326 Y-73.172 Z-2.000 I-3.580 J-3.287 K0.000 F600.000
G3 X55.601 Y-70.737 Z-2.000 I-7.743 J-10.257 K0.000 F600.000
G1 X54.513 Y-70.743 Z-2.000 F600.000
G2 X53.593 Y-70.144 Z-2.000 I-0.005 J1.000 K0.000 F600.000
G2 X53.405 Y-69.113 Z-2.000 I3.842 J1.233 K0.000 F600.000
G3 X52.966 Y-67.526 Z-2.000 I-4.571 J-0.410 K0.000 F600.000
G3 X51.448 Y-66.588 Z-2.000 I-1.826 J-1.257 K0.000 F600.000
G3 X48.234 Y-66.419 Z-2.000 I-2.910 J-24.577 K0.000 F600.000
G2 X35.746 Y-66.651 Z-2.000 I-13.080 J367.691 K0.000 F600.000
G2 X34.743 Y-65.646 Z-2.000 I-0.004 J1.000 K0.000 F600.000
G2 X35.109 Y-56.923 Z-2.000 I75.640 J1.194 K0.000 F600.000
G1 X35.257 Y-52.723 Z-2.000 F600.000
G3 X35.072 Y-45.940 Z-2.000 I-74.424 J1.357 K0.000 F600.000
G2 X34.743 Y-37.835 Z-2.000 I72.538 J7.004 K0.000 F600.000
G2 X35.745 Y-36.835 Z-2.000 I1.000 J0.001 K0.000 F600.000
G0 Z5.000
G0 X80.070 Y-39.957 Z5.000
G0 X80.070 Y-39.957 Z3.000
G1 X80.070 Y-39.957 Z-2.000 F600.000
G2 X80.663 Y-34.748 Z-2.000 I60.934 J-4.293 K0.000 F600.000
G2 X81.653 Y-30.730 Z-2.000 I20.904 J-3.024 K0.000 F600.000
G2 X83.385 Y-27.685 Z-2.000 I8.349 J-2.731 K0.000 F600.000
G2 X84.804 Y-26.662 Z-2.000 I2.731 J-2.294 K0.000 F600.000
G2 X86.936 Y-26.929 Z-2.000 I0.859 J-1.782 K0.000 F600.000
G2 X88.288 Y-28.484 Z-2.000 I-9.693 J-9.790 K0.000 F600.000
G2 X88.806 Y-29.300 Z-2.000 I-1.799 J-1.716 K0.000 F600.000
G3 X88.959 Y-29.674 Z-2.000 I0.805 J0.109 K0.000 F600.000
G3 X89.674 Y-30.313 Z-2.000 I3.580 J3.287 K0.000 F600.000
G3 X95.399 Y-32.748 Z-2.000 I7.743 J10.257 K0.000 F600.000
G1 X96.487 Y-32.743 Z-2.000 F600.000
G2 X97.407 Y-33.341 Z-2.000 I0.005 J-1.000 K0.000 F600.000
G2 X97.595 Y-34.373 Z-2.000 I-3.842 J-1.233 K0.000 F600.000
G3 X98.034 Y-35.959 Z-2.000 I4.571 J0.410 K0.000 F600.000
G3 X99.552 Y-36.897 Z-2.000 I1.826 J1.257 K0.000 F600.000
G3 X102.766 Y-37.067 Z-2.000 I2.910 J24.577 K0.000 F600.000
G2 X115.254 Y-36.835 Z-2.000 I13.080 J-367.692 K0.000 F600.000
G2 X116.257 Y-37.839 Z-2.000 I0.004 J-1.000 K0.000 F600.000
G2 X115.891 Y-46.563 Z-2.000 I-75.640 J-1.194 K0.000 F600.000
G1 X115.743 Y-50.762 Z-2.000 F600.000
G3 X115.928 Y-57.545 Z-2.000 I74.424 J-1.357 K0.000 F600.000
G2 X116.257 Y-65.650 Z-2.000 I-72.538 J-7.004 K0.000 F600.000
G2 X115.255 Y-66.651 Z-2.000 I-1.000 J-0.001 K0.000 F600.000
G1 X112.960 Y-66.644 Z-2.000 F600.000
G2 X102.348 Y-66.426 Z-2.000 I160.355 J8045.490 K0.000 F600.000
G3 X99.432 Y-66.628 Z-2.000 I-0.566 J-12.965 K0.000 F600.000
G3 X97.854 Y-67.910 Z-2.000 I0.251 J-1.920 K0.000 F600.000
G3 X97.481 Y-69.888 Z-2.000 I13.333 J-3.541 K0.000 F600.000
G2 X96.451 Y-70.742 Z-2.000 I-0.989 J0.146 K0.000 F600.000
G3 X95.209 Y-70.754 Z-2.000 I-0.563 J-5.904 K0.000 F600.000
G3 X89.167 Y-73.594 Z-2.000 I2.265 J-12.667 K0.000 F600.000
G3 X88.873 Y-73.967 Z-2.000 I0.963 J-1.059 K0.000 F600.000
G2 X88.643 Y-74.529 Z-2.000 I-1.737 J0.384 K0.000 F600.000
G2 X87.317 Y-76.191 Z-2.000 I-17.641 J12.710 K0.000 F600.000
G2 X86.134 Y-76.969 Z-2.000 I-1.906 J1.611 K0.000 F600.000
G2 X84.474 Y-76.677 Z-2.000 I-0.439 J2.373 K0.000 F600.000
G2 X82.438 Y-74.513 Z-2.000 I3.110 J4.964 K0.000 F600.000
G2 X80.908 Y-70.127 Z-2.000 I15.170 J7.754 K0.000 F600.000
G2 X80.137 Y-64.280 Z-2.000 I57.737 J10.587 K0.000 F600.000
G2 X79.971 Y-41.722 Z-2.000 I204.399 J12.778 K0.000 F600.000
G2 X80.070 Y-39.957 Z-2.000 I61.033 J-2.528 K0.000 F600.000
G0 Z5.000
G0 X101.628 Y-13.247 Z5.000
G0 X101.628 Y-13.247 Z3.000
G1 X101.628 Y-13.247 Z-2.000 F600.000
G2 X101.409 Y-13.044 Z-2.000 I1.364 J1.690 K0.000 F600.000
G2 X100.999 Y-11.438 Z-2.000 I1.826 J1.322 K0.000 F600.000
G3 X100.291 Y-9.511 Z-2.000 I-2.377 J0.220 K0.000 F600.000
G2 X98.804 Y-8.282 Z-2.000 I44.338 J55.165 K0.000 F600.000
G2 X96.955 Y-5.826 Z-2.000 I3.969 J4.913 K0.000 F600.000
G2 X96.161 Y-2.406 Z-2.000 I15.749 J5.456 K0.000 F600.000
G2 X95.442 Y13.780 Z-2.000 I130.675 J13.916 K0.000 F600.000
G2 X97.096 Y27.917 Z-2.000 I64.628 J-0.395 K0.000 F600.000
G3 X98.308 Y33.633 Z-2.000 I-96.330 J23.423 K0.000 F600.000
G3 X97.970 Y37.993 Z-2.000 I-8.185 J1.559 K0.000 F600.000
G2 X95.693 Y43.856 Z-2.000 I42.022 J19.699 K0.000 F600.000
G2 X97.042 Y48.976 Z-2.000 I4.671 J1.507 K0.000 F600.000
G2 X99.227 Y49.152 Z-2.000 I1.201 J-1.267 K0.000 F600.000
G2 X100.115 Y48.331 Z-2.000 I-30.121 J-33.498 K0.000 F600.000
G3 X100.651 Y48.100 Z-2.000 I0.506 J0.437 K0.000 F600.000
G3 X100.908 Y48.394 Z-2.000 I-0.184 J0.421 K0.000 F600.000
G3 X101.319 Y49.530 Z-2.000 I-12.236 J5.063 K0.000 F600.000
G2 X103.279 Y56.762 Z-2.000 I187.383 J-46.919 K0.000 F600.000
G1 X103.092 Y58.554 Z-2.000 F600.000
G2 X103.915 Y75.498 Z-2.000 I0.905 J8.448 K0.000 F600.000
G1 X112.872 Y75.479 Z-2.000 F600.000
G1 X121.029 Y75.000 Z-2.000 F600.000
G3 X123.568 Y75.045 Z-2.000 I0.571 J39.916 K0.000 F600.000
G3 X127.927 Y75.424 Z-2.000 I-11.659 J159.218 K0.000 F600.000
G2 X138.037 Y75.500 Z-2.000 I6.635 J-209.996 K0.000 F600.000
G2 X138.660 Y58.536 Z-2.000 I-0.033 J-8.495 K0.000 F600.000
G3 X138.582 Y58.163 Z-2.000 I1.147 J-0.435 K0.000 F600.000
G3 X138.788 Y56.385 Z-2.000 I7.354 J-0.049 K0.000 F600.000
G2 X140.265 Y51.141 Z-2.000 I-266.163 J-77.800 K0.000 F600.000
G3 X140.870 Y48.909 Z-2.000 I25.657 J5.756 K0.000 F600.000
G3 X141.296 Y48.119 Z-2.000 I1.697 J0.405 K0.000 F600.000
G3 X141.745 Y48.218 Z-2.000 I0.092 J0.651 K0.000 F600.000
G3 X142.458 Y48.861 Z-2.000 I-9.526 J11.283 K0.000 F600.000
G2 X144.703 Y49.184 Z-2.000 I1.307 J-1.117 K0.000 F600.000
G2 X146.473 Y44.557 Z-2.000 I-3.014 J-3.805 K0.000 F600.000
G2 X144.499 Y39.067 Z-2.000 I-29.490 J7.505 K0.000 F600.000
G3 X143.549 Y34.921 Z-2.000 I7.146 J-3.820 K0.000 F600.000
G3 X144.362 Y30.239 Z-2.000 I40.503 J4.624 K0.000 F600.000
G2 X146.587 Y13.490 Z-2.000 I-66.767 J-17.391 K0.000 F600.000
G2 X145.945 Y-1.469 Z-2.000 I-139.201 J-1.522 K0.000 F600.000
G2 X145.489 Y-4.381 Z-2.000 I-24.251 J2.307 K0.000 F600.000
G2 X143.462 Y-8.054 Z-2.000 I-6.526 J1.206 K0.000 F600.000
G3 X141.906 Y-9.345 Z-2.000 I73.509 J-90.179 K0.000 F600.000
G3 X141.040 Y-10.783 Z-2.000 I1.351 J-1.793 K0.000 F600.000
G2 X140.900 Y-12.389 Z-2.000 I-95.591 J7.544 K0.000 F600.000
G2 X140.168 Y-13.264 Z-2.000 I-0.996 J0.089 K0.000 F600.000
G1 X138.062 Y-13.842 Z-2.000 F600.000
G1 X137.797 Y-13.878 Z-2.000 F600.000
G1 X132.203 Y-13.878 Z-2.000 F600.000
G2 X130.244 Y-13.762 Z-2.000 I1.684 J45.317 K0.000 F600.000
G2 X128.135 Y-13.400 Z-2.000 I0.196 J7.477 K0.000 F600.000
G2 X127.040 Y-12.180 Z-2.000 I0.472 J1.524 K0.000 F600.000
G3 X126.931 Y-9.960 Z-2.000 I-88.696 J-3.238 K0.000 F600.000
G3 X126.606 Y-9.098 Z-2.000 I-1.342 J-0.015 K0.000 F600.000
G2 X125.737 Y-8.716 Z-2.000 I7.882 J19.095 K0.000 F600.000
G2 X124.614 Y-7.468 Z-2.000 I2.522 J3.397 K0.000 F600.000
G3 X123.617 Y-5.794 Z-2.000 I-24.590 J-13.518 K0.000 F600.000
G1 X122.960 Y-4.947 Z-2.000 F600.000
G1 X120.822 Y-4.013 Z-2.000 F600.000
G3 X119.212 Y-4.727 Z-2.000 I0.149 J-2.506 K0.000 F600.000
G3 X117.216 Y-7.712 Z-2.000 I12.951 J-10.822 K0.000 F600.000
G2 X116.407 Y-8.624 Z-2.000 I-2.526 J1.426 K0.000 F600.000
G2 X115.444 Y-9.115 Z-2.000 I-5.043 J8.690 K0.000 F600.000
G1 X115.032 Y-9.856 Z-2.000 F600.000
G1 X114.785 Y-10.149 Z-2.000 F600.000
G1 X110.424 Y-13.657 Z-2.000 F600.000
G2 X109.797 Y-13.878 Z-2.000 I-0.627 J0.779 K0.000 F600.000
G1 X104.203 Y-13.878 Z-2.000 F600.000
G2 X102.807 Y-13.720 Z-2.000 I0.152 J7.618 K0.000 F600.000
G2 X101.628 Y-13.247 Z-2.000 I0.184 J2.163 K0.000 F600.000
G0 Z5.000
G0 X139.385 Y-28.021 Z5.000
G0 X139.385 Y-28.021 Z3.000
G1 X139.385 Y-28.021 Z-2.000 F600.000
G2 X142.114 Y-24.158 Z-2.000 I9.184 J-3.594 K0.000 F600.000
G2 X151.532 Y-23.479 Z-2.000 I5.172 J-6.085 K0.000 F600.000
G2 X155.821 Y-30.894 Z-2.000 I-5.428 J-8.089 K0.000 F600.000
G2 X157.259 Y-30.714 Z-2.000 I2.062 J-10.656 K0.000 F600.000
G2 X160.992 Y-30.720 Z-2.000 I1.787 J-54.754 K0.000 F600.000
G2 X166.177 Y-30.885 Z-2.000 I1.748 J-26.553 K0.000 F600.000
G2 X168.422 Y-25.302 Z-2.000 I9.759 J-0.680 K0.000 F600.000
G2 X174.841 Y-22.259 Z-2.000 I6.320 J-5.039 K0.000 F600.000
G2 X181.131 Y-25.415 Z-2.000 I-0.278 J-8.397 K0.000 F600.000
G2 X181.207 Y-37.878 Z-2.000 I-7.995 J-6.280 K0.000 F600.000
G1 X183.803 Y-39.846 Z-2.000 F600.000
G2 X186.189 Y-41.926 Z-2.000 I-12.741 J-17.019 K0.000 F600.000
G2 X186.996 Y-43.768 Z-2.000 I-1.871 J-1.918 K0.000 F600.000
G2 X185.896 Y-46.245 Z-2.000 I-4.003 J0.294 K0.000 F600.000
G2 X182.933 Y-46.953 Z-2.000 I-1.945 J1.585 K0.000 F600.000
G3 X184.129 Y-49.076 Z-2.000 I5.327 J1.602 K0.000 F600.000
G2 X185.593 Y-50.377 Z-2.000 I-59.114 J-68.043 K0.000 F600.000
G2 X186.074 Y-53.022 Z-2.000 I-1.498 J-1.638 K0.000 F600.000
G2 X183.257 Y-55.718 Z-2.000 I-6.114 J3.568 K0.000 F600.000
G1 X181.200 Y-56.593 Z-2.000 F600.000
G2 X181.105 Y-62.784 Z-2.000 I-259.338 J0.880 K0.000 F600.000
G3 X181.053 Y-67.968 Z-2.000 I59.998 J-3.196 K0.000 F600.000
G3 X181.680 Y-72.493 Z-2.000 I18.077 J0.196 K0.000 F600.000
G3 X184.352 Y-77.041 Z-2.000 I9.267 J2.386 K0.000 F600.000
G2 X184.093 Y-78.626 Z-2.000 I-0.718 J-0.696 K0.000 F600.000
G1 X183.837 Y-78.717 Z-2.000 F600.000
G2 X181.548 Y-78.431 Z-2.000 I-0.244 J7.349 K0.000 F600.000
G2 X177.520 Y-76.870 Z-2.000 I10.346 J32.685 K0.000 F600.000
G3 X175.507 Y-75.952 Z-2.000 I-14.598 J-29.331 K0.000 F600.000
G2 X174.831 Y-77.657 Z-2.000 I-12.862 J4.112 K0.000 F600.000
G2 X172.792 Y-78.557 Z-2.000 I-1.607 J0.881 K0.000 F600.000
G2 X170.847 Y-77.725 Z-2.000 I3.487 J10.835 K0.000 F600.000
G3 X169.410 Y-77.022 Z-2.000 I-3.809 J-5.968 K0.000 F600.000
G3 X168.958 Y-76.913 Z-2.000 I-0.426 J-0.775 K0.000 F600.000
G2 X167.959 Y-77.626 Z-2.000 I-4.759 J5.611 K0.000 F600.000
G2 X165.687 Y-78.380 Z-2.000 I-3.410 J6.476 K0.000 F600.000
G1 X161.077 Y-78.734 Z-2.000 F600.000
G2 X155.817 Y-78.279 Z-2.000 I-0.654 J23.045 K0.000 F600.000
G2 X153.038 Y-76.912 Z-2.000 I1.109 J5.763 K0.000 F600.000
G3 X151.842 Y-77.345 Z-2.000 I0.815 J-4.117 K0.000 F600.000
G2 X149.278 Y-78.545 Z-2.000 I-7.148 J11.945 K0.000 F600.000
G2 X147.338 Y-77.905 Z-2.000 I-0.496 J1.756 K0.000 F600.000
G2 X146.498 Y-75.950 Z-2.000 I6.872 J4.109 K0.000 F600.000
G2 X141.592 Y-78.053 Z-2.000 I-28.103 J58.793 K0.000 F600.000
G1 X138.580 Y-78.714 Z-2.000 F600.000
G2 X137.645 Y-77.045 Z-2.000 I-0.215 J0.977 K0.000 F600.000
G3 X140.131 Y-73.152 Z-2.000 I-6.727 J7.036 K0.000 F600.000
G3 X140.918 Y-68.811 Z-2.000 I-17.798 J5.469 K0.000 F600.000
G3 X140.930 Y-63.868 Z-2.000 I-56.353 J2.610 K0.000 F600.000
G2 X140.793 Y-56.678 Z-2.000 I182.897 J7.064 K0.000 F600.000
G2 X136.526 Y-53.926 Z-2.000 I3.205 J9.654 K0.000 F600.000
G2 X135.964 Y-53.103 Z-2.000 I2.673 J2.430 K0.000 F600.000
G2 X136.159 Y-50.663 Z-2.000 I1.918 J1.074 K0.000 F600.000
G2 X137.378 Y-49.505 Z-2.000 I8.876 J-8.116 K0.000 F600.000
G3 X139.077 Y-46.935 Z-2.000 I-3.180 J3.950 K0.000 F600.000
G2 X136.926 Y-46.911 Z-2.000 I-1.050 J2.276 K0.000 F600.000
G2 X135.197 Y-44.734 Z-2.000 I1.995 J3.360 K0.000 F600.000
G2 X135.452 Y-42.388 Z-2.000 I2.234 J0.943 K0.000 F600.000
G2 X136.977 Y-40.823 Z-2.000 I8.683 J-6.933 K0.000 F600.000
G2 X140.789 Y-37.866 Z-2.000 I75.173 J-92.963 K0.000 F600.000
G2 X138.721 Y-31.079 Z-2.000 I8.045 J6.160 K0.000 F600.000
G2 X139.385 Y-28.021 Z-2.000 I9.847 J-0.535 K0.000 F600.000
G0 Z5.000
G0 X160.488 Y4.308 Z5.000
G0 X160.488 Y4.308 Z3.000
G1 X160.488 Y4.308 Z-2.000 F600.000
G2 X159.950 Y4.935 Z-2.000 I0.810 J1.241 K0.000 F600.000
G2 X160.190 Y6.555 Z-2.000 I1.649 J0.583 K0.000 F600.000
G1 X160.190 Y6.555 Z-2.000 F600.000
G1 X160.342 Y6.856 Z-2.000 F600.000
G3 X160.676 Y8.024 Z-2.000 I-1.694 J1.115 K0.000 F600.000
G2 X160.588 Y9.182 Z-2.000 I7.998 J1.187 K0.000 F600.000
G2 X161.879 Y11.126 Z-2.000 I1.995 J0.076 K0.000 F600.000
G2 X163.891 Y11.461 Z-2.000 I2.487 J-8.722 K0.000 F600.000
G3 X168.149 Y11.533 Z-2.000 I-4.131 J371.951 K0.000 F600.000
G1 X167.850 Y11.640 Z-2.000 F600.000
G2 X163.059 Y13.906 Z-2.000 I7.689 J22.456 K0.000 F600.000
G2 X159.654 Y17.804 Z-2.000 I4.790 J7.620 K0.000 F600.000
G2 X159.281 Y19.378 Z-2.000 I3.843 J1.743 K0.000 F600.000
G2 X160.773 Y21.242 Z-2.000 I1.748 J0.130 K0.000 F600.000
G2 X162.278 Y21.010 Z-2.000 I0.196 J-3.731 K0.000 F600.000
G2 X165.280 Y19.423 Z-2.000 I-9.370 J-21.359 K0.000 F600.000
G3 X170.064 Y16.459 Z-2.000 I40.693 J60.338 K0.000 F600.000
G3 X169.539 Y17.407 Z-2.000 I-19.509 J-10.181 K0.000 F600.000
G2 X166.662 Y22.174 Z-2.000 I240.201 J148.231 K0.000 F600.000
G2 X165.254 Y25.396 Z-2.000 I10.956 J6.708 K0.000 F600.000
G2 X165.598 Y28.189 Z-2.000 I3.645 J0.969 K0.000 F600.000
G2 X168.507 Y30.010 Z-2.000 I3.393 J-2.188 K0.000 F600.000
G2 X171.587 Y28.422 Z-2.000 I0.354 J-3.095 K0.000 F600.000
G2 X172.473 Y26.054 Z-2.000 I-9.367 J-4.855 K0.000 F600.000
G2 X173.476 Y20.094 Z-2.000 I-69.387 J-14.738 K0.000 F600.000
G2 X173.083 Y29.934 Z-2.000 I747.447 J34.793 K0.000 F600.000
G2 X173.342 Y37.625 Z-2.000 I54.607 J2.007 K0.000 F600.000
G2 X174.232 Y40.813 Z-2.000 I9.409 J-0.906 K0.000 F600.000
G2 X177.554 Y42.088 Z-2.000 I2.312 J-1.060 K0.000 F600.000
G2 X179.858 Y40.407 Z-2.000 I-3.435 J-7.130 K0.000 F600.000
G2 X182.933 Y31.059 Z-2.000 I-9.166 J-8.195 K0.000 F600.000
G2 X180.833 Y22.556 Z-2.000 I-32.095 J3.413 K0.000 F600.000
G3 X178.813 Y17.345 Z-2.000 I1689.741 J-658.078 K0.000 F600.000
G3 X180.568 Y18.440 Z-2.000 I-42.164 J69.571 K0.000 F600.000
G2 X198.097 Y26.810 Z-2.000 I46.305 J-74.432 K0.000 F600.000
G2 X205.661 Y29.127 Z-2.000 I23.372 J-62.797 K0.000 F600.000
G2 X208.436 Y29.416 Z-2.000 I2.289 J-8.498 K0.000 F600.000
G2 X210.330 Y27.605 Z-2.000 I-0.029 J-1.926 K0.000 F600.000
G3 X210.280 Y26.252 Z-2.000 I16.501 J-1.278 K0.000 F600.000
G2 X209.651 Y23.911 Z-2.000 I-2.933 J-0.467 K0.000 F600.000
G2 X207.783 Y22.473 Z-2.000 I-5.726 J5.507 K0.000 F600.000
G2 X201.941 Y20.023 Z-2.000 I-19.269 J37.754 K0.000 F600.000
G2 X184.912 Y14.365 Z-2.000 I-801.504 J2383.969 K0.000 F600.000
G3 X180.779 Y12.768 Z-2.000 I14.620 J-43.981 K0.000 F600.000
G2 X201.012 Y13.805 Z-2.000 I23.021 J-251.289 K0.000 F600.000
G2 X204.254 Y13.761 Z-2.000 I0.910 J-52.659 K0.000 F600.000
G2 X207.458 Y13.339 Z-2.000 I0.132 J-11.364 K0.000 F600.000
G2 X208.945 Y11.891 Z-2.000 I-0.587 J-2.090 K0.000 F600.000
G3 X209.444 Y9.156 Z-2.000 I202.233 J35.502 K0.000 F600.000
G2 X209.050 Y6.665 Z-2.000 I-3.140 J-0.779 K0.000 F600.000
G2 X208.347 Y6.040 Z-2.000 I-2.313 J1.895 K0.000 F600.000
G2 X207.789 Y5.823 Z-2.000 I-0.624 J0.781 K0.000 F600.000
G1 X198.343 Y5.198 Z-2.000 F600.000
G3 X178.836 Y4.845 Z-2.000 I3.968 J-757.872 K0.000 F600.000
G3 X166.723 Y4.260 Z-2.000 I5.142 J-232.263 K0.000 F600.000
G2 X161.719 Y3.987 Z-2.000 I-6.367 J70.662 K0.000 F600.000
G2 X160.875 Y4.129 Z-2.000 I-0.052 J2.277 K0.000 F600.000
G2 X160.488 Y4.308 Z-2.000 I0.423 J1.420 K0.000 F600.000
G0 Z5.000
G0 X195.710 Y-31.317 Z5.000
G0 X195.710 Y-31.317 Z3.000
G1 X195.710 Y-31.317 Z-2.000 F600.000
G2 X196.362 Y-31.029 Z-2.000 I0.703 J-0.711 K0.000 F600.000
G2 X208.174 Y-34.071 Z-2.000 I1.541 J-18.470 K0.000 F600.000
G2 X214.698 Y-41.694 Z-2.000 I-10.388 J-15.494 K0.000 F600.000
G2 X215.165 Y-57.830 Z-2.000 I-18.693 J-8.616 K0.000 F600.000
G2 X199.863 Y-69.542 Z-2.000 I-17.233 J6.664 K0.000 F600.000
G2 X196.366 Y-69.585 Z-2.000 I-1.984 J19.239 K0.000 F600.000
G2 X195.413 Y-68.586 Z-2.000 I0.047 J0.999 K0.000 F600.000
G1 X195.413 Y-56.156 Z-2.000 F600.000
G2 X196.150 Y-55.192 Z-2.000 I1.000 J0.000 K0.000 F600.000
G1 X198.673 Y-54.504 Z-2.000 F600.000
G1 X196.035 Y-53.426 Z-2.000 F600.000
G2 X195.413 Y-52.501 Z-2.000 I0.378 J0.926 K0.000 F600.000
G1 X195.413 Y-32.028 Z-2.000 F600.000
G2 X195.710 Y-31.317 Z-2.000 I1.000 J0.000 K0.000 F600.000
G0 Z5.000
G0 X207.067 Y49.945 Z5.000
G0 X207.067 Y49.945 Z3.000
G1 X207.067 Y49.945 Z-2.000 F600.000
G2 X206.227 Y50.094 Z-2.000 I1.594 J11.407 K0.000 F600.000
G2 X197.836 Y52.686 Z-2.000 I21.368 J84.078 K0.000 F600.000
G2 X182.952 Y59.623 Z-2.000 I28.692 J80.997 K0.000 F600.000
G3 X178.594 Y62.252 Z-2.000 I-50.813 J-79.307 K0.000 F600.000
G3 X177.851 Y62.522 Z-2.000 I-1.185 J-2.098 K0.000 F600.000
G3 X171.641 Y63.142 Z-2.000 I-3.941 J-8.078 K0.000 F600.000
G1 X169.140 Y62.079 Z-2.000 F600.000
G2 X164.354 Y59.077 Z-2.000 I-136.100 J211.660 K0.000 F600.000
G2 X161.751 Y57.985 Z-2.000 I-4.414 J6.871 K0.000 F600.000
G2 X159.779 Y59.053 Z-2.000 I-0.359 J1.691 K0.000 F600.000
G2 X159.918 Y61.162 Z-2.000 I3.066 J0.858 K0.000 F600.000
G2 X164.114 Y65.759 Z-2.000 I8.491 J-3.536 K0.000 F600.000
G2 X168.548 Y67.729 Z-2.000 I13.511 J-24.433 K0.000 F600.000
G3 X165.263 Y67.772 Z-2.000 I-2.501 J-65.561 K0.000 F600.000
G2 X162.457 Y68.083 Z-2.000 I-0.215 J10.894 K0.000 F600.000
G2 X161.011 Y69.602 Z-2.000 I0.520 J1.942 K0.000 F600.000
G2 X161.021 Y70.780 Z-2.000 I4.091 J0.556 K0.000 F600.000
G3 X160.947 Y71.977 Z-2.000 I-2.279 J0.460 K0.000 F600.000
G2 X160.450 Y72.942 Z-2.000 I15.662 J8.686 K0.000 F600.000
G2 X160.363 Y74.401 Z-2.000 I1.302 J0.810 K0.000 F600.000
G2 X161.676 Y75.247 Z-2.000 I1.460 J-0.826 K0.000 F600.000
G2 X164.068 Y75.240 Z-2.000 I1.153 J-16.449 K0.000 F600.000
G3 X174.146 Y74.582 Z-2.000 I20.933 J242.868 K0.000 F600.000
G3 X203.224 Y74.009 Z-2.000 I35.988 J1087.951 K0.000 F600.000
G2 X207.186 Y73.748 Z-2.000 I0.378 J-24.493 K0.000 F600.000
G2 X208.157 Y73.505 Z-2.000 I-0.688 J-4.805 K0.000 F600.000
G2 X209.790 Y71.884 Z-2.000 I-0.689 J-2.326 K0.000 F600.000
G2 X209.648 Y69.160 Z-2.000 I-5.602 J-1.074 K0.000 F600.000
G1 X209.648 Y69.160 Z-2.000 F600.000
G3 X209.425 Y67.816 Z-2.000 I8.720 J-2.136 K0.000 F600.000
G2 X208.510 Y66.246 Z-2.000 I-2.073 J0.157 K0.000 F600.000
G2 X205.745 Y65.562 Z-2.000 I-2.852 J5.595 K0.000 F600.000
G2 X201.624 Y65.458 Z-2.000 I-4.502 J97.050 K0.000 F600.000
G2 X181.176 Y66.493 Z-2.000 I2.044 J242.858 K0.000 F600.000
G1 X181.919 Y66.170 Z-2.000 F600.000
G3 X187.024 Y64.319 Z-2.000 I24.126 J58.561 K0.000 F600.000
G2 X200.389 Y59.914 Z-2.000 I-602.393 J-1850.200 K0.000 F600.000
G2 X206.306 Y57.701 Z-2.000 I-24.071 J-73.384 K0.000 F600.000
G2 X209.467 Y55.911 Z-2.000 I-5.271 J-12.990 K0.000 F600.000
G2 X210.684 Y53.781 Z-2.000 I-1.742 J-2.408 K0.000 F600.000
G3 X210.714 Y51.946 Z-2.000 I15.910 J-0.659 K0.000 F600.000
G2 X209.128 Y49.892 Z-2.000 I-1.855 J-0.207 K0.000 F600.000
G1 X208.691 Y49.834 Z-2.000 F600.000
G2 X207.067 Y49.945 Z-2.000 I-0.030 J11.518 K0.000 F600.000
G1 X207.067 Y49.945 Z-4.000 F600.000
G2 X206.227 Y50.094 Z-4.000 I1.594 J11.407 K0.000 F600.000
G2 X197.836 Y52.686 Z-4.000 I21.368 J84.078 K0.000 F600.000
G2 X182.952 Y59.623 Z-4.000 I28.692 J80.997 K0.000 F600.000
G3 X178.594 Y62.252 Z-4.000 I-50.813 J-79.307 K0.000 F600.000
G3 X177.851 Y62.522 Z-4.000 I-1.185 J-2.098 K0.000 F600.000
G3 X171.641 Y63.142 Z-4.000 I-3.941 J-8.078 K0.000 F600.000
G1 X169.140 Y62.079 Z-4.000 F600.000
G2 X164.354 Y59.077 Z-4.000 I-136.100 J211.660 K0.000 F600.000
G2 X161.751 Y57.985 Z-4.000 I-4.414 J6.871 K0.000 F600.000
G2 X159.779 Y59.053 Z-4.000 I-0.359 J1.691 K0.000 F600.000
G2 X159.918 Y61.162 Z-4.000 I3.066 J0.858 K0.000 F600.000
G2 X164.114 Y65.759 Z-4.000 I8.491 J-3.536 K0.000 F600.000
G2 X168.548 Y67.729 Z-4.000 I13.511 J-24.433 K0.000 F600.000
G3 X165.263 Y67.772 Z-4.000 I-2.501 J-65.561 K0.000 F600.000
G2 X162.457 Y68.083 Z-4.000 I-0.215 J10.894 K0.000 F600.000
G2 X161.011 Y69.602 Z-4.000 I0.520 J1.942 K0.000 F600.000
G2 X161.021 Y70.780 Z-4.000 I4.091 J0.556 K0.000 F600.000
G3 X160.947 Y71.977 Z-4.000 I-2.279 J0.460 K0.000 F600.000
G2 X160.450 Y72.942 Z-4.000 I15.662 J8.686 K0.000 F600.000
G2 X160.363 Y74.401 Z-4.000 I1.302 J0.810 K0.000 F600.000
G2 X161.676 Y75.247 Z-4.000 I1.460 J-0.826 K0.000 F600.000
G2 X164.068 Y75.240 Z-4.000 I1.153 J-16.449 K0.000 F600.000
G3 X174.146 Y74.582 Z-4.000 I20.933 J242.868 K0.000 F600.000
G3 X203.224 Y74.009 Z-4.000 I35.988 J1087.951 K0.000 F600.000
G2 X207.186 Y73.748 Z-4.000 I0.378 J-24.493 K0.000 F600.000
G2 X208.157 Y73.505 Z-4.000 I-0.688 J-4.805 K0.000 F600.000
G2 X209.790 Y71.884 Z-4.000 I-0.689 J-2.326 K0.000 F600.000
G2 X209.648 Y69.160 Z-4.000 I-5.602 J-1.074 K0.000 F600.000
G1 X209.648 Y69.160 Z-4.000 F600.000
G3 X209.425 Y67.816 Z-4.000 I8.720 J-2.136 K0.000 F600.000
G2 X208.510 Y66.246 Z-4.000 I-2.073 J0.157 K0.000 F600.000
G2 X205.745 Y65.562 Z-4.000 I-2.852 J5.595 K0.000 F600.000
G2 X201.624 Y65.458 Z-4.000 I-4.502 J97.050 K0.000 F600.000
G2 X181.176 Y66.493 Z-4.000 I2.044 J242.858 K0.000 F600.000
G1 X181.919 Y66.170 Z-4.000 F600.000
G3 X187.024 Y64.319 Z-4.000 I24.126 J58.561 K0.000 F600.000
G2 X200.389 Y59.914 Z-4.000 I-602.393 J-1850.200 K0.000 F600.000
G2 X206.306 Y57.701 Z-4.000 I-24.071 J-73.384 K0.000 F600.000
G2 X209.467 Y55.911 Z-4.000 I-5.271 J-12.990 K0.000 F600.000
G2 X210.684 Y53.781 Z-4.000 I-1.742 J-2.408 K0.000 F600.000
G3 X210.714 Y51.946 Z-4.000 I15.910 J-0.659 K0.000 F600.000
G2 X209.128 Y49.892 Z-4.000 I-1.855 J-0.207 K0.000 F600.000
G1 X208.691 Y49.834 Z-4.000 F600.000
G2 X207.067 Y49.945 Z-4.000 I-0.030 J11.518 K0.000 F600.000
G0 Z5.000
G0 X207.685 Y29.426 Z5.000
G0 X207.685 Y29.426 Z3.000
G1 X207.685 Y29.426 Z-4.000 F600.000
G2 X208.436 Y29.416 Z-4.000 I0.265 J-8.797 K0.000 F600.000
G2 X210.330 Y27.605 Z-4.000 I-0.029 J-1.926 K0.000 F600.000
G3 X210.280 Y26.252 Z-4.000 I16.501 J-1.278 K0.000 F600.000
G2 X209.651 Y23.911 Z-4.000 I-2.933 J-0.467 K0.000 F600.000
G2 X207.783 Y22.473 Z-4.000 I-5.726 J5.507 K0.000 F600.000
G2 X201.941 Y20.023 Z-4.000 I-19.269 J37.754 K0.000 F600.000
G2 X184.912 Y14.365 Z-4.000 I-801.504 J2383.969 K0.000 F600.000
G3 X180.779 Y12.768 Z-4.000 I14.620 J-43.981 K0.000 F600.000
G2 X201.012 Y13.805 Z-4.000 I23.021 J-251.289 K0.000 F600.000
G2 X204.254 Y13.761 Z-4.000 I0.910 J-52.659 K0.000 F600.000
G2 X207.458 Y13.339 Z-4.000 I0.132 J-11.364 K0.000 F600.000
G2 X208.945 Y11.891 Z-4.000 I-0.587 J-2.090 K0.000 F600.000
G3 X209.444 Y9.156 Z-4.000 I202.233 J35.502 K0.000 F600.000
G2 X209.050 Y6.665 Z-4.000 I-3.140 J-0.779 K0.000 F600.000
G2 X208.347 Y6.040 Z-4.000 I-2.313 J1.895 K0.000 F600.000
G2 X207.789 Y5.823 Z-4.000 I-0.624 J0.781 K0.000 F600.000
G1 X198.343 Y5.198 Z-4.000 F600.000
G3 X178.836 Y4.845 Z-4.000 I3.968 J-757.872 K0.000 F600.000
G3 X166.723 Y4.260 Z-4.000 I5.142 J-232.263 K0.000 F600.000
G2 X161.719 Y3.987 Z-4.000 I-6.367 J70.662 K0.000 F600.000
G2 X160.875 Y4.129 Z-4.000 I-0.052 J2.277 K0.000 F600.000
G2 X159.950 Y4.935 Z-4.000 I0.423 J1.420 K0.000 F600.000
G2 X160.190 Y6.555 Z-4.000 I1.649 J0.583 K0.000 F600.000
G1 X160.190 Y6.555 Z-4.000 F600.000
G1 X160.342 Y6.856 Z-4.000 F600.000
G3 X160.676 Y8.024 Z-4.000 I-1.694 J1.115 K0.000 F600.000
G2 X160.588 Y9.182 Z-4.000 I7.998 J1.187 K0.000 F600.000
G2 X161.879 Y11.126 Z-4.000 I1.995 J0.076 K0.000 F600.000
G2 X163.891 Y11.461 Z-4.000 I2.487 J-8.722 K0.000 F600.000
G3 X168.149 Y11.533 Z-4.000 I-4.131 J371.951 K0.000 F600.000
G1 X167.850 Y11.640 Z-4.000 F600.000
G2 X163.059 Y13.906 Z-4.000 I7.689 J22.456 K0.000 F600.000
G2 X159.654 Y17.804 Z-4.000 I4.790 J7.620 K0.000 F600.000
G2 X159.281 Y19.378 Z-4.000 I3.843 J1.743 K0.000 F600.000
G2 X160.773 Y21.242 Z-4.000 I1.748 J0.130 K0.000 F600.000
G2 X162.278 Y21.010 Z-4.000 I0.196 J-3.731 K0.000 F600.000
G2 X165.280 Y19.423 Z-4.000 I-9.370 J-21.359 K0.000 F600.000
G3 X170.064 Y16.459 Z-4.000 I40.693 J60.338 K0.000 F600.000
G3 X169.539 Y17.407 Z-4.000 I-19.509 J-10.181 K0.000 F600.000
G2 X166.662 Y22.174 Z-4.000 I240.201 J148.231 K0.000 F600.000
G2 X165.254 Y25.396 Z-4.000 I10.956 J6.708 K0.000 F600.000
G2 X165.598 Y28.189 Z-4.000 I3.645 J0.969 K0.000 F600.000
G2 X168.507 Y30.010 Z-4.000 I3.393 J-2.188 K0.000 F600.000
G2 X171.587 Y28.422 Z-4.000 I0.354 J-3.095 K0.000 F600.000
G2 X172.473 Y26.054 Z-4.000 I-9.367 J-4.855 K0.000 F600.000
G2 X173.476 Y20.094 Z-4.000 I-69.387 J-14.738 K0.000 F600.000
G2 X173.083 Y29.934 Z-4.000 I747.447 J34.793 K0.000 F600.000
G2 X173.342 Y37.625 Z-4.000 I54.607 J2.007 K0.000 F600.000
G2 X174.232 Y40.813 Z-4.000 I9.409 J-0.906 K0.000 F600.000
G2 X177.554 Y42.088 Z-4.000 I2.312 J-1.060 K0.000 F600.000
G2 X179.858 Y40.407 Z-4.000 I-3.435 J-7.130 K0.000 F600.000
G2 X182.933 Y31.059 Z-4.000 I-9.166 J-8.195 K0.000 F600.000
G2 X180.833 Y22.556 Z-4.000 I-32.095 J3.413 K0.000 F600.000
G3 X178.813 Y17.345 Z-4.000 I1689.741 J-658.078 K0.000 F600.000
G3 X180.568 Y18.440 Z-4.000 I-42.164 J69.571 K0.000 F600.000
G2 X198.097 Y26.810 Z-4.000 I46.305 J-74.432 K0.000 F600.000
G2 X205.661 Y29.127 Z-4.000 I23.372 J-62.797 K0.000 F600.000
G2 X207.685 Y29.426 Z-4.000 I2.289 J-8.498 K0.000 F600.000
G0 Z5.000
G0 X178.620 Y-23.298 Z5.000
G0 X178.620 Y-23.298 Z3.000
G1 X178.620 Y-23.298 Z-4.000 F600.000
G2 X181.131 Y-25.415 Z-4.000 I-4.056 J-7.358 K0.000 F600.000
G2 X181.207 Y-37.878 Z-4.000 I-7.995 J-6.280 K0.000 F600.000
G1 X183.803 Y-39.846 Z-4.000 F600.000
G2 X186.189 Y-41.926 Z-4.000 I-12.741 J-17.019 K0.000 F600.000
G2 X186.996 Y-43.768 Z-4.000 I-1.871 J-1.918 K0.000 F600.000
G2 X185.896 Y-46.245 Z-4.000 I-4.003 J0.294 K0.000 F600.000
G2 X182.933 Y-46.953 Z-4.000 I-1.945 J1.585 K0.000 F600.000
G3 X184.129 Y-49.076 Z-4.000 I5.327 J1.602 K0.000 F600.000
G2 X185.593 Y-50.377 Z-4.000 I-59.114 J-68.043 K0.000 F600.000
G2 X186.074 Y-53.022 Z-4.000 I-1.498 J-1.638 K0.000 F600.000
G2 X183.257 Y-55.718 Z-4.000 I-6.114 J3.568 K0.000 F600.000
G1 X181.200 Y-56.593 Z-4.000 F600.000
G2 X181.105 Y-62.784 Z-4.000 I-259.338 J0.880 K0.000 F600.000
G3 X181.053 Y-67.968 Z-4.000 I59.998 J-3.196 K0.000 F600.000
G3 X181.680 Y-72.493 Z-4.000 I18.077 J0.196 K0.000 F600.000
G3 X184.352 Y-77.041 Z-4.000 I9.267 J2.386 K0.000 F600.000
G2 X184.093 Y-78.626 Z-4.000 I-0.718 J-0.696 K0.000 F600.000
G1 X183.837 Y-78.717 Z-4.000 F600.000
G2 X181.548 Y-78.431 Z-4.000 I-0.244 J7.349 K0.000 F600.000
G2 X177.520 Y-76.870 Z-4.000 I10.346 J32.685 K0.000 F600.000
G3 X175.507 Y-75.952 Z-4.000 I-14.598 J-29.331 K0.000 F600.000
G2 X174.831 Y-77.657 Z-4.000 I-12.862 J4.112 K0.000 F600.000
G2 X172.792 Y-78.557 Z-4.000 I-1.607 J0.881 K0.000 F600.000
G2 X170.847 Y-77.725 Z-4.000 I3.487 J10.835 K0.000 F600.000
G3 X169.410 Y-77.022 Z-4.000 I-3.809 J-5.968 K0.000 F600.000
G3 X168.958 Y-76.913 Z-4.000 I-0.426 J-0.775 K0.000 F600.000
G2 X167.959 Y-77.626 Z-4.000 I-4.759 J5.611 K0.000 F600.000
G2 X165.687 Y-78.380 Z-4.000 I-3.410 J6.476 K0.000 F600.000
G1 X161.077 Y-78.734 Z-4.000 F600.000
G2 X155.817 Y-78.279 Z-4.000 I-0.654 J23.045 K0.000 F600.000
G2 X153.038 Y-76.912 Z-4.000 I1.109 J5.763 K0.000 F600.000
G3 X151.842 Y-77.345 Z-4.000 I0.815 J-4.117 K0.000 F600.000
G2 X149.278 Y-78.545 Z-4.000 I-7.148 J11.945 K0.000 F600.000
G2 X147.338 Y-77.905 Z-4.000 I-0.496 J1.756 K0.000 F600.000
G2 X146.498 Y-75.950 Z-4.000 I6.872 J4.109 K0.000 F600.000
G2 X141.592 Y-78.053 Z-4.000 I-28.103 J58.793 K0.000 F600.000
G1 X138.580 Y-78.714 Z-4.000 F600.000
G2 X137.645 Y-77.045 Z-4.000 I-0.215 J0.977 K0.000 F600.000
G3 X140.131 Y-73.152 Z-4.000 I-6.727 J7.036 K0.000 F600.000
G3 X140.918 Y-68.811 Z-4.000 I-17.798 J5.469 K0.000 F600.000
G3 X140.930 Y-63.868 Z-4.000 I-56.353 J2.610 K0.000 F600.000
G2 X140.793 Y-56.678 Z-4.000 I182.897 J7.064 K0.000 F600.000
G2 X136.526 Y-53.926 Z-4.000 I3.205 J9.654 K0.000 F600.000
G2 X135.964 Y-53.103 Z-4.000 I2.673 J2.430 K0.000 F600.000
G2 X136.159 Y-50.663 Z-4.000 I1.918 J1.074 K0.000 F600.000
G2 X137.378 Y-49.505 Z-4.000 I8.876 J-8.116 K0.000 F600.000
G3 X139.077 Y-46.935 Z-4.000 I-3.180 J3.950 K0.000 F600.000
G2 X136.926 Y-46.911 Z-4.000 I-1.050 J2.276 K0.000 F600.000
G2 X135.197 Y-44.734 Z-4.000 I1.995 J3.360 K0.000 F600.000
G2 X135.452 Y-42.388 Z-4.000 I2.234 J0.943 K0.000 F600.000
G2 X136.977 Y-40.823 Z-4.000 I8.683 J-6.933 K0.000 F600.000
G2 X140.789 Y-37.866 Z-4.000 I75.173 J-92.963 K0.000 F600.000
G2 X138.721 Y-31.079 Z-4.000 I8.045 J6.160 K0.000 F600.000
G2 X142.114 Y-24.158 Z-4.000 I9.847 J-0.535 K0.000 F600.000
G2 X151.532 Y-23.479 Z-4.000 I5.172 J-6.085 K0.000 F600.000
G2 X155.821 Y-30.894 Z-4.000 I-5.428 J-8.089 K0.000 F600.000
G2 X157.259 Y-30.714 Z-4.000 I2.062 J-10.656 K0.000 F600.000
G2 X160.992 Y-30.720 Z-4.000 I1.787 J-54.754 K0.000 F600.000
G2 X166.177 Y-30.885 Z-4.000 I1.748 J-26.553 K0.000 F600.000
G2 X168.422 Y-25.302 Z-4.000 I9.759 J-0.680 K0.000 F600.000
G2 X174.841 Y-22.259 Z-4.000 I6.320 J-5.039 K0.000 F600.000
G2 X178.620 Y-23.298 Z-4.000 I-0.278 J-8.397 K0.000 F600.000
G0 Z5.000
G0 X195.515 Y-31.587 Z5.000
G0 X195.515 Y-31.587 Z3.000
G1 X195.515 Y-31.587 Z-4.000 F600.000
G2 X196.362 Y-31.029 Z-4.000 I0.898 J-0.440 K0.000 F600.000
G2 X208.174 Y-34.071 Z-4.000 I1.541 J-18.470 K0.000 F600.000
G2 X214.698 Y-41.694 Z-4.000 I-10.388 J-15.494 K0.000 F600.000
G2 X215.165 Y-57.830 Z-4.000 I-18.693 J-8.616 K0.000 F600.000
G2 X199.863 Y-69.542 Z-4.000 I-17.233 J6.664 K0.000 F600.000
G2 X196.366 Y-69.585 Z-4.000 I-1.984 J19.239 K0.000 F600.000
G2 X195.413 Y-68.586 Z-4.000 I0.047 J0.999 K0.000 F600.000
G1 X195.413 Y-56.156 Z-4.000 F600.000
G2 X196.150 Y-55.192 Z-4.000 I1.000 J0.000 K0.000 F600.000
G1 X198.673 Y-54.504 Z-4.000 F600.000
G1 X196.035 Y-53.426 Z-4.000 F600.000
G2 X195.413 Y-52.501 Z-4.000 I0.378 J0.926 K0.000 F600.000
G1 X195.413 Y-32.028 Z-4.000 F600.000
G2 X195.515 Y-31.587 Z-4.000 I1.000 J0.000 K0.000 F600.000
G0 Z5.000
G0 X144.893 Y-6.154 Z5.000
G0 X144.893 Y-6.154 Z3.000
G1 X144.893 Y-6.154 Z-4.000 F600.000
G2 X143.462 Y-8.054 Z-4.000 I-5.930 J2.979 K0.000 F600.000
G3 X141.906 Y-9.345 Z-4.000 I73.509 J-90.179 K0.000 F600.000
G3 X141.040 Y-10.783 Z-4.000 I1.351 J-1.793 K0.000 F600.000
G2 X140.900 Y-12.389 Z-4.000 I-95.591 J7.544 K0.000 F600.000
G2 X140.168 Y-13.264 Z-4.000 I-0.996 J0.089 K0.000 F600.000
G1 X138.062 Y-13.842 Z-4.000 F600.000
G1 X137.797 Y-13.878 Z-4.000 F600.000
G1 X132.203 Y-13.878 Z-4.000 F600.000
G2 X130.244 Y-13.762 Z-4.000 I1.684 J45.317 K0.000 F600.000
G2 X128.135 Y-13.400 Z-4.000 I0.196 J7.477 K0.000 F600.000
G2 X127.040 Y-12.180 Z-4.000 I0.472 J1.524 K0.000 F600.000
G3 X126.931 Y-9.960 Z-4.000 I-88.696 J-3.238 K0.000 F600.000
G3 X126.606 Y-9.098 Z-4.000 I-1.342 J-0.015 K0.000 F600.000
G2 X125.737 Y-8.716 Z-4.000 I7.882 J19.095 K0.000 F600.000
G2 X124.614 Y-7.468 Z-4.000 I2.522 J3.397 K0.000 F600.000
G3 X123.617 Y-5.794 Z-4.000 I-24.590 J-13.518 K0.000 F600.000
G1 X122.960 Y-4.947 Z-4.000 F600.000
G1 X120.822 Y-4.013 Z-4.000 F600.000
G3 X119.212 Y-4.727 Z-4.000 I0.149 J-2.506 K0.000 F600.000
G3 X117.216 Y-7.712 Z-4.000 I12.951 J-10.822 K0.000 F600.000
G2 X116.407 Y-8.624 Z-4.000 I-2.526 J1.426 K0.000 F600.000
G2 X115.444 Y-9.115 Z-4.000 I-5.043 J8.690 K0.000 F600.000
G1 X115.032 Y-9.856 Z-4.000 F600.000
G1 X114.785 Y-10.149 Z-4.000 F600.000
G1 X110.424 Y-13.657 Z-4.000 F600.000
G2 X109.797 Y-13.878 Z-4.000 I-0.627 J0.779 K0.000 F600.000
G1 X104.203 Y-13.878 Z-4.000 F600.000
G2 X102.807 Y-13.720 Z-4.000 I0.152 J7.618 K0.000 F600.000
G2 X101.409 Y-13.044 Z-4.000 I0.184 J2.163 K0.000 F600.000
G2 X100.999 Y-11.438 Z-4.000 I1.826 J1.322 K0.000 F600.000
G3 X100.291 Y-9.511 Z-4.000 I-2.377 J0.220 K0.000 F600.000
G2 X98.804 Y-8.282 Z-4.000 I44.338 J55.165 K0.000 F600.000
G2 X96.955 Y-5.826 Z-4.000 I3.969 J4.913 K0.000 F600.000
G2 X96.161 Y-2.406 Z-4.000 I15.749 J5.456 K0.000 F600.000
G2 X95.442 Y13.780 Z-4.000 I130.675 J13.916 K0.000 F600.000
G2 X97.096 Y27.917 Z-4.000 I64.628 J-0.395 K0.000 F600.000
G3 X98.308 Y33.633 Z-4.000 I-96.330 J23.423 K0.000 F600.000
G3 X97.970 Y37.993 Z-4.000 I-8.185 J1.559 K0.000 F600.000
G2 X95.693 Y43.856 Z-4.000 I42.022 J19.699 K0.000 F600.000
G2 X97.042 Y48.976 Z-4.000 I4.671 J1.507 K0.000 F600.000
G2 X99.227 Y49.152 Z-4.000 I1.201 J-1.267 K0.000 F600.000
G2 X100.115 Y48.331 Z-4.000 I-30.121 J-33.498 K0.000 F600.000
G3 X100.651 Y48.100 Z-4.000 I0.506 J0.437 K0.000 F600.000
G3 X100.908 Y48.394 Z-4.000 I-0.184 J0.421 K0.000 F600.000
G3 X101.319 Y49.530 Z-4.000 I-12.236 J5.063 K0.000 F600.000
G2 X103.279 Y56.762 Z-4.000 I187.383 J-46.919 K0.000 F600.000
G1 X103.092 Y58.554 Z-4.000 F600.000
G2 X103.915 Y75.498 Z-4.000 I0.905 J8.448 K0.000 F600.000
G1 X112.872 Y75.479 Z-4.000 F600.000
G1 X121.029 Y75.000 Z-4.000 F600.000
G3 X123.568 Y75.045 Z-4.000 I0.571 J39.916 K0.000 F600.000
G3 X127.927 Y75.424 Z-4.000 I-11.659 J159.218 K0.000 F600.000
G2 X138.037 Y75.500 Z-4.000 I6.635 J-209.996 K0.000 F600.000
G2 X138.660 Y58.536 Z-4.000 I-0.033 J-8.495 K0.000 F600.000
G3 X138.582 Y58.163 Z-4.000 I1.147 J-0.435 K0.000 F600.000
G3 X138.788 Y56.385 Z-4.000 I7.354 J-0.049 K0.000 F600.000
G2 X140.265 Y51.141 Z-4.000 I-266.163 J-77.800 K0.000 F600.000
G3 X140.870 Y48.909 Z-4.000 I25.657 J5.756 K0.000 F600.000
G3 X141.296 Y48.119 Z-4.000 I1.697 J0.405 K0.000 F600.000
G3 X141.745 Y48.218 Z-4.000 I0.092 J0.651 K0.000 F600.000
G3 X142.458 Y48.861 Z-4.000 I-9.526 J11.283 K0.000 F600.000
G2 X144.703 Y49.184 Z-4.000 I1.307 J-1.117 K0.000 F600.000
G2 X146.473 Y44.557 Z-4.000 I-3.014 J-3.805 K0.000 F600.000
G2 X144.499 Y39.067 Z-4.000 I-29.490 J7.505 K0.000 F600.000
G3 X143.549 Y34.921 Z-4.000 I7.146 J-3.820 K0.000 F600.000
G3 X144.362 Y30.239 Z-4.000 I40.503 J4.624 K0.000 F600.000
G2 X146.587 Y13.490 Z-4.000 I-66.767 J-17.391 K0.000 F600.000
G2 X145.945 Y-1.469 Z-4.000 I-139.201 J-1.522 K0.000 F600.000
G2 X145.489 Y-4.381 Z-4.000 I-24.251 J2.307 K0.000 F600.000
G2 X144.893 Y-6.154 Z-4.000 I-6.526 J1.206 K0.000 F600.000
G0 Z5.000
G0 X115.940 Y-37.104 Z5.000
G0 X115.940 Y-37.104 Z3.000
G1 X115.940 Y-37.104 Z-4.000 F600.000
G2 X116.257 Y-37.839 Z-4.000 I-0.683 J-0.730 K0.000 F600.000
G2 X115.891 Y-46.563 Z-4.000 I-75.640 J-1.194 K0.000 F600.000
G1 X115.743 Y-50.762 Z-4.000 F600.000
G3 X115.928 Y-57.545 Z-4.000 I74.424 J-1.357 K0.000 F600.000
G2 X116.257 Y-65.650 Z-4.000 I-72.538 J-7.004 K0.000 F600.000
G2 X115.255 Y-66.651 Z-4.000 I-1.000 J-0.001 K0.000 F600.000
G1 X112.960 Y-66.644 Z-4.000 F600.000
G2 X102.348 Y-66.426 Z-4.000 I160.355 J8045.490 K0.000 F600.000
G3 X99.432 Y-66.628 Z-4.000 I-0.566 J-12.965 K0.000 F600.000
G3 X97.854 Y-67.910 Z-4.000 I0.251 J-1.920 K0.000 F600.000
G3 X97.481 Y-69.888 Z-4.000 I13.333 J-3.541 K0.000 F600.000
G2 X96.451 Y-70.742 Z-4.000 I-0.989 J0.146 K0.000 F600.000
G3 X95.209 Y-70.754 Z-4.000 I-0.563 J-5.904 K0.000 F600.000
G3 X89.167 Y-73.594 Z-4.000 I2.265 J-12.667 K0.000 F600.000
G3 X88.873 Y-73.967 Z-4.000 I0.963 J-1.059 K0.000 F600.000
G2 X88.643 Y-74.529 Z-4.000 I-1.737 J0.384 K0.000 F600.000
G2 X87.317 Y-76.191 Z-4.000 I-17.641 J12.710 K0.000 F600.000
G2 X86.134 Y-76.969 Z-4.000 I-1.906 J1.611 K0.000 F600.000
G2 X84.474 Y-76.677 Z-4.000 I-0.439 J2.373 K0.000 F600.000
G2 X82.438 Y-74.513 Z-4.000 I3.110 J4.964 K0.000 F600.000
G2 X80.908 Y-70.127 Z-4.000 I15.170 J7.754 K0.000 F600.000
G2 X80.137 Y-64.280 Z-4.000 I57.737 J10.587 K0.000 F600.000
G2 X79.971 Y-41.722 Z-4.000 I204.399 J12.778 K0.000 F600.000
G2 X80.663 Y-34.748 Z-4.000 I61.033 J-2.528 K0.000 F600.000
G2 X81.653 Y-30.730 Z-4.000 I20.904 J-3.024 K0.000 F600.000
G2 X83.385 Y-27.685 Z-4.000 I8.349 J-2.731 K0.000 F600.000
G2 X84.804 Y-26.662 Z-4.000 I2.731 J-2.294 K0.000 F600.000
G2 X86.936 Y-26.929 Z-4.000 I0.859 J-1.782 K0.000 F600.000
G2 X88.288 Y-28.484 Z-4.000 I-9.693 J-9.790 K0.000 F600.000
G2 X88.806 Y-29.300 Z-4.000 I-1.799 J-1.716 K0.000 F600.000
G3 X88.959 Y-29.674 Z-4.000 I0.805 J0.109 K0.000 F600.000
G3 X89.674 Y-30.313 Z-4.000 I3.580 J3.287 K0.000 F600.000
G3 X95.399 Y-32.748 Z-4.000 I7.743 J10.257 K0.000 F600.000
G1 X96.487 Y-32.743 Z-4.000 F600.000
G2 X97.407 Y-33.341 Z-4.000 I0.005 J-1.000 K0.000 F600.000
G2 X97.595 Y-34.373 Z-4.000 I-3.842 J-1.233 K0.000 F600.000
G3 X98.034 Y-35.959 Z-4.000 I4.571 J0.410 K0.000 F600.000
G3 X99.552 Y-36.897 Z-4.000 I1.826 J1.257 K0.000 F600.000
G3 X102.766 Y-37.067 Z-4.000 I2.910 J24.577 K0.000 F600.000
G2 X115.254 Y-36.835 Z-4.000 I13.080 J-367.692 K0.000 F600.000
G2 X115.940 Y-37.104 Z-4.000 I0.004 J-1.000 K0.000 F600.000
G0 Z5.000
G0 X80.728 Y-12.867 Z5.000
G0 X80.728 Y-12.867 Z3.000
G1 X80.728 Y-12.867 Z-4.000 F600.000
G2 X80.168 Y-13.264 Z-4.000 I-0.824 J0.567 K0.000 F600.000
G1 X78.062 Y-13.842 Z-4.000 F600.000
G1 X77.797 Y-13.878 Z-4.000 F600.000
G1 X72.203 Y-13.878 Z-4.000 F600.000
G2 X70.244 Y-13.762 Z-4.000 I1.684 J45.317 K0.000 F600.000
G2 X68.135 Y-13.400 Z-4.000 I0.196 J7.477 K0.000 F600.000
G2 X67.040 Y-12.180 Z-4.000 I0.472 J1.524 K0.000 F600.000
G3 X66.931 Y-9.960 Z-4.000 I-88.696 J-3.238 K0.000 F600.000
G3 X66.606 Y-9.098 Z-4.000 I-1.342 J-0.015 K0.000 F600.000
G2 X65.737 Y-8.716 Z-4.000 I7.881 J19.094 K0.000 F600.000
G2 X64.614 Y-7.468 Z-4.000 I2.522 J3.397 K0.000 F600.000
G3 X63.617 Y-5.794 Z-4.000 I-24.590 J-13.518 K0.000 F600.000
G1 X62.960 Y-4.947 Z-4.000 F600.000
G1 X60.822 Y-4.013 Z-4.000 F600.000
G3 X59.212 Y-4.727 Z-4.000 I0.149 J-2.506 K0.000 F600.000
G3 X57.216 Y-7.712 Z-4.000 I12.951 J-10.822 K0.000 F600.000
G2 X56.407 Y-8.624 Z-4.000 I-2.526 J1.426 K0.000 F600.000
G2 X55.444 Y-9.115 Z-4.000 I-5.043 J8.690 K0.000 F600.000
G1 X55.032 Y-9.856 Z-4.000 F600.000
G1 X54.785 Y-10.149 Z-4.000 F600.000
G1 X50.424 Y-13.657 Z-4.000 F600.000
G2 X49.797 Y-13.878 Z-4.000 I-0.627 J0.779 K0.000 F600.000
G1 X44.203 Y-13.878 Z-4.000 F600.000
G2 X42.807 Y-13.720 Z-4.000 I0.152 J7.618 K0.000 F600.000
G2 X41.409 Y-13.044 Z-4.000 I0.184 J2.163 K0.000 F600.000
G2 X40.999 Y-11.438 Z-4.000 I1.826 J1.322 K0.000 F600.000
G3 X40.291 Y-9.511 Z-4.000 I-2.377 J0.220 K0.000 F600.000
G2 X38.804 Y-8.282 Z-4.000 I44.339 J55.166 K0.000 F600.000
G2 X36.955 Y-5.826 Z-4.000 I3.969 J4.913 K0.000 F600.000
G2 X36.161 Y-2.406 Z-4.000 I15.749 J5.456 K0.000 F600.000
G2 X35.442 Y13.780 Z-4.000 I130.675 J13.916 K0.000 F600.000
G2 X37.096 Y27.917 Z-4.000 I64.628 J-0.395 K0.000 F600.000
G3 X38.308 Y33.633 Z-4.000 I-96.331 J23.424 K0.000 F600.000
G3 X37.970 Y37.993 Z-4.000 I-8.185 J1.559 K0.000 F600.000
G2 X35.693 Y43.856 Z-4.000 I42.022 J19.699 K0.000 F600.000
G2 X37.042 Y48.976 Z-4.000 I4.671 J1.507 K0.000 F600.000
G2 X39.227 Y49.152 Z-4.000 I1.201 J-1.267 K0.000 F600.000
G2 X40.115 Y48.331 Z-4.000 I-30.121 J-33.498 K0.000 F600.000
G3 X40.651 Y48.100 Z-4.000 I0.506 J0.437 K0.000 F600.000
G3 X40.908 Y48.394 Z-4.000 I-0.184 J0.421 K0.000 F600.000
G3 X41.319 Y49.530 Z-4.000 I-12.236 J5.063 K0.000 F600.000
G2 X43.279 Y56.762 Z-4.000 I187.383 J-46.919 K0.000 F600.000
G1 X43.092 Y58.554 Z-4.000 F600.000
G2 X43.915 Y75.498 Z-4.000 I0.905 J8.448 K0.000 F600.000
G1 X52.872 Y75.479 Z-4.000 F600.000
G1 X61.029 Y75.000 Z-4.000 F600.000
G3 X63.568 Y75.045 Z-4.000 I0.571 J39.916 K0.000 F600.000
G3 X67.927 Y75.424 Z-4.000 I-11.659 J159.219 K0.000 F600.000
G2 X78.037 Y75.500 Z-4.000 I6.635 J-209.996 K0.000 F600.000
G2 X78.660 Y58.536 Z-4.000 I-0.033 J-8.495 K0.000 F600.000
G3 X78.582 Y58.163 Z-4.000 I1.147 J-0.435 K0.000 F600.000
G3 X78.788 Y56.385 Z-4.000 I7.354 J-0.049 K0.000 F600.000
G2 X80.265 Y51.141 Z-4.000 I-266.162 J-77.800 K0.000 F600.000
G3 X80.870 Y48.909 Z-4.000 I25.657 J5.756 K0.000 F600.000
G3 X81.296 Y48.119 Z-4.000 I1.697 J0.405 K0.000 F600.000
G3 X81.745 Y48.218 Z-4.000 I0.092 J0.651 K0.000 F600.000
G3 X82.458 Y48.861 Z-4.000 I-9.526 J11.283 K0.000 F600.000
G2 X84.703 Y49.184 Z-4.000 I1.307 J-1.117 K0.000 F600.000
G2 X86.473 Y44.557 Z-4.000 I-3.014 J-3.805 K0.000 F600.000
G2 X84.499 Y39.067 Z-4.000 I-29.490 J7.505 K0.000 F600.000
G3 X83.549 Y34.921 Z-4.000 I7.146 J-3.820 K0.000 F600.000
G3 X84.362 Y30.239 Z-4.000 I40.503 J4.624 K0.000 F600.000
G2 X86.587 Y13.490 Z-4.000 I-66.767 J-17.391 K0.000 F600.000
G2 X85.945 Y-1.469 Z-4.000 I-139.201 J-1.522 K0.000 F600.000
G2 X85.489 Y-4.381 Z-4.000 I-24.251 J2.307 K0.000 F600.000
G2 X83.462 Y-8.054 Z-4.000 I-6.526 J1.206 K0.000 F600.000
G3 X81.906 Y-9.345 Z-4.000 I73.510 J-90.180 K0.000 F600.000
G3 X81.040 Y-10.783 Z-4.000 I1.351 J-1.793 K0.000 F600.000
G2 X80.900 Y-12.389 Z-4.000 I-95.593 J7.544 K0.000 F600.000
G2 X80.728 Y-12.867 Z-4.000 I-0.996 J0.089 K0.000 F600.000
G0 Z5.000
G0 X67.407 Y-27.461 Z5.000
G0 X67.407 Y-27.461 Z3.000
G1 X67.407 Y-27.461 Z-4.000 F600.000
G2 X68.092 Y-28.243 Z-4.000 I-3.147 J-3.448 K0.000 F600.000
G2 X69.761 Y-31.994 Z-4.000 I-10.828 J-7.066 K0.000 F600.000
G2 X70.778 Y-38.261 Z-4.000 I-39.669 J-9.652 K0.000 F600.000
G2 X71.171 Y-45.001 Z-4.000 I-147.690 J-11.995 K0.000 F600.000
G2 X70.839 Y-64.535 Z-4.000 I-193.261 J-6.485 K0.000 F600.000
G2 X70.037 Y-70.316 Z-4.000 I-42.065 J2.888 K0.000 F600.000
G2 X68.535 Y-74.531 Z-4.000 I-14.402 J2.757 K0.000 F600.000
G2 X66.618 Y-76.617 Z-4.000 I-4.857 J2.540 K0.000 F600.000
G2 X65.790 Y-76.969 Z-4.000 I-1.413 J2.177 K0.000 F600.000
G2 X64.064 Y-76.556 Z-4.000 I-0.444 J1.962 K0.000 F600.000
G2 X62.712 Y-75.001 Z-4.000 I9.693 J9.790 K0.000 F600.000
G2 X62.194 Y-74.186 Z-4.000 I1.799 J1.716 K0.000 F600.000
G3 X62.041 Y-73.811 Z-4.000 I-0.805 J-0.109 K0.000 F600.000
G3 X61.326 Y-73.172 Z-4.000 I-3.580 J-3.287 K0.000 F600.000
G3 X55.601 Y-70.737 Z-4.000 I-7.743 J-10.257 K0.000 F600.000
G1 X54.513 Y-70.743 Z-4.000 F600.000
G2 X53.593 Y-70.144 Z-4.000 I-0.005 J1.000 K0.000 F600.000
G2 X53.405 Y-69.113 Z-4.000 I3.842 J1.233 K0.000 F600.000
G3 X52.966 Y-67.526 Z-4.000 I-4.571 J-0.410 K0.000 F600.000
G3 X51.448 Y-66.588 Z-4.000 I-1.826 J-1.257 K0.000 F600.000
G3 X48.234 Y-66.419 Z-4.000 I-2.910 J-24.577 K0.000 F600.000
G2 X35.746 Y-66.651 Z-4.000 I-13.080 J367.691 K0.000 F600.000
G2 X34.743 Y-65.646 Z-4.000 I-0.004 J1.000 K0.000 F600.000
G2 X35.109 Y-56.923 Z-4.000 I75.640 J1.194 K0.000 F600.000
G1 X35.257 Y-52.723 Z-4.000 F600.000
G3 X35.072 Y-45.940 Z-4.000 I-74.424 J1.357 K0.000 F600.000
G2 X34.743 Y-37.835 Z-4.000 I72.538 J7.004 K0.000 F600.000
G2 X35.745 Y-36.835 Z-4.000 I1.000 J0.001 K0.000 F600.000
G1 X38.040 Y-36.841 Z-4.000 F600.000
G2 X48.652 Y-37.060 Z-4.000 I-160.348 J-8045.178 K0.000 F600.000
G3 X51.568 Y-36.857 Z-4.000 I0.566 J12.965 K0.000 F600.000
G3 X53.146 Y-35.575 Z-4.000 I-0.251 J1.920 K0.000 F600.000
G3 X53.519 Y-33.597 Z-4.000 I-13.333 J3.541 K0.000 F600.000
G2 X54.549 Y-32.743 Z-4.000 I0.989 J-0.146 K0.000 F600.000
G3 X55.791 Y-32.731 Z-4.000 I0.563 J5.904 K0.000 F600.000
G3 X61.833 Y-29.892 Z-4.000 I-2.265 J12.667 K0.000 F600.000
G3 X62.127 Y-29.518 Z-4.000 I-0.963 J1.059 K0.000 F600.000
G2 X62.357 Y-28.957 Z-4.000 I1.737 J-0.384 K0.000 F600.000
G2 X63.847 Y-27.119 Z-4.000 I16.187 J-11.608 K0.000 F600.000
G2 X65.943 Y-26.554 Z-4.000 I1.492 J-1.366 K0.000 F600.000
G2 X67.407 Y-27.461 Z-4.000 I-1.683 J-4.354 K0.000 F600.000
G1 X67.407 Y-27.461 Z-5.000 F600.000
G2 X68.092 Y-28.243 Z-5.000 I-3.147 J-3.448 K0.000 F600.000
G2 X69.761 Y-31.994 Z-5.000 I-10.828 J-7.066 K0.000 F600.000
G2 X70.778 Y-38.261 Z-5.000 I-39.669 J-9.652 K0.000 F600.000
G2 X71.171 Y-45.001 Z-5.000 I-147.690 J-11.995 K0.000 F600.000
G2 X70.839 Y-64.535 Z-5.000 I-193.261 J-6.485 K0.000 F600.000
G2 X70.037 Y-70.316 Z-5.000 I-42.065 J2.888 K0.000 F600.000
G2 X68.535 Y-74.531 Z-5.000 I-14.402 J2.757 K0.000 F600.000
G2 X66.618 Y-76.617 Z-5.000 I-4.857 J2.540 K0.000 F600.000
G2 X65.790 Y-76.969 Z-5.000 I-1.413 J2.177 K0.000 F600.000
G2 X64.064 Y-76.556 Z-5.000 I-0.444 J1.962 K0.000 F600.000
G2 X62.712 Y-75.001 Z-5.000 I9.693 J9.790 K0.000 F600.000
G2 X62.194 Y-74.186 Z-5.000 I1.799 J1.716 K0.000 F600.000
G3 X62.041 Y-73.811 Z-5.000 I-0.805 J-0.109 K0.000 F600.000
G3 X61.326 Y-73.172 Z-5.000 I-3.580 J-3.287 K0.000 F600.000
G3 X55.601 Y-70.737 Z-5.000 I-7.743 J-10.257 K0.000 F600.000
G1 X54.513 Y-70.743 Z-5.000 F600.000
G2 X53.593 Y-70.144 Z-5.000 I-0.005 J1.000 K0.000 F600.000
G2 X53.405 Y-69.113 Z-5.000 I3.842 J1.233 K0.000 F600.000
G3 X52.966 Y-67.526 Z-5.000 I-4.571 J-0.410 K0.000 F600.000
G3 X51.448 Y-66.588 Z-5.000 I-1.826 J-1.257 K0.000 F600.000
G3 X48.234 Y-66.419 Z-5.000 I-2.910 J-24.577 K0.000 F600.000
G2 X35.746 Y-66.651 Z-5.000 I-13.080 J367.691 K0.000 F600.000
G2 X34.743 Y-65.646 Z-5.000 I-0.004 J1.000 K0.000 F600.000
G2 X35.109 Y-56.923 Z-5.000 I75.640 J1.194 K0.000 F600.000
G1 X35.257 Y-52.723 Z-5.000 F600.000
G3 X35.072 Y-45.940 Z-5.000 I-74.424 J1.357 K0.000 F600.000
G2 X34.743 Y-37.835 Z-5.000 I72.538 J7.004 K0.000 F600.000
G2 X35.745 Y-36.835 Z-5.000 I1.000 J0.001 K0.000 F600.000
G1 X38.040 Y-36.841 Z-5.000 F600.000
G2 X48.652 Y-37.060 Z-5.000 I-160.348 J-8045.178 K0.000 F600.000
G3 X51.568 Y-36.857 Z-5.000 I0.566 J12.965 K0.000 F600.000
G3 X53.146 Y-35.575 Z-5.000 I-0.251 J1.920 K0.000 F600.000
G3 X53.519 Y-33.597 Z-5.000 I-13.333 J3.541 K0.000 F600.000
G2 X54.549 Y-32.743 Z-5.000 I0.989 J-0.146 K0.000 F600.000
G3 X55.791 Y-32.731 Z-5.000 I0.563 J5.904 K0.000 F600.000
G3 X61.833 Y-29.892 Z-5.000 I-2.265 J12.667 K0.000 F600.000
G3 X62.127 Y-29.518 Z-5.000 I-0.963 J1.059 K0.000 F600.000
G2 X62.357 Y-28.957 Z-5.000 I1.737 J-0.384 K0.000 F600.000
G2 X63.847 Y-27.119 Z-5.000 I16.187 J-11.608 K0.000 F600.000
G2 X65.943 Y-26.554 Z-5.000 I1.492 J-1.366 K0.000 F600.000
G2 X67.407 Y-27.461 Z-5.000 I-1.683 J-4.354 K0.000 F600.000
G0 Z5.000
G0 X69.380 Y-13.689 Z5.000
G0 X69.380 Y-13.689 Z3.000
G1 X69.380 Y-13.689 Z-5.000 F600.000
G2 X68.135 Y-13.400 Z-5.000 I1.061 J7.404 K0.000 F600.000
G2 X67.040 Y-12.180 Z-5.000 I0.472 J1.524 K0.000 F600.000
G3 X66.931 Y-9.960 Z-5.000 I-88.696 J-3.238 K0.000 F600.000
G3 X66.606 Y-9.098 Z-5.000 I-1.342 J-0.015 K0.000 F600.000
G2 X65.737 Y-8.716 Z-5.000 I7.881 J19.094 K0.000 F600.000
G2 X64.614 Y-7.468 Z-5.000 I2.522 J3.397 K0.000 F600.000
G3 X63.617 Y-5.794 Z-5.000 I-24.590 J-13.518 K0.000 F600.000
G1 X62.960 Y-4.947 Z-5.000 F600.000
G1 X60.822 Y-4.013 Z-5.000 F600.000
G3 X59.212 Y-4.727 Z-5.000 I0.149 J-2.506 K0.000 F600.000
G3 X57.216 Y-7.712 Z-5.000 I12.951 J-10.822 K0.000 F600.000
G2 X56.407 Y-8.624 Z-5.000 I-2.526 J1.426 K0.000 F600.000
G2 X55.444 Y-9.115 Z-5.000 I-5.043 J8.690 K0.000 F600.000
G1 X55.032 Y-9.856 Z-5.000 F600.000
G1 X54.785 Y-10.149 Z-5.000 F600.000
G1 X50.424 Y-13.657 Z-5.000 F600.000
G2 X49.797 Y-13.878 Z-5.000 I-0.627 J0.779 K0.000 F600.000
G1 X44.203 Y-13.878 Z-5.000 F600.000
G2 X42.807 Y-13.720 Z-5.000 I0.152 J7.618 K0.000 F600.000
G2 X41.409 Y-13.044 Z-5.000 I0.184 J2.163 K0.000 F600.000
G2 X40.999 Y-11.438 Z-5.000 I1.826 J1.322 K0.000 F600.000
G3 X40.291 Y-9.511 Z-5.000 I-2.377 J0.220 K0.000 F600.000
G2 X38.804 Y-8.282 Z-5.000 I44.339 J55.166 K0.000 F600.000
G2 X36.955 Y-5.826 Z-5.000 I3.969 J4.913 K0.000 F600.000
G2 X36.161 Y-2.406 Z-5.000 I15.749 J5.456 K0.000 F600.000
G2 X35.442 Y13.780 Z-5.000 I130.675 J13.916 K0.000 F600.000
G2 X37.096 Y27.917 Z-5.000 I64.628 J-0.395 K0.000 F600.000
G3 X38.308 Y33.633 Z-5.000 I-96.331 J23.424 K0.000 F600.000
G3 X37.970 Y37.993 Z-5.000 I-8.185 J1.559 K0.000 F600.000
G2 X35.693 Y43.856 Z-5.000 I42.022 J19.699 K0.000 F600.000
G2 X37.042 Y48.976 Z-5.000 I4.671 J1.507 K0.000 F600.000
G2 X39.227 Y49.152 Z-5.000 I1.201 J-1.267 K0.000 F600.000
G2 X40.115 Y48.331 Z-5.000 I-30.121 J-33.498 K0.000 F600.000
G3 X40.651 Y48.100 Z-5.000 I0.506 J0.437 K0.000 F600.000
G3 X40.908 Y48.394 Z-5.000 I-0.184 J0.421 K0.000 F600.000
G3 X41.319 Y49.530 Z-5.000 I-12.236 J5.063 K0.000 F600.000
G2 X43.279 Y56.762 Z-5.000 I187.383 J-46.919 K0.000 F600.000
G1 X43.092 Y58.554 Z-5.000 F600.000
G2 X43.915 Y75.498 Z-5.000 I0.905 J8.448 K0.000 F600.000
G1 X52.872 Y75.479 Z-5.000 F600.000
G1 X61.029 Y75.000 Z-5.000 F600.000
G3 X63.568 Y75.045 Z-5.000 I0.571 J39.916 K0.000 F600.000
G3 X67.927 Y75.424 Z-5.000 I-11.659 J159.219 K0.000 F600.000
G2 X78.037 Y75.500 Z-5.000 I6.635 J-209.996 K0.000 F600.000
G2 X78.660 Y58.536 Z-5.000 I-0.033 J-8.495 K0.000 F600.000
G3 X78.582 Y58.163 Z-5.000 I1.147 J-0.435 K0.000 F600.000
G3 X78.788 Y56.385 Z-5.000 I7.354 J-0.049 K0.000 F600.000
G2 X80.265 Y51.141 Z-5.000 I-266.162 J-77.800 K0.000 F600.000
G3 X80.870 Y48.909 Z-5.000 I25.657 J5.756 K0.000 F600.000
G3 X81.296 Y48.119 Z-5.000 I1.697 J0.405 K0.000 F600.000
G3 X81.745 Y48.218 Z-5.000 I0.092 J0.651 K0.000 F600.000
G3 X82.458 Y48.861 Z-5.000 I-9.526 J11.283 K0.000 F600.000
G2 X84.703 Y49.184 Z-5.000 I1.307 J-1.117 K0.000 F600.000
G2 X86.473 Y44.557 Z-5.000 I-3.014 J-3.805 K0.000 F600.000
G2 X84.499 Y39.067 Z-5.000 I-29.490 J7.505 K0.000 F600.000
G3 X83.549 Y34.921 Z-5.000 I7.146 J-3.820 K0.000 F600.000
G3 X84.362 Y30.239 Z-5.000 I40.503 J4.624 K0.000 F600.000
G2 X86.587 Y13.490 Z-5.000 I-66.767 J-17.391 K0.000 F600.000
G2 X85.945 Y-1.469 Z-5.000 I-139.201 J-1.522 K0.000 F600.000
G2 X85.489 Y-4.381 Z-5.000 I-24.251 J2.307 K0.000 F600.000
G2 X83.462 Y-8.054 Z-5.000 I-6.526 J1.206 K0.000 F600.000
G3 X81.906 Y-9.345 Z-5.000 I73.510 J-90.180 K0.000 F600.000
G3 X81.040 Y-10.783 Z-5.000 I1.351 J-1.793 K0.000 F600.000
G2 X80.900 Y-12.389 Z-5.000 I-95.593 J7.544 K0.000 F600.000
G2 X80.168 Y-13.264 Z-5.000 I-0.996 J0.089 K0.000 F600.000
G1 X78.062 Y-13.842 Z-5.000 F600.000
G1 X77.797 Y-13.878 Z-5.000 F600.000
G1 X72.203 Y-13.878 Z-5.000 F600.000
G2 X70.244 Y-13.762 Z-5.000 I1.684 J45.317 K0.000 F600.000
G2 X69.380 Y-13.689 Z-5.000 I0.196 J7.477 K0.000 F600.000
G0 Z5.000
G0 X83.560 Y-27.491 Z5.000
G0 X83.560 Y-27.491 Z3.000
G1 X83.560 Y-27.491 Z-5.000 F600.000
G2 X84.804 Y-26.662 Z-5.000 I2.556 J-2.488 K0.000 F600.000
G2 X86.936 Y-26.929 Z-5.000 I0.859 J-1.782 K0.000 F600.000
G2 X88.288 Y-28.484 Z-5.000 I-9.693 J-9.790 K0.000 F600.000
G2 X88.806 Y-29.300 Z-5.000 I-1.799 J-1.716 K0.000 F600.000
G3 X88.959 Y-29.674 Z-5.000 I0.805 J0.109 K0.000 F600.000
G3 X89.674 Y-30.313 Z-5.000 I3.580 J3.287 K0.000 F600.000
G3 X95.399 Y-32.748 Z-5.000 I7.743 J10.257 K0.000 F600.000
G1 X96.487 Y-32.743 Z-5.000 F600.000
G2 X97.407 Y-33.341 Z-5.000 I0.005 J-1.000 K0.000 F600.000
G2 X97.595 Y-34.373 Z-5.000 I-3.842 J-1.233 K0.000 F600.000
G3 X98.034 Y-35.959 Z-5.000 I4.571 J0.410 K0.000 F600.000
G3 X99.552 Y-36.897 Z-5.000 I1.826 J1.257 K0.000 F600.000
G3 X102.766 Y-37.067 Z-5.000 I2.910 J24.577 K0.000 F600.000
G2 X115.254 Y-36.835 Z-5.000 I13.080 J-367.692 K0.000 F600.000
G2 X116.257 Y-37.839 Z-5.000 I0.004 J-1.000 K0.000 F600.000
G2 X115.891 Y-46.563 Z-5.000 I-75.640 J-1.194 K0.000 F600.000
G1 X115.743 Y-50.762 Z-5.000 F600.000
G3 X115.928 Y-57.545 Z-5.000 I74.424 J-1.357 K0.000 F600.000
G2 X116.257 Y-65.650 Z-5.000 I-72.538 J-7.004 K0.000 F600.000
G2 X115.255 Y-66.651 Z-5.000 I-1.000 J-0.001 K0.000 F600.000
G1 X112.960 Y-66.644 Z-5.000 F600.000
G2 X102.348 Y-66.426 Z-5.000 I160.355 J8045.490 K0.000 F600.000
G3 X99.432 Y-66.628 Z-5.000 I-0.566 J-12.965 K0.000 F600.000
G3 X97.854 Y-67.910 Z-5.000 I0.251 J-1.920 K0.000 F600.000
G3 X97.481 Y-69.888 Z-5.000 I13.333 J-3.541 K0.000 F600.000
G2 X96.451 Y-70.742 Z-5.000 I-0.989 J0.146 K0.000 F600.000
G3 X95.209 Y-70.754 Z-5.000 I-0.563 J-5.904 K0.000 F600.000
G3 X89.167 Y-73.594 Z-5.000 I2.265 J-12.667 K0.000 F600.000
G3 X88.873 Y-73.967 Z-5.000 I0.963 J-1.059 K0.000 F600.000
G2 X88.643 Y-74.529 Z-5.000 I-1.737 J0.384 K0.000 F600.000
G2 X87.317 Y-76.191 Z-5.000 I-17.641 J12.710 K0.000 F600.000
G2 X86.134 Y-76.969 Z-5.000 I-1.906 J1.611 K0.000 F600.000
G2 X84.474 Y-76.677 Z-5.000 I-0.439 J2.373 K0.000 F600.000
G2 X82.438 Y-74.513 Z-5.000 I3.110 J4.964 K0.000 F600.000
G2 X80.908 Y-70.127 Z-5.000 I15.170 J7.754 K0.000 F600.000
G2 X80.137 Y-64.280 Z-5.000 I57.737 J10.587 K0.000 F600.000
G2 X79.971 Y-41.722 Z-5.000 I204.399 J12.778 K0.000 F600.000
G2 X80.663 Y-34.748 Z-5.000 I61.033 J-2.528 K0.000 F600.000
G2 X81.653 Y-30.730 Z-5.000 I20.904 J-3.024 K0.000 F600.000
G2 X83.385 Y-27.685 Z-5.000 I8.349 J-2.731 K0.000 F600.000
G2 X83.560 Y-27.491 Z-5.000 I2.731 J-2.294 K0.000 F600.000
G0 Z5.000
G0 X101.409 Y-13.044 Z5.000
G0 X101.409 Y-13.044 Z3.000
G1 X101.409 Y-13.044 Z-5.000 F600.000
G2 X100.999 Y-11.438 Z-5.000 I1.826 J1.322 K0.000 F600.000
G3 X100.291 Y-9.511 Z-5.000 I-2.377 J0.220 K0.000 F600.000
G2 X98.804 Y-8.282 Z-5.000 I44.338 J55.165 K0.000 F600.000
G2 X96.955 Y-5.826 Z-5.000 I3.969 J4.913 K0.000 F600.000
G2 X96.161 Y-2.406 Z-5.000 I15.749 J5.456 K0.000 F600.000
G2 X95.442 Y13.780 Z-5.000 I130.675 J13.916 K0.000 F600.000
G2 X97.096 Y27.917 Z-5.000 I64.628 J-0.395 K0.000 F600.000
G3 X98.308 Y33.633 Z-5.000 I-96.330 J23.423 K0.000 F600.000
G3 X97.970 Y37.993 Z-5.000 I-8.185 J1.559 K0.000 F600.000
G2 X95.693 Y43.856 Z-5.000 I42.022 J19.699 K0.000 F600.000
G2 X97.042 Y48.976 Z-5.000 I4.671 J1.507 K0.000 F600.000
G2 X99.227 Y49.152 Z-5.000 I1.201 J-1.267 K0.000 F600.000
G2 X100.115 Y48.331 Z-5.000 I-30.121 J-33.498 K0.000 F600.000
G3 X100.651 Y48.100 Z-5.000 I0.506 J0.437 K0.000 F600.000
G3 X100.908 Y48.394 Z-5.000 I-0.184 J0.421 K0.000 F600.000
G3 X101.319 Y49.530 Z-5.000 I-12.236 J5.063 K0.000 F600.000
G2 X103.279 Y56.762 Z-5.000 I187.383 J-46.919 K0.000 F600.000
G1 X103.092 Y58.554 Z-5.000 F600.000
G2 X103.915 Y75.498 Z-5.000 I0.905 J8.448 K0.000 F600.000
G1 X112.872 Y75.479 Z-5.000 F600.000
G1 X121.029 Y75.000 Z-5.000 F600.000
G3 X123.568 Y75.045 Z-5.000 I0.571 J39.916 K0.000 F600.000
G3 X127.927 Y75.424 Z-5.000 I-11.659 J159.218 K0.000 F600.000
G2 X138.037 Y75.500 Z-5.000 I6.635 J-209.996 K0.000 F600.000
G2 X138.660 Y58.536 Z-5.000 I-0.033 J-8.495 K0.000 F600.000
G3 X138.582 Y58.163 Z-5.000 I1.147 J-0.435 K0.000 F600.000
G3 X138.788 Y56.385 Z-5.000 I7.354 J-0.049 K0.000 F600.000
G2 X140.265 Y51.141 Z-5.000 I-266.163 J-77.800 K0.000 F600.000
G3 X140.870 Y48.909 Z-5.000 I25.657 J5.756 K0.000 F600.000
G3 X141.296 Y48.119 Z-5.000 I1.697 J0.405 K0.000 F600.000
G3 X141.745 Y48.218 Z-5.000 I0.092 J0.651 K0.000 F600.000
G3 X142.458 Y48.861 Z-5.000 I-9.526 J11.283 K0.000 F600.000
G2 X144.703 Y49.184 Z-5.000 I1.307 J-1.117 K0.000 F600.000
G2 X146.473 Y44.557 Z-5.000 I-3.014 J-3.805 K0.000 F600.000
G2 X144.499 Y39.067 Z-5.000 I-29.490 J7.505 K0.000 F600.000
G3 X143.549 Y34.921 Z-5.000 I7.146 J-3.820 K0.000 F600.000
G3 X144.362 Y30.239 Z-5.000 I40.503 J4.624 K0.000 F600.000
G2 X146.587 Y13.490 Z-5.000 I-66.767 J-17.391 K0.000 F600.000
G2 X145.945 Y-1.469 Z-5.000 I-139.201 J-1.522 K0.000 F600.000
G2 X145.489 Y-4.381 Z-5.000 I-24.251 J2.307 K0.000 F600.000
G2 X143.462 Y-8.054 Z-5.000 I-6.526 J1.206 K0.000 F600.000
G3 X141.906 Y-9.345 Z-5.000 I73.509 J-90.179 K0.000 F600.000
G3 X141.040 Y-10.783 Z-5.000 I1.351 J-1.793 K0.000 F600.000
G2 X140.900 Y-12.389 Z-5.000 I-95.591 J7.544 K0.000 F600.000
G2 X140.168 Y-13.264 Z-5.000 I-0.996 J0.089 K0.000 F600.000
G1 X138.062 Y-13.842 Z-5.000 F600.000
G1 X137.797 Y-13.878 Z-5.000 F600.000
G1 X132.203 Y-13.878 Z-5.000 F600.000
G2 X130.244 Y-13.762 Z-5.000 I1.684 J45.317 K0.000 F600.000
G2 X128.135 Y-13.400 Z-5.000 I0.196 J7.477 K0.000 F600.000
G2 X127.040 Y-12.180 Z-5.000 I0.472 J1.524 K0.000 F600.000
G3 X126.931 Y-9.960 Z-5.000 I-88.696 J-3.238 K0.000 F600.000
G3 X126.606 Y-9.098 Z-5.000 I-1.342 J-0.015 K0.000 F600.000
G2 X125.737 Y-8.716 Z-5.000 I7.882 J19.095 K0.000 F600.000
G2 X124.614 Y-7.468 Z-5.000 I2.522 J3.397 K0.000 F600.000
G3 X123.617 Y-5.794 Z-5.000 I-24.590 J-13.518 K0.000 F600.000
G1 X122.960 Y-4.947 Z-5.000 F600.000
G1 X120.822 Y-4.013 Z-5.000 F600.000
G3 X119.212 Y-4.727 Z-5.000 I0.149 J-2.506 K0.000 F600.000
G3 X117.216 Y-7.712 Z-5.000 I12.951 J-10.822 K0.000 F600.000
G2 X116.407 Y-8.624 Z-5.000 I-2.526 J1.426 K0.000 F600.000
G2 X115.444 Y-9.115 Z-5.000 I-5.043 J8.690 K0.000 F600.000
G1 X115.032 Y-9.856 Z-5.000 F600.000
G1 X114.785 Y-10.149 Z-5.000 F600.000
G1 X110.424 Y-13.657 Z-5.000 F600.000
G2 X109.797 Y-13.878 Z-5.000 I-0.627 J0.779 K0.000 F600.000
G1 X104.203 Y-13.878 Z-5.000 F600.000
G2 X102.807 Y-13.720 Z-5.000 I0.152 J7.618 K0.000 F600.000
G2 X101.409 Y-13.044 Z-5.000 I0.184 J2.163 K0.000 F600.000
G0 Z5.000
G0 X139.392 Y-28.001 Z5.000
G0 X139.392 Y-28.001 Z3.000
G1 X139.392 Y-28.001 Z-5.000 F600.000
G2 X142.114 Y-24.158 Z-5.000 I9.176 J-3.613 K0.000 F600.000
G2 X151.532 Y-23.479 Z-5.000 I5.172 J-6.085 K0.000 F600.000
G2 X155.821 Y-30.894 Z-5.000 I-5.428 J-8.089 K0.000 F600.000
G2 X157.259 Y-30.714 Z-5.000 I2.062 J-10.656 K0.000 F600.000
G2 X160.992 Y-30.720 Z-5.000 I1.787 J-54.754 K0.000 F600.000
G2 X166.177 Y-30.885 Z-5.000 I1.748 J-26.553 K0.000 F600.000
G2 X168.422 Y-25.302 Z-5.000 I9.759 J-0.680 K0.000 F600.000
G2 X174.841 Y-22.259 Z-5.000 I6.320 J-5.039 K0.000 F600.000
G2 X181.131 Y-25.415 Z-5.000 I-0.278 J-8.397 K0.000 F600.000
G2 X181.207 Y-37.878 Z-5.000 I-7.995 J-6.280 K0.000 F600.000
G1 X183.803 Y-39.846 Z-5.000 F600.000
G2 X186.189 Y-41.926 Z-5.000 I-12.741 J-17.019 K0.000 F600.000
G2 X186.996 Y-43.768 Z-5.000 I-1.871 J-1.918 K0.000 F600.000
G2 X185.896 Y-46.245 Z-5.000 I-4.003 J0.294 K0.000 F600.000
G2 X182.933 Y-46.953 Z-5.000 I-1.945 J1.585 K0.000 F600.000
G3 X184.129 Y-49.076 Z-5.000 I5.327 J1.602 K0.000 F600.000
G2 X185.593 Y-50.377 Z-5.000 I-59.114 J-68.043 K0.000 F600.000
G2 X186.074 Y-53.022 Z-5.000 I-1.498 J-1.638 K0.000 F600.000
G2 X183.257 Y-55.718 Z-5.000 I-6.114 J3.568 K0.000 F600.000
G1 X181.200 Y-56.593 Z-5.000 F600.000
G2 X181.105 Y-62.784 Z-5.000 I-259.338 J0.880 K0.000 F600.000
G3 X181.053 Y-67.968 Z-5.000 I59.998 J-3.196 K0.000 F600.000
G3 X181.680 Y-72.493 Z-5.000 I18.077 J0.196 K0.000 F600.000
G3 X184.352 Y-77.041 Z-5.000 I9.267 J2.386 K0.000 F600.000
G2 X184.093 Y-78.626 Z-5.000 I-0.718 J-0.696 K0.000 F600.000
G1 X183.837 Y-78.717 Z-5.000 F600.000
G2 X181.548 Y-78.431 Z-5.000 I-0.244 J7.349 K0.000 F600.000
G2 X177.520 Y-76.870 Z-5.000 I10.346 J32.685 K0.000 F600.000
G3 X175.507 Y-75.952 Z-5.000 I-14.598 J-29.331 K0.000 F600.000
G2 X174.831 Y-77.657 Z-5.000 I-12.862 J4.112 K0.000 F600.000
G2 X172.792 Y-78.557 Z-5.000 I-1.607 J0.881 K0.000 F600.000
G2 X170.847 Y-77.725 Z-5.000 I3.487 J10.835 K0.000 F600.000
G3 X169.410 Y-77.022 Z-5.000 I-3.809 J-5.968 K0.000 F600.000
G3 X168.958 Y-76.913 Z-5.000 I-0.426 J-0.775 K0.000 F600.000
G2 X167.959 Y-77.626 Z-5.000 I-4.759 J5.611 K0.000 F600.000
G2 X165.687 Y-78.380 Z-5.000 I-3.410 J6.476 K0.000 F600.000
G1 X161.077 Y-78.734 Z-5.000 F600.000
G2 X155.817 Y-78.279 Z-5.000 I-0.654 J23.045 K0.000 F600.000
G2 X153.038 Y-76.912 Z-5.000 I1.109 J5.763 K0.000 F600.000
G3 X151.842 Y-77.345 Z-5.000 I0.815 J-4.117 K0.000 F600.000
G2 X149.278 Y-78.545 Z-5.000 I-7.148 J11.945 K0.000 F600.000
G2 X147.338 Y-77.905 Z-5.000 I-0.496 J1.756 K0.000 F600.000
G2 X146.498 Y-75.950 Z-5.000 I6.872 J4.109 K0.000 F600.000
G2 X141.592 Y-78.053 Z-5.000 I-28.103 J58.793 K0.000 F600.000
G1 X138.580 Y-78.714 Z-5.000 F600.000
G2 X137.645 Y-77.045 Z-5.000 I-0.215 J0.977 K0.000 F600.000
G3 X140.131 Y-73.152 Z-5.000 I-6.727 J7.036 K0.000 F600.000
G3 X140.918 Y-68.811 Z-5.000 I-17.798 J5.469 K0.000 F600.000
G3 X140.930 Y-63.868 Z-5.000 I-56.353 J2.610 K0.000 F600.000
G2 X140.793 Y-56.678 Z-5.000 I182.897 J7.064 K0.000 F600.000
G2 X136.526 Y-53.926 Z-5.000 I3.205 J9.654 K0.000 F600.000
G2 X135.964 Y-53.103 Z-5.000 I2.673 J2.430 K0.000 F600.000
G2 X136.159 Y-50.663 Z-5.000 I1.918 J1.074 K0.000 F600.000
G2 X137.378 Y-49.505 Z-5.000 I8.876 J-8.116 K0.000 F600.000
G3 X139.077 Y-46.935 Z-5.000 I-3.180 J3.950 K0.000 F600.000
G2 X136.926 Y-46.911 Z-5.000 I-1.050 J2.276 K0.000 F600.000
G2 X135.197 Y-44.734 Z-5.000 I1.995 J3.360 K0.000 F600.000
G2 X135.452 Y-42.388 Z-5.000 I2.234 J0.943 K0.000 F600.000
G2 X136.977 Y-40.823 Z-5.000 I8.683 J-6.933 K0.000 F600.000
G2 X140.789 Y-37.866 Z-5.000 I75.173 J-92.963 K0.000 F600.000
G2 X138.721 Y-31.079 Z-5.000 I8.045 J6.160 K0.000 F600.000
G2 X139.392 Y-28.001 Z-5.000 I9.847 J-0.535 K0.000 F600.000
G0 Z5.000
G0 X160.488 Y4.308 Z5.000
G0 X160.488 Y4.308 Z3.000
G1 X160.488 Y4.308 Z-5.000 F600.000
G2 X159.950 Y4.935 Z-5.000 I0.810 J1.240 K0.000 F600.000
G2 X160.190 Y6.555 Z-5.000 I1.649 J0.583 K0.000 F600.000
G1 X160.190 Y6.555 Z-5.000 F600.000
G1 X160.342 Y6.856 Z-5.000 F600.000
G3 X160.676 Y8.024 Z-5.000 I-1.694 J1.115 K0.000 F600.000
G2 X160.588 Y9.182 Z-5.000 I7.998 J1.187 K0.000 F600.000
G2 X161.879 Y11.126 Z-5.000 I1.995 J0.076 K0.000 F600.000
G2 X163.891 Y11.461 Z-5.000 I2.487 J-8.722 K0.000 F600.000
G3 X168.149 Y11.533 Z-5.000 I-4.131 J371.951 K0.000 F600.000
G1 X167.850 Y11.640 Z-5.000 F600.000
G2 X163.059 Y13.906 Z-5.000 I7.689 J22.456 K0.000 F600.000
G2 X159.654 Y17.804 Z-5.000 I4.790 J7.620 K0.000 F600.000
G2 X159.281 Y19.378 Z-5.000 I3.843 J1.743 K0.000 F600.000
G2 X160.773 Y21.242 Z-5.000 I1.748 J0.130 K0.000 F600.000
G2 X162.278 Y21.010 Z-5.000 I0.196 J-3.731 K0.000 F600.000
G2 X165.280 Y19.423 Z-5.000 I-9.370 J-21.359 K0.000 F600.000
G3 X170.064 Y16.459 Z-5.000 I40.693 J60.338 K0.000 F600.000
G3 X169.539 Y17.407 Z-5.000 I-19.509 J-10.181 K0.000 F600.000
G2 X166.662 Y22.174 Z-5.000 I240.201 J148.231 K0.000 F600.000
G2 X165.254 Y25.396 Z-5.000 I10.956 J6.708 K0.000 F600.000
G2 X165.598 Y28.189 Z-5.000 I3.645 J0.969 K0.000 F600.000
G2 X168.507 Y30.010 Z-5.000 I3.393 J-2.188 K0.000 F600.000
G2 X171.587 Y28.422 Z-5.000 I0.354 J-3.095 K0.000 F600.000
G2 X172.473 Y26.054 Z-5.000 I-9.367 J-4.855 K0.000 F600.000
G2 X173.476 Y20.094 Z-5.000 I-69.387 J-14.738 K0.000 F600.000
G2 X173.083 Y29.934 Z-5.000 I747.447 J34.793 K0.000 F600.000
G2 X173.342 Y37.625 Z-5.000 I54.607 J2.007 K0.000 F600.000
G2 X174.232 Y40.813 Z-5.000 I9.409 J-0.906 K0.000 F600.000
G2 X177.554 Y42.088 Z-5.000 I2.312 J-1.060 K0.000 F600.000
G2 X179.858 Y40.407 Z-5.000 I-3.435 J-7.130 K0.000 F600.000
G2 X182.933 Y31.059 Z-5.000 I-9.166 J-8.195 K0.000 F600.000
G2 X180.833 Y22.556 Z-5.000 I-32.095 J3.413 K0.000 F600.000
G3 X178.813 Y17.345 Z-5.000 I1689.741 J-658.078 K0.000 F600.000
G3 X180.568 Y18.440 Z-5.000 I-42.164 J69.571 K0.000 F600.000
G2 X198.097 Y26.810 Z-5.000 I46.305 J-74.432 K0.000 F600.000
G2 X205.661 Y29.127 Z-5.000 I23.372 J-62.797 K0.000 F600.000
G2 X208.436 Y29.416 Z-5.000 I2.289 J-8.498 K0.000 F600.000
G2 X210.330 Y27.605 Z-5.000 I-0.029 J-1.926 K0.000 F600.000
G3 X210.280 Y26.252 Z-5.000 I16.501 J-1.278 K0.000 F600.000
G2 X209.651 Y23.911 Z-5.000 I-2.933 J-0.467 K0.000 F600.000
G2 X207.783 Y22.473 Z-5.000 I-5.726 J5.507 K0.000 F600.000
G2 X201.941 Y20.023 Z-5.000 I-19.269 J37.754 K0.000 F600.000
G2 X184.912 Y14.365 Z-5.000 I-801.504 J2383.969 K0.000 F600.000
G3 X180.779 Y12.768 Z-5.000 I14.620 J-43.981 K0.000 F600.000
G2 X201.012 Y13.805 Z-5.000 I23.021 J-251.289 K0.000 F600.000
G2 X204.254 Y13.761 Z-5.000 I0.910 J-52.659 K0.000 F600.000
G2 X207.458 Y13.339 Z-5.000 I0.132 J-11.364 K0.000 F600.000
G2 X208.945 Y11.891 Z-5.000 I-0.587 J-2.090 K0.000 F600.000
G3 X209.444 Y9.156 Z-5.000 I202.233 J35.502 K0.000 F600.000
G2 X209.050 Y6.665 Z-5.000 I-3.140 J-0.779 K0.000 F600.000
G2 X208.347 Y6.040 Z-5.000 I-2.313 J1.895 K0.000 F600.000
G2 X207.789 Y5.823 Z-5.000 I-0.624 J0.781 K0.000 F600.000
G1 X198.343 Y5.198 Z-5.000 F600.000
G3 X178.836 Y4.845 Z-5.000 I3.968 J-757.872 K0.000 F600.000
G3 X166.723 Y4.260 Z-5.000 I5.142 J-232.263 K0.000 F600.000
G2 X161.719 Y3.987 Z-5.000 I-6.367 J70.662 K0.000 F600.000
G2 X160.875 Y4.129 Z-5.000 I-0.052 J2.277 K0.000 F600.000
G2 X160.488 Y4.308 Z-5.000 I0.423 J1.420 K0.000 F600.000
G0 Z5.000
G0 X195.710 Y-31.317 Z5.000
G0 X195.710 Y-31.317 Z3.000
G1 X195.710 Y-31.317 Z-5.000 F600.000
G2 X196.362 Y-31.029 Z-5.000 I0.703 J-0.711 K0.000 F600.000
G2 X208.174 Y-34.071 Z-5.000 I1.541 J-18.470 K0.000 F600.000
G2 X214.698 Y-41.694 Z-5.000 I-10.388 J-15.494 K0.000 F600.000
G2 X215.165 Y-57.830 Z-5.000 I-18.693 J-8.616 K0.000 F600.000
G2 X199.863 Y-69.542 Z-5.000 I-17.233 J6.664 K0.000 F600.000
G2 X196.366 Y-69.585 Z-5.000 I-1.984 J19.239 K0.000 F600.000
G2 X195.413 Y-68.586 Z-5.000 I0.047 J0.999 K0.000 F600.000
G1 X195.413 Y-56.156 Z-5.000 F600.000
G2 X196.150 Y-55.192 Z-5.000 I1.000 J0.000 K0.000 F600.000
G1 X198.673 Y-54.504 Z-5.000 F600.000
G1 X196.035 Y-53.426 Z-5.000 F600.000
G2 X195.413 Y-52.501 Z-5.000 I0.378 J0.926 K0.000 F600.000
G1 X195.413 Y-32.028 Z-5.000 F600.000
G2 X195.710 Y-31.317 Z-5.000 I1.000 J0.000 K0.000 F600.000
G0 Z5.000
G0 X207.067 Y49.945 Z5.000
G0 X207.067 Y49.945 Z3.000
G1 X207.067 Y49.945 Z-5.000 F600.000
G2 X206.227 Y50.094 Z-5.000 I1.594 J11.407 K0.000 F600.000
G2 X197.836 Y52.686 Z-5.000 I21.368 J84.078 K0.000 F600.000
G2 X182.952 Y59.623 Z-5.000 I28.692 J80.997 K0.000 F600.000
G3 X178.594 Y62.252 Z-5.000 I-50.813 J-79.307 K0.000 F600.000
G3 X177.851 Y62.522 Z-5.000 I-1.185 J-2.098 K0.000 F600.000
G3 X171.641 Y63.142 Z-5.000 I-3.941 J-8.078 K0.000 F600.000
G1 X169.140 Y62.079 Z-5.000 F600.000
G2 X164.354 Y59.077 Z-5.000 I-136.100 J211.660 K0.000 F600.000
G2 X161.751 Y57.985 Z-5.000 I-4.414 J6.871 K0.000 F600.000
G2 X159.779 Y59.053 Z-5.000 I-0.359 J1.691 K0.000 F600.000
G2 X159.918 Y61.162 Z-5.000 I3.066 J0.858 K0.000 F600.000
G2 X164.114 Y65.759 Z-5.000 I8.491 J-3.536 K0.000 F600.000
G2 X168.548 Y67.729 Z-5.000 I13.511 J-24.433 K0.000 F600.000
G3 X165.263 Y67.772 Z-5.000 I-2.501 J-65.561 K0.000 F600.000
G2 X162.457 Y68.083 Z-5.000 I-0.215 J10.894 K0.000 F600.000
G2 X161.011 Y69.602 Z-5.000 I0.520 J1.942 K0.000 F600.000
G2 X161.021 Y70.780 Z-5.000 I4.091 J0.556 K0.000 F600.000
G3 X160.947 Y71.977 Z-5.000 I-2.279 J0.460 K0.000 F600.000
G2 X160.450 Y72.942 Z-5.000 I15.662 J8.686 K0.000 F600.000
G2 X160.363 Y74.401 Z-5.000 I1.302 J0.810 K0.000 F600.000
G2 X161.676 Y75.247 Z-5.000 I1.460 J-0.826 K0.000 F600.000
G2 X164.068 Y75.240 Z-5.000 I1.153 J-16.449 K0.000 F600.000
G3 X174.146 Y74.582 Z-5.000 I20.933 J242.868 K0.000 F600.000
G3 X203.224 Y74.009 Z-5.000 I35.988 J1087.951 K0.000 F600.000
G2 X207.186 Y73.748 Z-5.000 I0.378 J-24.493 K0.000 F600.000
G2 X208.157 Y73.505 Z-5.000 I-0.688 J-4.805 K0.000 F600.000
G2 X209.790 Y71.884 Z-5.000 I-0.689 J-2.326 K0.000 F600.000
G2 X209.648 Y69.160 Z-5.000 I-5.602 J-1.074 K0.000 F600.000
G1 X209.648 Y69.160 Z-5.000 F600.000
G3 X209.425 Y67.816 Z-5.000 I8.720 J-2.136 K0.000 F600.000
G2 X208.510 Y66.246 Z-5.000 I-2.073 J0.157 K0.000 F600.000
G2 X205.745 Y65.562 Z-5.000 I-2.852 J5.595 K0.000 F600.000
G2 X201.624 Y65.458 Z-5.000 I-4.502 J97.050 K0.000 F600.000
G2 X181.176 Y66.493 Z-5.000 I2.044 J242.858 K0.000 F600.000
G1 X181.919 Y66.170 Z-5.000 F600.000
G3 X187.024 Y64.319 Z-5.000 I24.126 J58.561 K0.000 F600.000
G2 X200.389 Y59.914 Z-5.000 I-602.393 J-1850.200 K0.000 F600.000
G2 X206.306 Y57.701 Z-5.000 I-24.071 J-73.384 K0.000 F600.000
G2 X209.467 Y55.911 Z-5.000 I-5.271 J-12.990 K0.000 F600.000
G2 X210.684 Y53.781 Z-5.000 I-1.742 J-2.408 K0.000 F600.000
G3 X210.714 Y51.946 Z-5.000 I15.910 J-0.659 K0.000 F600.000
G2 X209.128 Y49.892 Z-5.000 I-1.855 J-0.207 K0.000 F600.000
G1 X208.691 Y49.834 Z-5.000 F600.000
G2 X207.067 Y49.945 Z-5.000 I-0.030 J11.518 K0.000 F600.000
G0 Z5.000
G0 Z5.000
(Finish operation: Profile)
(Begin postamble)
M5
G17 G90
M2
