(Exported by FreeCAD)
(Post Processor: script_module)
(Output Time:2026-04-09 12:54:56.804138)
(Begin preamble)
G17 G90
G21
(Begin operation: Fixture)
(Path: Fixture)
G54
(Finish operation: Fixture)
(Begin operation: 3mm001)
(Path: 3mm001)
(3mm001)
(Begin toolchange)
( M6 T3 )
M3 S10000
(Finish operation: 3mm001)
(Begin operation: Profile002)
(Path: Profile002)
(Profile002)
(Compensated Tool Path. Diameter: 3.0)
G0 Z5.010
G0 X30.029 Y30.337
G0 Z3.010
G1 X30.029 Y30.337 Z-2.990 F360.000
G2 X30.489 Y29.659 Z-2.990 I-4.130 J-3.293 K0.000 F360.000
G1 X30.682 Y29.272 Z-2.990 F360.000
G2 X31.037 Y28.090 Z-2.990 I-5.408 J-2.266 K0.000 F360.000
G1 X31.186 Y26.703 Z-2.990 F360.000
G1 X31.195 Y24.893 Z-2.990 F360.000
G1 X31.172 Y24.634 Z-2.990 F360.000
G1 X30.797 Y22.497 Z-2.990 F360.000
G1 X29.828 Y18.981 Z-2.990 F360.000
G1 X29.751 Y18.768 Z-2.990 F360.000
G1 X28.350 Y15.648 Z-2.990 F360.000
G2 X26.291 Y12.257 Z-2.990 I-397.648 J239.113 K0.000 F360.000
G2 X28.717 Y9.752 Z-2.990 I-7.068 J-9.273 K0.000 F360.000
G2 X30.565 Y6.262 Z-2.990 I-17.436 J-11.466 K0.000 F360.000
G2 X31.266 Y4.139 Z-2.990 I-7.628 J-3.696 K0.000 F360.000
G2 X31.848 Y1.508 Z-2.990 I-18.897 J-5.559 K0.000 F360.000
G2 X27.999 Y-7.269 Z-2.990 I-9.038 J-1.269 K0.000 F360.000
G2 X29.636 Y-12.726 Z-2.990 I-6.300 J-4.865 K0.000 F360.000
G2 X29.511 Y-13.250 Z-2.990 I-1.266 J0.025 K0.000 F360.000
G2 X30.210 Y-14.943 Z-2.990 I-5.091 J-3.091 K0.000 F360.000
G2 X31.678 Y-16.638 Z-2.990 I-2.346 J-3.515 K0.000 F360.000
G2 X32.040 Y-19.976 Z-2.990 I-5.932 J-2.333 K0.000 F360.000
G2 X30.640 Y-23.469 Z-2.990 I-9.233 J1.674 K0.000 F360.000
G2 X26.742 Y-26.684 Z-2.990 I-6.636 J4.077 K0.000 F360.000
G2 X21.381 Y-25.543 Z-2.990 I-1.581 J5.738 K0.000 F360.000
G2 X18.239 Y-26.107 Z-2.990 I-4.188 J14.294 K0.000 F360.000
G1 X14.702 Y-26.107 Z-2.990 F360.000
G2 X13.480 Y-26.054 Z-2.990 I0.403 J23.384 K0.000 F360.000
G2 X10.885 Y-25.591 Z-2.990 I0.229 J8.788 K0.000 F360.000
G2 X8.325 Y-26.834 Z-2.990 I-3.570 J4.093 K0.000 F360.000
G1 X7.779 Y-26.917 Z-2.990 F360.000
G2 X4.875 Y-26.259 Z-2.990 I-0.306 J5.377 K0.000 F360.000
G2 X0.723 Y-21.873 Z-2.990 I3.568 J7.536 K0.000 F360.000
G2 X0.563 Y-17.420 Z-2.990 I7.323 J2.494 K0.000 F360.000
G2 X2.174 Y-14.843 Z-2.990 I4.923 J-1.286 K0.000 F360.000
G1 X2.303 Y-14.177 Z-2.990 F360.000
G2 X2.991 Y-12.813 Z-2.990 I5.749 J-2.043 K0.000 F360.000
G2 X2.853 Y-11.587 Z-2.990 I4.204 J1.091 K0.000 F360.000
G2 X3.362 Y-9.296 Z-2.990 I7.091 J-0.373 K0.000 F360.000
G2 X4.495 Y-7.375 Z-2.990 I4.806 J-1.539 K0.000 F360.000
G1 X3.837 Y-6.927 Z-2.990 F360.000
G2 X0.304 Y-0.511 Z-2.990 I5.072 J6.974 K0.000 F360.000
G2 X0.528 Y2.680 Z-2.990 I16.531 J0.440 K0.000 F360.000
G2 X1.077 Y4.725 Z-2.990 I31.018 J-7.225 K0.000 F360.000
G2 X5.768 Y12.176 Z-2.990 I13.966 J-3.592 K0.000 F360.000
G3 X5.269 Y12.788 Z-2.990 I-114.998 J-93.223 K0.000 F360.000
G1 X4.385 Y14.124 Z-2.990 F360.000
G2 X1.604 Y21.441 Z-2.990 I29.953 J15.569 K0.000 F360.000
G1 X1.462 Y22.250 Z-2.990 F360.000
G2 X1.305 Y26.046 Z-2.990 I21.508 J2.791 K0.000 F360.000
G2 X1.794 Y28.117 Z-2.990 I7.772 J-0.741 K0.000 F360.000
G2 X5.070 Y31.389 Z-2.990 I4.862 J-1.593 K0.000 F360.000
G2 X8.576 Y31.017 Z-2.990 I1.324 J-4.217 K0.000 F360.000
G1 X9.818 Y30.204 Z-2.990 F360.000
G2 X11.920 Y28.160 Z-2.990 I-6.636 J-8.930 K0.000 F360.000
G1 X13.073 Y26.569 Z-2.990 F360.000
G2 X15.755 Y20.503 Z-2.990 I-25.097 J-14.718 K0.000 F360.000
G1 X16.191 Y20.503 Z-2.990 F360.000
G2 X19.897 Y27.528 Z-2.990 I23.006 J-7.649 K0.000 F360.000
G1 X21.166 Y28.994 Z-2.990 F360.000
G2 X24.417 Y31.459 Z-2.990 I10.679 J-10.709 K0.000 F360.000
G2 X25.660 Y31.909 Z-2.990 I2.793 J-5.771 K0.000 F360.000
G1 X26.136 Y31.987 Z-2.990 F360.000
G2 X27.464 Y31.969 Z-2.990 I0.550 J-8.697 K0.000 F360.000
G2 X28.757 Y31.487 Z-2.990 I-1.319 J-5.508 K0.000 F360.000
G2 X30.029 Y30.337 Z-2.990 I-2.858 J-4.443 K0.000 F360.000
G1 X30.029 Y30.337 Z-5.000 F360.000
G2 X30.489 Y29.659 Z-5.000 I-4.130 J-3.293 K0.000 F360.000
G1 X30.682 Y29.272 Z-5.000 F360.000
G2 X31.037 Y28.090 Z-5.000 I-5.408 J-2.266 K0.000 F360.000
G1 X31.186 Y26.703 Z-5.000 F360.000
G1 X31.195 Y24.893 Z-5.000 F360.000
G1 X31.172 Y24.634 Z-5.000 F360.000
G1 X30.797 Y22.497 Z-5.000 F360.000
G1 X29.828 Y18.981 Z-5.000 F360.000
G1 X29.751 Y18.768 Z-5.000 F360.000
G1 X28.350 Y15.648 Z-5.000 F360.000
G2 X26.291 Y12.257 Z-5.000 I-397.648 J239.113 K0.000 F360.000
G2 X28.717 Y9.752 Z-5.000 I-7.068 J-9.273 K0.000 F360.000
G2 X30.565 Y6.262 Z-5.000 I-17.436 J-11.466 K0.000 F360.000
G2 X31.266 Y4.139 Z-5.000 I-7.628 J-3.696 K0.000 F360.000
G2 X31.848 Y1.508 Z-5.000 I-18.897 J-5.559 K0.000 F360.000
G2 X27.999 Y-7.269 Z-5.000 I-9.038 J-1.269 K0.000 F360.000
G2 X29.636 Y-12.726 Z-5.000 I-6.300 J-4.865 K0.000 F360.000
G2 X29.511 Y-13.250 Z-5.000 I-1.266 J0.025 K0.000 F360.000
G2 X30.210 Y-14.943 Z-5.000 I-5.091 J-3.091 K0.000 F360.000
G2 X31.678 Y-16.638 Z-5.000 I-2.346 J-3.515 K0.000 F360.000
G2 X32.040 Y-19.976 Z-5.000 I-5.932 J-2.333 K0.000 F360.000
G2 X30.640 Y-23.469 Z-5.000 I-9.233 J1.674 K0.000 F360.000
G2 X26.742 Y-26.684 Z-5.000 I-6.636 J4.077 K0.000 F360.000
G2 X21.381 Y-25.543 Z-5.000 I-1.581 J5.738 K0.000 F360.000
G2 X18.239 Y-26.107 Z-5.000 I-4.188 J14.294 K0.000 F360.000
G1 X14.702 Y-26.107 Z-5.000 F360.000
G2 X13.480 Y-26.054 Z-5.000 I0.403 J23.384 K0.000 F360.000
G2 X10.885 Y-25.591 Z-5.000 I0.229 J8.788 K0.000 F360.000
G2 X8.325 Y-26.834 Z-5.000 I-3.570 J4.093 K0.000 F360.000
G1 X7.779 Y-26.917 Z-5.000 F360.000
G2 X4.875 Y-26.259 Z-5.000 I-0.306 J5.377 K0.000 F360.000
G2 X0.723 Y-21.873 Z-5.000 I3.568 J7.536 K0.000 F360.000
G2 X0.563 Y-17.420 Z-5.000 I7.323 J2.494 K0.000 F360.000
G2 X2.174 Y-14.843 Z-5.000 I4.923 J-1.286 K0.000 F360.000
G1 X2.303 Y-14.177 Z-5.000 F360.000
G2 X2.991 Y-12.813 Z-5.000 I5.749 J-2.043 K0.000 F360.000
G2 X2.853 Y-11.587 Z-5.000 I4.204 J1.091 K0.000 F360.000
G2 X3.362 Y-9.296 Z-5.000 I7.091 J-0.373 K0.000 F360.000
G2 X4.495 Y-7.375 Z-5.000 I4.806 J-1.539 K0.000 F360.000
G1 X3.837 Y-6.927 Z-5.000 F360.000
G2 X0.304 Y-0.511 Z-5.000 I5.072 J6.974 K0.000 F360.000
G2 X0.528 Y2.680 Z-5.000 I16.531 J0.440 K0.000 F360.000
G2 X1.077 Y4.725 Z-5.000 I31.018 J-7.225 K0.000 F360.000
G2 X5.768 Y12.176 Z-5.000 I13.966 J-3.592 K0.000 F360.000
G3 X5.269 Y12.788 Z-5.000 I-114.998 J-93.223 K0.000 F360.000
G1 X4.385 Y14.124 Z-5.000 F360.000
G2 X1.604 Y21.441 Z-5.000 I29.953 J15.569 K0.000 F360.000
G1 X1.462 Y22.250 Z-5.000 F360.000
G2 X1.305 Y26.046 Z-5.000 I21.508 J2.791 K0.000 F360.000
G2 X1.794 Y28.117 Z-5.000 I7.772 J-0.741 K0.000 F360.000
G2 X5.070 Y31.389 Z-5.000 I4.862 J-1.593 K0.000 F360.000
G2 X8.576 Y31.017 Z-5.000 I1.324 J-4.217 K0.000 F360.000
G1 X9.818 Y30.204 Z-5.000 F360.000
G2 X11.920 Y28.160 Z-5.000 I-6.636 J-8.930 K0.000 F360.000
G1 X13.073 Y26.569 Z-5.000 F360.000
G2 X15.755 Y20.503 Z-5.000 I-25.097 J-14.718 K0.000 F360.000
G1 X16.191 Y20.503 Z-5.000 F360.000
G2 X19.897 Y27.528 Z-5.000 I23.006 J-7.649 K0.000 F360.000
G1 X21.166 Y28.994 Z-5.000 F360.000
G2 X24.417 Y31.459 Z-5.000 I10.679 J-10.709 K0.000 F360.000
G2 X25.660 Y31.909 Z-5.000 I2.793 J-5.771 K0.000 F360.000
G1 X26.136 Y31.987 Z-5.000 F360.000
G2 X27.464 Y31.969 Z-5.000 I0.550 J-8.697 K0.000 F360.000
G2 X28.757 Y31.487 Z-5.000 I-1.319 J-5.508 K0.000 F360.000
G2 X30.029 Y30.337 Z-5.000 I-2.858 J-4.443 K0.000 F360.000
G0 Z5.010
G0 Z5.010
(Finish operation: Profile002)
(Begin postamble)
M5
G17 G90
M2
