(Exported by FreeCAD)
(Post Processor: script_module)
(Output Time:2025-03-13 17:13:13.718120)
(Begin preamble)
G17 G90
G21
(Begin operation: Fixture)
(Path: Fixture)
G54
(Finish operation: Fixture)
(Begin operation: 3mm_Endmill001)
(Path: 3mm_Endmill001)
(3mm_Endmill001)
(Begin toolchange)
( M6 T2 )
M3 S15000
(Finish operation: 3mm_Endmill001)
(Begin operation: Pocket_Shape)
(Path: Pocket_Shape)
(Pocket_Shape)
G0 Z5.000
G0 X0.000 Y0.000
G0 X44.510 Y3.000
G0 X44.510 Y3.000 Z3.000
G1 X44.510 Y3.000 Z-3.000 F1200.000
G1 X-48.465 Y3.000 Z-3.000 F1200.000
G1 X-48.498 Y3.002 Z-3.000 F1200.000
G1 X-48.500 Y3.035 Z-3.000 F1200.000
G1 X-48.500 Y49.965 Z-3.000 F1200.000
G1 X-48.498 Y49.998 Z-3.000 F1200.000
G1 X-48.465 Y50.000 Z-3.000 F1200.000
G1 X48.465 Y50.000 Z-3.000 F1200.000
G1 X48.498 Y49.998 Z-3.000 F1200.000
G1 X48.500 Y49.965 Z-3.000 F1200.000
G1 X48.500 Y3.035 Z-3.000 F1200.000
G1 X48.498 Y3.002 Z-3.000 F1200.000
G1 X48.465 Y3.000 Z-3.000 F1200.000
G1 X44.510 Y3.000 Z-3.000 F1200.000
G1 X48.465 Y3.000 Z-3.000 F1200.000
G1 X48.498 Y3.002 Z-3.000 F1200.000
G1 X48.500 Y3.035 Z-3.000 F1200.000
G1 X48.500 Y6.990 Z-3.000 F1200.000
G1 X44.510 Y3.000 Z-3.000 F1200.000
G1 X40.268 Y3.000 Z-3.000 F1200.000
G1 X48.500 Y11.232 Z-3.000 F1200.000
G1 X48.500 Y15.475 Z-3.000 F1200.000
G1 X36.025 Y3.000 Z-3.000 F1200.000
G1 X31.782 Y3.000 Z-3.000 F1200.000
G1 X48.500 Y19.718 Z-3.000 F1200.000
G1 X48.500 Y23.960 Z-3.000 F1200.000
G1 X27.540 Y3.000 Z-3.000 F1200.000
G1 X23.297 Y3.000 Z-3.000 F1200.000
G1 X48.500 Y28.203 Z-3.000 F1200.000
G1 X48.500 Y32.446 Z-3.000 F1200.000
G1 X19.054 Y3.000 Z-3.000 F1200.000
G1 X14.812 Y3.000 Z-3.000 F1200.000
G1 X48.500 Y36.688 Z-3.000 F1200.000
G1 X48.500 Y40.931 Z-3.000 F1200.000
G1 X10.569 Y3.000 Z-3.000 F1200.000
G1 X6.327 Y3.000 Z-3.000 F1200.000
G1 X48.500 Y45.173 Z-3.000 F1200.000
G1 X48.500 Y49.416 Z-3.000 F1200.000
G1 X2.084 Y3.000 Z-3.000 F1200.000
G1 X-2.159 Y3.000 Z-3.000 F1200.000
G1 X44.841 Y50.000 Z-3.000 F1200.000
G1 X40.599 Y50.000 Z-3.000 F1200.000
G1 X-6.401 Y3.000 Z-3.000 F1200.000
G1 X-10.644 Y3.000 Z-3.000 F1200.000
G1 X36.356 Y50.000 Z-3.000 F1200.000
G1 X32.113 Y50.000 Z-3.000 F1200.000
G1 X-14.887 Y3.000 Z-3.000 F1200.000
G1 X-19.129 Y3.000 Z-3.000 F1200.000
G1 X27.871 Y50.000 Z-3.000 F1200.000
G1 X23.628 Y50.000 Z-3.000 F1200.000
G1 X-23.372 Y3.000 Z-3.000 F1200.000
G1 X-27.615 Y3.000 Z-3.000 F1200.000
G1 X19.385 Y50.000 Z-3.000 F1200.000
G1 X15.143 Y50.000 Z-3.000 F1200.000
G1 X-31.857 Y3.000 Z-3.000 F1200.000
G1 X-36.100 Y3.000 Z-3.000 F1200.000
G1 X10.900 Y50.000 Z-3.000 F1200.000
G1 X6.657 Y50.000 Z-3.000 F1200.000
G1 X-40.342 Y3.000 Z-3.000 F1200.000
G1 X-44.585 Y3.000 Z-3.000 F1200.000
G1 X2.415 Y50.000 Z-3.000 F1200.000
G1 X-1.828 Y50.000 Z-3.000 F1200.000
G1 X-48.500 Y3.328 Z-3.000 F1200.000
G1 X-48.500 Y7.570 Z-3.000 F1200.000
G1 X-6.071 Y50.000 Z-3.000 F1200.000
G1 X-10.313 Y50.000 Z-3.000 F1200.000
G1 X-48.500 Y11.813 Z-3.000 F1200.000
G1 X-48.500 Y16.056 Z-3.000 F1200.000
G1 X-14.556 Y50.000 Z-3.000 F1200.000
G1 X-18.798 Y50.000 Z-3.000 F1200.000
G1 X-48.500 Y20.298 Z-3.000 F1200.000
G1 X-48.500 Y24.541 Z-3.000 F1200.000
G1 X-23.041 Y50.000 Z-3.000 F1200.000
G1 X-27.284 Y50.000 Z-3.000 F1200.000
G1 X-48.500 Y28.784 Z-3.000 F1200.000
G1 X-48.500 Y33.026 Z-3.000 F1200.000
G1 X-31.526 Y50.000 Z-3.000 F1200.000
G1 X-35.769 Y50.000 Z-3.000 F1200.000
G1 X-48.500 Y37.269 Z-3.000 F1200.000
G1 X-48.500 Y41.512 Z-3.000 F1200.000
G1 X-40.012 Y50.000 Z-3.000 F1200.000
G1 X-44.254 Y50.000 Z-3.000 F1200.000
G1 X-48.500 Y45.754 Z-3.000 F1200.000
G1 X-48.500 Y49.965 Z-3.000 F1200.000
G1 X-48.498 Y49.998 Z-3.000 F1200.000
G1 X-48.498 Y49.998 Z-5.000 F1200.000
G1 X-48.500 Y49.965 Z-5.000 F1200.000
G1 X-48.500 Y45.754 Z-5.000 F1200.000
G1 X-44.254 Y50.000 Z-5.000 F1200.000
G1 X-40.012 Y50.000 Z-5.000 F1200.000
G1 X-48.500 Y41.512 Z-5.000 F1200.000
G1 X-48.500 Y37.269 Z-5.000 F1200.000
G1 X-35.769 Y50.000 Z-5.000 F1200.000
G1 X-31.526 Y50.000 Z-5.000 F1200.000
G1 X-48.500 Y33.026 Z-5.000 F1200.000
G1 X-48.500 Y28.784 Z-5.000 F1200.000
G1 X-27.284 Y50.000 Z-5.000 F1200.000
G1 X-23.041 Y50.000 Z-5.000 F1200.000
G1 X-48.500 Y24.541 Z-5.000 F1200.000
G1 X-48.500 Y20.298 Z-5.000 F1200.000
G1 X-18.798 Y50.000 Z-5.000 F1200.000
G1 X-14.556 Y50.000 Z-5.000 F1200.000
G1 X-48.500 Y16.056 Z-5.000 F1200.000
G1 X-48.500 Y11.813 Z-5.000 F1200.000
G1 X-10.313 Y50.000 Z-5.000 F1200.000
G1 X-6.071 Y50.000 Z-5.000 F1200.000
G1 X-48.500 Y7.570 Z-5.000 F1200.000
G1 X-48.500 Y3.328 Z-5.000 F1200.000
G1 X-1.828 Y50.000 Z-5.000 F1200.000
G1 X2.415 Y50.000 Z-5.000 F1200.000
G1 X-44.585 Y3.000 Z-5.000 F1200.000
G1 X-40.342 Y3.000 Z-5.000 F1200.000
G1 X6.657 Y50.000 Z-5.000 F1200.000
G1 X10.900 Y50.000 Z-5.000 F1200.000
G1 X-36.100 Y3.000 Z-5.000 F1200.000
G1 X-31.857 Y3.000 Z-5.000 F1200.000
G1 X15.143 Y50.000 Z-5.000 F1200.000
G1 X19.385 Y50.000 Z-5.000 F1200.000
G1 X-27.615 Y3.000 Z-5.000 F1200.000
G1 X-23.372 Y3.000 Z-5.000 F1200.000
G1 X23.628 Y50.000 Z-5.000 F1200.000
G1 X27.871 Y50.000 Z-5.000 F1200.000
G1 X-19.129 Y3.000 Z-5.000 F1200.000
G1 X-14.887 Y3.000 Z-5.000 F1200.000
G1 X32.113 Y50.000 Z-5.000 F1200.000
G1 X36.356 Y50.000 Z-5.000 F1200.000
G1 X-10.644 Y3.000 Z-5.000 F1200.000
G1 X-6.401 Y3.000 Z-5.000 F1200.000
G1 X40.599 Y50.000 Z-5.000 F1200.000
G1 X44.841 Y50.000 Z-5.000 F1200.000
G1 X-2.159 Y3.000 Z-5.000 F1200.000
G1 X2.084 Y3.000 Z-5.000 F1200.000
G1 X48.500 Y49.416 Z-5.000 F1200.000
G1 X48.500 Y45.173 Z-5.000 F1200.000
G1 X6.327 Y3.000 Z-5.000 F1200.000
G1 X10.569 Y3.000 Z-5.000 F1200.000
G1 X48.500 Y40.931 Z-5.000 F1200.000
G1 X48.500 Y36.688 Z-5.000 F1200.000
G1 X14.812 Y3.000 Z-5.000 F1200.000
G1 X19.054 Y3.000 Z-5.000 F1200.000
G1 X48.500 Y32.446 Z-5.000 F1200.000
G1 X48.500 Y28.203 Z-5.000 F1200.000
G1 X23.297 Y3.000 Z-5.000 F1200.000
G1 X27.540 Y3.000 Z-5.000 F1200.000
G1 X48.500 Y23.960 Z-5.000 F1200.000
G1 X48.500 Y19.718 Z-5.000 F1200.000
G1 X31.782 Y3.000 Z-5.000 F1200.000
G1 X36.025 Y3.000 Z-5.000 F1200.000
G1 X48.500 Y15.475 Z-5.000 F1200.000
G1 X48.500 Y11.232 Z-5.000 F1200.000
G1 X40.268 Y3.000 Z-5.000 F1200.000
G1 X44.510 Y3.000 Z-5.000 F1200.000
G1 X48.500 Y6.990 Z-5.000 F1200.000
G1 X48.500 Y3.035 Z-5.000 F1200.000
G1 X48.498 Y3.002 Z-5.000 F1200.000
G1 X48.465 Y3.000 Z-5.000 F1200.000
G1 X44.510 Y3.000 Z-5.000 F1200.000
G1 X48.465 Y3.000 Z-5.000 F1200.000
G1 X48.498 Y3.002 Z-5.000 F1200.000
G1 X48.500 Y3.035 Z-5.000 F1200.000
G1 X48.500 Y49.965 Z-5.000 F1200.000
G1 X48.498 Y49.998 Z-5.000 F1200.000
G1 X48.465 Y50.000 Z-5.000 F1200.000
G1 X-48.465 Y50.000 Z-5.000 F1200.000
G1 X-48.498 Y49.998 Z-5.000 F1200.000
G1 X-48.500 Y49.965 Z-5.000 F1200.000
G1 X-48.500 Y3.035 Z-5.000 F1200.000
G1 X-48.498 Y3.002 Z-5.000 F1200.000
G1 X-48.465 Y3.000 Z-5.000 F1200.000
G1 X44.510 Y3.000 Z-5.000 F1200.000
G0 Z5.000
G0 Z5.000
(Finish operation: Pocket_Shape)
(Begin postamble)
M5
G17 G90
M2
