(Exported by FreeCAD)
(Post Processor: script_module)
(Output Time:2025-03-13 15:36:56.716119)
(Begin preamble)
G17 G90
G21
(Begin operation: Fixture)
(Path: Fixture)
G54
(Finish operation: Fixture)
(Begin operation: 3mm_Endmill001)
(Path: 3mm_Endmill001)
(3mm_Endmill001)
(Begin toolchange)
( M6 T2 )
M3 S20000
(Finish operation: 3mm_Endmill001)
(Begin operation: Pocket_Shape)
(Path: Pocket_Shape)
(Pocket_Shape)
G0 Z5.000
G0 X0.000 Y0.000
G0 X-3.000 Y3.000
G0 X-3.000 Y3.000 Z3.000
G1 X-3.000 Y3.000 Z-3.000 F1200.000
G1 X-3.000 Y100.000 Z-3.000 F1200.000
G1 X-50.000 Y100.000 Z-3.000 F1200.000
G1 X-50.000 Y3.000 Z-3.000 F1200.000
G1 X-3.000 Y3.000 Z-3.000 F1200.000
G1 X-3.000 Y3.000 Z-5.000 F1200.000
G1 X-3.000 Y100.000 Z-5.000 F1200.000
G1 X-50.000 Y100.000 Z-5.000 F1200.000
G1 X-50.000 Y3.000 Z-5.000 F1200.000
G1 X-3.000 Y3.000 Z-5.000 F1200.000
G0 Z5.000
G0 X-6.000 Y6.000 Z5.000
G0 X-6.000 Y6.000 Z3.000
G1 X-6.000 Y6.000 Z-3.000 F1200.000
G1 X-6.000 Y97.000 Z-3.000 F1200.000
G1 X-47.000 Y97.000 Z-3.000 F1200.000
G1 X-47.000 Y6.000 Z-3.000 F1200.000
G1 X-6.000 Y6.000 Z-3.000 F1200.000
G1 X-6.000 Y6.000 Z-5.000 F1200.000
G1 X-6.000 Y97.000 Z-5.000 F1200.000
G1 X-47.000 Y97.000 Z-5.000 F1200.000
G1 X-47.000 Y6.000 Z-5.000 F1200.000
G1 X-6.000 Y6.000 Z-5.000 F1200.000
G0 Z5.000
G0 X-9.000 Y9.000 Z5.000
G0 X-9.000 Y9.000 Z3.000
G1 X-9.000 Y9.000 Z-3.000 F1200.000
G1 X-9.000 Y94.000 Z-3.000 F1200.000
G1 X-44.000 Y94.000 Z-3.000 F1200.000
G1 X-44.000 Y9.000 Z-3.000 F1200.000
G1 X-9.000 Y9.000 Z-3.000 F1200.000
G1 X-9.000 Y9.000 Z-5.000 F1200.000
G1 X-9.000 Y94.000 Z-5.000 F1200.000
G1 X-44.000 Y94.000 Z-5.000 F1200.000
G1 X-44.000 Y9.000 Z-5.000 F1200.000
G1 X-9.000 Y9.000 Z-5.000 F1200.000
G0 Z5.000
G0 X-12.000 Y12.000 Z5.000
G0 X-12.000 Y12.000 Z3.000
G1 X-12.000 Y12.000 Z-3.000 F1200.000
G1 X-12.000 Y91.000 Z-3.000 F1200.000
G1 X-41.000 Y91.000 Z-3.000 F1200.000
G1 X-41.000 Y12.000 Z-3.000 F1200.000
G1 X-12.000 Y12.000 Z-3.000 F1200.000
G1 X-12.000 Y12.000 Z-5.000 F1200.000
G1 X-12.000 Y91.000 Z-5.000 F1200.000
G1 X-41.000 Y91.000 Z-5.000 F1200.000
G1 X-41.000 Y12.000 Z-5.000 F1200.000
G1 X-12.000 Y12.000 Z-5.000 F1200.000
G0 Z5.000
G0 X-15.000 Y15.000 Z5.000
G0 X-15.000 Y15.000 Z3.000
G1 X-15.000 Y15.000 Z-3.000 F1200.000
G1 X-15.000 Y88.000 Z-3.000 F1200.000
G1 X-38.000 Y88.000 Z-3.000 F1200.000
G1 X-38.000 Y15.000 Z-3.000 F1200.000
G1 X-15.000 Y15.000 Z-3.000 F1200.000
G1 X-15.000 Y15.000 Z-5.000 F1200.000
G1 X-15.000 Y88.000 Z-5.000 F1200.000
G1 X-38.000 Y88.000 Z-5.000 F1200.000
G1 X-38.000 Y15.000 Z-5.000 F1200.000
G1 X-15.000 Y15.000 Z-5.000 F1200.000
G0 Z5.000
G0 X-18.000 Y18.000 Z5.000
G0 X-18.000 Y18.000 Z3.000
G1 X-18.000 Y18.000 Z-3.000 F1200.000
G1 X-18.000 Y85.000 Z-3.000 F1200.000
G1 X-35.000 Y85.000 Z-3.000 F1200.000
G1 X-35.000 Y18.000 Z-3.000 F1200.000
G1 X-18.000 Y18.000 Z-3.000 F1200.000
G1 X-18.000 Y18.000 Z-5.000 F1200.000
G1 X-18.000 Y85.000 Z-5.000 F1200.000
G1 X-35.000 Y85.000 Z-5.000 F1200.000
G1 X-35.000 Y18.000 Z-5.000 F1200.000
G1 X-18.000 Y18.000 Z-5.000 F1200.000
G0 Z5.000
G0 X-21.000 Y21.000 Z5.000
G0 X-21.000 Y21.000 Z3.000
G1 X-21.000 Y21.000 Z-3.000 F1200.000
G1 X-21.000 Y82.000 Z-3.000 F1200.000
G1 X-32.000 Y82.000 Z-3.000 F1200.000
G1 X-32.000 Y21.000 Z-3.000 F1200.000
G1 X-21.000 Y21.000 Z-3.000 F1200.000
G1 X-21.000 Y21.000 Z-5.000 F1200.000
G1 X-21.000 Y82.000 Z-5.000 F1200.000
G1 X-32.000 Y82.000 Z-5.000 F1200.000
G1 X-32.000 Y21.000 Z-5.000 F1200.000
G1 X-21.000 Y21.000 Z-5.000 F1200.000
G0 Z5.000
G0 X-24.000 Y24.000 Z5.000
G0 X-24.000 Y24.000 Z3.000
G1 X-24.000 Y24.000 Z-3.000 F1200.000
G1 X-24.000 Y79.000 Z-3.000 F1200.000
G1 X-29.000 Y79.000 Z-3.000 F1200.000
G1 X-29.000 Y24.000 Z-3.000 F1200.000
G1 X-24.000 Y24.000 Z-3.000 F1200.000
G1 X-24.750 Y24.750 Z-3.000 F1200.000
G1 X-24.750 Y78.250 Z-3.000 F1200.000
G1 X-28.250 Y78.250 Z-3.000 F1200.000
G1 X-28.250 Y24.750 Z-3.000 F1200.000
G1 X-24.750 Y24.750 Z-3.000 F1200.000
G1 X-25.500 Y25.500 Z-3.000 F1200.000
G1 X-25.500 Y77.500 Z-3.000 F1200.000
G1 X-27.500 Y77.500 Z-3.000 F1200.000
G1 X-27.500 Y25.500 Z-3.000 F1200.000
G1 X-25.500 Y25.500 Z-3.000 F1200.000
G1 X-26.250 Y26.250 Z-3.000 F1200.000
G1 X-26.250 Y76.750 Z-3.000 F1200.000
G1 X-26.750 Y76.750 Z-3.000 F1200.000
G1 X-26.750 Y26.250 Z-3.000 F1200.000
G1 X-26.250 Y26.250 Z-3.000 F1200.000
G1 X-26.250 Y26.250 Z-5.000 F1200.000
G1 X-26.250 Y76.750 Z-5.000 F1200.000
G1 X-26.750 Y76.750 Z-5.000 F1200.000
G1 X-26.750 Y26.250 Z-5.000 F1200.000
G1 X-26.250 Y26.250 Z-5.000 F1200.000
G1 X-25.500 Y26.250 Z-5.000 F1200.000
G1 X-25.500 Y77.500 Z-5.000 F1200.000
G1 X-27.500 Y77.500 Z-5.000 F1200.000
G1 X-27.500 Y25.500 Z-5.000 F1200.000
G1 X-25.500 Y25.500 Z-5.000 F1200.000
G1 X-25.500 Y26.250 Z-5.000 F1200.000
G1 X-24.750 Y26.250 Z-5.000 F1200.000
G1 X-24.750 Y78.250 Z-5.000 F1200.000
G1 X-28.250 Y78.250 Z-5.000 F1200.000
G1 X-28.250 Y24.750 Z-5.000 F1200.000
G1 X-24.750 Y24.750 Z-5.000 F1200.000
G1 X-24.750 Y26.250 Z-5.000 F1200.000
G1 X-24.000 Y26.250 Z-5.000 F1200.000
G1 X-24.000 Y79.000 Z-5.000 F1200.000
G1 X-29.000 Y79.000 Z-5.000 F1200.000
G1 X-29.000 Y24.000 Z-5.000 F1200.000
G1 X-24.000 Y24.000 Z-5.000 F1200.000
G1 X-24.000 Y26.250 Z-5.000 F1200.000
G0 Z5.000
G0 Z5.000
(Finish operation: Pocket_Shape)
(Begin postamble)
M5
G17 G90
M2
