(Exported by FreeCAD)
(Post Processor: script_module)
(Output Time:2026-04-03 14:25:43.342042)
(Begin preamble)
G17 G90
G21
(Begin operation: Fixture)
(Path: Fixture)
G54
(Finish operation: Fixture)
(Begin operation: 3mm001)
(Path: 3mm001)
(3mm001)
(Begin toolchange)
( M6 T2 )
M3 S10000
(Finish operation: 3mm001)
(Begin operation: Profile)
(Path: Profile)
(Profile)
(Compensated Tool Path. Diameter: 3.0)
G0 Z5.000
G0 X16.943 Y22.917
G0 Z3.000
G1 X16.943 Y22.917 Z-2.000 F360.000
G2 X17.674 Y22.014 Z-2.000 I-15.839 J-13.583 K0.000 F360.000
G2 X19.210 Y19.768 Z-2.000 I-7.336 J-6.662 K0.000 F360.000
G2 X20.726 Y16.481 Z-2.000 I-15.403 J-9.099 K0.000 F360.000
G1 X21.169 Y14.708 Z-2.000 F360.000
G1 X21.214 Y14.344 Z-2.000 F360.000
G1 X21.214 Y12.660 Z-2.000 F360.000
G1 X21.190 Y12.394 Z-2.000 F360.000
G1 X20.836 Y10.423 Z-2.000 F360.000
G2 X20.577 Y9.812 Z-2.000 I-1.476 J0.266 K0.000 F360.000
G1 X19.779 Y8.704 Z-2.000 F360.000
G1 X19.616 Y8.513 Z-2.000 F360.000
G2 X18.815 Y7.973 Z-2.000 I-2.799 J3.283 K0.000 F360.000
G2 X20.107 Y7.735 Z-2.000 I-1.286 J-10.624 K0.000 F360.000
G1 X22.723 Y6.937 Z-2.000 F360.000
G1 X25.982 Y5.657 Z-2.000 F360.000
G1 X26.186 Y5.558 Z-2.000 F360.000
G1 X28.624 Y4.139 Z-2.000 F360.000
G1 X28.775 Y4.039 Z-2.000 F360.000
G1 X31.262 Y2.157 Z-2.000 F360.000
G1 X31.481 Y1.954 Z-2.000 F360.000
G1 X33.165 Y0.048 Z-2.000 F360.000
G1 X34.581 Y-1.877 Z-2.000 F360.000
G1 X34.702 Y-2.071 Z-2.000 F360.000
G1 X35.899 Y-4.376 Z-2.000 F360.000
G1 X35.974 Y-4.546 Z-2.000 F360.000
G1 X36.994 Y-7.294 Z-2.000 F360.000
G1 X37.784 Y-10.066 Z-2.000 F360.000
G1 X37.837 Y-10.365 Z-2.000 F360.000
G1 X38.058 Y-13.370 Z-2.000 F360.000
G1 X38.062 Y-16.007 Z-2.000 F360.000
G1 X37.655 Y-19.932 Z-2.000 F360.000
G1 X37.604 Y-20.193 Z-2.000 F360.000
G1 X36.407 Y-24.315 Z-2.000 F360.000
G1 X36.291 Y-24.600 Z-2.000 F360.000
G1 X34.558 Y-27.863 Z-2.000 F360.000
G1 X34.457 Y-28.026 Z-2.000 F360.000
G1 X32.197 Y-31.217 Z-2.000 F360.000
G1 X32.016 Y-31.428 Z-2.000 F360.000
G1 X29.179 Y-34.176 Z-2.000 F360.000
G1 X28.882 Y-34.400 Z-2.000 F360.000
G1 X26.178 Y-35.951 Z-2.000 F360.000
G1 X26.010 Y-36.034 Z-2.000 F360.000
G1 X22.508 Y-37.497 Z-2.000 F360.000
G1 X19.335 Y-38.562 Z-2.000 F360.000
G1 X15.208 Y-39.653 Z-2.000 F360.000
G2 X7.101 Y-40.974 Z-2.000 I-27.162 J141.232 K0.000 F360.000
G1 X2.188 Y-41.252 Z-2.000 F360.000
G1 X-1.796 Y-41.254 Z-2.000 F360.000
G1 X-5.978 Y-40.848 Z-2.000 F360.000
G1 X-11.926 Y-40.044 Z-2.000 F360.000
G1 X-16.618 Y-39.002 Z-2.000 F360.000
G1 X-21.564 Y-37.336 Z-2.000 F360.000
G1 X-21.878 Y-37.187 Z-2.000 F360.000
G1 X-25.424 Y-34.971 Z-2.000 F360.000
G1 X-25.624 Y-34.821 Z-2.000 F360.000
G1 X-28.373 Y-32.383 Z-2.000 F360.000
G1 X-28.579 Y-32.159 Z-2.000 F360.000
G1 X-31.327 Y-28.480 Z-2.000 F360.000
G1 X-31.475 Y-28.236 Z-2.000 F360.000
G1 X-33.116 Y-24.848 Z-2.000 F360.000
G1 X-33.206 Y-24.614 Z-2.000 F360.000
G1 X-34.226 Y-21.112 Z-2.000 F360.000
G1 X-34.284 Y-20.752 Z-2.000 F360.000
G1 X-34.461 Y-16.304 Z-2.000 F360.000
G1 X-34.452 Y-16.072 Z-2.000 F360.000
G1 X-33.965 Y-11.861 Z-2.000 F360.000
G1 X-33.879 Y-11.507 Z-2.000 F360.000
G2 X-31.358 Y-5.375 Z-2.000 I74.456 J-27.022 K0.000 F360.000
G1 X-31.111 Y-4.992 Z-2.000 F360.000
G1 X-29.182 Y-2.824 Z-2.000 F360.000
G2 X-26.461 Y-0.694 Z-2.000 I16.339 J-18.075 K0.000 F360.000
G2 X-22.271 Y0.936 Z-2.000 I10.169 J-19.931 K0.000 F360.000
G1 X-19.597 Y1.263 Z-2.000 F360.000
G1 X-19.415 Y1.274 Z-2.000 F360.000
G1 X-3.759 Y1.274 Z-2.000 F360.000
G1 X-1.985 Y1.183 Z-2.000 F360.000
G1 X1.098 Y0.816 Z-2.000 F360.000
G1 X1.307 Y0.776 Z-2.000 F360.000
G1 X3.417 Y0.212 Z-2.000 F360.000
G1 X6.039 Y-0.679 Z-2.000 F360.000
G1 X6.263 Y-0.777 Z-2.000 F360.000
G2 X10.481 Y-3.405 Z-2.000 I-12.334 J-24.490 K0.000 F360.000
G2 X12.296 Y-5.166 Z-2.000 I-3.332 J-5.251 K0.000 F360.000
G1 X13.049 Y-6.584 Z-2.000 F360.000
G1 X13.161 Y-6.857 Z-2.000 F360.000
G1 X13.693 Y-8.630 Z-2.000 F360.000
G1 X13.756 Y-9.035 Z-2.000 F360.000
G2 X13.564 Y-13.462 Z-2.000 I-27.559 J-1.024 K0.000 F360.000
G1 X13.077 Y-15.280 Z-2.000 F360.000
G1 X12.983 Y-15.534 Z-2.000 F360.000
G1 X12.141 Y-17.307 Z-2.000 F360.000
G1 X11.927 Y-17.637 Z-2.000 F360.000
G1 X10.642 Y-19.144 Z-2.000 F360.000
G1 X10.453 Y-19.330 Z-2.000 F360.000
G1 X9.211 Y-20.349 Z-2.000 F360.000
G2 X7.797 Y-21.226 Z-2.000 I-6.870 J9.507 K0.000 F360.000
G2 X6.090 Y-22.017 Z-2.000 I-7.615 J14.186 K0.000 F360.000
G1 X5.619 Y-22.145 Z-2.000 F360.000
G3 X-2.563 Y-23.030 Z-2.000 I51.083 J-510.803 K0.000 F360.000
G2 X-3.709 Y-23.040 Z-2.000 I-0.658 J10.058 K0.000 F360.000
G2 X-5.202 Y-21.675 Z-2.000 I-0.000 J1.500 K0.000 F360.000
G2 X-4.607 Y-20.096 Z-2.000 I2.334 J0.021 K0.000 F360.000
G1 X-3.765 Y-19.298 Z-2.000 F360.000
G1 X-3.488 Y-19.091 Z-2.000 F360.000
G3 X-0.596 Y-17.374 Z-2.000 I-69.838 J120.949 K0.000 F360.000
G1 X0.974 Y-15.861 Z-2.000 F360.000
G1 X2.785 Y-13.845 Z-2.000 F360.000
G1 X3.612 Y-12.422 Z-2.000 F360.000
G1 X3.612 Y-10.520 Z-2.000 F360.000
G1 X2.751 Y-8.797 Z-2.000 F360.000
G1 X1.274 Y-7.131 Z-2.000 F360.000
G1 X-0.354 Y-6.010 Z-2.000 F360.000
G1 X-3.349 Y-5.221 Z-2.000 F360.000
G1 X-6.526 Y-4.929 Z-2.000 F360.000
G1 X-10.281 Y-4.929 Z-2.000 F360.000
G1 X-13.276 Y-5.415 Z-2.000 F360.000
G1 X-15.753 Y-6.413 Z-2.000 F360.000
G1 X-17.615 Y-7.553 Z-2.000 F360.000
G1 X-19.197 Y-9.411 Z-2.000 F360.000
G1 X-20.237 Y-11.606 Z-2.000 F360.000
G1 X-20.775 Y-14.030 Z-2.000 F360.000
G1 X-20.614 Y-16.820 Z-2.000 F360.000
G1 X-20.334 Y-18.824 Z-2.000 F360.000
G3 X-18.828 Y-22.309 Z-2.000 I29.798 J10.812 K0.000 F360.000
G3 X-15.741 Y-25.238 Z-2.000 I34.039 J32.770 K0.000 F360.000
G1 X-13.117 Y-26.611 Z-2.000 F360.000
G1 X-10.395 Y-27.575 Z-2.000 F360.000
G1 X-7.190 Y-28.418 Z-2.000 F360.000
G1 X-2.506 Y-28.957 Z-2.000 F360.000
G1 X6.810 Y-28.957 Z-2.000 F360.000
G1 X10.966 Y-28.406 Z-2.000 F360.000
G1 X15.110 Y-27.338 Z-2.000 F360.000
G1 X19.168 Y-25.874 Z-2.000 F360.000
G1 X21.059 Y-24.601 Z-2.000 F360.000
G1 X22.663 Y-22.957 Z-2.000 F360.000
G1 X24.285 Y-20.442 Z-2.000 F360.000
G1 X25.560 Y-17.464 Z-2.000 F360.000
G3 X25.720 Y-12.274 Z-2.000 I-42.383 J3.904 K0.000 F360.000
G1 X25.239 Y-10.155 Z-2.000 F360.000
G1 X24.161 Y-7.555 Z-2.000 F360.000
G1 X23.096 Y-5.723 Z-2.000 F360.000
G1 X21.471 Y-3.568 Z-2.000 F360.000
G1 X19.331 Y-1.749 Z-2.000 F360.000
G1 X17.510 Y-0.676 Z-2.000 F360.000
G1 X15.268 Y0.214 Z-2.000 F360.000
G1 X12.565 Y0.789 Z-2.000 F360.000
G2 X4.295 Y1.728 Z-2.000 I42.116 J407.908 K0.000 F360.000
G1 X-3.692 Y2.342 Z-2.000 F360.000
G1 X-6.753 Y2.654 Z-2.000 F360.000
G1 X-6.753 Y2.654 Z-2.000 F360.000
G2 X-16.904 Y3.716 Z-2.000 I74.844 J764.895 K0.000 F360.000
G2 X-21.524 Y4.741 Z-2.000 I3.600 J27.139 K0.000 F360.000
G2 X-22.426 Y5.126 Z-2.000 I2.166 J6.327 K0.000 F360.000
G2 X-24.408 Y7.786 Z-2.000 I1.255 J3.003 K0.000 F360.000
G2 X-24.354 Y10.826 Z-2.000 I12.509 J1.298 K0.000 F360.000
G2 X-23.985 Y12.761 Z-2.000 I7.037 J-0.340 K0.000 F360.000
G2 X-21.117 Y12.521 Z-2.000 I1.399 J-0.542 K0.000 F360.000
G3 X-20.803 Y11.099 Z-2.000 I8.624 J1.158 K0.000 F360.000
G3 X-19.350 Y9.248 Z-2.000 I2.956 J0.825 K0.000 F360.000
G1 X-18.499 Y8.978 Z-2.000 F360.000
G3 X-15.509 Y8.614 Z-2.000 I5.297 J31.076 K0.000 F360.000
G3 X-7.735 Y8.263 Z-2.000 I23.988 J444.499 K0.000 F360.000
G1 X1.010 Y8.263 Z-2.000 F360.000
G3 X3.517 Y8.386 Z-2.000 I-3.789 J102.452 K0.000 F360.000
G3 X5.634 Y8.778 Z-2.000 I-4.891 J32.348 K0.000 F360.000
G3 X9.481 Y9.986 Z-2.000 I-3.024 J16.364 K0.000 F360.000
G3 X11.785 Y11.433 Z-2.000 I-2.143 J5.969 K0.000 F360.000
G3 X12.951 Y12.893 Z-2.000 I-4.373 J4.690 K0.000 F360.000
G3 X13.301 Y14.486 Z-2.000 I-1.927 J1.258 K0.000 F360.000
G3 X12.850 Y15.747 Z-2.000 I-5.143 J-1.128 K0.000 F360.000
G3 X11.410 Y17.424 Z-2.000 I-5.656 J-3.400 K0.000 F360.000
G3 X9.781 Y18.633 Z-2.000 I-19.087 J-24.012 K0.000 F360.000
G3 X8.136 Y19.694 Z-2.000 I-6.192 J-7.794 K0.000 F360.000
G3 X5.254 Y20.542 Z-2.000 I-8.952 J-25.097 K0.000 F360.000
G3 X3.308 Y20.840 Z-2.000 I-2.212 J-7.957 K0.000 F360.000
G3 X0.351 Y20.787 Z-2.000 I-1.039 J-24.526 K0.000 F360.000
G3 X-3.956 Y19.723 Z-2.000 I1.052 J-13.507 K0.000 F360.000
G3 X-5.533 Y18.635 Z-2.000 I16.409 J-25.476 K0.000 F360.000
G3 X-7.128 Y16.883 Z-2.000 I2.465 J-3.846 K0.000 F360.000
G3 X-6.405 Y15.843 Z-2.000 I1.130 J0.014 K0.000 F360.000
G3 X-3.683 Y15.455 Z-2.000 I2.785 J9.822 K0.000 F360.000
G1 X0.152 Y15.455 Z-2.000 F360.000
G3 X2.930 Y15.568 Z-2.000 I-0.054 J35.498 K0.000 F360.000
G3 X5.804 Y16.782 Z-2.000 I0.040 J3.916 K0.000 F360.000
G2 X8.358 Y17.558 Z-2.000 I1.481 J-0.283 K0.000 F360.000
G2 X9.429 Y15.862 Z-2.000 I-13.855 J-9.939 K0.000 F360.000
G2 X10.079 Y13.542 Z-2.000 I-3.000 J-2.092 K0.000 F360.000
G2 X8.240 Y10.745 Z-2.000 I-3.653 J0.398 K0.000 F360.000
G2 X4.905 Y9.695 Z-2.000 I-4.586 J8.742 K0.000 F360.000
G2 X-2.952 Y8.760 Z-2.000 I-10.385 J53.814 K0.000 F360.000
G1 X-12.005 Y8.757 Z-2.000 F360.000
G2 X-14.718 Y8.992 Z-2.000 I0.433 J20.731 K0.000 F360.000
G2 X-16.062 Y9.360 Z-2.000 I1.932 J9.683 K0.000 F360.000
G1 X-16.355 Y9.479 Z-2.000 F360.000
G1 X-17.399 Y10.036 Z-2.000 F360.000
G2 X-19.164 Y11.861 Z-2.000 I3.023 J4.691 K0.000 F360.000
G2 X-19.548 Y13.052 Z-2.000 I5.095 J2.300 K0.000 F360.000
G2 X-19.484 Y16.876 Z-2.000 I10.449 J1.737 K0.000 F360.000
G1 X-19.352 Y17.299 Z-2.000 F360.000
G2 X-16.656 Y21.756 Z-2.000 I19.410 J-8.696 K0.000 F360.000
G2 X-14.110 Y24.294 Z-2.000 I14.950 J-12.456 K0.000 F360.000
G2 X-8.187 Y27.550 Z-2.000 I14.596 J-19.530 K0.000 F360.000
G2 X-4.966 Y28.474 Z-2.000 I31.924 J-105.308 K0.000 F360.000
G2 X-4.538 Y31.263 Z-2.000 I10.452 J-0.174 K0.000 F360.000
G2 X-2.636 Y35.549 Z-2.000 I51.098 J-20.120 K0.000 F360.000
G2 X-0.196 Y38.439 Z-2.000 I12.921 J-8.435 K0.000 F360.000
G2 X1.408 Y39.704 Z-2.000 I5.838 J-5.748 K0.000 F360.000
G2 X3.676 Y40.802 Z-2.000 I5.619 J-8.718 K0.000 F360.000
G1 X4.901 Y41.014 Z-2.000 F360.000
G2 X6.143 Y40.943 Z-2.000 I0.362 J-4.567 K0.000 F360.000
G2 X7.475 Y40.373 Z-2.000 I-0.676 J-3.423 K0.000 F360.000
G2 X9.005 Y38.243 Z-2.000 I-5.253 J-5.389 K0.000 F360.000
G2 X9.489 Y36.706 Z-2.000 I-6.154 J-2.783 K0.000 F360.000
G2 X9.410 Y35.306 Z-2.000 I-6.250 J-0.350 K0.000 F360.000
G2 X9.233 Y34.714 Z-2.000 I-1.495 J0.125 K0.000 F360.000
G2 X8.375 Y33.685 Z-2.000 I-4.994 J3.291 K0.000 F360.000
G1 X8.022 Y33.391 Z-2.000 F360.000
G2 X5.063 Y31.838 Z-2.000 I-8.766 J13.110 K0.000 F360.000
G3 X1.681 Y29.761 Z-2.000 I4.242 J-10.696 K0.000 F360.000
G1 X1.319 Y29.228 Z-2.000 F360.000
G2 X4.805 Y29.240 Z-2.000 I1.880 J-39.526 K0.000 F360.000
G1 X7.427 Y28.782 Z-2.000 F360.000
G2 X11.841 Y27.128 Z-2.000 I-8.192 J-28.579 K0.000 F360.000
G1 X13.393 Y26.197 Z-2.000 F360.000
G2 X16.943 Y22.917 Z-2.000 I-12.289 J-16.863 K0.000 F360.000
G1 X16.943 Y22.917 Z-4.000 F360.000
G2 X17.674 Y22.014 Z-4.000 I-15.839 J-13.583 K0.000 F360.000
G2 X19.210 Y19.768 Z-4.000 I-7.336 J-6.662 K0.000 F360.000
G2 X20.726 Y16.481 Z-4.000 I-15.403 J-9.099 K0.000 F360.000
G1 X21.169 Y14.708 Z-4.000 F360.000
G1 X21.214 Y14.344 Z-4.000 F360.000
G1 X21.214 Y12.660 Z-4.000 F360.000
G1 X21.190 Y12.394 Z-4.000 F360.000
G1 X20.836 Y10.423 Z-4.000 F360.000
G2 X20.577 Y9.812 Z-4.000 I-1.476 J0.266 K0.000 F360.000
G1 X19.779 Y8.704 Z-4.000 F360.000
G1 X19.616 Y8.513 Z-4.000 F360.000
G2 X18.815 Y7.973 Z-4.000 I-2.799 J3.283 K0.000 F360.000
G2 X20.107 Y7.735 Z-4.000 I-1.286 J-10.624 K0.000 F360.000
G1 X22.723 Y6.937 Z-4.000 F360.000
G1 X25.982 Y5.657 Z-4.000 F360.000
G1 X26.186 Y5.558 Z-4.000 F360.000
G1 X28.624 Y4.139 Z-4.000 F360.000
G1 X28.775 Y4.039 Z-4.000 F360.000
G1 X31.262 Y2.157 Z-4.000 F360.000
G1 X31.481 Y1.954 Z-4.000 F360.000
G1 X33.165 Y0.048 Z-4.000 F360.000
G1 X34.581 Y-1.877 Z-4.000 F360.000
G1 X34.702 Y-2.071 Z-4.000 F360.000
G1 X35.899 Y-4.376 Z-4.000 F360.000
G1 X35.974 Y-4.546 Z-4.000 F360.000
G1 X36.994 Y-7.294 Z-4.000 F360.000
G1 X37.784 Y-10.066 Z-4.000 F360.000
G1 X37.837 Y-10.365 Z-4.000 F360.000
G1 X38.058 Y-13.370 Z-4.000 F360.000
G1 X38.062 Y-16.007 Z-4.000 F360.000
G1 X37.655 Y-19.932 Z-4.000 F360.000
G1 X37.604 Y-20.193 Z-4.000 F360.000
G1 X36.407 Y-24.315 Z-4.000 F360.000
G1 X36.291 Y-24.600 Z-4.000 F360.000
G1 X34.558 Y-27.863 Z-4.000 F360.000
G1 X34.457 Y-28.026 Z-4.000 F360.000
G1 X32.197 Y-31.217 Z-4.000 F360.000
G1 X32.016 Y-31.428 Z-4.000 F360.000
G1 X29.179 Y-34.176 Z-4.000 F360.000
G1 X28.882 Y-34.400 Z-4.000 F360.000
G1 X26.178 Y-35.951 Z-4.000 F360.000
G1 X26.010 Y-36.034 Z-4.000 F360.000
G1 X22.508 Y-37.497 Z-4.000 F360.000
G1 X19.335 Y-38.562 Z-4.000 F360.000
G1 X15.208 Y-39.653 Z-4.000 F360.000
G2 X7.101 Y-40.974 Z-4.000 I-27.162 J141.232 K0.000 F360.000
G1 X2.188 Y-41.252 Z-4.000 F360.000
G1 X-1.796 Y-41.254 Z-4.000 F360.000
G1 X-5.978 Y-40.848 Z-4.000 F360.000
G1 X-11.926 Y-40.044 Z-4.000 F360.000
G1 X-16.618 Y-39.002 Z-4.000 F360.000
G1 X-21.564 Y-37.336 Z-4.000 F360.000
G1 X-21.878 Y-37.187 Z-4.000 F360.000
G1 X-25.424 Y-34.971 Z-4.000 F360.000
G1 X-25.624 Y-34.821 Z-4.000 F360.000
G1 X-28.373 Y-32.383 Z-4.000 F360.000
G1 X-28.579 Y-32.159 Z-4.000 F360.000
G1 X-31.327 Y-28.480 Z-4.000 F360.000
G1 X-31.475 Y-28.236 Z-4.000 F360.000
G1 X-33.116 Y-24.848 Z-4.000 F360.000
G1 X-33.206 Y-24.614 Z-4.000 F360.000
G1 X-34.226 Y-21.112 Z-4.000 F360.000
G1 X-34.284 Y-20.752 Z-4.000 F360.000
G1 X-34.461 Y-16.304 Z-4.000 F360.000
G1 X-34.452 Y-16.072 Z-4.000 F360.000
G1 X-33.965 Y-11.861 Z-4.000 F360.000
G1 X-33.879 Y-11.507 Z-4.000 F360.000
G2 X-31.358 Y-5.375 Z-4.000 I74.456 J-27.022 K0.000 F360.000
G1 X-31.111 Y-4.992 Z-4.000 F360.000
G1 X-29.182 Y-2.824 Z-4.000 F360.000
G2 X-26.461 Y-0.694 Z-4.000 I16.339 J-18.075 K0.000 F360.000
G2 X-22.271 Y0.936 Z-4.000 I10.169 J-19.931 K0.000 F360.000
G1 X-19.597 Y1.263 Z-4.000 F360.000
G1 X-19.415 Y1.274 Z-4.000 F360.000
G1 X-3.759 Y1.274 Z-4.000 F360.000
G1 X-1.985 Y1.183 Z-4.000 F360.000
G1 X1.098 Y0.816 Z-4.000 F360.000
G1 X1.307 Y0.776 Z-4.000 F360.000
G1 X3.417 Y0.212 Z-4.000 F360.000
G1 X6.039 Y-0.679 Z-4.000 F360.000
G1 X6.263 Y-0.777 Z-4.000 F360.000
G2 X10.481 Y-3.405 Z-4.000 I-12.334 J-24.490 K0.000 F360.000
G2 X12.296 Y-5.166 Z-4.000 I-3.332 J-5.251 K0.000 F360.000
G1 X13.049 Y-6.584 Z-4.000 F360.000
G1 X13.161 Y-6.857 Z-4.000 F360.000
G1 X13.693 Y-8.630 Z-4.000 F360.000
G1 X13.756 Y-9.035 Z-4.000 F360.000
G2 X13.564 Y-13.462 Z-4.000 I-27.559 J-1.024 K0.000 F360.000
G1 X13.077 Y-15.280 Z-4.000 F360.000
G1 X12.983 Y-15.534 Z-4.000 F360.000
G1 X12.141 Y-17.307 Z-4.000 F360.000
G1 X11.927 Y-17.637 Z-4.000 F360.000
G1 X10.642 Y-19.144 Z-4.000 F360.000
G1 X10.453 Y-19.330 Z-4.000 F360.000
G1 X9.211 Y-20.349 Z-4.000 F360.000
G2 X7.797 Y-21.226 Z-4.000 I-6.870 J9.507 K0.000 F360.000
G2 X6.090 Y-22.017 Z-4.000 I-7.615 J14.186 K0.000 F360.000
G1 X5.619 Y-22.145 Z-4.000 F360.000
G3 X-2.563 Y-23.030 Z-4.000 I51.083 J-510.803 K0.000 F360.000
G2 X-3.709 Y-23.040 Z-4.000 I-0.658 J10.058 K0.000 F360.000
G2 X-5.202 Y-21.675 Z-4.000 I-0.000 J1.500 K0.000 F360.000
G2 X-4.607 Y-20.096 Z-4.000 I2.334 J0.021 K0.000 F360.000
G1 X-3.765 Y-19.298 Z-4.000 F360.000
G1 X-3.488 Y-19.091 Z-4.000 F360.000
G3 X-0.596 Y-17.374 Z-4.000 I-69.838 J120.949 K0.000 F360.000
G1 X0.974 Y-15.861 Z-4.000 F360.000
G1 X2.785 Y-13.845 Z-4.000 F360.000
G1 X3.612 Y-12.422 Z-4.000 F360.000
G1 X3.612 Y-10.520 Z-4.000 F360.000
G1 X2.751 Y-8.797 Z-4.000 F360.000
G1 X1.274 Y-7.131 Z-4.000 F360.000
G1 X-0.354 Y-6.010 Z-4.000 F360.000
G1 X-3.349 Y-5.221 Z-4.000 F360.000
G1 X-6.526 Y-4.929 Z-4.000 F360.000
G1 X-10.281 Y-4.929 Z-4.000 F360.000
G1 X-13.276 Y-5.415 Z-4.000 F360.000
G1 X-15.753 Y-6.413 Z-4.000 F360.000
G1 X-17.615 Y-7.553 Z-4.000 F360.000
G1 X-19.197 Y-9.411 Z-4.000 F360.000
G1 X-20.237 Y-11.606 Z-4.000 F360.000
G1 X-20.775 Y-14.030 Z-4.000 F360.000
G1 X-20.614 Y-16.820 Z-4.000 F360.000
G1 X-20.334 Y-18.824 Z-4.000 F360.000
G3 X-18.828 Y-22.309 Z-4.000 I29.798 J10.812 K0.000 F360.000
G3 X-15.741 Y-25.238 Z-4.000 I34.039 J32.770 K0.000 F360.000
G1 X-13.117 Y-26.611 Z-4.000 F360.000
G1 X-10.395 Y-27.575 Z-4.000 F360.000
G1 X-7.190 Y-28.418 Z-4.000 F360.000
G1 X-2.506 Y-28.957 Z-4.000 F360.000
G1 X6.810 Y-28.957 Z-4.000 F360.000
G1 X10.966 Y-28.406 Z-4.000 F360.000
G1 X15.110 Y-27.338 Z-4.000 F360.000
G1 X19.168 Y-25.874 Z-4.000 F360.000
G1 X21.059 Y-24.601 Z-4.000 F360.000
G1 X22.663 Y-22.957 Z-4.000 F360.000
G1 X24.285 Y-20.442 Z-4.000 F360.000
G1 X25.560 Y-17.464 Z-4.000 F360.000
G3 X25.720 Y-12.274 Z-4.000 I-42.383 J3.904 K0.000 F360.000
G1 X25.239 Y-10.155 Z-4.000 F360.000
G1 X24.161 Y-7.555 Z-4.000 F360.000
G1 X23.096 Y-5.723 Z-4.000 F360.000
G1 X21.471 Y-3.568 Z-4.000 F360.000
G1 X19.331 Y-1.749 Z-4.000 F360.000
G1 X17.510 Y-0.676 Z-4.000 F360.000
G1 X15.268 Y0.214 Z-4.000 F360.000
G1 X12.565 Y0.789 Z-4.000 F360.000
G2 X4.295 Y1.728 Z-4.000 I42.116 J407.908 K0.000 F360.000
G1 X-3.692 Y2.342 Z-4.000 F360.000
G1 X-6.753 Y2.654 Z-4.000 F360.000
G1 X-6.753 Y2.654 Z-4.000 F360.000
G2 X-16.904 Y3.716 Z-4.000 I74.844 J764.895 K0.000 F360.000
G2 X-21.524 Y4.741 Z-4.000 I3.600 J27.139 K0.000 F360.000
G2 X-22.426 Y5.126 Z-4.000 I2.166 J6.327 K0.000 F360.000
G2 X-24.408 Y7.786 Z-4.000 I1.255 J3.003 K0.000 F360.000
G2 X-24.354 Y10.826 Z-4.000 I12.509 J1.298 K0.000 F360.000
G2 X-23.985 Y12.761 Z-4.000 I7.037 J-0.340 K0.000 F360.000
G2 X-21.117 Y12.521 Z-4.000 I1.399 J-0.542 K0.000 F360.000
G3 X-20.803 Y11.099 Z-4.000 I8.624 J1.158 K0.000 F360.000
G3 X-19.350 Y9.248 Z-4.000 I2.956 J0.825 K0.000 F360.000
G1 X-18.499 Y8.978 Z-4.000 F360.000
G3 X-15.509 Y8.614 Z-4.000 I5.297 J31.076 K0.000 F360.000
G3 X-7.735 Y8.263 Z-4.000 I23.988 J444.499 K0.000 F360.000
G1 X1.010 Y8.263 Z-4.000 F360.000
G3 X3.517 Y8.386 Z-4.000 I-3.789 J102.452 K0.000 F360.000
G3 X5.634 Y8.778 Z-4.000 I-4.891 J32.348 K0.000 F360.000
G3 X9.481 Y9.986 Z-4.000 I-3.024 J16.364 K0.000 F360.000
G3 X11.785 Y11.433 Z-4.000 I-2.143 J5.969 K0.000 F360.000
G3 X12.951 Y12.893 Z-4.000 I-4.373 J4.690 K0.000 F360.000
G3 X13.301 Y14.486 Z-4.000 I-1.927 J1.258 K0.000 F360.000
G3 X12.850 Y15.747 Z-4.000 I-5.143 J-1.128 K0.000 F360.000
G3 X11.410 Y17.424 Z-4.000 I-5.656 J-3.400 K0.000 F360.000
G3 X9.781 Y18.633 Z-4.000 I-19.087 J-24.012 K0.000 F360.000
G3 X8.136 Y19.694 Z-4.000 I-6.192 J-7.794 K0.000 F360.000
G3 X5.254 Y20.542 Z-4.000 I-8.952 J-25.097 K0.000 F360.000
G3 X3.308 Y20.840 Z-4.000 I-2.212 J-7.957 K0.000 F360.000
G3 X0.351 Y20.787 Z-4.000 I-1.039 J-24.526 K0.000 F360.000
G3 X-3.956 Y19.723 Z-4.000 I1.052 J-13.507 K0.000 F360.000
G3 X-5.533 Y18.635 Z-4.000 I16.409 J-25.476 K0.000 F360.000
G3 X-7.128 Y16.883 Z-4.000 I2.465 J-3.846 K0.000 F360.000
G3 X-6.405 Y15.843 Z-4.000 I1.130 J0.014 K0.000 F360.000
G3 X-3.683 Y15.455 Z-4.000 I2.785 J9.822 K0.000 F360.000
G1 X0.152 Y15.455 Z-4.000 F360.000
G3 X2.930 Y15.568 Z-4.000 I-0.054 J35.498 K0.000 F360.000
G3 X5.804 Y16.782 Z-4.000 I0.040 J3.916 K0.000 F360.000
G2 X8.358 Y17.558 Z-4.000 I1.481 J-0.283 K0.000 F360.000
G2 X9.429 Y15.862 Z-4.000 I-13.855 J-9.939 K0.000 F360.000
G2 X10.079 Y13.542 Z-4.000 I-3.000 J-2.092 K0.000 F360.000
G2 X8.240 Y10.745 Z-4.000 I-3.653 J0.398 K0.000 F360.000
G2 X4.905 Y9.695 Z-4.000 I-4.586 J8.742 K0.000 F360.000
G2 X-2.952 Y8.760 Z-4.000 I-10.385 J53.814 K0.000 F360.000
G1 X-12.005 Y8.757 Z-4.000 F360.000
G2 X-14.718 Y8.992 Z-4.000 I0.433 J20.731 K0.000 F360.000
G2 X-16.062 Y9.360 Z-4.000 I1.932 J9.683 K0.000 F360.000
G1 X-16.355 Y9.479 Z-4.000 F360.000
G1 X-17.399 Y10.036 Z-4.000 F360.000
G2 X-19.164 Y11.861 Z-4.000 I3.023 J4.691 K0.000 F360.000
G2 X-19.548 Y13.052 Z-4.000 I5.095 J2.300 K0.000 F360.000
G2 X-19.484 Y16.876 Z-4.000 I10.449 J1.737 K0.000 F360.000
G1 X-19.352 Y17.299 Z-4.000 F360.000
G2 X-16.656 Y21.756 Z-4.000 I19.410 J-8.696 K0.000 F360.000
G2 X-14.110 Y24.294 Z-4.000 I14.950 J-12.456 K0.000 F360.000
G2 X-8.187 Y27.550 Z-4.000 I14.596 J-19.530 K0.000 F360.000
G2 X-4.966 Y28.474 Z-4.000 I31.924 J-105.308 K0.000 F360.000
G2 X-4.538 Y31.263 Z-4.000 I10.452 J-0.174 K0.000 F360.000
G2 X-2.636 Y35.549 Z-4.000 I51.098 J-20.120 K0.000 F360.000
G2 X-0.196 Y38.439 Z-4.000 I12.921 J-8.435 K0.000 F360.000
G2 X1.408 Y39.704 Z-4.000 I5.838 J-5.748 K0.000 F360.000
G2 X3.676 Y40.802 Z-4.000 I5.619 J-8.718 K0.000 F360.000
G1 X4.901 Y41.014 Z-4.000 F360.000
G2 X6.143 Y40.943 Z-4.000 I0.362 J-4.567 K0.000 F360.000
G2 X7.475 Y40.373 Z-4.000 I-0.676 J-3.423 K0.000 F360.000
G2 X9.005 Y38.243 Z-4.000 I-5.253 J-5.389 K0.000 F360.000
G2 X9.489 Y36.706 Z-4.000 I-6.154 J-2.783 K0.000 F360.000
G2 X9.410 Y35.306 Z-4.000 I-6.250 J-0.350 K0.000 F360.000
G2 X9.233 Y34.714 Z-4.000 I-1.495 J0.125 K0.000 F360.000
G2 X8.375 Y33.685 Z-4.000 I-4.994 J3.291 K0.000 F360.000
G1 X8.022 Y33.391 Z-4.000 F360.000
G2 X5.063 Y31.838 Z-4.000 I-8.766 J13.110 K0.000 F360.000
G3 X1.681 Y29.761 Z-4.000 I4.242 J-10.696 K0.000 F360.000
G1 X1.319 Y29.228 Z-4.000 F360.000
G2 X4.805 Y29.240 Z-4.000 I1.880 J-39.526 K0.000 F360.000
G1 X7.427 Y28.782 Z-4.000 F360.000
G2 X11.841 Y27.128 Z-4.000 I-8.192 J-28.579 K0.000 F360.000
G1 X13.393 Y26.197 Z-4.000 F360.000
G2 X16.943 Y22.917 Z-4.000 I-12.289 J-16.863 K0.000 F360.000
G1 X16.943 Y22.917 Z-6.000 F360.000
G2 X17.674 Y22.014 Z-6.000 I-15.839 J-13.583 K0.000 F360.000
G2 X19.210 Y19.768 Z-6.000 I-7.336 J-6.662 K0.000 F360.000
G2 X20.726 Y16.481 Z-6.000 I-15.403 J-9.099 K0.000 F360.000
G1 X21.169 Y14.708 Z-6.000 F360.000
G1 X21.214 Y14.344 Z-6.000 F360.000
G1 X21.214 Y12.660 Z-6.000 F360.000
G1 X21.190 Y12.394 Z-6.000 F360.000
G1 X20.836 Y10.423 Z-6.000 F360.000
G2 X20.577 Y9.812 Z-6.000 I-1.476 J0.266 K0.000 F360.000
G1 X19.779 Y8.704 Z-6.000 F360.000
G1 X19.616 Y8.513 Z-6.000 F360.000
G2 X18.815 Y7.973 Z-6.000 I-2.799 J3.283 K0.000 F360.000
G2 X20.107 Y7.735 Z-6.000 I-1.286 J-10.624 K0.000 F360.000
G1 X22.723 Y6.937 Z-6.000 F360.000
G1 X25.982 Y5.657 Z-6.000 F360.000
G1 X26.186 Y5.558 Z-6.000 F360.000
G1 X28.624 Y4.139 Z-6.000 F360.000
G1 X28.775 Y4.039 Z-6.000 F360.000
G1 X31.262 Y2.157 Z-6.000 F360.000
G1 X31.481 Y1.954 Z-6.000 F360.000
G1 X33.165 Y0.048 Z-6.000 F360.000
G1 X34.581 Y-1.877 Z-6.000 F360.000
G1 X34.702 Y-2.071 Z-6.000 F360.000
G1 X35.899 Y-4.376 Z-6.000 F360.000
G1 X35.974 Y-4.546 Z-6.000 F360.000
G1 X36.994 Y-7.294 Z-6.000 F360.000
G1 X37.784 Y-10.066 Z-6.000 F360.000
G1 X37.837 Y-10.365 Z-6.000 F360.000
G1 X38.058 Y-13.370 Z-6.000 F360.000
G1 X38.062 Y-16.007 Z-6.000 F360.000
G1 X37.655 Y-19.932 Z-6.000 F360.000
G1 X37.604 Y-20.193 Z-6.000 F360.000
G1 X36.407 Y-24.315 Z-6.000 F360.000
G1 X36.291 Y-24.600 Z-6.000 F360.000
G1 X34.558 Y-27.863 Z-6.000 F360.000
G1 X34.457 Y-28.026 Z-6.000 F360.000
G1 X32.197 Y-31.217 Z-6.000 F360.000
G1 X32.016 Y-31.428 Z-6.000 F360.000
G1 X29.179 Y-34.176 Z-6.000 F360.000
G1 X28.882 Y-34.400 Z-6.000 F360.000
G1 X26.178 Y-35.951 Z-6.000 F360.000
G1 X26.010 Y-36.034 Z-6.000 F360.000
G1 X22.508 Y-37.497 Z-6.000 F360.000
G1 X19.335 Y-38.562 Z-6.000 F360.000
G1 X15.208 Y-39.653 Z-6.000 F360.000
G2 X7.101 Y-40.974 Z-6.000 I-27.162 J141.232 K0.000 F360.000
G1 X2.188 Y-41.252 Z-6.000 F360.000
G1 X-1.796 Y-41.254 Z-6.000 F360.000
G1 X-5.978 Y-40.848 Z-6.000 F360.000
G1 X-11.926 Y-40.044 Z-6.000 F360.000
G1 X-16.618 Y-39.002 Z-6.000 F360.000
G1 X-21.564 Y-37.336 Z-6.000 F360.000
G1 X-21.878 Y-37.187 Z-6.000 F360.000
G1 X-25.424 Y-34.971 Z-6.000 F360.000
G1 X-25.624 Y-34.821 Z-6.000 F360.000
G1 X-28.373 Y-32.383 Z-6.000 F360.000
G1 X-28.579 Y-32.159 Z-6.000 F360.000
G1 X-31.327 Y-28.480 Z-6.000 F360.000
G1 X-31.475 Y-28.236 Z-6.000 F360.000
G1 X-33.116 Y-24.848 Z-6.000 F360.000
G1 X-33.206 Y-24.614 Z-6.000 F360.000
G1 X-34.226 Y-21.112 Z-6.000 F360.000
G1 X-34.284 Y-20.752 Z-6.000 F360.000
G1 X-34.461 Y-16.304 Z-6.000 F360.000
G1 X-34.452 Y-16.072 Z-6.000 F360.000
G1 X-33.965 Y-11.861 Z-6.000 F360.000
G1 X-33.879 Y-11.507 Z-6.000 F360.000
G2 X-31.358 Y-5.375 Z-6.000 I74.456 J-27.022 K0.000 F360.000
G1 X-31.111 Y-4.992 Z-6.000 F360.000
G1 X-29.182 Y-2.824 Z-6.000 F360.000
G2 X-26.461 Y-0.694 Z-6.000 I16.339 J-18.075 K0.000 F360.000
G2 X-22.271 Y0.936 Z-6.000 I10.169 J-19.931 K0.000 F360.000
G1 X-19.597 Y1.263 Z-6.000 F360.000
G1 X-19.415 Y1.274 Z-6.000 F360.000
G1 X-3.759 Y1.274 Z-6.000 F360.000
G1 X-1.985 Y1.183 Z-6.000 F360.000
G1 X1.098 Y0.816 Z-6.000 F360.000
G1 X1.307 Y0.776 Z-6.000 F360.000
G1 X3.417 Y0.212 Z-6.000 F360.000
G1 X6.039 Y-0.679 Z-6.000 F360.000
G1 X6.263 Y-0.777 Z-6.000 F360.000
G2 X10.481 Y-3.405 Z-6.000 I-12.334 J-24.490 K0.000 F360.000
G2 X12.296 Y-5.166 Z-6.000 I-3.332 J-5.251 K0.000 F360.000
G1 X13.049 Y-6.584 Z-6.000 F360.000
G1 X13.161 Y-6.857 Z-6.000 F360.000
G1 X13.693 Y-8.630 Z-6.000 F360.000
G1 X13.756 Y-9.035 Z-6.000 F360.000
G2 X13.564 Y-13.462 Z-6.000 I-27.559 J-1.024 K0.000 F360.000
G1 X13.077 Y-15.280 Z-6.000 F360.000
G1 X12.983 Y-15.534 Z-6.000 F360.000
G1 X12.141 Y-17.307 Z-6.000 F360.000
G1 X11.927 Y-17.637 Z-6.000 F360.000
G1 X10.642 Y-19.144 Z-6.000 F360.000
G1 X10.453 Y-19.330 Z-6.000 F360.000
G1 X9.211 Y-20.349 Z-6.000 F360.000
G2 X7.797 Y-21.226 Z-6.000 I-6.870 J9.507 K0.000 F360.000
G2 X6.090 Y-22.017 Z-6.000 I-7.615 J14.186 K0.000 F360.000
G1 X5.619 Y-22.145 Z-6.000 F360.000
G3 X-2.563 Y-23.030 Z-6.000 I51.083 J-510.803 K0.000 F360.000
G2 X-3.709 Y-23.040 Z-6.000 I-0.658 J10.058 K0.000 F360.000
G2 X-5.202 Y-21.675 Z-6.000 I-0.000 J1.500 K0.000 F360.000
G2 X-4.607 Y-20.096 Z-6.000 I2.334 J0.021 K0.000 F360.000
G1 X-3.765 Y-19.298 Z-6.000 F360.000
G1 X-3.488 Y-19.091 Z-6.000 F360.000
G3 X-0.596 Y-17.374 Z-6.000 I-69.838 J120.949 K0.000 F360.000
G1 X0.974 Y-15.861 Z-6.000 F360.000
G1 X2.785 Y-13.845 Z-6.000 F360.000
G1 X3.612 Y-12.422 Z-6.000 F360.000
G1 X3.612 Y-10.520 Z-6.000 F360.000
G1 X2.751 Y-8.797 Z-6.000 F360.000
G1 X1.274 Y-7.131 Z-6.000 F360.000
G1 X-0.354 Y-6.010 Z-6.000 F360.000
G1 X-3.349 Y-5.221 Z-6.000 F360.000
G1 X-6.526 Y-4.929 Z-6.000 F360.000
G1 X-10.281 Y-4.929 Z-6.000 F360.000
G1 X-13.276 Y-5.415 Z-6.000 F360.000
G1 X-15.753 Y-6.413 Z-6.000 F360.000
G1 X-17.615 Y-7.553 Z-6.000 F360.000
G1 X-19.197 Y-9.411 Z-6.000 F360.000
G1 X-20.237 Y-11.606 Z-6.000 F360.000
G1 X-20.775 Y-14.030 Z-6.000 F360.000
G1 X-20.614 Y-16.820 Z-6.000 F360.000
G1 X-20.334 Y-18.824 Z-6.000 F360.000
G3 X-18.828 Y-22.309 Z-6.000 I29.798 J10.812 K0.000 F360.000
G3 X-15.741 Y-25.238 Z-6.000 I34.039 J32.770 K0.000 F360.000
G1 X-13.117 Y-26.611 Z-6.000 F360.000
G1 X-10.395 Y-27.575 Z-6.000 F360.000
G1 X-7.190 Y-28.418 Z-6.000 F360.000
G1 X-2.506 Y-28.957 Z-6.000 F360.000
G1 X6.810 Y-28.957 Z-6.000 F360.000
G1 X10.966 Y-28.406 Z-6.000 F360.000
G1 X15.110 Y-27.338 Z-6.000 F360.000
G1 X19.168 Y-25.874 Z-6.000 F360.000
G1 X21.059 Y-24.601 Z-6.000 F360.000
G1 X22.663 Y-22.957 Z-6.000 F360.000
G1 X24.285 Y-20.442 Z-6.000 F360.000
G1 X25.560 Y-17.464 Z-6.000 F360.000
G3 X25.720 Y-12.274 Z-6.000 I-42.383 J3.904 K0.000 F360.000
G1 X25.239 Y-10.155 Z-6.000 F360.000
G1 X24.161 Y-7.555 Z-6.000 F360.000
G1 X23.096 Y-5.723 Z-6.000 F360.000
G1 X21.471 Y-3.568 Z-6.000 F360.000
G1 X19.331 Y-1.749 Z-6.000 F360.000
G1 X17.510 Y-0.676 Z-6.000 F360.000
G1 X15.268 Y0.214 Z-6.000 F360.000
G1 X12.565 Y0.789 Z-6.000 F360.000
G2 X4.295 Y1.728 Z-6.000 I42.116 J407.908 K0.000 F360.000
G1 X-3.692 Y2.342 Z-6.000 F360.000
G1 X-6.753 Y2.654 Z-6.000 F360.000
G1 X-6.753 Y2.654 Z-6.000 F360.000
G2 X-16.904 Y3.716 Z-6.000 I74.844 J764.895 K0.000 F360.000
G2 X-21.524 Y4.741 Z-6.000 I3.600 J27.139 K0.000 F360.000
G2 X-22.426 Y5.126 Z-6.000 I2.166 J6.327 K0.000 F360.000
G2 X-24.408 Y7.786 Z-6.000 I1.255 J3.003 K0.000 F360.000
G2 X-24.354 Y10.826 Z-6.000 I12.509 J1.298 K0.000 F360.000
G2 X-23.985 Y12.761 Z-6.000 I7.037 J-0.340 K0.000 F360.000
G2 X-21.117 Y12.521 Z-6.000 I1.399 J-0.542 K0.000 F360.000
G3 X-20.803 Y11.099 Z-6.000 I8.624 J1.158 K0.000 F360.000
G3 X-19.350 Y9.248 Z-6.000 I2.956 J0.825 K0.000 F360.000
G1 X-18.499 Y8.978 Z-6.000 F360.000
G3 X-15.509 Y8.614 Z-6.000 I5.297 J31.076 K0.000 F360.000
G3 X-7.735 Y8.263 Z-6.000 I23.988 J444.499 K0.000 F360.000
G1 X1.010 Y8.263 Z-6.000 F360.000
G3 X3.517 Y8.386 Z-6.000 I-3.789 J102.452 K0.000 F360.000
G3 X5.634 Y8.778 Z-6.000 I-4.891 J32.348 K0.000 F360.000
G3 X9.481 Y9.986 Z-6.000 I-3.024 J16.364 K0.000 F360.000
G3 X11.785 Y11.433 Z-6.000 I-2.143 J5.969 K0.000 F360.000
G3 X12.951 Y12.893 Z-6.000 I-4.373 J4.690 K0.000 F360.000
G3 X13.301 Y14.486 Z-6.000 I-1.927 J1.258 K0.000 F360.000
G3 X12.850 Y15.747 Z-6.000 I-5.143 J-1.128 K0.000 F360.000
G3 X11.410 Y17.424 Z-6.000 I-5.656 J-3.400 K0.000 F360.000
G3 X9.781 Y18.633 Z-6.000 I-19.087 J-24.012 K0.000 F360.000
G3 X8.136 Y19.694 Z-6.000 I-6.192 J-7.794 K0.000 F360.000
G3 X5.254 Y20.542 Z-6.000 I-8.952 J-25.097 K0.000 F360.000
G3 X3.308 Y20.840 Z-6.000 I-2.212 J-7.957 K0.000 F360.000
G3 X0.351 Y20.787 Z-6.000 I-1.039 J-24.526 K0.000 F360.000
G3 X-3.956 Y19.723 Z-6.000 I1.052 J-13.507 K0.000 F360.000
G3 X-5.533 Y18.635 Z-6.000 I16.409 J-25.476 K0.000 F360.000
G3 X-7.128 Y16.883 Z-6.000 I2.465 J-3.846 K0.000 F360.000
G3 X-6.405 Y15.843 Z-6.000 I1.130 J0.014 K0.000 F360.000
G3 X-3.683 Y15.455 Z-6.000 I2.785 J9.822 K0.000 F360.000
G1 X0.152 Y15.455 Z-6.000 F360.000
G3 X2.930 Y15.568 Z-6.000 I-0.054 J35.498 K0.000 F360.000
G3 X5.804 Y16.782 Z-6.000 I0.040 J3.916 K0.000 F360.000
G2 X8.358 Y17.558 Z-6.000 I1.481 J-0.283 K0.000 F360.000
G2 X9.429 Y15.862 Z-6.000 I-13.855 J-9.939 K0.000 F360.000
G2 X10.079 Y13.542 Z-6.000 I-3.000 J-2.092 K0.000 F360.000
G2 X8.240 Y10.745 Z-6.000 I-3.653 J0.398 K0.000 F360.000
G2 X4.905 Y9.695 Z-6.000 I-4.586 J8.742 K0.000 F360.000
G2 X-2.952 Y8.760 Z-6.000 I-10.385 J53.814 K0.000 F360.000
G1 X-12.005 Y8.757 Z-6.000 F360.000
G2 X-14.718 Y8.992 Z-6.000 I0.433 J20.731 K0.000 F360.000
G2 X-16.062 Y9.360 Z-6.000 I1.932 J9.683 K0.000 F360.000
G1 X-16.355 Y9.479 Z-6.000 F360.000
G1 X-17.399 Y10.036 Z-6.000 F360.000
G2 X-19.164 Y11.861 Z-6.000 I3.023 J4.691 K0.000 F360.000
G2 X-19.548 Y13.052 Z-6.000 I5.095 J2.300 K0.000 F360.000
G2 X-19.484 Y16.876 Z-6.000 I10.449 J1.737 K0.000 F360.000
G1 X-19.352 Y17.299 Z-6.000 F360.000
G2 X-16.656 Y21.756 Z-6.000 I19.410 J-8.696 K0.000 F360.000
G2 X-14.110 Y24.294 Z-6.000 I14.950 J-12.456 K0.000 F360.000
G2 X-8.187 Y27.550 Z-6.000 I14.596 J-19.530 K0.000 F360.000
G2 X-4.966 Y28.474 Z-6.000 I31.924 J-105.308 K0.000 F360.000
G2 X-4.538 Y31.263 Z-6.000 I10.452 J-0.174 K0.000 F360.000
G2 X-2.636 Y35.549 Z-6.000 I51.098 J-20.120 K0.000 F360.000
G2 X-0.196 Y38.439 Z-6.000 I12.921 J-8.435 K0.000 F360.000
G2 X1.408 Y39.704 Z-6.000 I5.838 J-5.748 K0.000 F360.000
G2 X3.676 Y40.802 Z-6.000 I5.619 J-8.718 K0.000 F360.000
G1 X4.901 Y41.014 Z-6.000 F360.000
G2 X6.143 Y40.943 Z-6.000 I0.362 J-4.567 K0.000 F360.000
G2 X7.475 Y40.373 Z-6.000 I-0.676 J-3.423 K0.000 F360.000
G2 X9.005 Y38.243 Z-6.000 I-5.253 J-5.389 K0.000 F360.000
G2 X9.489 Y36.706 Z-6.000 I-6.154 J-2.783 K0.000 F360.000
G2 X9.410 Y35.306 Z-6.000 I-6.250 J-0.350 K0.000 F360.000
G2 X9.233 Y34.714 Z-6.000 I-1.495 J0.125 K0.000 F360.000
G2 X8.375 Y33.685 Z-6.000 I-4.994 J3.291 K0.000 F360.000
G1 X8.022 Y33.391 Z-6.000 F360.000
G2 X5.063 Y31.838 Z-6.000 I-8.766 J13.110 K0.000 F360.000
G3 X1.681 Y29.761 Z-6.000 I4.242 J-10.696 K0.000 F360.000
G1 X1.319 Y29.228 Z-6.000 F360.000
G2 X4.805 Y29.240 Z-6.000 I1.880 J-39.526 K0.000 F360.000
G1 X7.427 Y28.782 Z-6.000 F360.000
G2 X11.841 Y27.128 Z-6.000 I-8.192 J-28.579 K0.000 F360.000
G1 X13.393 Y26.197 Z-6.000 F360.000
G2 X16.943 Y22.917 Z-6.000 I-12.289 J-16.863 K0.000 F360.000
G1 X16.943 Y22.917 Z-8.000 F360.000
G2 X17.674 Y22.014 Z-8.000 I-15.839 J-13.583 K0.000 F360.000
G2 X19.210 Y19.768 Z-8.000 I-7.336 J-6.662 K0.000 F360.000
G2 X20.726 Y16.481 Z-8.000 I-15.403 J-9.099 K0.000 F360.000
G1 X21.169 Y14.708 Z-8.000 F360.000
G1 X21.214 Y14.344 Z-8.000 F360.000
G1 X21.214 Y12.660 Z-8.000 F360.000
G1 X21.190 Y12.394 Z-8.000 F360.000
G1 X20.836 Y10.423 Z-8.000 F360.000
G2 X20.577 Y9.812 Z-8.000 I-1.476 J0.266 K0.000 F360.000
G1 X19.779 Y8.704 Z-8.000 F360.000
G1 X19.616 Y8.513 Z-8.000 F360.000
G2 X18.815 Y7.973 Z-8.000 I-2.799 J3.283 K0.000 F360.000
G2 X20.107 Y7.735 Z-8.000 I-1.286 J-10.624 K0.000 F360.000
G1 X22.723 Y6.937 Z-8.000 F360.000
G1 X25.982 Y5.657 Z-8.000 F360.000
G1 X26.186 Y5.558 Z-8.000 F360.000
G1 X28.624 Y4.139 Z-8.000 F360.000
G1 X28.775 Y4.039 Z-8.000 F360.000
G1 X31.262 Y2.157 Z-8.000 F360.000
G1 X31.481 Y1.954 Z-8.000 F360.000
G1 X33.165 Y0.048 Z-8.000 F360.000
G1 X34.581 Y-1.877 Z-8.000 F360.000
G1 X34.702 Y-2.071 Z-8.000 F360.000
G1 X35.899 Y-4.376 Z-8.000 F360.000
G1 X35.974 Y-4.546 Z-8.000 F360.000
G1 X36.994 Y-7.294 Z-8.000 F360.000
G1 X37.784 Y-10.066 Z-8.000 F360.000
G1 X37.837 Y-10.365 Z-8.000 F360.000
G1 X38.058 Y-13.370 Z-8.000 F360.000
G1 X38.062 Y-16.007 Z-8.000 F360.000
G1 X37.655 Y-19.932 Z-8.000 F360.000
G1 X37.604 Y-20.193 Z-8.000 F360.000
G1 X36.407 Y-24.315 Z-8.000 F360.000
G1 X36.291 Y-24.600 Z-8.000 F360.000
G1 X34.558 Y-27.863 Z-8.000 F360.000
G1 X34.457 Y-28.026 Z-8.000 F360.000
G1 X32.197 Y-31.217 Z-8.000 F360.000
G1 X32.016 Y-31.428 Z-8.000 F360.000
G1 X29.179 Y-34.176 Z-8.000 F360.000
G1 X28.882 Y-34.400 Z-8.000 F360.000
G1 X26.178 Y-35.951 Z-8.000 F360.000
G1 X26.010 Y-36.034 Z-8.000 F360.000
G1 X22.508 Y-37.497 Z-8.000 F360.000
G1 X19.335 Y-38.562 Z-8.000 F360.000
G1 X15.208 Y-39.653 Z-8.000 F360.000
G2 X7.101 Y-40.974 Z-8.000 I-27.162 J141.232 K0.000 F360.000
G1 X2.188 Y-41.252 Z-8.000 F360.000
G1 X-1.796 Y-41.254 Z-8.000 F360.000
G1 X-5.978 Y-40.848 Z-8.000 F360.000
G1 X-11.926 Y-40.044 Z-8.000 F360.000
G1 X-16.618 Y-39.002 Z-8.000 F360.000
G1 X-21.564 Y-37.336 Z-8.000 F360.000
G1 X-21.878 Y-37.187 Z-8.000 F360.000
G1 X-25.424 Y-34.971 Z-8.000 F360.000
G1 X-25.624 Y-34.821 Z-8.000 F360.000
G1 X-28.373 Y-32.383 Z-8.000 F360.000
G1 X-28.579 Y-32.159 Z-8.000 F360.000
G1 X-31.327 Y-28.480 Z-8.000 F360.000
G1 X-31.475 Y-28.236 Z-8.000 F360.000
G1 X-33.116 Y-24.848 Z-8.000 F360.000
G1 X-33.206 Y-24.614 Z-8.000 F360.000
G1 X-34.226 Y-21.112 Z-8.000 F360.000
G1 X-34.284 Y-20.752 Z-8.000 F360.000
G1 X-34.461 Y-16.304 Z-8.000 F360.000
G1 X-34.452 Y-16.072 Z-8.000 F360.000
G1 X-33.965 Y-11.861 Z-8.000 F360.000
G1 X-33.879 Y-11.507 Z-8.000 F360.000
G2 X-31.358 Y-5.375 Z-8.000 I74.456 J-27.022 K0.000 F360.000
G1 X-31.111 Y-4.992 Z-8.000 F360.000
G1 X-29.182 Y-2.824 Z-8.000 F360.000
G2 X-26.461 Y-0.694 Z-8.000 I16.339 J-18.075 K0.000 F360.000
G2 X-22.271 Y0.936 Z-8.000 I10.169 J-19.931 K0.000 F360.000
G1 X-19.597 Y1.263 Z-8.000 F360.000
G1 X-19.415 Y1.274 Z-8.000 F360.000
G1 X-3.759 Y1.274 Z-8.000 F360.000
G1 X-1.985 Y1.183 Z-8.000 F360.000
G1 X1.098 Y0.816 Z-8.000 F360.000
G1 X1.307 Y0.776 Z-8.000 F360.000
G1 X3.417 Y0.212 Z-8.000 F360.000
G1 X6.039 Y-0.679 Z-8.000 F360.000
G1 X6.263 Y-0.777 Z-8.000 F360.000
G2 X10.481 Y-3.405 Z-8.000 I-12.334 J-24.490 K0.000 F360.000
G2 X12.296 Y-5.166 Z-8.000 I-3.332 J-5.251 K0.000 F360.000
G1 X13.049 Y-6.584 Z-8.000 F360.000
G1 X13.161 Y-6.857 Z-8.000 F360.000
G1 X13.693 Y-8.630 Z-8.000 F360.000
G1 X13.756 Y-9.035 Z-8.000 F360.000
G2 X13.564 Y-13.462 Z-8.000 I-27.559 J-1.024 K0.000 F360.000
G1 X13.077 Y-15.280 Z-8.000 F360.000
G1 X12.983 Y-15.534 Z-8.000 F360.000
G1 X12.141 Y-17.307 Z-8.000 F360.000
G1 X11.927 Y-17.637 Z-8.000 F360.000
G1 X10.642 Y-19.144 Z-8.000 F360.000
G1 X10.453 Y-19.330 Z-8.000 F360.000
G1 X9.211 Y-20.349 Z-8.000 F360.000
G2 X7.797 Y-21.226 Z-8.000 I-6.870 J9.507 K0.000 F360.000
G2 X6.090 Y-22.017 Z-8.000 I-7.615 J14.186 K0.000 F360.000
G1 X5.619 Y-22.145 Z-8.000 F360.000
G3 X-2.563 Y-23.030 Z-8.000 I51.083 J-510.803 K0.000 F360.000
G2 X-3.709 Y-23.040 Z-8.000 I-0.658 J10.058 K0.000 F360.000
G2 X-5.202 Y-21.675 Z-8.000 I-0.000 J1.500 K0.000 F360.000
G2 X-4.607 Y-20.096 Z-8.000 I2.334 J0.021 K0.000 F360.000
G1 X-3.765 Y-19.298 Z-8.000 F360.000
G1 X-3.488 Y-19.091 Z-8.000 F360.000
G3 X-0.596 Y-17.374 Z-8.000 I-69.838 J120.949 K0.000 F360.000
G1 X0.974 Y-15.861 Z-8.000 F360.000
G1 X2.785 Y-13.845 Z-8.000 F360.000
G1 X3.612 Y-12.422 Z-8.000 F360.000
G1 X3.612 Y-10.520 Z-8.000 F360.000
G1 X2.751 Y-8.797 Z-8.000 F360.000
G1 X1.274 Y-7.131 Z-8.000 F360.000
G1 X-0.354 Y-6.010 Z-8.000 F360.000
G1 X-3.349 Y-5.221 Z-8.000 F360.000
G1 X-6.526 Y-4.929 Z-8.000 F360.000
G1 X-10.281 Y-4.929 Z-8.000 F360.000
G1 X-13.276 Y-5.415 Z-8.000 F360.000
G1 X-15.753 Y-6.413 Z-8.000 F360.000
G1 X-17.615 Y-7.553 Z-8.000 F360.000
G1 X-19.197 Y-9.411 Z-8.000 F360.000
G1 X-20.237 Y-11.606 Z-8.000 F360.000
G1 X-20.775 Y-14.030 Z-8.000 F360.000
G1 X-20.614 Y-16.820 Z-8.000 F360.000
G1 X-20.334 Y-18.824 Z-8.000 F360.000
G3 X-18.828 Y-22.309 Z-8.000 I29.798 J10.812 K0.000 F360.000
G3 X-15.741 Y-25.238 Z-8.000 I34.039 J32.770 K0.000 F360.000
G1 X-13.117 Y-26.611 Z-8.000 F360.000
G1 X-10.395 Y-27.575 Z-8.000 F360.000
G1 X-7.190 Y-28.418 Z-8.000 F360.000
G1 X-2.506 Y-28.957 Z-8.000 F360.000
G1 X6.810 Y-28.957 Z-8.000 F360.000
G1 X10.966 Y-28.406 Z-8.000 F360.000
G1 X15.110 Y-27.338 Z-8.000 F360.000
G1 X19.168 Y-25.874 Z-8.000 F360.000
G1 X21.059 Y-24.601 Z-8.000 F360.000
G1 X22.663 Y-22.957 Z-8.000 F360.000
G1 X24.285 Y-20.442 Z-8.000 F360.000
G1 X25.560 Y-17.464 Z-8.000 F360.000
G3 X25.720 Y-12.274 Z-8.000 I-42.383 J3.904 K0.000 F360.000
G1 X25.239 Y-10.155 Z-8.000 F360.000
G1 X24.161 Y-7.555 Z-8.000 F360.000
G1 X23.096 Y-5.723 Z-8.000 F360.000
G1 X21.471 Y-3.568 Z-8.000 F360.000
G1 X19.331 Y-1.749 Z-8.000 F360.000
G1 X17.510 Y-0.676 Z-8.000 F360.000
G1 X15.268 Y0.214 Z-8.000 F360.000
G1 X12.565 Y0.789 Z-8.000 F360.000
G2 X4.295 Y1.728 Z-8.000 I42.116 J407.908 K0.000 F360.000
G1 X-3.692 Y2.342 Z-8.000 F360.000
G1 X-6.753 Y2.654 Z-8.000 F360.000
G1 X-6.753 Y2.654 Z-8.000 F360.000
G2 X-16.904 Y3.716 Z-8.000 I74.844 J764.895 K0.000 F360.000
G2 X-21.524 Y4.741 Z-8.000 I3.600 J27.139 K0.000 F360.000
G2 X-22.426 Y5.126 Z-8.000 I2.166 J6.327 K0.000 F360.000
G2 X-24.408 Y7.786 Z-8.000 I1.255 J3.003 K0.000 F360.000
G2 X-24.354 Y10.826 Z-8.000 I12.509 J1.298 K0.000 F360.000
G2 X-23.985 Y12.761 Z-8.000 I7.037 J-0.340 K0.000 F360.000
G2 X-21.117 Y12.521 Z-8.000 I1.399 J-0.542 K0.000 F360.000
G3 X-20.803 Y11.099 Z-8.000 I8.624 J1.158 K0.000 F360.000
G3 X-19.350 Y9.248 Z-8.000 I2.956 J0.825 K0.000 F360.000
G1 X-18.499 Y8.978 Z-8.000 F360.000
G3 X-15.509 Y8.614 Z-8.000 I5.297 J31.076 K0.000 F360.000
G3 X-7.735 Y8.263 Z-8.000 I23.988 J444.499 K0.000 F360.000
G1 X1.010 Y8.263 Z-8.000 F360.000
G3 X3.517 Y8.386 Z-8.000 I-3.789 J102.452 K0.000 F360.000
G3 X5.634 Y8.778 Z-8.000 I-4.891 J32.348 K0.000 F360.000
G3 X9.481 Y9.986 Z-8.000 I-3.024 J16.364 K0.000 F360.000
G3 X11.785 Y11.433 Z-8.000 I-2.143 J5.969 K0.000 F360.000
G3 X12.951 Y12.893 Z-8.000 I-4.373 J4.690 K0.000 F360.000
G3 X13.301 Y14.486 Z-8.000 I-1.927 J1.258 K0.000 F360.000
G3 X12.850 Y15.747 Z-8.000 I-5.143 J-1.128 K0.000 F360.000
G3 X11.410 Y17.424 Z-8.000 I-5.656 J-3.400 K0.000 F360.000
G3 X9.781 Y18.633 Z-8.000 I-19.087 J-24.012 K0.000 F360.000
G3 X8.136 Y19.694 Z-8.000 I-6.192 J-7.794 K0.000 F360.000
G3 X5.254 Y20.542 Z-8.000 I-8.952 J-25.097 K0.000 F360.000
G3 X3.308 Y20.840 Z-8.000 I-2.212 J-7.957 K0.000 F360.000
G3 X0.351 Y20.787 Z-8.000 I-1.039 J-24.526 K0.000 F360.000
G3 X-3.956 Y19.723 Z-8.000 I1.052 J-13.507 K0.000 F360.000
G3 X-5.533 Y18.635 Z-8.000 I16.409 J-25.476 K0.000 F360.000
G3 X-7.128 Y16.883 Z-8.000 I2.465 J-3.846 K0.000 F360.000
G3 X-6.405 Y15.843 Z-8.000 I1.130 J0.014 K0.000 F360.000
G3 X-3.683 Y15.455 Z-8.000 I2.785 J9.822 K0.000 F360.000
G1 X0.152 Y15.455 Z-8.000 F360.000
G3 X2.930 Y15.568 Z-8.000 I-0.054 J35.498 K0.000 F360.000
G3 X5.804 Y16.782 Z-8.000 I0.040 J3.916 K0.000 F360.000
G2 X8.358 Y17.558 Z-8.000 I1.481 J-0.283 K0.000 F360.000
G2 X9.429 Y15.862 Z-8.000 I-13.855 J-9.939 K0.000 F360.000
G2 X10.079 Y13.542 Z-8.000 I-3.000 J-2.092 K0.000 F360.000
G2 X8.240 Y10.745 Z-8.000 I-3.653 J0.398 K0.000 F360.000
G2 X4.905 Y9.695 Z-8.000 I-4.586 J8.742 K0.000 F360.000
G2 X-2.952 Y8.760 Z-8.000 I-10.385 J53.814 K0.000 F360.000
G1 X-12.005 Y8.757 Z-8.000 F360.000
G2 X-14.718 Y8.992 Z-8.000 I0.433 J20.731 K0.000 F360.000
G2 X-16.062 Y9.360 Z-8.000 I1.932 J9.683 K0.000 F360.000
G1 X-16.355 Y9.479 Z-8.000 F360.000
G1 X-17.399 Y10.036 Z-8.000 F360.000
G2 X-19.164 Y11.861 Z-8.000 I3.023 J4.691 K0.000 F360.000
G2 X-19.548 Y13.052 Z-8.000 I5.095 J2.300 K0.000 F360.000
G2 X-19.484 Y16.876 Z-8.000 I10.449 J1.737 K0.000 F360.000
G1 X-19.352 Y17.299 Z-8.000 F360.000
G2 X-16.656 Y21.756 Z-8.000 I19.410 J-8.696 K0.000 F360.000
G2 X-14.110 Y24.294 Z-8.000 I14.950 J-12.456 K0.000 F360.000
G2 X-8.187 Y27.550 Z-8.000 I14.596 J-19.530 K0.000 F360.000
G2 X-4.966 Y28.474 Z-8.000 I31.924 J-105.308 K0.000 F360.000
G2 X-4.538 Y31.263 Z-8.000 I10.452 J-0.174 K0.000 F360.000
G2 X-2.636 Y35.549 Z-8.000 I51.098 J-20.120 K0.000 F360.000
G2 X-0.196 Y38.439 Z-8.000 I12.921 J-8.435 K0.000 F360.000
G2 X1.408 Y39.704 Z-8.000 I5.838 J-5.748 K0.000 F360.000
G2 X3.676 Y40.802 Z-8.000 I5.619 J-8.718 K0.000 F360.000
G1 X4.901 Y41.014 Z-8.000 F360.000
G2 X6.143 Y40.943 Z-8.000 I0.362 J-4.567 K0.000 F360.000
G2 X7.475 Y40.373 Z-8.000 I-0.676 J-3.423 K0.000 F360.000
G2 X9.005 Y38.243 Z-8.000 I-5.253 J-5.389 K0.000 F360.000
G2 X9.489 Y36.706 Z-8.000 I-6.154 J-2.783 K0.000 F360.000
G2 X9.410 Y35.306 Z-8.000 I-6.250 J-0.350 K0.000 F360.000
G2 X9.233 Y34.714 Z-8.000 I-1.495 J0.125 K0.000 F360.000
G2 X8.375 Y33.685 Z-8.000 I-4.994 J3.291 K0.000 F360.000
G1 X8.022 Y33.391 Z-8.000 F360.000
G2 X5.063 Y31.838 Z-8.000 I-8.766 J13.110 K0.000 F360.000
G3 X1.681 Y29.761 Z-8.000 I4.242 J-10.696 K0.000 F360.000
G1 X1.319 Y29.228 Z-8.000 F360.000
G2 X4.805 Y29.240 Z-8.000 I1.880 J-39.526 K0.000 F360.000
G1 X7.427 Y28.782 Z-8.000 F360.000
G2 X11.841 Y27.128 Z-8.000 I-8.192 J-28.579 K0.000 F360.000
G1 X13.393 Y26.197 Z-8.000 F360.000
G2 X16.943 Y22.917 Z-8.000 I-12.289 J-16.863 K0.000 F360.000
G1 X16.943 Y22.917 Z-10.000 F360.000
G2 X17.674 Y22.014 Z-10.000 I-15.839 J-13.583 K0.000 F360.000
G2 X19.210 Y19.768 Z-10.000 I-7.336 J-6.662 K0.000 F360.000
G2 X20.726 Y16.481 Z-10.000 I-15.403 J-9.099 K0.000 F360.000
G1 X21.169 Y14.708 Z-10.000 F360.000
G1 X21.214 Y14.344 Z-10.000 F360.000
G1 X21.214 Y12.660 Z-10.000 F360.000
G1 X21.190 Y12.394 Z-10.000 F360.000
G1 X20.836 Y10.423 Z-10.000 F360.000
G2 X20.577 Y9.812 Z-10.000 I-1.476 J0.266 K0.000 F360.000
G1 X19.779 Y8.704 Z-10.000 F360.000
G1 X19.616 Y8.513 Z-10.000 F360.000
G2 X18.815 Y7.973 Z-10.000 I-2.799 J3.283 K0.000 F360.000
G2 X20.107 Y7.735 Z-10.000 I-1.286 J-10.624 K0.000 F360.000
G1 X22.723 Y6.937 Z-10.000 F360.000
G1 X25.982 Y5.657 Z-10.000 F360.000
G1 X26.186 Y5.558 Z-10.000 F360.000
G1 X28.624 Y4.139 Z-10.000 F360.000
G1 X28.775 Y4.039 Z-10.000 F360.000
G1 X31.262 Y2.157 Z-10.000 F360.000
G1 X31.481 Y1.954 Z-10.000 F360.000
G1 X33.165 Y0.048 Z-10.000 F360.000
G1 X34.581 Y-1.877 Z-10.000 F360.000
G1 X34.702 Y-2.071 Z-10.000 F360.000
G1 X35.899 Y-4.376 Z-10.000 F360.000
G1 X35.974 Y-4.546 Z-10.000 F360.000
G1 X36.994 Y-7.294 Z-10.000 F360.000
G1 X37.784 Y-10.066 Z-10.000 F360.000
G1 X37.837 Y-10.365 Z-10.000 F360.000
G1 X38.058 Y-13.370 Z-10.000 F360.000
G1 X38.062 Y-16.007 Z-10.000 F360.000
G1 X37.655 Y-19.932 Z-10.000 F360.000
G1 X37.604 Y-20.193 Z-10.000 F360.000
G1 X36.407 Y-24.315 Z-10.000 F360.000
G1 X36.291 Y-24.600 Z-10.000 F360.000
G1 X34.558 Y-27.863 Z-10.000 F360.000
G1 X34.457 Y-28.026 Z-10.000 F360.000
G1 X32.197 Y-31.217 Z-10.000 F360.000
G1 X32.016 Y-31.428 Z-10.000 F360.000
G1 X29.179 Y-34.176 Z-10.000 F360.000
G1 X28.882 Y-34.400 Z-10.000 F360.000
G1 X26.178 Y-35.951 Z-10.000 F360.000
G1 X26.010 Y-36.034 Z-10.000 F360.000
G1 X22.508 Y-37.497 Z-10.000 F360.000
G1 X19.335 Y-38.562 Z-10.000 F360.000
G1 X15.208 Y-39.653 Z-10.000 F360.000
G2 X7.101 Y-40.974 Z-10.000 I-27.162 J141.232 K0.000 F360.000
G1 X2.188 Y-41.252 Z-10.000 F360.000
G1 X-1.796 Y-41.254 Z-10.000 F360.000
G1 X-5.978 Y-40.848 Z-10.000 F360.000
G1 X-11.926 Y-40.044 Z-10.000 F360.000
G1 X-16.618 Y-39.002 Z-10.000 F360.000
G1 X-21.564 Y-37.336 Z-10.000 F360.000
G1 X-21.878 Y-37.187 Z-10.000 F360.000
G1 X-25.424 Y-34.971 Z-10.000 F360.000
G1 X-25.624 Y-34.821 Z-10.000 F360.000
G1 X-28.373 Y-32.383 Z-10.000 F360.000
G1 X-28.579 Y-32.159 Z-10.000 F360.000
G1 X-31.327 Y-28.480 Z-10.000 F360.000
G1 X-31.475 Y-28.236 Z-10.000 F360.000
G1 X-33.116 Y-24.848 Z-10.000 F360.000
G1 X-33.206 Y-24.614 Z-10.000 F360.000
G1 X-34.226 Y-21.112 Z-10.000 F360.000
G1 X-34.284 Y-20.752 Z-10.000 F360.000
G1 X-34.461 Y-16.304 Z-10.000 F360.000
G1 X-34.452 Y-16.072 Z-10.000 F360.000
G1 X-33.965 Y-11.861 Z-10.000 F360.000
G1 X-33.879 Y-11.507 Z-10.000 F360.000
G2 X-31.358 Y-5.375 Z-10.000 I74.456 J-27.022 K0.000 F360.000
G1 X-31.111 Y-4.992 Z-10.000 F360.000
G1 X-29.182 Y-2.824 Z-10.000 F360.000
G2 X-26.461 Y-0.694 Z-10.000 I16.339 J-18.075 K0.000 F360.000
G2 X-22.271 Y0.936 Z-10.000 I10.169 J-19.931 K0.000 F360.000
G1 X-19.597 Y1.263 Z-10.000 F360.000
G1 X-19.415 Y1.274 Z-10.000 F360.000
G1 X-3.759 Y1.274 Z-10.000 F360.000
G1 X-1.985 Y1.183 Z-10.000 F360.000
G1 X1.098 Y0.816 Z-10.000 F360.000
G1 X1.307 Y0.776 Z-10.000 F360.000
G1 X3.417 Y0.212 Z-10.000 F360.000
G1 X6.039 Y-0.679 Z-10.000 F360.000
G1 X6.263 Y-0.777 Z-10.000 F360.000
G2 X10.481 Y-3.405 Z-10.000 I-12.334 J-24.490 K0.000 F360.000
G2 X12.296 Y-5.166 Z-10.000 I-3.332 J-5.251 K0.000 F360.000
G1 X13.049 Y-6.584 Z-10.000 F360.000
G1 X13.161 Y-6.857 Z-10.000 F360.000
G1 X13.693 Y-8.630 Z-10.000 F360.000
G1 X13.756 Y-9.035 Z-10.000 F360.000
G2 X13.564 Y-13.462 Z-10.000 I-27.559 J-1.024 K0.000 F360.000
G1 X13.077 Y-15.280 Z-10.000 F360.000
G1 X12.983 Y-15.534 Z-10.000 F360.000
G1 X12.141 Y-17.307 Z-10.000 F360.000
G1 X11.927 Y-17.637 Z-10.000 F360.000
G1 X10.642 Y-19.144 Z-10.000 F360.000
G1 X10.453 Y-19.330 Z-10.000 F360.000
G1 X9.211 Y-20.349 Z-10.000 F360.000
G2 X7.797 Y-21.226 Z-10.000 I-6.870 J9.507 K0.000 F360.000
G2 X6.090 Y-22.017 Z-10.000 I-7.615 J14.186 K0.000 F360.000
G1 X5.619 Y-22.145 Z-10.000 F360.000
G3 X-2.563 Y-23.030 Z-10.000 I51.083 J-510.803 K0.000 F360.000
G2 X-3.709 Y-23.040 Z-10.000 I-0.658 J10.058 K0.000 F360.000
G2 X-5.202 Y-21.675 Z-10.000 I-0.000 J1.500 K0.000 F360.000
G2 X-4.607 Y-20.096 Z-10.000 I2.334 J0.021 K0.000 F360.000
G1 X-3.765 Y-19.298 Z-10.000 F360.000
G1 X-3.488 Y-19.091 Z-10.000 F360.000
G3 X-0.596 Y-17.374 Z-10.000 I-69.838 J120.949 K0.000 F360.000
G1 X0.974 Y-15.861 Z-10.000 F360.000
G1 X2.785 Y-13.845 Z-10.000 F360.000
G1 X3.612 Y-12.422 Z-10.000 F360.000
G1 X3.612 Y-10.520 Z-10.000 F360.000
G1 X2.751 Y-8.797 Z-10.000 F360.000
G1 X1.274 Y-7.131 Z-10.000 F360.000
G1 X-0.354 Y-6.010 Z-10.000 F360.000
G1 X-3.349 Y-5.221 Z-10.000 F360.000
G1 X-6.526 Y-4.929 Z-10.000 F360.000
G1 X-10.281 Y-4.929 Z-10.000 F360.000
G1 X-13.276 Y-5.415 Z-10.000 F360.000
G1 X-15.753 Y-6.413 Z-10.000 F360.000
G1 X-17.615 Y-7.553 Z-10.000 F360.000
G1 X-19.197 Y-9.411 Z-10.000 F360.000
G1 X-20.237 Y-11.606 Z-10.000 F360.000
G1 X-20.775 Y-14.030 Z-10.000 F360.000
G1 X-20.614 Y-16.820 Z-10.000 F360.000
G1 X-20.334 Y-18.824 Z-10.000 F360.000
G3 X-18.828 Y-22.309 Z-10.000 I29.798 J10.812 K0.000 F360.000
G3 X-15.741 Y-25.238 Z-10.000 I34.039 J32.770 K0.000 F360.000
G1 X-13.117 Y-26.611 Z-10.000 F360.000
G1 X-10.395 Y-27.575 Z-10.000 F360.000
G1 X-7.190 Y-28.418 Z-10.000 F360.000
G1 X-2.506 Y-28.957 Z-10.000 F360.000
G1 X6.810 Y-28.957 Z-10.000 F360.000
G1 X10.966 Y-28.406 Z-10.000 F360.000
G1 X15.110 Y-27.338 Z-10.000 F360.000
G1 X19.168 Y-25.874 Z-10.000 F360.000
G1 X21.059 Y-24.601 Z-10.000 F360.000
G1 X22.663 Y-22.957 Z-10.000 F360.000
G1 X24.285 Y-20.442 Z-10.000 F360.000
G1 X25.560 Y-17.464 Z-10.000 F360.000
G3 X25.720 Y-12.274 Z-10.000 I-42.383 J3.904 K0.000 F360.000
G1 X25.239 Y-10.155 Z-10.000 F360.000
G1 X24.161 Y-7.555 Z-10.000 F360.000
G1 X23.096 Y-5.723 Z-10.000 F360.000
G1 X21.471 Y-3.568 Z-10.000 F360.000
G1 X19.331 Y-1.749 Z-10.000 F360.000
G1 X17.510 Y-0.676 Z-10.000 F360.000
G1 X15.268 Y0.214 Z-10.000 F360.000
G1 X12.565 Y0.789 Z-10.000 F360.000
G2 X4.295 Y1.728 Z-10.000 I42.116 J407.908 K0.000 F360.000
G1 X-3.692 Y2.342 Z-10.000 F360.000
G1 X-6.753 Y2.654 Z-10.000 F360.000
G1 X-6.753 Y2.654 Z-10.000 F360.000
G2 X-16.904 Y3.716 Z-10.000 I74.844 J764.895 K0.000 F360.000
G2 X-21.524 Y4.741 Z-10.000 I3.600 J27.139 K0.000 F360.000
G2 X-22.426 Y5.126 Z-10.000 I2.166 J6.327 K0.000 F360.000
G2 X-24.408 Y7.786 Z-10.000 I1.255 J3.003 K0.000 F360.000
G2 X-24.354 Y10.826 Z-10.000 I12.509 J1.298 K0.000 F360.000
G2 X-23.985 Y12.761 Z-10.000 I7.037 J-0.340 K0.000 F360.000
G2 X-21.117 Y12.521 Z-10.000 I1.399 J-0.542 K0.000 F360.000
G3 X-20.803 Y11.099 Z-10.000 I8.624 J1.158 K0.000 F360.000
G3 X-19.350 Y9.248 Z-10.000 I2.956 J0.825 K0.000 F360.000
G1 X-18.499 Y8.978 Z-10.000 F360.000
G3 X-15.509 Y8.614 Z-10.000 I5.297 J31.076 K0.000 F360.000
G3 X-7.735 Y8.263 Z-10.000 I23.988 J444.499 K0.000 F360.000
G1 X1.010 Y8.263 Z-10.000 F360.000
G3 X3.517 Y8.386 Z-10.000 I-3.789 J102.452 K0.000 F360.000
G3 X5.634 Y8.778 Z-10.000 I-4.891 J32.348 K0.000 F360.000
G3 X9.481 Y9.986 Z-10.000 I-3.024 J16.364 K0.000 F360.000
G3 X11.785 Y11.433 Z-10.000 I-2.143 J5.969 K0.000 F360.000
G3 X12.951 Y12.893 Z-10.000 I-4.373 J4.690 K0.000 F360.000
G3 X13.301 Y14.486 Z-10.000 I-1.927 J1.258 K0.000 F360.000
G3 X12.850 Y15.747 Z-10.000 I-5.143 J-1.128 K0.000 F360.000
G3 X11.410 Y17.424 Z-10.000 I-5.656 J-3.400 K0.000 F360.000
G3 X9.781 Y18.633 Z-10.000 I-19.087 J-24.012 K0.000 F360.000
G3 X8.136 Y19.694 Z-10.000 I-6.192 J-7.794 K0.000 F360.000
G3 X5.254 Y20.542 Z-10.000 I-8.952 J-25.097 K0.000 F360.000
G3 X3.308 Y20.840 Z-10.000 I-2.212 J-7.957 K0.000 F360.000
G3 X0.351 Y20.787 Z-10.000 I-1.039 J-24.526 K0.000 F360.000
G3 X-3.956 Y19.723 Z-10.000 I1.052 J-13.507 K0.000 F360.000
G3 X-5.533 Y18.635 Z-10.000 I16.409 J-25.476 K0.000 F360.000
G3 X-7.128 Y16.883 Z-10.000 I2.465 J-3.846 K0.000 F360.000
G3 X-6.405 Y15.843 Z-10.000 I1.130 J0.014 K0.000 F360.000
G3 X-3.683 Y15.455 Z-10.000 I2.785 J9.822 K0.000 F360.000
G1 X0.152 Y15.455 Z-10.000 F360.000
G3 X2.930 Y15.568 Z-10.000 I-0.054 J35.498 K0.000 F360.000
G3 X5.804 Y16.782 Z-10.000 I0.040 J3.916 K0.000 F360.000
G2 X8.358 Y17.558 Z-10.000 I1.481 J-0.283 K0.000 F360.000
G2 X9.429 Y15.862 Z-10.000 I-13.855 J-9.939 K0.000 F360.000
G2 X10.079 Y13.542 Z-10.000 I-3.000 J-2.092 K0.000 F360.000
G2 X8.240 Y10.745 Z-10.000 I-3.653 J0.398 K0.000 F360.000
G2 X4.905 Y9.695 Z-10.000 I-4.586 J8.742 K0.000 F360.000
G2 X-2.952 Y8.760 Z-10.000 I-10.385 J53.814 K0.000 F360.000
G1 X-12.005 Y8.757 Z-10.000 F360.000
G2 X-14.718 Y8.992 Z-10.000 I0.433 J20.731 K0.000 F360.000
G2 X-16.062 Y9.360 Z-10.000 I1.932 J9.683 K0.000 F360.000
G1 X-16.355 Y9.479 Z-10.000 F360.000
G1 X-17.399 Y10.036 Z-10.000 F360.000
G2 X-19.164 Y11.861 Z-10.000 I3.023 J4.691 K0.000 F360.000
G2 X-19.548 Y13.052 Z-10.000 I5.095 J2.300 K0.000 F360.000
G2 X-19.484 Y16.876 Z-10.000 I10.449 J1.737 K0.000 F360.000
G1 X-19.352 Y17.299 Z-10.000 F360.000
G2 X-16.656 Y21.756 Z-10.000 I19.410 J-8.696 K0.000 F360.000
G2 X-14.110 Y24.294 Z-10.000 I14.950 J-12.456 K0.000 F360.000
G2 X-8.187 Y27.550 Z-10.000 I14.596 J-19.530 K0.000 F360.000
G2 X-4.966 Y28.474 Z-10.000 I31.924 J-105.308 K0.000 F360.000
G2 X-4.538 Y31.263 Z-10.000 I10.452 J-0.174 K0.000 F360.000
G2 X-2.636 Y35.549 Z-10.000 I51.098 J-20.120 K0.000 F360.000
G2 X-0.196 Y38.439 Z-10.000 I12.921 J-8.435 K0.000 F360.000
G2 X1.408 Y39.704 Z-10.000 I5.838 J-5.748 K0.000 F360.000
G2 X3.676 Y40.802 Z-10.000 I5.619 J-8.718 K0.000 F360.000
G1 X4.901 Y41.014 Z-10.000 F360.000
G2 X6.143 Y40.943 Z-10.000 I0.362 J-4.567 K0.000 F360.000
G2 X7.475 Y40.373 Z-10.000 I-0.676 J-3.423 K0.000 F360.000
G2 X9.005 Y38.243 Z-10.000 I-5.253 J-5.389 K0.000 F360.000
G2 X9.489 Y36.706 Z-10.000 I-6.154 J-2.783 K0.000 F360.000
G2 X9.410 Y35.306 Z-10.000 I-6.250 J-0.350 K0.000 F360.000
G2 X9.233 Y34.714 Z-10.000 I-1.495 J0.125 K0.000 F360.000
G2 X8.375 Y33.685 Z-10.000 I-4.994 J3.291 K0.000 F360.000
G1 X8.022 Y33.391 Z-10.000 F360.000
G2 X5.063 Y31.838 Z-10.000 I-8.766 J13.110 K0.000 F360.000
G3 X1.681 Y29.761 Z-10.000 I4.242 J-10.696 K0.000 F360.000
G1 X1.319 Y29.228 Z-10.000 F360.000
G2 X4.805 Y29.240 Z-10.000 I1.880 J-39.526 K0.000 F360.000
G1 X7.427 Y28.782 Z-10.000 F360.000
G2 X11.841 Y27.128 Z-10.000 I-8.192 J-28.579 K0.000 F360.000
G1 X13.393 Y26.197 Z-10.000 F360.000
G2 X16.943 Y22.917 Z-10.000 I-12.289 J-16.863 K0.000 F360.000
G1 X16.943 Y22.917 Z-12.000 F360.000
G2 X17.674 Y22.014 Z-12.000 I-15.839 J-13.583 K0.000 F360.000
G2 X19.210 Y19.768 Z-12.000 I-7.336 J-6.662 K0.000 F360.000
G2 X20.726 Y16.481 Z-12.000 I-15.403 J-9.099 K0.000 F360.000
G1 X21.169 Y14.708 Z-12.000 F360.000
G1 X21.214 Y14.344 Z-12.000 F360.000
G1 X21.214 Y12.660 Z-12.000 F360.000
G1 X21.190 Y12.394 Z-12.000 F360.000
G1 X20.836 Y10.423 Z-12.000 F360.000
G2 X20.577 Y9.812 Z-12.000 I-1.476 J0.266 K0.000 F360.000
G1 X19.779 Y8.704 Z-12.000 F360.000
G1 X19.616 Y8.513 Z-12.000 F360.000
G2 X18.815 Y7.973 Z-12.000 I-2.799 J3.283 K0.000 F360.000
G2 X20.107 Y7.735 Z-12.000 I-1.286 J-10.624 K0.000 F360.000
G1 X22.723 Y6.937 Z-12.000 F360.000
G1 X25.982 Y5.657 Z-12.000 F360.000
G1 X26.186 Y5.558 Z-12.000 F360.000
G1 X28.624 Y4.139 Z-12.000 F360.000
G1 X28.775 Y4.039 Z-12.000 F360.000
G1 X31.262 Y2.157 Z-12.000 F360.000
G1 X31.481 Y1.954 Z-12.000 F360.000
G1 X33.165 Y0.048 Z-12.000 F360.000
G1 X34.581 Y-1.877 Z-12.000 F360.000
G1 X34.702 Y-2.071 Z-12.000 F360.000
G1 X35.899 Y-4.376 Z-12.000 F360.000
G1 X35.974 Y-4.546 Z-12.000 F360.000
G1 X36.994 Y-7.294 Z-12.000 F360.000
G1 X37.784 Y-10.066 Z-12.000 F360.000
G1 X37.837 Y-10.365 Z-12.000 F360.000
G1 X38.058 Y-13.370 Z-12.000 F360.000
G1 X38.062 Y-16.007 Z-12.000 F360.000
G1 X37.655 Y-19.932 Z-12.000 F360.000
G1 X37.604 Y-20.193 Z-12.000 F360.000
G1 X36.407 Y-24.315 Z-12.000 F360.000
G1 X36.291 Y-24.600 Z-12.000 F360.000
G1 X34.558 Y-27.863 Z-12.000 F360.000
G1 X34.457 Y-28.026 Z-12.000 F360.000
G1 X32.197 Y-31.217 Z-12.000 F360.000
G1 X32.016 Y-31.428 Z-12.000 F360.000
G1 X29.179 Y-34.176 Z-12.000 F360.000
G1 X28.882 Y-34.400 Z-12.000 F360.000
G1 X26.178 Y-35.951 Z-12.000 F360.000
G1 X26.010 Y-36.034 Z-12.000 F360.000
G1 X22.508 Y-37.497 Z-12.000 F360.000
G1 X19.335 Y-38.562 Z-12.000 F360.000
G1 X15.208 Y-39.653 Z-12.000 F360.000
G2 X7.101 Y-40.974 Z-12.000 I-27.162 J141.232 K0.000 F360.000
G1 X2.188 Y-41.252 Z-12.000 F360.000
G1 X-1.796 Y-41.254 Z-12.000 F360.000
G1 X-5.978 Y-40.848 Z-12.000 F360.000
G1 X-11.926 Y-40.044 Z-12.000 F360.000
G1 X-16.618 Y-39.002 Z-12.000 F360.000
G1 X-21.564 Y-37.336 Z-12.000 F360.000
G1 X-21.878 Y-37.187 Z-12.000 F360.000
G1 X-25.424 Y-34.971 Z-12.000 F360.000
G1 X-25.624 Y-34.821 Z-12.000 F360.000
G1 X-28.373 Y-32.383 Z-12.000 F360.000
G1 X-28.579 Y-32.159 Z-12.000 F360.000
G1 X-31.327 Y-28.480 Z-12.000 F360.000
G1 X-31.475 Y-28.236 Z-12.000 F360.000
G1 X-33.116 Y-24.848 Z-12.000 F360.000
G1 X-33.206 Y-24.614 Z-12.000 F360.000
G1 X-34.226 Y-21.112 Z-12.000 F360.000
G1 X-34.284 Y-20.752 Z-12.000 F360.000
G1 X-34.461 Y-16.304 Z-12.000 F360.000
G1 X-34.452 Y-16.072 Z-12.000 F360.000
G1 X-33.965 Y-11.861 Z-12.000 F360.000
G1 X-33.879 Y-11.507 Z-12.000 F360.000
G2 X-31.358 Y-5.375 Z-12.000 I74.456 J-27.022 K0.000 F360.000
G1 X-31.111 Y-4.992 Z-12.000 F360.000
G1 X-29.182 Y-2.824 Z-12.000 F360.000
G2 X-26.461 Y-0.694 Z-12.000 I16.339 J-18.075 K0.000 F360.000
G2 X-22.271 Y0.936 Z-12.000 I10.169 J-19.931 K0.000 F360.000
G1 X-19.597 Y1.263 Z-12.000 F360.000
G1 X-19.415 Y1.274 Z-12.000 F360.000
G1 X-3.759 Y1.274 Z-12.000 F360.000
G1 X-1.985 Y1.183 Z-12.000 F360.000
G1 X1.098 Y0.816 Z-12.000 F360.000
G1 X1.307 Y0.776 Z-12.000 F360.000
G1 X3.417 Y0.212 Z-12.000 F360.000
G1 X6.039 Y-0.679 Z-12.000 F360.000
G1 X6.263 Y-0.777 Z-12.000 F360.000
G2 X10.481 Y-3.405 Z-12.000 I-12.334 J-24.490 K0.000 F360.000
G2 X12.296 Y-5.166 Z-12.000 I-3.332 J-5.251 K0.000 F360.000
G1 X13.049 Y-6.584 Z-12.000 F360.000
G1 X13.161 Y-6.857 Z-12.000 F360.000
G1 X13.693 Y-8.630 Z-12.000 F360.000
G1 X13.756 Y-9.035 Z-12.000 F360.000
G2 X13.564 Y-13.462 Z-12.000 I-27.559 J-1.024 K0.000 F360.000
G1 X13.077 Y-15.280 Z-12.000 F360.000
G1 X12.983 Y-15.534 Z-12.000 F360.000
G1 X12.141 Y-17.307 Z-12.000 F360.000
G1 X11.927 Y-17.637 Z-12.000 F360.000
G1 X10.642 Y-19.144 Z-12.000 F360.000
G1 X10.453 Y-19.330 Z-12.000 F360.000
G1 X9.211 Y-20.349 Z-12.000 F360.000
G2 X7.797 Y-21.226 Z-12.000 I-6.870 J9.507 K0.000 F360.000
G2 X6.090 Y-22.017 Z-12.000 I-7.615 J14.186 K0.000 F360.000
G1 X5.619 Y-22.145 Z-12.000 F360.000
G3 X-2.563 Y-23.030 Z-12.000 I51.083 J-510.803 K0.000 F360.000
G2 X-3.709 Y-23.040 Z-12.000 I-0.658 J10.058 K0.000 F360.000
G2 X-5.202 Y-21.675 Z-12.000 I-0.000 J1.500 K0.000 F360.000
G2 X-4.607 Y-20.096 Z-12.000 I2.334 J0.021 K0.000 F360.000
G1 X-3.765 Y-19.298 Z-12.000 F360.000
G1 X-3.488 Y-19.091 Z-12.000 F360.000
G3 X-0.596 Y-17.374 Z-12.000 I-69.838 J120.949 K0.000 F360.000
G1 X0.974 Y-15.861 Z-12.000 F360.000
G1 X2.785 Y-13.845 Z-12.000 F360.000
G1 X3.612 Y-12.422 Z-12.000 F360.000
G1 X3.612 Y-10.520 Z-12.000 F360.000
G1 X2.751 Y-8.797 Z-12.000 F360.000
G1 X1.274 Y-7.131 Z-12.000 F360.000
G1 X-0.354 Y-6.010 Z-12.000 F360.000
G1 X-3.349 Y-5.221 Z-12.000 F360.000
G1 X-6.526 Y-4.929 Z-12.000 F360.000
G1 X-10.281 Y-4.929 Z-12.000 F360.000
G1 X-13.276 Y-5.415 Z-12.000 F360.000
G1 X-15.753 Y-6.413 Z-12.000 F360.000
G1 X-17.615 Y-7.553 Z-12.000 F360.000
G1 X-19.197 Y-9.411 Z-12.000 F360.000
G1 X-20.237 Y-11.606 Z-12.000 F360.000
G1 X-20.775 Y-14.030 Z-12.000 F360.000
G1 X-20.614 Y-16.820 Z-12.000 F360.000
G1 X-20.334 Y-18.824 Z-12.000 F360.000
G3 X-18.828 Y-22.309 Z-12.000 I29.798 J10.812 K0.000 F360.000
G3 X-15.741 Y-25.238 Z-12.000 I34.039 J32.770 K0.000 F360.000
G1 X-13.117 Y-26.611 Z-12.000 F360.000
G1 X-10.395 Y-27.575 Z-12.000 F360.000
G1 X-7.190 Y-28.418 Z-12.000 F360.000
G1 X-2.506 Y-28.957 Z-12.000 F360.000
G1 X6.810 Y-28.957 Z-12.000 F360.000
G1 X10.966 Y-28.406 Z-12.000 F360.000
G1 X15.110 Y-27.338 Z-12.000 F360.000
G1 X19.168 Y-25.874 Z-12.000 F360.000
G1 X21.059 Y-24.601 Z-12.000 F360.000
G1 X22.663 Y-22.957 Z-12.000 F360.000
G1 X24.285 Y-20.442 Z-12.000 F360.000
G1 X25.560 Y-17.464 Z-12.000 F360.000
G3 X25.720 Y-12.274 Z-12.000 I-42.383 J3.904 K0.000 F360.000
G1 X25.239 Y-10.155 Z-12.000 F360.000
G1 X24.161 Y-7.555 Z-12.000 F360.000
G1 X23.096 Y-5.723 Z-12.000 F360.000
G1 X21.471 Y-3.568 Z-12.000 F360.000
G1 X19.331 Y-1.749 Z-12.000 F360.000
G1 X17.510 Y-0.676 Z-12.000 F360.000
G1 X15.268 Y0.214 Z-12.000 F360.000
G1 X12.565 Y0.789 Z-12.000 F360.000
G2 X4.295 Y1.728 Z-12.000 I42.116 J407.908 K0.000 F360.000
G1 X-3.692 Y2.342 Z-12.000 F360.000
G1 X-6.753 Y2.654 Z-12.000 F360.000
G1 X-6.753 Y2.654 Z-12.000 F360.000
G2 X-16.904 Y3.716 Z-12.000 I74.844 J764.895 K0.000 F360.000
G2 X-21.524 Y4.741 Z-12.000 I3.600 J27.139 K0.000 F360.000
G2 X-22.426 Y5.126 Z-12.000 I2.166 J6.327 K0.000 F360.000
G2 X-24.408 Y7.786 Z-12.000 I1.255 J3.003 K0.000 F360.000
G2 X-24.354 Y10.826 Z-12.000 I12.509 J1.298 K0.000 F360.000
G2 X-23.985 Y12.761 Z-12.000 I7.037 J-0.340 K0.000 F360.000
G2 X-21.117 Y12.521 Z-12.000 I1.399 J-0.542 K0.000 F360.000
G3 X-20.803 Y11.099 Z-12.000 I8.624 J1.158 K0.000 F360.000
G3 X-19.350 Y9.248 Z-12.000 I2.956 J0.825 K0.000 F360.000
G1 X-18.499 Y8.978 Z-12.000 F360.000
G3 X-15.509 Y8.614 Z-12.000 I5.297 J31.076 K0.000 F360.000
G3 X-7.735 Y8.263 Z-12.000 I23.988 J444.499 K0.000 F360.000
G1 X1.010 Y8.263 Z-12.000 F360.000
G3 X3.517 Y8.386 Z-12.000 I-3.789 J102.452 K0.000 F360.000
G3 X5.634 Y8.778 Z-12.000 I-4.891 J32.348 K0.000 F360.000
G3 X9.481 Y9.986 Z-12.000 I-3.024 J16.364 K0.000 F360.000
G3 X11.785 Y11.433 Z-12.000 I-2.143 J5.969 K0.000 F360.000
G3 X12.951 Y12.893 Z-12.000 I-4.373 J4.690 K0.000 F360.000
G3 X13.301 Y14.486 Z-12.000 I-1.927 J1.258 K0.000 F360.000
G3 X12.850 Y15.747 Z-12.000 I-5.143 J-1.128 K0.000 F360.000
G3 X11.410 Y17.424 Z-12.000 I-5.656 J-3.400 K0.000 F360.000
G3 X9.781 Y18.633 Z-12.000 I-19.087 J-24.012 K0.000 F360.000
G3 X8.136 Y19.694 Z-12.000 I-6.192 J-7.794 K0.000 F360.000
G3 X5.254 Y20.542 Z-12.000 I-8.952 J-25.097 K0.000 F360.000
G3 X3.308 Y20.840 Z-12.000 I-2.212 J-7.957 K0.000 F360.000
G3 X0.351 Y20.787 Z-12.000 I-1.039 J-24.526 K0.000 F360.000
G3 X-3.956 Y19.723 Z-12.000 I1.052 J-13.507 K0.000 F360.000
G3 X-5.533 Y18.635 Z-12.000 I16.409 J-25.476 K0.000 F360.000
G3 X-7.128 Y16.883 Z-12.000 I2.465 J-3.846 K0.000 F360.000
G3 X-6.405 Y15.843 Z-12.000 I1.130 J0.014 K0.000 F360.000
G3 X-3.683 Y15.455 Z-12.000 I2.785 J9.822 K0.000 F360.000
G1 X0.152 Y15.455 Z-12.000 F360.000
G3 X2.930 Y15.568 Z-12.000 I-0.054 J35.498 K0.000 F360.000
G3 X5.804 Y16.782 Z-12.000 I0.040 J3.916 K0.000 F360.000
G2 X8.358 Y17.558 Z-12.000 I1.481 J-0.283 K0.000 F360.000
G2 X9.429 Y15.862 Z-12.000 I-13.855 J-9.939 K0.000 F360.000
G2 X10.079 Y13.542 Z-12.000 I-3.000 J-2.092 K0.000 F360.000
G2 X8.240 Y10.745 Z-12.000 I-3.653 J0.398 K0.000 F360.000
G2 X4.905 Y9.695 Z-12.000 I-4.586 J8.742 K0.000 F360.000
G2 X-2.952 Y8.760 Z-12.000 I-10.385 J53.814 K0.000 F360.000
G1 X-12.005 Y8.757 Z-12.000 F360.000
G2 X-14.718 Y8.992 Z-12.000 I0.433 J20.731 K0.000 F360.000
G2 X-16.062 Y9.360 Z-12.000 I1.932 J9.683 K0.000 F360.000
G1 X-16.355 Y9.479 Z-12.000 F360.000
G1 X-17.399 Y10.036 Z-12.000 F360.000
G2 X-19.164 Y11.861 Z-12.000 I3.023 J4.691 K0.000 F360.000
G2 X-19.548 Y13.052 Z-12.000 I5.095 J2.300 K0.000 F360.000
G2 X-19.484 Y16.876 Z-12.000 I10.449 J1.737 K0.000 F360.000
G1 X-19.352 Y17.299 Z-12.000 F360.000
G2 X-16.656 Y21.756 Z-12.000 I19.410 J-8.696 K0.000 F360.000
G2 X-14.110 Y24.294 Z-12.000 I14.950 J-12.456 K0.000 F360.000
G2 X-8.187 Y27.550 Z-12.000 I14.596 J-19.530 K0.000 F360.000
G2 X-4.966 Y28.474 Z-12.000 I31.924 J-105.308 K0.000 F360.000
G2 X-4.538 Y31.263 Z-12.000 I10.452 J-0.174 K0.000 F360.000
G2 X-2.636 Y35.549 Z-12.000 I51.098 J-20.120 K0.000 F360.000
G2 X-0.196 Y38.439 Z-12.000 I12.921 J-8.435 K0.000 F360.000
G2 X1.408 Y39.704 Z-12.000 I5.838 J-5.748 K0.000 F360.000
G2 X3.676 Y40.802 Z-12.000 I5.619 J-8.718 K0.000 F360.000
G1 X4.901 Y41.014 Z-12.000 F360.000
G2 X6.143 Y40.943 Z-12.000 I0.362 J-4.567 K0.000 F360.000
G2 X7.475 Y40.373 Z-12.000 I-0.676 J-3.423 K0.000 F360.000
G2 X9.005 Y38.243 Z-12.000 I-5.253 J-5.389 K0.000 F360.000
G2 X9.489 Y36.706 Z-12.000 I-6.154 J-2.783 K0.000 F360.000
G2 X9.410 Y35.306 Z-12.000 I-6.250 J-0.350 K0.000 F360.000
G2 X9.233 Y34.714 Z-12.000 I-1.495 J0.125 K0.000 F360.000
G2 X8.375 Y33.685 Z-12.000 I-4.994 J3.291 K0.000 F360.000
G1 X8.022 Y33.391 Z-12.000 F360.000
G2 X5.063 Y31.838 Z-12.000 I-8.766 J13.110 K0.000 F360.000
G3 X1.681 Y29.761 Z-12.000 I4.242 J-10.696 K0.000 F360.000
G1 X1.319 Y29.228 Z-12.000 F360.000
G2 X4.805 Y29.240 Z-12.000 I1.880 J-39.526 K0.000 F360.000
G1 X7.427 Y28.782 Z-12.000 F360.000
G2 X11.841 Y27.128 Z-12.000 I-8.192 J-28.579 K0.000 F360.000
G1 X13.393 Y26.197 Z-12.000 F360.000
G2 X16.943 Y22.917 Z-12.000 I-12.289 J-16.863 K0.000 F360.000
G1 X16.943 Y22.917 Z-14.000 F360.000
G2 X17.674 Y22.014 Z-14.000 I-15.839 J-13.583 K0.000 F360.000
G2 X19.210 Y19.768 Z-14.000 I-7.336 J-6.662 K0.000 F360.000
G2 X20.726 Y16.481 Z-14.000 I-15.403 J-9.099 K0.000 F360.000
G1 X21.169 Y14.708 Z-14.000 F360.000
G1 X21.214 Y14.344 Z-14.000 F360.000
G1 X21.214 Y12.660 Z-14.000 F360.000
G1 X21.190 Y12.394 Z-14.000 F360.000
G1 X20.836 Y10.423 Z-14.000 F360.000
G2 X20.577 Y9.812 Z-14.000 I-1.476 J0.266 K0.000 F360.000
G1 X19.779 Y8.704 Z-14.000 F360.000
G1 X19.616 Y8.513 Z-14.000 F360.000
G2 X18.815 Y7.973 Z-14.000 I-2.799 J3.283 K0.000 F360.000
G2 X20.107 Y7.735 Z-14.000 I-1.286 J-10.624 K0.000 F360.000
G1 X22.723 Y6.937 Z-14.000 F360.000
G1 X25.982 Y5.657 Z-14.000 F360.000
G1 X26.186 Y5.558 Z-14.000 F360.000
G1 X28.624 Y4.139 Z-14.000 F360.000
G1 X28.775 Y4.039 Z-14.000 F360.000
G1 X31.262 Y2.157 Z-14.000 F360.000
G1 X31.481 Y1.954 Z-14.000 F360.000
G1 X33.165 Y0.048 Z-14.000 F360.000
G1 X34.581 Y-1.877 Z-14.000 F360.000
G1 X34.702 Y-2.071 Z-14.000 F360.000
G1 X35.899 Y-4.376 Z-14.000 F360.000
G1 X35.974 Y-4.546 Z-14.000 F360.000
G1 X36.994 Y-7.294 Z-14.000 F360.000
G1 X37.784 Y-10.066 Z-14.000 F360.000
G1 X37.837 Y-10.365 Z-14.000 F360.000
G1 X38.058 Y-13.370 Z-14.000 F360.000
G1 X38.062 Y-16.007 Z-14.000 F360.000
G1 X37.655 Y-19.932 Z-14.000 F360.000
G1 X37.604 Y-20.193 Z-14.000 F360.000
G1 X36.407 Y-24.315 Z-14.000 F360.000
G1 X36.291 Y-24.600 Z-14.000 F360.000
G1 X34.558 Y-27.863 Z-14.000 F360.000
G1 X34.457 Y-28.026 Z-14.000 F360.000
G1 X32.197 Y-31.217 Z-14.000 F360.000
G1 X32.016 Y-31.428 Z-14.000 F360.000
G1 X29.179 Y-34.176 Z-14.000 F360.000
G1 X28.882 Y-34.400 Z-14.000 F360.000
G1 X26.178 Y-35.951 Z-14.000 F360.000
G1 X26.010 Y-36.034 Z-14.000 F360.000
G1 X22.508 Y-37.497 Z-14.000 F360.000
G1 X19.335 Y-38.562 Z-14.000 F360.000
G1 X15.208 Y-39.653 Z-14.000 F360.000
G2 X7.101 Y-40.974 Z-14.000 I-27.162 J141.232 K0.000 F360.000
G1 X2.188 Y-41.252 Z-14.000 F360.000
G1 X-1.796 Y-41.254 Z-14.000 F360.000
G1 X-5.978 Y-40.848 Z-14.000 F360.000
G1 X-11.926 Y-40.044 Z-14.000 F360.000
G1 X-16.618 Y-39.002 Z-14.000 F360.000
G1 X-21.564 Y-37.336 Z-14.000 F360.000
G1 X-21.878 Y-37.187 Z-14.000 F360.000
G1 X-25.424 Y-34.971 Z-14.000 F360.000
G1 X-25.624 Y-34.821 Z-14.000 F360.000
G1 X-28.373 Y-32.383 Z-14.000 F360.000
G1 X-28.579 Y-32.159 Z-14.000 F360.000
G1 X-31.327 Y-28.480 Z-14.000 F360.000
G1 X-31.475 Y-28.236 Z-14.000 F360.000
G1 X-33.116 Y-24.848 Z-14.000 F360.000
G1 X-33.206 Y-24.614 Z-14.000 F360.000
G1 X-34.226 Y-21.112 Z-14.000 F360.000
G1 X-34.284 Y-20.752 Z-14.000 F360.000
G1 X-34.461 Y-16.304 Z-14.000 F360.000
G1 X-34.452 Y-16.072 Z-14.000 F360.000
G1 X-33.965 Y-11.861 Z-14.000 F360.000
G1 X-33.879 Y-11.507 Z-14.000 F360.000
G2 X-31.358 Y-5.375 Z-14.000 I74.456 J-27.022 K0.000 F360.000
G1 X-31.111 Y-4.992 Z-14.000 F360.000
G1 X-29.182 Y-2.824 Z-14.000 F360.000
G2 X-26.461 Y-0.694 Z-14.000 I16.339 J-18.075 K0.000 F360.000
G2 X-22.271 Y0.936 Z-14.000 I10.169 J-19.931 K0.000 F360.000
G1 X-19.597 Y1.263 Z-14.000 F360.000
G1 X-19.415 Y1.274 Z-14.000 F360.000
G1 X-3.759 Y1.274 Z-14.000 F360.000
G1 X-1.985 Y1.183 Z-14.000 F360.000
G1 X1.098 Y0.816 Z-14.000 F360.000
G1 X1.307 Y0.776 Z-14.000 F360.000
G1 X3.417 Y0.212 Z-14.000 F360.000
G1 X6.039 Y-0.679 Z-14.000 F360.000
G1 X6.263 Y-0.777 Z-14.000 F360.000
G2 X10.481 Y-3.405 Z-14.000 I-12.334 J-24.490 K0.000 F360.000
G2 X12.296 Y-5.166 Z-14.000 I-3.332 J-5.251 K0.000 F360.000
G1 X13.049 Y-6.584 Z-14.000 F360.000
G1 X13.161 Y-6.857 Z-14.000 F360.000
G1 X13.693 Y-8.630 Z-14.000 F360.000
G1 X13.756 Y-9.035 Z-14.000 F360.000
G2 X13.564 Y-13.462 Z-14.000 I-27.559 J-1.024 K0.000 F360.000
G1 X13.077 Y-15.280 Z-14.000 F360.000
G1 X12.983 Y-15.534 Z-14.000 F360.000
G1 X12.141 Y-17.307 Z-14.000 F360.000
G1 X11.927 Y-17.637 Z-14.000 F360.000
G1 X10.642 Y-19.144 Z-14.000 F360.000
G1 X10.453 Y-19.330 Z-14.000 F360.000
G1 X9.211 Y-20.349 Z-14.000 F360.000
G2 X7.797 Y-21.226 Z-14.000 I-6.870 J9.507 K0.000 F360.000
G2 X6.090 Y-22.017 Z-14.000 I-7.615 J14.186 K0.000 F360.000
G1 X5.619 Y-22.145 Z-14.000 F360.000
G3 X-2.563 Y-23.030 Z-14.000 I51.083 J-510.803 K0.000 F360.000
G2 X-3.709 Y-23.040 Z-14.000 I-0.658 J10.058 K0.000 F360.000
G2 X-5.202 Y-21.675 Z-14.000 I-0.000 J1.500 K0.000 F360.000
G2 X-4.607 Y-20.096 Z-14.000 I2.334 J0.021 K0.000 F360.000
G1 X-3.765 Y-19.298 Z-14.000 F360.000
G1 X-3.488 Y-19.091 Z-14.000 F360.000
G3 X-0.596 Y-17.374 Z-14.000 I-69.838 J120.949 K0.000 F360.000
G1 X0.974 Y-15.861 Z-14.000 F360.000
G1 X2.785 Y-13.845 Z-14.000 F360.000
G1 X3.612 Y-12.422 Z-14.000 F360.000
G1 X3.612 Y-10.520 Z-14.000 F360.000
G1 X2.751 Y-8.797 Z-14.000 F360.000
G1 X1.274 Y-7.131 Z-14.000 F360.000
G1 X-0.354 Y-6.010 Z-14.000 F360.000
G1 X-3.349 Y-5.221 Z-14.000 F360.000
G1 X-6.526 Y-4.929 Z-14.000 F360.000
G1 X-10.281 Y-4.929 Z-14.000 F360.000
G1 X-13.276 Y-5.415 Z-14.000 F360.000
G1 X-15.753 Y-6.413 Z-14.000 F360.000
G1 X-17.615 Y-7.553 Z-14.000 F360.000
G1 X-19.197 Y-9.411 Z-14.000 F360.000
G1 X-20.237 Y-11.606 Z-14.000 F360.000
G1 X-20.775 Y-14.030 Z-14.000 F360.000
G1 X-20.614 Y-16.820 Z-14.000 F360.000
G1 X-20.334 Y-18.824 Z-14.000 F360.000
G3 X-18.828 Y-22.309 Z-14.000 I29.798 J10.812 K0.000 F360.000
G3 X-15.741 Y-25.238 Z-14.000 I34.039 J32.770 K0.000 F360.000
G1 X-13.117 Y-26.611 Z-14.000 F360.000
G1 X-10.395 Y-27.575 Z-14.000 F360.000
G1 X-7.190 Y-28.418 Z-14.000 F360.000
G1 X-2.506 Y-28.957 Z-14.000 F360.000
G1 X6.810 Y-28.957 Z-14.000 F360.000
G1 X10.966 Y-28.406 Z-14.000 F360.000
G1 X15.110 Y-27.338 Z-14.000 F360.000
G1 X19.168 Y-25.874 Z-14.000 F360.000
G1 X21.059 Y-24.601 Z-14.000 F360.000
G1 X22.663 Y-22.957 Z-14.000 F360.000
G1 X24.285 Y-20.442 Z-14.000 F360.000
G1 X25.560 Y-17.464 Z-14.000 F360.000
G3 X25.720 Y-12.274 Z-14.000 I-42.383 J3.904 K0.000 F360.000
G1 X25.239 Y-10.155 Z-14.000 F360.000
G1 X24.161 Y-7.555 Z-14.000 F360.000
G1 X23.096 Y-5.723 Z-14.000 F360.000
G1 X21.471 Y-3.568 Z-14.000 F360.000
G1 X19.331 Y-1.749 Z-14.000 F360.000
G1 X17.510 Y-0.676 Z-14.000 F360.000
G1 X15.268 Y0.214 Z-14.000 F360.000
G1 X12.565 Y0.789 Z-14.000 F360.000
G2 X4.295 Y1.728 Z-14.000 I42.116 J407.908 K0.000 F360.000
G1 X-3.692 Y2.342 Z-14.000 F360.000
G1 X-6.753 Y2.654 Z-14.000 F360.000
G1 X-6.753 Y2.654 Z-14.000 F360.000
G2 X-16.904 Y3.716 Z-14.000 I74.844 J764.895 K0.000 F360.000
G2 X-21.524 Y4.741 Z-14.000 I3.600 J27.139 K0.000 F360.000
G2 X-22.426 Y5.126 Z-14.000 I2.166 J6.327 K0.000 F360.000
G2 X-24.408 Y7.786 Z-14.000 I1.255 J3.003 K0.000 F360.000
G2 X-24.354 Y10.826 Z-14.000 I12.509 J1.298 K0.000 F360.000
G2 X-23.985 Y12.761 Z-14.000 I7.037 J-0.340 K0.000 F360.000
G2 X-21.117 Y12.521 Z-14.000 I1.399 J-0.542 K0.000 F360.000
G3 X-20.803 Y11.099 Z-14.000 I8.624 J1.158 K0.000 F360.000
G3 X-19.350 Y9.248 Z-14.000 I2.956 J0.825 K0.000 F360.000
G1 X-18.499 Y8.978 Z-14.000 F360.000
G3 X-15.509 Y8.614 Z-14.000 I5.297 J31.076 K0.000 F360.000
G3 X-7.735 Y8.263 Z-14.000 I23.988 J444.499 K0.000 F360.000
G1 X1.010 Y8.263 Z-14.000 F360.000
G3 X3.517 Y8.386 Z-14.000 I-3.789 J102.452 K0.000 F360.000
G3 X5.634 Y8.778 Z-14.000 I-4.891 J32.348 K0.000 F360.000
G3 X9.481 Y9.986 Z-14.000 I-3.024 J16.364 K0.000 F360.000
G3 X11.785 Y11.433 Z-14.000 I-2.143 J5.969 K0.000 F360.000
G3 X12.951 Y12.893 Z-14.000 I-4.373 J4.690 K0.000 F360.000
G3 X13.301 Y14.486 Z-14.000 I-1.927 J1.258 K0.000 F360.000
G3 X12.850 Y15.747 Z-14.000 I-5.143 J-1.128 K0.000 F360.000
G3 X11.410 Y17.424 Z-14.000 I-5.656 J-3.400 K0.000 F360.000
G3 X9.781 Y18.633 Z-14.000 I-19.087 J-24.012 K0.000 F360.000
G3 X8.136 Y19.694 Z-14.000 I-6.192 J-7.794 K0.000 F360.000
G3 X5.254 Y20.542 Z-14.000 I-8.952 J-25.097 K0.000 F360.000
G3 X3.308 Y20.840 Z-14.000 I-2.212 J-7.957 K0.000 F360.000
G3 X0.351 Y20.787 Z-14.000 I-1.039 J-24.526 K0.000 F360.000
G3 X-3.956 Y19.723 Z-14.000 I1.052 J-13.507 K0.000 F360.000
G3 X-5.533 Y18.635 Z-14.000 I16.409 J-25.476 K0.000 F360.000
G3 X-7.128 Y16.883 Z-14.000 I2.465 J-3.846 K0.000 F360.000
G3 X-6.405 Y15.843 Z-14.000 I1.130 J0.014 K0.000 F360.000
G3 X-3.683 Y15.455 Z-14.000 I2.785 J9.822 K0.000 F360.000
G1 X0.152 Y15.455 Z-14.000 F360.000
G3 X2.930 Y15.568 Z-14.000 I-0.054 J35.498 K0.000 F360.000
G3 X5.804 Y16.782 Z-14.000 I0.040 J3.916 K0.000 F360.000
G2 X8.358 Y17.558 Z-14.000 I1.481 J-0.283 K0.000 F360.000
G2 X9.429 Y15.862 Z-14.000 I-13.855 J-9.939 K0.000 F360.000
G2 X10.079 Y13.542 Z-14.000 I-3.000 J-2.092 K0.000 F360.000
G2 X8.240 Y10.745 Z-14.000 I-3.653 J0.398 K0.000 F360.000
G2 X4.905 Y9.695 Z-14.000 I-4.586 J8.742 K0.000 F360.000
G2 X-2.952 Y8.760 Z-14.000 I-10.385 J53.814 K0.000 F360.000
G1 X-12.005 Y8.757 Z-14.000 F360.000
G2 X-14.718 Y8.992 Z-14.000 I0.433 J20.731 K0.000 F360.000
G2 X-16.062 Y9.360 Z-14.000 I1.932 J9.683 K0.000 F360.000
G1 X-16.355 Y9.479 Z-14.000 F360.000
G1 X-17.399 Y10.036 Z-14.000 F360.000
G2 X-19.164 Y11.861 Z-14.000 I3.023 J4.691 K0.000 F360.000
G2 X-19.548 Y13.052 Z-14.000 I5.095 J2.300 K0.000 F360.000
G2 X-19.484 Y16.876 Z-14.000 I10.449 J1.737 K0.000 F360.000
G1 X-19.352 Y17.299 Z-14.000 F360.000
G2 X-16.656 Y21.756 Z-14.000 I19.410 J-8.696 K0.000 F360.000
G2 X-14.110 Y24.294 Z-14.000 I14.950 J-12.456 K0.000 F360.000
G2 X-8.187 Y27.550 Z-14.000 I14.596 J-19.530 K0.000 F360.000
G2 X-4.966 Y28.474 Z-14.000 I31.924 J-105.308 K0.000 F360.000
G2 X-4.538 Y31.263 Z-14.000 I10.452 J-0.174 K0.000 F360.000
G2 X-2.636 Y35.549 Z-14.000 I51.098 J-20.120 K0.000 F360.000
G2 X-0.196 Y38.439 Z-14.000 I12.921 J-8.435 K0.000 F360.000
G2 X1.408 Y39.704 Z-14.000 I5.838 J-5.748 K0.000 F360.000
G2 X3.676 Y40.802 Z-14.000 I5.619 J-8.718 K0.000 F360.000
G1 X4.901 Y41.014 Z-14.000 F360.000
G2 X6.143 Y40.943 Z-14.000 I0.362 J-4.567 K0.000 F360.000
G2 X7.475 Y40.373 Z-14.000 I-0.676 J-3.423 K0.000 F360.000
G2 X9.005 Y38.243 Z-14.000 I-5.253 J-5.389 K0.000 F360.000
G2 X9.489 Y36.706 Z-14.000 I-6.154 J-2.783 K0.000 F360.000
G2 X9.410 Y35.306 Z-14.000 I-6.250 J-0.350 K0.000 F360.000
G2 X9.233 Y34.714 Z-14.000 I-1.495 J0.125 K0.000 F360.000
G2 X8.375 Y33.685 Z-14.000 I-4.994 J3.291 K0.000 F360.000
G1 X8.022 Y33.391 Z-14.000 F360.000
G2 X5.063 Y31.838 Z-14.000 I-8.766 J13.110 K0.000 F360.000
G3 X1.681 Y29.761 Z-14.000 I4.242 J-10.696 K0.000 F360.000
G1 X1.319 Y29.228 Z-14.000 F360.000
G2 X4.805 Y29.240 Z-14.000 I1.880 J-39.526 K0.000 F360.000
G1 X7.427 Y28.782 Z-14.000 F360.000
G2 X11.841 Y27.128 Z-14.000 I-8.192 J-28.579 K0.000 F360.000
G1 X13.393 Y26.197 Z-14.000 F360.000
G2 X16.943 Y22.917 Z-14.000 I-12.289 J-16.863 K0.000 F360.000
G1 X16.943 Y22.917 Z-16.000 F360.000
G2 X17.674 Y22.014 Z-16.000 I-15.839 J-13.583 K0.000 F360.000
G2 X19.210 Y19.768 Z-16.000 I-7.336 J-6.662 K0.000 F360.000
G2 X20.726 Y16.481 Z-16.000 I-15.403 J-9.099 K0.000 F360.000
G1 X21.169 Y14.708 Z-16.000 F360.000
G1 X21.214 Y14.344 Z-16.000 F360.000
G1 X21.214 Y12.660 Z-16.000 F360.000
G1 X21.190 Y12.394 Z-16.000 F360.000
G1 X20.836 Y10.423 Z-16.000 F360.000
G2 X20.577 Y9.812 Z-16.000 I-1.476 J0.266 K0.000 F360.000
G1 X19.779 Y8.704 Z-16.000 F360.000
G1 X19.616 Y8.513 Z-16.000 F360.000
G2 X18.815 Y7.973 Z-16.000 I-2.799 J3.283 K0.000 F360.000
G2 X20.107 Y7.735 Z-16.000 I-1.286 J-10.624 K0.000 F360.000
G1 X22.723 Y6.937 Z-16.000 F360.000
G1 X25.982 Y5.657 Z-16.000 F360.000
G1 X26.186 Y5.558 Z-16.000 F360.000
G1 X28.624 Y4.139 Z-16.000 F360.000
G1 X28.775 Y4.039 Z-16.000 F360.000
G1 X31.262 Y2.157 Z-16.000 F360.000
G1 X31.481 Y1.954 Z-16.000 F360.000
G1 X33.165 Y0.048 Z-16.000 F360.000
G1 X34.581 Y-1.877 Z-16.000 F360.000
G1 X34.702 Y-2.071 Z-16.000 F360.000
G1 X35.899 Y-4.376 Z-16.000 F360.000
G1 X35.974 Y-4.546 Z-16.000 F360.000
G1 X36.994 Y-7.294 Z-16.000 F360.000
G1 X37.784 Y-10.066 Z-16.000 F360.000
G1 X37.837 Y-10.365 Z-16.000 F360.000
G1 X38.058 Y-13.370 Z-16.000 F360.000
G1 X38.062 Y-16.007 Z-16.000 F360.000
G1 X37.655 Y-19.932 Z-16.000 F360.000
G1 X37.604 Y-20.193 Z-16.000 F360.000
G1 X36.407 Y-24.315 Z-16.000 F360.000
G1 X36.291 Y-24.600 Z-16.000 F360.000
G1 X34.558 Y-27.863 Z-16.000 F360.000
G1 X34.457 Y-28.026 Z-16.000 F360.000
G1 X32.197 Y-31.217 Z-16.000 F360.000
G1 X32.016 Y-31.428 Z-16.000 F360.000
G1 X29.179 Y-34.176 Z-16.000 F360.000
G1 X28.882 Y-34.400 Z-16.000 F360.000
G1 X26.178 Y-35.951 Z-16.000 F360.000
G1 X26.010 Y-36.034 Z-16.000 F360.000
G1 X22.508 Y-37.497 Z-16.000 F360.000
G1 X19.335 Y-38.562 Z-16.000 F360.000
G1 X15.208 Y-39.653 Z-16.000 F360.000
G2 X7.101 Y-40.974 Z-16.000 I-27.162 J141.232 K0.000 F360.000
G1 X2.188 Y-41.252 Z-16.000 F360.000
G1 X-1.796 Y-41.254 Z-16.000 F360.000
G1 X-5.978 Y-40.848 Z-16.000 F360.000
G1 X-11.926 Y-40.044 Z-16.000 F360.000
G1 X-16.618 Y-39.002 Z-16.000 F360.000
G1 X-21.564 Y-37.336 Z-16.000 F360.000
G1 X-21.878 Y-37.187 Z-16.000 F360.000
G1 X-25.424 Y-34.971 Z-16.000 F360.000
G1 X-25.624 Y-34.821 Z-16.000 F360.000
G1 X-28.373 Y-32.383 Z-16.000 F360.000
G1 X-28.579 Y-32.159 Z-16.000 F360.000
G1 X-31.327 Y-28.480 Z-16.000 F360.000
G1 X-31.475 Y-28.236 Z-16.000 F360.000
G1 X-33.116 Y-24.848 Z-16.000 F360.000
G1 X-33.206 Y-24.614 Z-16.000 F360.000
G1 X-34.226 Y-21.112 Z-16.000 F360.000
G1 X-34.284 Y-20.752 Z-16.000 F360.000
G1 X-34.461 Y-16.304 Z-16.000 F360.000
G1 X-34.452 Y-16.072 Z-16.000 F360.000
G1 X-33.965 Y-11.861 Z-16.000 F360.000
G1 X-33.879 Y-11.507 Z-16.000 F360.000
G2 X-31.358 Y-5.375 Z-16.000 I74.456 J-27.022 K0.000 F360.000
G1 X-31.111 Y-4.992 Z-16.000 F360.000
G1 X-29.182 Y-2.824 Z-16.000 F360.000
G2 X-26.461 Y-0.694 Z-16.000 I16.339 J-18.075 K0.000 F360.000
G2 X-22.271 Y0.936 Z-16.000 I10.169 J-19.931 K0.000 F360.000
G1 X-19.597 Y1.263 Z-16.000 F360.000
G1 X-19.415 Y1.274 Z-16.000 F360.000
G1 X-3.759 Y1.274 Z-16.000 F360.000
G1 X-1.985 Y1.183 Z-16.000 F360.000
G1 X1.098 Y0.816 Z-16.000 F360.000
G1 X1.307 Y0.776 Z-16.000 F360.000
G1 X3.417 Y0.212 Z-16.000 F360.000
G1 X6.039 Y-0.679 Z-16.000 F360.000
G1 X6.263 Y-0.777 Z-16.000 F360.000
G2 X10.481 Y-3.405 Z-16.000 I-12.334 J-24.490 K0.000 F360.000
G2 X12.296 Y-5.166 Z-16.000 I-3.332 J-5.251 K0.000 F360.000
G1 X13.049 Y-6.584 Z-16.000 F360.000
G1 X13.161 Y-6.857 Z-16.000 F360.000
G1 X13.693 Y-8.630 Z-16.000 F360.000
G1 X13.756 Y-9.035 Z-16.000 F360.000
G2 X13.564 Y-13.462 Z-16.000 I-27.559 J-1.024 K0.000 F360.000
G1 X13.077 Y-15.280 Z-16.000 F360.000
G1 X12.983 Y-15.534 Z-16.000 F360.000
G1 X12.141 Y-17.307 Z-16.000 F360.000
G1 X11.927 Y-17.637 Z-16.000 F360.000
G1 X10.642 Y-19.144 Z-16.000 F360.000
G1 X10.453 Y-19.330 Z-16.000 F360.000
G1 X9.211 Y-20.349 Z-16.000 F360.000
G2 X7.797 Y-21.226 Z-16.000 I-6.870 J9.507 K0.000 F360.000
G2 X6.090 Y-22.017 Z-16.000 I-7.615 J14.186 K0.000 F360.000
G1 X5.619 Y-22.145 Z-16.000 F360.000
G3 X-2.563 Y-23.030 Z-16.000 I51.083 J-510.803 K0.000 F360.000
G2 X-3.709 Y-23.040 Z-16.000 I-0.658 J10.058 K0.000 F360.000
G2 X-5.202 Y-21.675 Z-16.000 I-0.000 J1.500 K0.000 F360.000
G2 X-4.607 Y-20.096 Z-16.000 I2.334 J0.021 K0.000 F360.000
G1 X-3.765 Y-19.298 Z-16.000 F360.000
G1 X-3.488 Y-19.091 Z-16.000 F360.000
G3 X-0.596 Y-17.374 Z-16.000 I-69.838 J120.949 K0.000 F360.000
G1 X0.974 Y-15.861 Z-16.000 F360.000
G1 X2.785 Y-13.845 Z-16.000 F360.000
G1 X3.612 Y-12.422 Z-16.000 F360.000
G1 X3.612 Y-10.520 Z-16.000 F360.000
G1 X2.751 Y-8.797 Z-16.000 F360.000
G1 X1.274 Y-7.131 Z-16.000 F360.000
G1 X-0.354 Y-6.010 Z-16.000 F360.000
G1 X-3.349 Y-5.221 Z-16.000 F360.000
G1 X-6.526 Y-4.929 Z-16.000 F360.000
G1 X-10.281 Y-4.929 Z-16.000 F360.000
G1 X-13.276 Y-5.415 Z-16.000 F360.000
G1 X-15.753 Y-6.413 Z-16.000 F360.000
G1 X-17.615 Y-7.553 Z-16.000 F360.000
G1 X-19.197 Y-9.411 Z-16.000 F360.000
G1 X-20.237 Y-11.606 Z-16.000 F360.000
G1 X-20.775 Y-14.030 Z-16.000 F360.000
G1 X-20.614 Y-16.820 Z-16.000 F360.000
G1 X-20.334 Y-18.824 Z-16.000 F360.000
G3 X-18.828 Y-22.309 Z-16.000 I29.798 J10.812 K0.000 F360.000
G3 X-15.741 Y-25.238 Z-16.000 I34.039 J32.770 K0.000 F360.000
G1 X-13.117 Y-26.611 Z-16.000 F360.000
G1 X-10.395 Y-27.575 Z-16.000 F360.000
G1 X-7.190 Y-28.418 Z-16.000 F360.000
G1 X-2.506 Y-28.957 Z-16.000 F360.000
G1 X6.810 Y-28.957 Z-16.000 F360.000
G1 X10.966 Y-28.406 Z-16.000 F360.000
G1 X15.110 Y-27.338 Z-16.000 F360.000
G1 X19.168 Y-25.874 Z-16.000 F360.000
G1 X21.059 Y-24.601 Z-16.000 F360.000
G1 X22.663 Y-22.957 Z-16.000 F360.000
G1 X24.285 Y-20.442 Z-16.000 F360.000
G1 X25.560 Y-17.464 Z-16.000 F360.000
G3 X25.720 Y-12.274 Z-16.000 I-42.383 J3.904 K0.000 F360.000
G1 X25.239 Y-10.155 Z-16.000 F360.000
G1 X24.161 Y-7.555 Z-16.000 F360.000
G1 X23.096 Y-5.723 Z-16.000 F360.000
G1 X21.471 Y-3.568 Z-16.000 F360.000
G1 X19.331 Y-1.749 Z-16.000 F360.000
G1 X17.510 Y-0.676 Z-16.000 F360.000
G1 X15.268 Y0.214 Z-16.000 F360.000
G1 X12.565 Y0.789 Z-16.000 F360.000
G2 X4.295 Y1.728 Z-16.000 I42.116 J407.908 K0.000 F360.000
G1 X-3.692 Y2.342 Z-16.000 F360.000
G1 X-6.753 Y2.654 Z-16.000 F360.000
G1 X-6.753 Y2.654 Z-16.000 F360.000
G2 X-16.904 Y3.716 Z-16.000 I74.844 J764.895 K0.000 F360.000
G2 X-21.524 Y4.741 Z-16.000 I3.600 J27.139 K0.000 F360.000
G2 X-22.426 Y5.126 Z-16.000 I2.166 J6.327 K0.000 F360.000
G2 X-24.408 Y7.786 Z-16.000 I1.255 J3.003 K0.000 F360.000
G2 X-24.354 Y10.826 Z-16.000 I12.509 J1.298 K0.000 F360.000
G2 X-23.985 Y12.761 Z-16.000 I7.037 J-0.340 K0.000 F360.000
G2 X-21.117 Y12.521 Z-16.000 I1.399 J-0.542 K0.000 F360.000
G3 X-20.803 Y11.099 Z-16.000 I8.624 J1.158 K0.000 F360.000
G3 X-19.350 Y9.248 Z-16.000 I2.956 J0.825 K0.000 F360.000
G1 X-18.499 Y8.978 Z-16.000 F360.000
G3 X-15.509 Y8.614 Z-16.000 I5.297 J31.076 K0.000 F360.000
G3 X-7.735 Y8.263 Z-16.000 I23.988 J444.499 K0.000 F360.000
G1 X1.010 Y8.263 Z-16.000 F360.000
G3 X3.517 Y8.386 Z-16.000 I-3.789 J102.452 K0.000 F360.000
G3 X5.634 Y8.778 Z-16.000 I-4.891 J32.348 K0.000 F360.000
G3 X9.481 Y9.986 Z-16.000 I-3.024 J16.364 K0.000 F360.000
G3 X11.785 Y11.433 Z-16.000 I-2.143 J5.969 K0.000 F360.000
G3 X12.951 Y12.893 Z-16.000 I-4.373 J4.690 K0.000 F360.000
G3 X13.301 Y14.486 Z-16.000 I-1.927 J1.258 K0.000 F360.000
G3 X12.850 Y15.747 Z-16.000 I-5.143 J-1.128 K0.000 F360.000
G3 X11.410 Y17.424 Z-16.000 I-5.656 J-3.400 K0.000 F360.000
G3 X9.781 Y18.633 Z-16.000 I-19.087 J-24.012 K0.000 F360.000
G3 X8.136 Y19.694 Z-16.000 I-6.192 J-7.794 K0.000 F360.000
G3 X5.254 Y20.542 Z-16.000 I-8.952 J-25.097 K0.000 F360.000
G3 X3.308 Y20.840 Z-16.000 I-2.212 J-7.957 K0.000 F360.000
G3 X0.351 Y20.787 Z-16.000 I-1.039 J-24.526 K0.000 F360.000
G3 X-3.956 Y19.723 Z-16.000 I1.052 J-13.507 K0.000 F360.000
G3 X-5.533 Y18.635 Z-16.000 I16.409 J-25.476 K0.000 F360.000
G3 X-7.128 Y16.883 Z-16.000 I2.465 J-3.846 K0.000 F360.000
G3 X-6.405 Y15.843 Z-16.000 I1.130 J0.014 K0.000 F360.000
G3 X-3.683 Y15.455 Z-16.000 I2.785 J9.822 K0.000 F360.000
G1 X0.152 Y15.455 Z-16.000 F360.000
G3 X2.930 Y15.568 Z-16.000 I-0.054 J35.498 K0.000 F360.000
G3 X5.804 Y16.782 Z-16.000 I0.040 J3.916 K0.000 F360.000
G2 X8.358 Y17.558 Z-16.000 I1.481 J-0.283 K0.000 F360.000
G2 X9.429 Y15.862 Z-16.000 I-13.855 J-9.939 K0.000 F360.000
G2 X10.079 Y13.542 Z-16.000 I-3.000 J-2.092 K0.000 F360.000
G2 X8.240 Y10.745 Z-16.000 I-3.653 J0.398 K0.000 F360.000
G2 X4.905 Y9.695 Z-16.000 I-4.586 J8.742 K0.000 F360.000
G2 X-2.952 Y8.760 Z-16.000 I-10.385 J53.814 K0.000 F360.000
G1 X-12.005 Y8.757 Z-16.000 F360.000
G2 X-14.718 Y8.992 Z-16.000 I0.433 J20.731 K0.000 F360.000
G2 X-16.062 Y9.360 Z-16.000 I1.932 J9.683 K0.000 F360.000
G1 X-16.355 Y9.479 Z-16.000 F360.000
G1 X-17.399 Y10.036 Z-16.000 F360.000
G2 X-19.164 Y11.861 Z-16.000 I3.023 J4.691 K0.000 F360.000
G2 X-19.548 Y13.052 Z-16.000 I5.095 J2.300 K0.000 F360.000
G2 X-19.484 Y16.876 Z-16.000 I10.449 J1.737 K0.000 F360.000
G1 X-19.352 Y17.299 Z-16.000 F360.000
G2 X-16.656 Y21.756 Z-16.000 I19.410 J-8.696 K0.000 F360.000
G2 X-14.110 Y24.294 Z-16.000 I14.950 J-12.456 K0.000 F360.000
G2 X-8.187 Y27.550 Z-16.000 I14.596 J-19.530 K0.000 F360.000
G2 X-4.966 Y28.474 Z-16.000 I31.924 J-105.308 K0.000 F360.000
G2 X-4.538 Y31.263 Z-16.000 I10.452 J-0.174 K0.000 F360.000
G2 X-2.636 Y35.549 Z-16.000 I51.098 J-20.120 K0.000 F360.000
G2 X-0.196 Y38.439 Z-16.000 I12.921 J-8.435 K0.000 F360.000
G2 X1.408 Y39.704 Z-16.000 I5.838 J-5.748 K0.000 F360.000
G2 X3.676 Y40.802 Z-16.000 I5.619 J-8.718 K0.000 F360.000
G1 X4.901 Y41.014 Z-16.000 F360.000
G2 X6.143 Y40.943 Z-16.000 I0.362 J-4.567 K0.000 F360.000
G2 X7.475 Y40.373 Z-16.000 I-0.676 J-3.423 K0.000 F360.000
G2 X9.005 Y38.243 Z-16.000 I-5.253 J-5.389 K0.000 F360.000
G2 X9.489 Y36.706 Z-16.000 I-6.154 J-2.783 K0.000 F360.000
G2 X9.410 Y35.306 Z-16.000 I-6.250 J-0.350 K0.000 F360.000
G2 X9.233 Y34.714 Z-16.000 I-1.495 J0.125 K0.000 F360.000
G2 X8.375 Y33.685 Z-16.000 I-4.994 J3.291 K0.000 F360.000
G1 X8.022 Y33.391 Z-16.000 F360.000
G2 X5.063 Y31.838 Z-16.000 I-8.766 J13.110 K0.000 F360.000
G3 X1.681 Y29.761 Z-16.000 I4.242 J-10.696 K0.000 F360.000
G1 X1.319 Y29.228 Z-16.000 F360.000
G2 X4.805 Y29.240 Z-16.000 I1.880 J-39.526 K0.000 F360.000
G1 X7.427 Y28.782 Z-16.000 F360.000
G2 X11.841 Y27.128 Z-16.000 I-8.192 J-28.579 K0.000 F360.000
G1 X13.393 Y26.197 Z-16.000 F360.000
G2 X16.943 Y22.917 Z-16.000 I-12.289 J-16.863 K0.000 F360.000
G1 X16.943 Y22.917 Z-18.000 F360.000
G2 X17.674 Y22.014 Z-18.000 I-15.839 J-13.583 K0.000 F360.000
G2 X19.210 Y19.768 Z-18.000 I-7.336 J-6.662 K0.000 F360.000
G2 X20.726 Y16.481 Z-18.000 I-15.403 J-9.099 K0.000 F360.000
G1 X21.169 Y14.708 Z-18.000 F360.000
G1 X21.214 Y14.344 Z-18.000 F360.000
G1 X21.214 Y12.660 Z-18.000 F360.000
G1 X21.190 Y12.394 Z-18.000 F360.000
G1 X20.836 Y10.423 Z-18.000 F360.000
G2 X20.577 Y9.812 Z-18.000 I-1.476 J0.266 K0.000 F360.000
G1 X19.779 Y8.704 Z-18.000 F360.000
G1 X19.616 Y8.513 Z-18.000 F360.000
G2 X18.815 Y7.973 Z-18.000 I-2.799 J3.283 K0.000 F360.000
G2 X20.107 Y7.735 Z-18.000 I-1.286 J-10.624 K0.000 F360.000
G1 X22.723 Y6.937 Z-18.000 F360.000
G1 X25.982 Y5.657 Z-18.000 F360.000
G1 X26.186 Y5.558 Z-18.000 F360.000
G1 X28.624 Y4.139 Z-18.000 F360.000
G1 X28.775 Y4.039 Z-18.000 F360.000
G1 X31.262 Y2.157 Z-18.000 F360.000
G1 X31.481 Y1.954 Z-18.000 F360.000
G1 X33.165 Y0.048 Z-18.000 F360.000
G1 X34.581 Y-1.877 Z-18.000 F360.000
G1 X34.702 Y-2.071 Z-18.000 F360.000
G1 X35.899 Y-4.376 Z-18.000 F360.000
G1 X35.974 Y-4.546 Z-18.000 F360.000
G1 X36.994 Y-7.294 Z-18.000 F360.000
G1 X37.784 Y-10.066 Z-18.000 F360.000
G1 X37.837 Y-10.365 Z-18.000 F360.000
G1 X38.058 Y-13.370 Z-18.000 F360.000
G1 X38.062 Y-16.007 Z-18.000 F360.000
G1 X37.655 Y-19.932 Z-18.000 F360.000
G1 X37.604 Y-20.193 Z-18.000 F360.000
G1 X36.407 Y-24.315 Z-18.000 F360.000
G1 X36.291 Y-24.600 Z-18.000 F360.000
G1 X34.558 Y-27.863 Z-18.000 F360.000
G1 X34.457 Y-28.026 Z-18.000 F360.000
G1 X32.197 Y-31.217 Z-18.000 F360.000
G1 X32.016 Y-31.428 Z-18.000 F360.000
G1 X29.179 Y-34.176 Z-18.000 F360.000
G1 X28.882 Y-34.400 Z-18.000 F360.000
G1 X26.178 Y-35.951 Z-18.000 F360.000
G1 X26.010 Y-36.034 Z-18.000 F360.000
G1 X22.508 Y-37.497 Z-18.000 F360.000
G1 X19.335 Y-38.562 Z-18.000 F360.000
G1 X15.208 Y-39.653 Z-18.000 F360.000
G2 X7.101 Y-40.974 Z-18.000 I-27.162 J141.232 K0.000 F360.000
G1 X2.188 Y-41.252 Z-18.000 F360.000
G1 X-1.796 Y-41.254 Z-18.000 F360.000
G1 X-5.978 Y-40.848 Z-18.000 F360.000
G1 X-11.926 Y-40.044 Z-18.000 F360.000
G1 X-16.618 Y-39.002 Z-18.000 F360.000
G1 X-21.564 Y-37.336 Z-18.000 F360.000
G1 X-21.878 Y-37.187 Z-18.000 F360.000
G1 X-25.424 Y-34.971 Z-18.000 F360.000
G1 X-25.624 Y-34.821 Z-18.000 F360.000
G1 X-28.373 Y-32.383 Z-18.000 F360.000
G1 X-28.579 Y-32.159 Z-18.000 F360.000
G1 X-31.327 Y-28.480 Z-18.000 F360.000
G1 X-31.475 Y-28.236 Z-18.000 F360.000
G1 X-33.116 Y-24.848 Z-18.000 F360.000
G1 X-33.206 Y-24.614 Z-18.000 F360.000
G1 X-34.226 Y-21.112 Z-18.000 F360.000
G1 X-34.284 Y-20.752 Z-18.000 F360.000
G1 X-34.461 Y-16.304 Z-18.000 F360.000
G1 X-34.452 Y-16.072 Z-18.000 F360.000
G1 X-33.965 Y-11.861 Z-18.000 F360.000
G1 X-33.879 Y-11.507 Z-18.000 F360.000
G2 X-31.358 Y-5.375 Z-18.000 I74.456 J-27.022 K0.000 F360.000
G1 X-31.111 Y-4.992 Z-18.000 F360.000
G1 X-29.182 Y-2.824 Z-18.000 F360.000
G2 X-26.461 Y-0.694 Z-18.000 I16.339 J-18.075 K0.000 F360.000
G2 X-22.271 Y0.936 Z-18.000 I10.169 J-19.931 K0.000 F360.000
G1 X-19.597 Y1.263 Z-18.000 F360.000
G1 X-19.415 Y1.274 Z-18.000 F360.000
G1 X-3.759 Y1.274 Z-18.000 F360.000
G1 X-1.985 Y1.183 Z-18.000 F360.000
G1 X1.098 Y0.816 Z-18.000 F360.000
G1 X1.307 Y0.776 Z-18.000 F360.000
G1 X3.417 Y0.212 Z-18.000 F360.000
G1 X6.039 Y-0.679 Z-18.000 F360.000
G1 X6.263 Y-0.777 Z-18.000 F360.000
G2 X10.481 Y-3.405 Z-18.000 I-12.334 J-24.490 K0.000 F360.000
G2 X12.296 Y-5.166 Z-18.000 I-3.332 J-5.251 K0.000 F360.000
G1 X13.049 Y-6.584 Z-18.000 F360.000
G1 X13.161 Y-6.857 Z-18.000 F360.000
G1 X13.693 Y-8.630 Z-18.000 F360.000
G1 X13.756 Y-9.035 Z-18.000 F360.000
G2 X13.564 Y-13.462 Z-18.000 I-27.559 J-1.024 K0.000 F360.000
G1 X13.077 Y-15.280 Z-18.000 F360.000
G1 X12.983 Y-15.534 Z-18.000 F360.000
G1 X12.141 Y-17.307 Z-18.000 F360.000
G1 X11.927 Y-17.637 Z-18.000 F360.000
G1 X10.642 Y-19.144 Z-18.000 F360.000
G1 X10.453 Y-19.330 Z-18.000 F360.000
G1 X9.211 Y-20.349 Z-18.000 F360.000
G2 X7.797 Y-21.226 Z-18.000 I-6.870 J9.507 K0.000 F360.000
G2 X6.090 Y-22.017 Z-18.000 I-7.615 J14.186 K0.000 F360.000
G1 X5.619 Y-22.145 Z-18.000 F360.000
G3 X-2.563 Y-23.030 Z-18.000 I51.083 J-510.803 K0.000 F360.000
G2 X-3.709 Y-23.040 Z-18.000 I-0.658 J10.058 K0.000 F360.000
G2 X-5.202 Y-21.675 Z-18.000 I-0.000 J1.500 K0.000 F360.000
G2 X-4.607 Y-20.096 Z-18.000 I2.334 J0.021 K0.000 F360.000
G1 X-3.765 Y-19.298 Z-18.000 F360.000
G1 X-3.488 Y-19.091 Z-18.000 F360.000
G3 X-0.596 Y-17.374 Z-18.000 I-69.838 J120.949 K0.000 F360.000
G1 X0.974 Y-15.861 Z-18.000 F360.000
G1 X2.785 Y-13.845 Z-18.000 F360.000
G1 X3.612 Y-12.422 Z-18.000 F360.000
G1 X3.612 Y-10.520 Z-18.000 F360.000
G1 X2.751 Y-8.797 Z-18.000 F360.000
G1 X1.274 Y-7.131 Z-18.000 F360.000
G1 X-0.354 Y-6.010 Z-18.000 F360.000
G1 X-3.349 Y-5.221 Z-18.000 F360.000
G1 X-6.526 Y-4.929 Z-18.000 F360.000
G1 X-10.281 Y-4.929 Z-18.000 F360.000
G1 X-13.276 Y-5.415 Z-18.000 F360.000
G1 X-15.753 Y-6.413 Z-18.000 F360.000
G1 X-17.615 Y-7.553 Z-18.000 F360.000
G1 X-19.197 Y-9.411 Z-18.000 F360.000
G1 X-20.237 Y-11.606 Z-18.000 F360.000
G1 X-20.775 Y-14.030 Z-18.000 F360.000
G1 X-20.614 Y-16.820 Z-18.000 F360.000
G1 X-20.334 Y-18.824 Z-18.000 F360.000
G3 X-18.828 Y-22.309 Z-18.000 I29.798 J10.812 K0.000 F360.000
G3 X-15.741 Y-25.238 Z-18.000 I34.039 J32.770 K0.000 F360.000
G1 X-13.117 Y-26.611 Z-18.000 F360.000
G1 X-10.395 Y-27.575 Z-18.000 F360.000
G1 X-7.190 Y-28.418 Z-18.000 F360.000
G1 X-2.506 Y-28.957 Z-18.000 F360.000
G1 X6.810 Y-28.957 Z-18.000 F360.000
G1 X10.966 Y-28.406 Z-18.000 F360.000
G1 X15.110 Y-27.338 Z-18.000 F360.000
G1 X19.168 Y-25.874 Z-18.000 F360.000
G1 X21.059 Y-24.601 Z-18.000 F360.000
G1 X22.663 Y-22.957 Z-18.000 F360.000
G1 X24.285 Y-20.442 Z-18.000 F360.000
G1 X25.560 Y-17.464 Z-18.000 F360.000
G3 X25.720 Y-12.274 Z-18.000 I-42.383 J3.904 K0.000 F360.000
G1 X25.239 Y-10.155 Z-18.000 F360.000
G1 X24.161 Y-7.555 Z-18.000 F360.000
G1 X23.096 Y-5.723 Z-18.000 F360.000
G1 X21.471 Y-3.568 Z-18.000 F360.000
G1 X19.331 Y-1.749 Z-18.000 F360.000
G1 X17.510 Y-0.676 Z-18.000 F360.000
G1 X15.268 Y0.214 Z-18.000 F360.000
G1 X12.565 Y0.789 Z-18.000 F360.000
G2 X4.295 Y1.728 Z-18.000 I42.116 J407.908 K0.000 F360.000
G1 X-3.692 Y2.342 Z-18.000 F360.000
G1 X-6.753 Y2.654 Z-18.000 F360.000
G1 X-6.753 Y2.654 Z-18.000 F360.000
G2 X-16.904 Y3.716 Z-18.000 I74.844 J764.895 K0.000 F360.000
G2 X-21.524 Y4.741 Z-18.000 I3.600 J27.139 K0.000 F360.000
G2 X-22.426 Y5.126 Z-18.000 I2.166 J6.327 K0.000 F360.000
G2 X-24.408 Y7.786 Z-18.000 I1.255 J3.003 K0.000 F360.000
G2 X-24.354 Y10.826 Z-18.000 I12.509 J1.298 K0.000 F360.000
G2 X-23.985 Y12.761 Z-18.000 I7.037 J-0.340 K0.000 F360.000
G2 X-21.117 Y12.521 Z-18.000 I1.399 J-0.542 K0.000 F360.000
G3 X-20.803 Y11.099 Z-18.000 I8.624 J1.158 K0.000 F360.000
G3 X-19.350 Y9.248 Z-18.000 I2.956 J0.825 K0.000 F360.000
G1 X-18.499 Y8.978 Z-18.000 F360.000
G3 X-15.509 Y8.614 Z-18.000 I5.297 J31.076 K0.000 F360.000
G3 X-7.735 Y8.263 Z-18.000 I23.988 J444.499 K0.000 F360.000
G1 X1.010 Y8.263 Z-18.000 F360.000
G3 X3.517 Y8.386 Z-18.000 I-3.789 J102.452 K0.000 F360.000
G3 X5.634 Y8.778 Z-18.000 I-4.891 J32.348 K0.000 F360.000
G3 X9.481 Y9.986 Z-18.000 I-3.024 J16.364 K0.000 F360.000
G3 X11.785 Y11.433 Z-18.000 I-2.143 J5.969 K0.000 F360.000
G3 X12.951 Y12.893 Z-18.000 I-4.373 J4.690 K0.000 F360.000
G3 X13.301 Y14.486 Z-18.000 I-1.927 J1.258 K0.000 F360.000
G3 X12.850 Y15.747 Z-18.000 I-5.143 J-1.128 K0.000 F360.000
G3 X11.410 Y17.424 Z-18.000 I-5.656 J-3.400 K0.000 F360.000
G3 X9.781 Y18.633 Z-18.000 I-19.087 J-24.012 K0.000 F360.000
G3 X8.136 Y19.694 Z-18.000 I-6.192 J-7.794 K0.000 F360.000
G3 X5.254 Y20.542 Z-18.000 I-8.952 J-25.097 K0.000 F360.000
G3 X3.308 Y20.840 Z-18.000 I-2.212 J-7.957 K0.000 F360.000
G3 X0.351 Y20.787 Z-18.000 I-1.039 J-24.526 K0.000 F360.000
G3 X-3.956 Y19.723 Z-18.000 I1.052 J-13.507 K0.000 F360.000
G3 X-5.533 Y18.635 Z-18.000 I16.409 J-25.476 K0.000 F360.000
G3 X-7.128 Y16.883 Z-18.000 I2.465 J-3.846 K0.000 F360.000
G3 X-6.405 Y15.843 Z-18.000 I1.130 J0.014 K0.000 F360.000
G3 X-3.683 Y15.455 Z-18.000 I2.785 J9.822 K0.000 F360.000
G1 X0.152 Y15.455 Z-18.000 F360.000
G3 X2.930 Y15.568 Z-18.000 I-0.054 J35.498 K0.000 F360.000
G3 X5.804 Y16.782 Z-18.000 I0.040 J3.916 K0.000 F360.000
G2 X8.358 Y17.558 Z-18.000 I1.481 J-0.283 K0.000 F360.000
G2 X9.429 Y15.862 Z-18.000 I-13.855 J-9.939 K0.000 F360.000
G2 X10.079 Y13.542 Z-18.000 I-3.000 J-2.092 K0.000 F360.000
G2 X8.240 Y10.745 Z-18.000 I-3.653 J0.398 K0.000 F360.000
G2 X4.905 Y9.695 Z-18.000 I-4.586 J8.742 K0.000 F360.000
G2 X-2.952 Y8.760 Z-18.000 I-10.385 J53.814 K0.000 F360.000
G1 X-12.005 Y8.757 Z-18.000 F360.000
G2 X-14.718 Y8.992 Z-18.000 I0.433 J20.731 K0.000 F360.000
G2 X-16.062 Y9.360 Z-18.000 I1.932 J9.683 K0.000 F360.000
G1 X-16.355 Y9.479 Z-18.000 F360.000
G1 X-17.399 Y10.036 Z-18.000 F360.000
G2 X-19.164 Y11.861 Z-18.000 I3.023 J4.691 K0.000 F360.000
G2 X-19.548 Y13.052 Z-18.000 I5.095 J2.300 K0.000 F360.000
G2 X-19.484 Y16.876 Z-18.000 I10.449 J1.737 K0.000 F360.000
G1 X-19.352 Y17.299 Z-18.000 F360.000
G2 X-16.656 Y21.756 Z-18.000 I19.410 J-8.696 K0.000 F360.000
G2 X-14.110 Y24.294 Z-18.000 I14.950 J-12.456 K0.000 F360.000
G2 X-8.187 Y27.550 Z-18.000 I14.596 J-19.530 K0.000 F360.000
G2 X-4.966 Y28.474 Z-18.000 I31.924 J-105.308 K0.000 F360.000
G2 X-4.538 Y31.263 Z-18.000 I10.452 J-0.174 K0.000 F360.000
G2 X-2.636 Y35.549 Z-18.000 I51.098 J-20.120 K0.000 F360.000
G2 X-0.196 Y38.439 Z-18.000 I12.921 J-8.435 K0.000 F360.000
G2 X1.408 Y39.704 Z-18.000 I5.838 J-5.748 K0.000 F360.000
G2 X3.676 Y40.802 Z-18.000 I5.619 J-8.718 K0.000 F360.000
G1 X4.901 Y41.014 Z-18.000 F360.000
G2 X6.143 Y40.943 Z-18.000 I0.362 J-4.567 K0.000 F360.000
G2 X7.475 Y40.373 Z-18.000 I-0.676 J-3.423 K0.000 F360.000
G2 X9.005 Y38.243 Z-18.000 I-5.253 J-5.389 K0.000 F360.000
G2 X9.489 Y36.706 Z-18.000 I-6.154 J-2.783 K0.000 F360.000
G2 X9.410 Y35.306 Z-18.000 I-6.250 J-0.350 K0.000 F360.000
G2 X9.233 Y34.714 Z-18.000 I-1.495 J0.125 K0.000 F360.000
G2 X8.375 Y33.685 Z-18.000 I-4.994 J3.291 K0.000 F360.000
G1 X8.022 Y33.391 Z-18.000 F360.000
G2 X5.063 Y31.838 Z-18.000 I-8.766 J13.110 K0.000 F360.000
G3 X1.681 Y29.761 Z-18.000 I4.242 J-10.696 K0.000 F360.000
G1 X1.319 Y29.228 Z-18.000 F360.000
G2 X4.805 Y29.240 Z-18.000 I1.880 J-39.526 K0.000 F360.000
G1 X7.427 Y28.782 Z-18.000 F360.000
G2 X11.841 Y27.128 Z-18.000 I-8.192 J-28.579 K0.000 F360.000
G1 X13.393 Y26.197 Z-18.000 F360.000
G2 X16.943 Y22.917 Z-18.000 I-12.289 J-16.863 K0.000 F360.000
G1 X16.943 Y22.917 Z-20.000 F360.000
G2 X17.674 Y22.014 Z-20.000 I-15.839 J-13.583 K0.000 F360.000
G2 X19.210 Y19.768 Z-20.000 I-7.336 J-6.662 K0.000 F360.000
G2 X20.726 Y16.481 Z-20.000 I-15.403 J-9.099 K0.000 F360.000
G1 X21.169 Y14.708 Z-20.000 F360.000
G1 X21.214 Y14.344 Z-20.000 F360.000
G1 X21.214 Y12.660 Z-20.000 F360.000
G1 X21.190 Y12.394 Z-20.000 F360.000
G1 X20.836 Y10.423 Z-20.000 F360.000
G2 X20.577 Y9.812 Z-20.000 I-1.476 J0.266 K0.000 F360.000
G1 X19.779 Y8.704 Z-20.000 F360.000
G1 X19.616 Y8.513 Z-20.000 F360.000
G2 X18.815 Y7.973 Z-20.000 I-2.799 J3.283 K0.000 F360.000
G2 X20.107 Y7.735 Z-20.000 I-1.286 J-10.624 K0.000 F360.000
G1 X22.723 Y6.937 Z-20.000 F360.000
G1 X25.982 Y5.657 Z-20.000 F360.000
G1 X26.186 Y5.558 Z-20.000 F360.000
G1 X28.624 Y4.139 Z-20.000 F360.000
G1 X28.775 Y4.039 Z-20.000 F360.000
G1 X31.262 Y2.157 Z-20.000 F360.000
G1 X31.481 Y1.954 Z-20.000 F360.000
G1 X33.165 Y0.048 Z-20.000 F360.000
G1 X34.581 Y-1.877 Z-20.000 F360.000
G1 X34.702 Y-2.071 Z-20.000 F360.000
G1 X35.899 Y-4.376 Z-20.000 F360.000
G1 X35.974 Y-4.546 Z-20.000 F360.000
G1 X36.994 Y-7.294 Z-20.000 F360.000
G1 X37.784 Y-10.066 Z-20.000 F360.000
G1 X37.837 Y-10.365 Z-20.000 F360.000
G1 X38.058 Y-13.370 Z-20.000 F360.000
G1 X38.062 Y-16.007 Z-20.000 F360.000
G1 X37.655 Y-19.932 Z-20.000 F360.000
G1 X37.604 Y-20.193 Z-20.000 F360.000
G1 X36.407 Y-24.315 Z-20.000 F360.000
G1 X36.291 Y-24.600 Z-20.000 F360.000
G1 X34.558 Y-27.863 Z-20.000 F360.000
G1 X34.457 Y-28.026 Z-20.000 F360.000
G1 X32.197 Y-31.217 Z-20.000 F360.000
G1 X32.016 Y-31.428 Z-20.000 F360.000
G1 X29.179 Y-34.176 Z-20.000 F360.000
G1 X28.882 Y-34.400 Z-20.000 F360.000
G1 X26.178 Y-35.951 Z-20.000 F360.000
G1 X26.010 Y-36.034 Z-20.000 F360.000
G1 X22.508 Y-37.497 Z-20.000 F360.000
G1 X19.335 Y-38.562 Z-20.000 F360.000
G1 X15.208 Y-39.653 Z-20.000 F360.000
G2 X7.101 Y-40.974 Z-20.000 I-27.162 J141.232 K0.000 F360.000
G1 X2.188 Y-41.252 Z-20.000 F360.000
G1 X-1.796 Y-41.254 Z-20.000 F360.000
G1 X-5.978 Y-40.848 Z-20.000 F360.000
G1 X-11.926 Y-40.044 Z-20.000 F360.000
G1 X-16.618 Y-39.002 Z-20.000 F360.000
G1 X-21.564 Y-37.336 Z-20.000 F360.000
G1 X-21.878 Y-37.187 Z-20.000 F360.000
G1 X-25.424 Y-34.971 Z-20.000 F360.000
G1 X-25.624 Y-34.821 Z-20.000 F360.000
G1 X-28.373 Y-32.383 Z-20.000 F360.000
G1 X-28.579 Y-32.159 Z-20.000 F360.000
G1 X-31.327 Y-28.480 Z-20.000 F360.000
G1 X-31.475 Y-28.236 Z-20.000 F360.000
G1 X-33.116 Y-24.848 Z-20.000 F360.000
G1 X-33.206 Y-24.614 Z-20.000 F360.000
G1 X-34.226 Y-21.112 Z-20.000 F360.000
G1 X-34.284 Y-20.752 Z-20.000 F360.000
G1 X-34.461 Y-16.304 Z-20.000 F360.000
G1 X-34.452 Y-16.072 Z-20.000 F360.000
G1 X-33.965 Y-11.861 Z-20.000 F360.000
G1 X-33.879 Y-11.507 Z-20.000 F360.000
G2 X-31.358 Y-5.375 Z-20.000 I74.456 J-27.022 K0.000 F360.000
G1 X-31.111 Y-4.992 Z-20.000 F360.000
G1 X-29.182 Y-2.824 Z-20.000 F360.000
G2 X-26.461 Y-0.694 Z-20.000 I16.339 J-18.075 K0.000 F360.000
G2 X-22.271 Y0.936 Z-20.000 I10.169 J-19.931 K0.000 F360.000
G1 X-19.597 Y1.263 Z-20.000 F360.000
G1 X-19.415 Y1.274 Z-20.000 F360.000
G1 X-3.759 Y1.274 Z-20.000 F360.000
G1 X-1.985 Y1.183 Z-20.000 F360.000
G1 X1.098 Y0.816 Z-20.000 F360.000
G1 X1.307 Y0.776 Z-20.000 F360.000
G1 X3.417 Y0.212 Z-20.000 F360.000
G1 X6.039 Y-0.679 Z-20.000 F360.000
G1 X6.263 Y-0.777 Z-20.000 F360.000
G2 X10.481 Y-3.405 Z-20.000 I-12.334 J-24.490 K0.000 F360.000
G2 X12.296 Y-5.166 Z-20.000 I-3.332 J-5.251 K0.000 F360.000
G1 X13.049 Y-6.584 Z-20.000 F360.000
G1 X13.161 Y-6.857 Z-20.000 F360.000
G1 X13.693 Y-8.630 Z-20.000 F360.000
G1 X13.756 Y-9.035 Z-20.000 F360.000
G2 X13.564 Y-13.462 Z-20.000 I-27.559 J-1.024 K0.000 F360.000
G1 X13.077 Y-15.280 Z-20.000 F360.000
G1 X12.983 Y-15.534 Z-20.000 F360.000
G1 X12.141 Y-17.307 Z-20.000 F360.000
G1 X11.927 Y-17.637 Z-20.000 F360.000
G1 X10.642 Y-19.144 Z-20.000 F360.000
G1 X10.453 Y-19.330 Z-20.000 F360.000
G1 X9.211 Y-20.349 Z-20.000 F360.000
G2 X7.797 Y-21.226 Z-20.000 I-6.870 J9.507 K0.000 F360.000
G2 X6.090 Y-22.017 Z-20.000 I-7.615 J14.186 K0.000 F360.000
G1 X5.619 Y-22.145 Z-20.000 F360.000
G3 X-2.563 Y-23.030 Z-20.000 I51.083 J-510.803 K0.000 F360.000
G2 X-3.709 Y-23.040 Z-20.000 I-0.658 J10.058 K0.000 F360.000
G2 X-5.202 Y-21.675 Z-20.000 I-0.000 J1.500 K0.000 F360.000
G2 X-4.607 Y-20.096 Z-20.000 I2.334 J0.021 K0.000 F360.000
G1 X-3.765 Y-19.298 Z-20.000 F360.000
G1 X-3.488 Y-19.091 Z-20.000 F360.000
G3 X-0.596 Y-17.374 Z-20.000 I-69.838 J120.949 K0.000 F360.000
G1 X0.974 Y-15.861 Z-20.000 F360.000
G1 X2.785 Y-13.845 Z-20.000 F360.000
G1 X3.612 Y-12.422 Z-20.000 F360.000
G1 X3.612 Y-10.520 Z-20.000 F360.000
G1 X2.751 Y-8.797 Z-20.000 F360.000
G1 X1.274 Y-7.131 Z-20.000 F360.000
G1 X-0.354 Y-6.010 Z-20.000 F360.000
G1 X-3.349 Y-5.221 Z-20.000 F360.000
G1 X-6.526 Y-4.929 Z-20.000 F360.000
G1 X-10.281 Y-4.929 Z-20.000 F360.000
G1 X-13.276 Y-5.415 Z-20.000 F360.000
G1 X-15.753 Y-6.413 Z-20.000 F360.000
G1 X-17.615 Y-7.553 Z-20.000 F360.000
G1 X-19.197 Y-9.411 Z-20.000 F360.000
G1 X-20.237 Y-11.606 Z-20.000 F360.000
G1 X-20.775 Y-14.030 Z-20.000 F360.000
G1 X-20.614 Y-16.820 Z-20.000 F360.000
G1 X-20.334 Y-18.824 Z-20.000 F360.000
G3 X-18.828 Y-22.309 Z-20.000 I29.798 J10.812 K0.000 F360.000
G3 X-15.741 Y-25.238 Z-20.000 I34.039 J32.770 K0.000 F360.000
G1 X-13.117 Y-26.611 Z-20.000 F360.000
G1 X-10.395 Y-27.575 Z-20.000 F360.000
G1 X-7.190 Y-28.418 Z-20.000 F360.000
G1 X-2.506 Y-28.957 Z-20.000 F360.000
G1 X6.810 Y-28.957 Z-20.000 F360.000
G1 X10.966 Y-28.406 Z-20.000 F360.000
G1 X15.110 Y-27.338 Z-20.000 F360.000
G1 X19.168 Y-25.874 Z-20.000 F360.000
G1 X21.059 Y-24.601 Z-20.000 F360.000
G1 X22.663 Y-22.957 Z-20.000 F360.000
G1 X24.285 Y-20.442 Z-20.000 F360.000
G1 X25.560 Y-17.464 Z-20.000 F360.000
G3 X25.720 Y-12.274 Z-20.000 I-42.383 J3.904 K0.000 F360.000
G1 X25.239 Y-10.155 Z-20.000 F360.000
G1 X24.161 Y-7.555 Z-20.000 F360.000
G1 X23.096 Y-5.723 Z-20.000 F360.000
G1 X21.471 Y-3.568 Z-20.000 F360.000
G1 X19.331 Y-1.749 Z-20.000 F360.000
G1 X17.510 Y-0.676 Z-20.000 F360.000
G1 X15.268 Y0.214 Z-20.000 F360.000
G1 X12.565 Y0.789 Z-20.000 F360.000
G2 X4.295 Y1.728 Z-20.000 I42.116 J407.908 K0.000 F360.000
G1 X-3.692 Y2.342 Z-20.000 F360.000
G1 X-6.753 Y2.654 Z-20.000 F360.000
G1 X-6.753 Y2.654 Z-20.000 F360.000
G2 X-16.904 Y3.716 Z-20.000 I74.844 J764.895 K0.000 F360.000
G2 X-21.524 Y4.741 Z-20.000 I3.600 J27.139 K0.000 F360.000
G2 X-22.426 Y5.126 Z-20.000 I2.166 J6.327 K0.000 F360.000
G2 X-24.408 Y7.786 Z-20.000 I1.255 J3.003 K0.000 F360.000
G2 X-24.354 Y10.826 Z-20.000 I12.509 J1.298 K0.000 F360.000
G2 X-23.985 Y12.761 Z-20.000 I7.037 J-0.340 K0.000 F360.000
G2 X-21.117 Y12.521 Z-20.000 I1.399 J-0.542 K0.000 F360.000
G3 X-20.803 Y11.099 Z-20.000 I8.624 J1.158 K0.000 F360.000
G3 X-19.350 Y9.248 Z-20.000 I2.956 J0.825 K0.000 F360.000
G1 X-18.499 Y8.978 Z-20.000 F360.000
G3 X-15.509 Y8.614 Z-20.000 I5.297 J31.076 K0.000 F360.000
