(Exported by FreeCAD)
(Post Processor: script_module)
(Output Time:2026-04-15 15:01:58.836158)
(Begin preamble)
G17 G90
G21
(Begin operation: Fixture)
(Path: Fixture)
G54
(Finish operation: Fixture)
(Begin operation: 3mm001)
(Path: 3mm001)
(3mm001)
(Begin toolchange)
( M6 T2 )
M3 S10000
(Finish operation: 3mm001)
(Begin operation: Profile)
(Path: Profile)
(Profile)
(Compensated Tool Path. Diameter: 3.0)
G0 Z25.000
G0 X-88.805 Y59.163
G1 X-88.805 Y59.163 Z-3.000 F360.000
G2 X-88.717 Y59.103 Z-3.000 I-1.057 J-1.635 K0.000 F360.000
G2 X-88.641 Y58.791 Z-3.000 I-0.101 J-0.189 K0.000 F360.000
G2 X-89.635 Y58.241 Z-3.000 I-1.079 J0.777 K0.000 F360.000
G2 X-91.217 Y58.648 Z-3.000 I-0.396 J1.736 K0.000 F360.000
G2 X-91.266 Y58.878 Z-3.000 I0.138 J0.150 K0.000 F360.000
G2 X-88.805 Y59.163 Z-3.000 I1.403 J-1.350 K0.000 F360.000
G1 X-88.805 Y59.163 Z-6.000 F360.000
G2 X-88.717 Y59.103 Z-6.000 I-1.057 J-1.635 K0.000 F360.000
G2 X-88.641 Y58.791 Z-6.000 I-0.101 J-0.189 K0.000 F360.000
G2 X-89.635 Y58.241 Z-6.000 I-1.079 J0.777 K0.000 F360.000
G2 X-91.217 Y58.648 Z-6.000 I-0.396 J1.736 K0.000 F360.000
G2 X-91.266 Y58.878 Z-6.000 I0.138 J0.150 K0.000 F360.000
G2 X-88.805 Y59.163 Z-6.000 I1.403 J-1.350 K0.000 F360.000
G0 Z25.000
G0 Z25.000
(Finish operation: Profile)
(Begin operation: Profile001)
(Path: Profile001)
(Profile001)
(Compensated Tool Path. Diameter: 3.0)
G0 Z25.000
G0 X-88.870 Y45.453
G1 X-88.870 Y45.453 Z-3.000 F360.000
G2 X-88.717 Y45.318 Z-3.000 I-0.975 J-1.263 K0.000 F360.000
G2 X-88.630 Y44.988 Z-3.000 I-0.138 J-0.213 K0.000 F360.000
G2 X-89.192 Y44.640 Z-3.000 I-0.829 J0.712 K0.000 F360.000
G2 X-91.139 Y44.990 Z-3.000 I-0.689 J1.756 K0.000 F360.000
G2 X-91.267 Y45.281 Z-3.000 I0.098 J0.217 K0.000 F360.000
G2 X-89.774 Y45.784 Z-3.000 I1.247 J-1.233 K0.000 F360.000
G2 X-88.870 Y45.453 Z-3.000 I-0.070 J-1.594 K0.000 F360.000
G1 X-88.870 Y45.453 Z-6.000 F360.000
G2 X-88.717 Y45.318 Z-6.000 I-0.975 J-1.263 K0.000 F360.000
G2 X-88.630 Y44.988 Z-6.000 I-0.138 J-0.213 K0.000 F360.000
G2 X-89.192 Y44.640 Z-6.000 I-0.829 J0.712 K0.000 F360.000
G2 X-91.139 Y44.990 Z-6.000 I-0.689 J1.756 K0.000 F360.000
G2 X-91.267 Y45.281 Z-6.000 I0.098 J0.217 K0.000 F360.000
G2 X-89.774 Y45.784 Z-6.000 I1.247 J-1.233 K0.000 F360.000
G2 X-88.870 Y45.453 Z-6.000 I-0.070 J-1.594 K0.000 F360.000
G0 Z25.000
G0 Z25.000
(Finish operation: Profile001)
(Begin operation: Profile003)
(Path: Profile003)
(Profile003)
(Compensated Tool Path. Diameter: 3.0)
G0 Z25.000
G0 X-77.411 Y60.783
G1 X-77.411 Y60.783 Z-3.000 F360.000
G2 X-78.050 Y60.069 Z-3.000 I-1.709 J0.885 K0.000 F360.000
G3 X-79.076 Y57.299 Z-3.000 I0.913 J-1.913 K0.000 F360.000
G3 X-77.506 Y56.068 Z-3.000 I2.067 J1.018 K0.000 F360.000
G2 X-77.212 Y55.940 Z-3.000 I-0.039 J-0.495 K0.000 F360.000
G2 X-77.207 Y55.838 Z-3.000 I-0.024 J-0.052 K0.000 F360.000
G3 X-79.556 Y53.150 Z-3.000 I1.789 J-3.934 K0.000 F360.000
G3 X-79.666 Y51.217 Z-3.000 I3.086 J-1.145 K0.000 F360.000
G3 X-77.180 Y48.154 Z-3.000 I4.198 J0.867 K0.000 F360.000
G2 X-77.219 Y48.037 Z-3.000 I-0.349 J0.052 K0.000 F360.000
G2 X-77.442 Y47.956 Z-3.000 I-4.632 J12.369 K0.000 F360.000
G3 X-79.147 Y46.503 Z-3.000 I0.448 J-2.253 K0.000 F360.000
G3 X-78.031 Y43.898 Z-3.000 I2.049 J-0.664 K0.000 F360.000
G2 X-77.403 Y43.209 Z-3.000 I-0.739 J-1.305 K0.000 F360.000
G3 X-81.387 Y43.784 Z-3.000 I-110.653 J-753.364 K0.000 F360.000
G2 X-82.182 Y44.060 Z-3.000 I0.381 J2.379 K0.000 F360.000
G2 X-82.200 Y44.673 Z-3.000 I3.799 J0.417 K0.000 F360.000
G3 X-80.852 Y45.922 Z-3.000 I-0.737 J2.148 K0.000 F360.000
G3 X-81.808 Y48.579 Z-3.000 I-1.964 J0.793 K0.000 F360.000
G2 X-82.197 Y48.996 Z-3.000 I0.370 J0.733 K0.000 F360.000
G3 X-80.945 Y50.391 Z-3.000 I-1.868 J2.935 K0.000 F360.000
G3 X-80.678 Y52.540 Z-3.000 I-4.123 J1.604 K0.000 F360.000
G3 X-82.196 Y54.986 Z-3.000 I-3.092 J-0.225 K0.000 F360.000
G2 X-81.858 Y55.401 Z-3.000 I0.851 J-0.346 K0.000 F360.000
G3 X-80.697 Y57.068 Z-3.000 I-0.953 J1.902 K0.000 F360.000
G3 X-82.200 Y59.327 Z-3.000 I-2.177 J0.182 K0.000 F360.000
G2 X-82.184 Y59.913 Z-3.000 I3.628 J0.191 K0.000 F360.000
G2 X-81.177 Y60.257 Z-3.000 I1.317 J-2.215 K0.000 F360.000
G3 X-77.411 Y60.783 Z-3.000 I-10.934 J91.911 K0.000 F360.000
G1 X-77.411 Y60.783 Z-6.000 F360.000
G2 X-78.050 Y60.069 Z-6.000 I-1.709 J0.885 K0.000 F360.000
G3 X-79.076 Y57.299 Z-6.000 I0.913 J-1.913 K0.000 F360.000
G3 X-77.506 Y56.068 Z-6.000 I2.067 J1.018 K0.000 F360.000
G2 X-77.212 Y55.940 Z-6.000 I-0.039 J-0.495 K0.000 F360.000
G2 X-77.207 Y55.838 Z-6.000 I-0.024 J-0.052 K0.000 F360.000
G3 X-79.556 Y53.150 Z-6.000 I1.789 J-3.934 K0.000 F360.000
G3 X-79.666 Y51.217 Z-6.000 I3.086 J-1.145 K0.000 F360.000
G3 X-77.180 Y48.154 Z-6.000 I4.198 J0.867 K0.000 F360.000
G2 X-77.219 Y48.037 Z-6.000 I-0.349 J0.052 K0.000 F360.000
G2 X-77.442 Y47.956 Z-6.000 I-4.632 J12.369 K0.000 F360.000
G3 X-79.147 Y46.503 Z-6.000 I0.448 J-2.253 K0.000 F360.000
G3 X-78.031 Y43.898 Z-6.000 I2.049 J-0.664 K0.000 F360.000
G2 X-77.403 Y43.209 Z-6.000 I-0.739 J-1.305 K0.000 F360.000
G3 X-81.387 Y43.784 Z-6.000 I-110.653 J-753.364 K0.000 F360.000
G2 X-82.182 Y44.060 Z-6.000 I0.381 J2.379 K0.000 F360.000
G2 X-82.200 Y44.673 Z-6.000 I3.799 J0.417 K0.000 F360.000
G3 X-80.852 Y45.922 Z-6.000 I-0.737 J2.148 K0.000 F360.000
G3 X-81.808 Y48.579 Z-6.000 I-1.964 J0.793 K0.000 F360.000
G2 X-82.197 Y48.996 Z-6.000 I0.370 J0.733 K0.000 F360.000
G3 X-80.945 Y50.391 Z-6.000 I-1.868 J2.935 K0.000 F360.000
G3 X-80.678 Y52.540 Z-6.000 I-4.123 J1.604 K0.000 F360.000
G3 X-82.196 Y54.986 Z-6.000 I-3.092 J-0.225 K0.000 F360.000
G2 X-81.858 Y55.401 Z-6.000 I0.851 J-0.346 K0.000 F360.000
G3 X-80.697 Y57.068 Z-6.000 I-0.953 J1.902 K0.000 F360.000
G3 X-82.200 Y59.327 Z-6.000 I-2.177 J0.182 K0.000 F360.000
G2 X-82.184 Y59.913 Z-6.000 I3.628 J0.191 K0.000 F360.000
G2 X-81.177 Y60.257 Z-6.000 I1.317 J-2.215 K0.000 F360.000
G3 X-77.411 Y60.783 Z-6.000 I-10.934 J91.911 K0.000 F360.000
G0 Z25.000
G0 Z25.000
(Finish operation: Profile003)
(Begin operation: Profile004)
(Path: Profile004)
(Profile004)
(Compensated Tool Path. Diameter: 3.0)
G0 Z25.000
G0 X-36.805 Y59.163
G1 X-36.805 Y59.163 Z-3.000 F360.000
G2 X-36.717 Y59.103 Z-3.000 I-1.057 J-1.635 K0.000 F360.000
G2 X-36.641 Y58.791 Z-3.000 I-0.101 J-0.189 K0.000 F360.000
G2 X-37.635 Y58.241 Z-3.000 I-1.079 J0.777 K0.000 F360.000
G2 X-39.217 Y58.648 Z-3.000 I-0.396 J1.736 K0.000 F360.000
G2 X-39.266 Y58.878 Z-3.000 I0.138 J0.150 K0.000 F360.000
G2 X-36.805 Y59.163 Z-3.000 I1.403 J-1.350 K0.000 F360.000
G1 X-36.805 Y59.163 Z-6.000 F360.000
G2 X-36.717 Y59.103 Z-6.000 I-1.057 J-1.635 K0.000 F360.000
G2 X-36.641 Y58.791 Z-6.000 I-0.101 J-0.189 K0.000 F360.000
G2 X-37.635 Y58.241 Z-6.000 I-1.079 J0.777 K0.000 F360.000
G2 X-39.217 Y58.648 Z-6.000 I-0.396 J1.736 K0.000 F360.000
G2 X-39.266 Y58.878 Z-6.000 I0.138 J0.150 K0.000 F360.000
G2 X-36.805 Y59.163 Z-6.000 I1.403 J-1.350 K0.000 F360.000
G0 Z25.000
G0 Z25.000
(Finish operation: Profile004)
(Begin operation: Profile005)
(Path: Profile005)
(Profile005)
(Compensated Tool Path. Diameter: 3.0)
G0 Z25.000
G0 X-36.870 Y45.453
G1 X-36.870 Y45.453 Z-3.000 F360.000
G2 X-36.717 Y45.318 Z-3.000 I-0.975 J-1.263 K0.000 F360.000
G2 X-36.630 Y44.988 Z-3.000 I-0.138 J-0.213 K0.000 F360.000
G2 X-37.192 Y44.640 Z-3.000 I-0.829 J0.712 K0.000 F360.000
G2 X-39.139 Y44.990 Z-3.000 I-0.689 J1.756 K0.000 F360.000
G2 X-39.267 Y45.281 Z-3.000 I0.098 J0.217 K0.000 F360.000
G2 X-37.774 Y45.784 Z-3.000 I1.247 J-1.233 K0.000 F360.000
G2 X-36.870 Y45.453 Z-3.000 I-0.070 J-1.594 K0.000 F360.000
G1 X-36.870 Y45.453 Z-6.000 F360.000
G2 X-36.717 Y45.318 Z-6.000 I-0.975 J-1.263 K0.000 F360.000
G2 X-36.630 Y44.988 Z-6.000 I-0.138 J-0.213 K0.000 F360.000
G2 X-37.192 Y44.640 Z-6.000 I-0.829 J0.712 K0.000 F360.000
G2 X-39.139 Y44.990 Z-6.000 I-0.689 J1.756 K0.000 F360.000
G2 X-39.267 Y45.281 Z-6.000 I0.098 J0.217 K0.000 F360.000
G2 X-37.774 Y45.784 Z-6.000 I1.247 J-1.233 K0.000 F360.000
G2 X-36.870 Y45.453 Z-6.000 I-0.070 J-1.594 K0.000 F360.000
G0 Z25.000
G0 Z25.000
(Finish operation: Profile005)
(Begin operation: Profile006)
(Path: Profile006)
(Profile006)
(Compensated Tool Path. Diameter: 3.0)
G0 Z25.000
G0 X-25.411 Y60.783
G1 X-25.411 Y60.783 Z-3.000 F360.000
G2 X-26.050 Y60.069 Z-3.000 I-1.709 J0.885 K0.000 F360.000
G3 X-27.076 Y57.299 Z-3.000 I0.913 J-1.913 K0.000 F360.000
G3 X-25.506 Y56.068 Z-3.000 I2.067 J1.018 K0.000 F360.000
G2 X-25.212 Y55.940 Z-3.000 I-0.039 J-0.495 K0.000 F360.000
G2 X-25.207 Y55.838 Z-3.000 I-0.024 J-0.052 K0.000 F360.000
G3 X-27.556 Y53.150 Z-3.000 I1.789 J-3.934 K0.000 F360.000
G3 X-27.666 Y51.217 Z-3.000 I3.086 J-1.145 K0.000 F360.000
G3 X-25.180 Y48.154 Z-3.000 I4.198 J0.867 K0.000 F360.000
G2 X-25.219 Y48.037 Z-3.000 I-0.349 J0.052 K0.000 F360.000
G2 X-25.442 Y47.956 Z-3.000 I-4.634 J12.374 K0.000 F360.000
G3 X-27.147 Y46.503 Z-3.000 I0.448 J-2.253 K0.000 F360.000
G3 X-26.031 Y43.898 Z-3.000 I2.049 J-0.664 K0.000 F360.000
G2 X-25.403 Y43.209 Z-3.000 I-0.739 J-1.305 K0.000 F360.000
G3 X-29.387 Y43.784 Z-3.000 I-110.653 J-753.364 K0.000 F360.000
G2 X-30.182 Y44.060 Z-3.000 I0.381 J2.379 K0.000 F360.000
G2 X-30.200 Y44.673 Z-3.000 I3.799 J0.417 K0.000 F360.000
G3 X-28.852 Y45.922 Z-3.000 I-0.737 J2.148 K0.000 F360.000
G3 X-29.808 Y48.579 Z-3.000 I-1.964 J0.793 K0.000 F360.000
G2 X-30.197 Y48.996 Z-3.000 I0.370 J0.733 K0.000 F360.000
G3 X-28.945 Y50.391 Z-3.000 I-1.868 J2.935 K0.000 F360.000
G3 X-28.678 Y52.540 Z-3.000 I-4.123 J1.604 K0.000 F360.000
G3 X-30.196 Y54.986 Z-3.000 I-3.092 J-0.225 K0.000 F360.000
G2 X-29.858 Y55.401 Z-3.000 I0.851 J-0.346 K0.000 F360.000
G3 X-28.697 Y57.068 Z-3.000 I-0.953 J1.902 K0.000 F360.000
G3 X-30.200 Y59.327 Z-3.000 I-2.177 J0.182 K0.000 F360.000
G2 X-30.184 Y59.913 Z-3.000 I3.628 J0.191 K0.000 F360.000
G2 X-29.177 Y60.257 Z-3.000 I1.317 J-2.215 K0.000 F360.000
G3 X-25.411 Y60.783 Z-3.000 I-10.934 J91.911 K0.000 F360.000
G1 X-25.411 Y60.783 Z-6.000 F360.000
G2 X-26.050 Y60.069 Z-6.000 I-1.709 J0.885 K0.000 F360.000
G3 X-27.076 Y57.299 Z-6.000 I0.913 J-1.913 K0.000 F360.000
G3 X-25.506 Y56.068 Z-6.000 I2.067 J1.018 K0.000 F360.000
G2 X-25.212 Y55.940 Z-6.000 I-0.039 J-0.495 K0.000 F360.000
G2 X-25.207 Y55.838 Z-6.000 I-0.024 J-0.052 K0.000 F360.000
G3 X-27.556 Y53.150 Z-6.000 I1.789 J-3.934 K0.000 F360.000
G3 X-27.666 Y51.217 Z-6.000 I3.086 J-1.145 K0.000 F360.000
G3 X-25.180 Y48.154 Z-6.000 I4.198 J0.867 K0.000 F360.000
G2 X-25.219 Y48.037 Z-6.000 I-0.349 J0.052 K0.000 F360.000
G2 X-25.442 Y47.956 Z-6.000 I-4.634 J12.374 K0.000 F360.000
G3 X-27.147 Y46.503 Z-6.000 I0.448 J-2.253 K0.000 F360.000
G3 X-26.031 Y43.898 Z-6.000 I2.049 J-0.664 K0.000 F360.000
G2 X-25.403 Y43.209 Z-6.000 I-0.739 J-1.305 K0.000 F360.000
G3 X-29.387 Y43.784 Z-6.000 I-110.653 J-753.364 K0.000 F360.000
G2 X-30.182 Y44.060 Z-6.000 I0.381 J2.379 K0.000 F360.000
G2 X-30.200 Y44.673 Z-6.000 I3.799 J0.417 K0.000 F360.000
G3 X-28.852 Y45.922 Z-6.000 I-0.737 J2.148 K0.000 F360.000
G3 X-29.808 Y48.579 Z-6.000 I-1.964 J0.793 K0.000 F360.000
G2 X-30.197 Y48.996 Z-6.000 I0.370 J0.733 K0.000 F360.000
G3 X-28.945 Y50.391 Z-6.000 I-1.868 J2.935 K0.000 F360.000
G3 X-28.678 Y52.540 Z-6.000 I-4.123 J1.604 K0.000 F360.000
G3 X-30.196 Y54.986 Z-6.000 I-3.092 J-0.225 K0.000 F360.000
G2 X-29.858 Y55.401 Z-6.000 I0.851 J-0.346 K0.000 F360.000
G3 X-28.697 Y57.068 Z-6.000 I-0.953 J1.902 K0.000 F360.000
G3 X-30.200 Y59.327 Z-6.000 I-2.177 J0.182 K0.000 F360.000
G2 X-30.184 Y59.913 Z-6.000 I3.628 J0.191 K0.000 F360.000
G2 X-29.177 Y60.257 Z-6.000 I1.317 J-2.215 K0.000 F360.000
G3 X-25.411 Y60.783 Z-6.000 I-10.934 J91.911 K0.000 F360.000
G0 Z25.000
G0 Z25.000
(Finish operation: Profile006)
(Begin operation: Profile007)
(Path: Profile007)
(Profile007)
(Compensated Tool Path. Diameter: 3.0)
G0 Z5.000
G0 X15.195 Y59.163
G0 Z3.000
G1 X15.195 Y59.163 Z-3.000 F360.000
G2 X15.283 Y59.103 Z-3.000 I-1.057 J-1.635 K0.000 F360.000
G2 X15.359 Y58.791 Z-3.000 I-0.101 J-0.189 K0.000 F360.000
G2 X14.365 Y58.241 Z-3.000 I-1.079 J0.777 K0.000 F360.000
G2 X12.783 Y58.648 Z-3.000 I-0.396 J1.736 K0.000 F360.000
G2 X12.734 Y58.878 Z-3.000 I0.138 J0.150 K0.000 F360.000
G2 X15.195 Y59.163 Z-3.000 I1.403 J-1.350 K0.000 F360.000
G1 X15.195 Y59.163 Z-6.000 F360.000
G2 X15.283 Y59.103 Z-6.000 I-1.057 J-1.635 K0.000 F360.000
G2 X15.359 Y58.791 Z-6.000 I-0.101 J-0.189 K0.000 F360.000
G2 X14.365 Y58.241 Z-6.000 I-1.079 J0.777 K0.000 F360.000
G2 X12.783 Y58.648 Z-6.000 I-0.396 J1.736 K0.000 F360.000
G2 X12.734 Y58.878 Z-6.000 I0.138 J0.150 K0.000 F360.000
G2 X15.195 Y59.163 Z-6.000 I1.403 J-1.350 K0.000 F360.000
G0 Z5.000
G0 Z5.000
(Finish operation: Profile007)
(Begin operation: Profile008)
(Path: Profile008)
(Profile008)
(Compensated Tool Path. Diameter: 3.0)
G0 Z5.000
G0 X15.130 Y45.453
G0 Z3.000
G1 X15.130 Y45.453 Z-3.000 F360.000
G2 X15.283 Y45.318 Z-3.000 I-0.975 J-1.263 K0.000 F360.000
G2 X15.370 Y44.988 Z-3.000 I-0.138 J-0.213 K0.000 F360.000
G2 X14.808 Y44.640 Z-3.000 I-0.829 J0.712 K0.000 F360.000
G2 X12.861 Y44.990 Z-3.000 I-0.689 J1.756 K0.000 F360.000
G2 X12.733 Y45.281 Z-3.000 I0.098 J0.217 K0.000 F360.000
G2 X14.226 Y45.784 Z-3.000 I1.247 J-1.233 K0.000 F360.000
G2 X15.130 Y45.453 Z-3.000 I-0.070 J-1.594 K0.000 F360.000
G1 X15.130 Y45.453 Z-6.000 F360.000
G2 X15.283 Y45.318 Z-6.000 I-0.975 J-1.263 K0.000 F360.000
G2 X15.370 Y44.988 Z-6.000 I-0.138 J-0.213 K0.000 F360.000
G2 X14.808 Y44.640 Z-6.000 I-0.829 J0.712 K0.000 F360.000
G2 X12.861 Y44.990 Z-6.000 I-0.689 J1.756 K0.000 F360.000
G2 X12.733 Y45.281 Z-6.000 I0.098 J0.217 K0.000 F360.000
G2 X14.226 Y45.784 Z-6.000 I1.247 J-1.233 K0.000 F360.000
G2 X15.130 Y45.453 Z-6.000 I-0.070 J-1.594 K0.000 F360.000
G0 Z5.000
G0 Z5.000
(Finish operation: Profile008)
(Begin operation: Profile009)
(Path: Profile009)
(Profile009)
(Compensated Tool Path. Diameter: 3.0)
G0 Z5.000
G0 X26.589 Y60.783
G0 Z3.000
G1 X26.589 Y60.783 Z-3.000 F360.000
G2 X25.950 Y60.069 Z-3.000 I-1.709 J0.885 K0.000 F360.000
G3 X24.924 Y57.299 Z-3.000 I0.913 J-1.913 K0.000 F360.000
G3 X26.494 Y56.068 Z-3.000 I2.067 J1.018 K0.000 F360.000
G2 X26.788 Y55.940 Z-3.000 I-0.039 J-0.495 K0.000 F360.000
G2 X26.793 Y55.838 Z-3.000 I-0.024 J-0.052 K0.000 F360.000
G3 X24.444 Y53.150 Z-3.000 I1.789 J-3.934 K0.000 F360.000
G3 X24.334 Y51.217 Z-3.000 I3.086 J-1.145 K0.000 F360.000
G3 X26.820 Y48.154 Z-3.000 I4.198 J0.867 K0.000 F360.000
G2 X26.781 Y48.037 Z-3.000 I-0.349 J0.052 K0.000 F360.000
G2 X26.558 Y47.956 Z-3.000 I-4.632 J12.369 K0.000 F360.000
G3 X24.853 Y46.503 Z-3.000 I0.448 J-2.253 K0.000 F360.000
G3 X25.969 Y43.898 Z-3.000 I2.049 J-0.664 K0.000 F360.000
G2 X26.597 Y43.209 Z-3.000 I-0.739 J-1.305 K0.000 F360.000
G3 X22.613 Y43.784 Z-3.000 I-110.653 J-753.364 K0.000 F360.000
G2 X21.818 Y44.060 Z-3.000 I0.381 J2.379 K0.000 F360.000
G2 X21.800 Y44.673 Z-3.000 I3.799 J0.417 K0.000 F360.000
G3 X23.148 Y45.922 Z-3.000 I-0.737 J2.148 K0.000 F360.000
G3 X22.192 Y48.579 Z-3.000 I-1.964 J0.793 K0.000 F360.000
G2 X21.803 Y48.996 Z-3.000 I0.370 J0.733 K0.000 F360.000
G3 X23.055 Y50.391 Z-3.000 I-1.868 J2.935 K0.000 F360.000
G3 X23.322 Y52.540 Z-3.000 I-4.123 J1.604 K0.000 F360.000
G3 X21.804 Y54.986 Z-3.000 I-3.092 J-0.225 K0.000 F360.000
G2 X22.142 Y55.401 Z-3.000 I0.851 J-0.346 K0.000 F360.000
G3 X23.303 Y57.068 Z-3.000 I-0.953 J1.902 K0.000 F360.000
G3 X21.800 Y59.327 Z-3.000 I-2.177 J0.182 K0.000 F360.000
G2 X21.816 Y59.913 Z-3.000 I3.628 J0.191 K0.000 F360.000
G2 X22.823 Y60.257 Z-3.000 I1.317 J-2.215 K0.000 F360.000
G3 X26.589 Y60.783 Z-3.000 I-10.934 J91.911 K0.000 F360.000
G1 X26.589 Y60.783 Z-6.000 F360.000
G2 X25.950 Y60.069 Z-6.000 I-1.709 J0.885 K0.000 F360.000
G3 X24.924 Y57.299 Z-6.000 I0.913 J-1.913 K0.000 F360.000
G3 X26.494 Y56.068 Z-6.000 I2.067 J1.018 K0.000 F360.000
G2 X26.788 Y55.940 Z-6.000 I-0.039 J-0.495 K0.000 F360.000
G2 X26.793 Y55.838 Z-6.000 I-0.024 J-0.052 K0.000 F360.000
G3 X24.444 Y53.150 Z-6.000 I1.789 J-3.934 K0.000 F360.000
G3 X24.334 Y51.217 Z-6.000 I3.086 J-1.145 K0.000 F360.000
G3 X26.820 Y48.154 Z-6.000 I4.198 J0.867 K0.000 F360.000
G2 X26.781 Y48.037 Z-6.000 I-0.349 J0.052 K0.000 F360.000
G2 X26.558 Y47.956 Z-6.000 I-4.632 J12.369 K0.000 F360.000
G3 X24.853 Y46.503 Z-6.000 I0.448 J-2.253 K0.000 F360.000
G3 X25.969 Y43.898 Z-6.000 I2.049 J-0.664 K0.000 F360.000
G2 X26.597 Y43.209 Z-6.000 I-0.739 J-1.305 K0.000 F360.000
G3 X22.613 Y43.784 Z-6.000 I-110.653 J-753.364 K0.000 F360.000
G2 X21.818 Y44.060 Z-6.000 I0.381 J2.379 K0.000 F360.000
G2 X21.800 Y44.673 Z-6.000 I3.799 J0.417 K0.000 F360.000
G3 X23.148 Y45.922 Z-6.000 I-0.737 J2.148 K0.000 F360.000
G3 X22.192 Y48.579 Z-6.000 I-1.964 J0.793 K0.000 F360.000
G2 X21.803 Y48.996 Z-6.000 I0.370 J0.733 K0.000 F360.000
G3 X23.055 Y50.391 Z-6.000 I-1.868 J2.935 K0.000 F360.000
G3 X23.322 Y52.540 Z-6.000 I-4.123 J1.604 K0.000 F360.000
G3 X21.804 Y54.986 Z-6.000 I-3.092 J-0.225 K0.000 F360.000
G2 X22.142 Y55.401 Z-6.000 I0.851 J-0.346 K0.000 F360.000
G3 X23.303 Y57.068 Z-6.000 I-0.953 J1.902 K0.000 F360.000
G3 X21.800 Y59.327 Z-6.000 I-2.177 J0.182 K0.000 F360.000
G2 X21.816 Y59.913 Z-6.000 I3.628 J0.191 K0.000 F360.000
G2 X22.823 Y60.257 Z-6.000 I1.317 J-2.215 K0.000 F360.000
G3 X26.589 Y60.783 Z-6.000 I-10.934 J91.911 K0.000 F360.000
G0 Z5.000
G0 Z5.000
(Finish operation: Profile009)
(Begin operation: Profile010)
(Path: Profile010)
(Profile010)
(Compensated Tool Path. Diameter: 3.0)
G0 Z5.000
G0 X67.195 Y59.163
G0 Z3.000
G1 X67.195 Y59.163 Z-3.000 F360.000
G2 X67.283 Y59.103 Z-3.000 I-1.057 J-1.635 K0.000 F360.000
G2 X67.359 Y58.791 Z-3.000 I-0.101 J-0.189 K0.000 F360.000
G2 X66.365 Y58.241 Z-3.000 I-1.079 J0.777 K0.000 F360.000
G2 X64.783 Y58.648 Z-3.000 I-0.396 J1.736 K0.000 F360.000
G2 X64.734 Y58.878 Z-3.000 I0.138 J0.150 K0.000 F360.000
G2 X67.195 Y59.163 Z-3.000 I1.403 J-1.350 K0.000 F360.000
G1 X67.195 Y59.163 Z-6.000 F360.000
G2 X67.283 Y59.103 Z-6.000 I-1.057 J-1.635 K0.000 F360.000
G2 X67.359 Y58.791 Z-6.000 I-0.101 J-0.189 K0.000 F360.000
G2 X66.365 Y58.241 Z-6.000 I-1.079 J0.777 K0.000 F360.000
G2 X64.783 Y58.648 Z-6.000 I-0.396 J1.736 K0.000 F360.000
G2 X64.734 Y58.878 Z-6.000 I0.138 J0.150 K0.000 F360.000
G2 X67.195 Y59.163 Z-6.000 I1.403 J-1.350 K0.000 F360.000
G0 Z5.000
G0 Z5.000
(Finish operation: Profile010)
(Begin operation: Profile011)
(Path: Profile011)
(Profile011)
(Compensated Tool Path. Diameter: 3.0)
G0 Z5.000
G0 X67.130 Y45.453
G0 Z3.000
G1 X67.130 Y45.453 Z-3.000 F360.000
G2 X67.283 Y45.318 Z-3.000 I-0.975 J-1.263 K0.000 F360.000
G2 X67.370 Y44.988 Z-3.000 I-0.138 J-0.213 K0.000 F360.000
G2 X66.808 Y44.640 Z-3.000 I-0.829 J0.712 K0.000 F360.000
G2 X64.861 Y44.990 Z-3.000 I-0.689 J1.756 K0.000 F360.000
G2 X64.733 Y45.281 Z-3.000 I0.098 J0.217 K0.000 F360.000
G2 X66.226 Y45.784 Z-3.000 I1.247 J-1.233 K0.000 F360.000
G2 X67.130 Y45.453 Z-3.000 I-0.070 J-1.594 K0.000 F360.000
G1 X67.130 Y45.453 Z-6.000 F360.000
G2 X67.283 Y45.318 Z-6.000 I-0.975 J-1.263 K0.000 F360.000
G2 X67.370 Y44.988 Z-6.000 I-0.138 J-0.213 K0.000 F360.000
G2 X66.808 Y44.640 Z-6.000 I-0.829 J0.712 K0.000 F360.000
G2 X64.861 Y44.990 Z-6.000 I-0.689 J1.756 K0.000 F360.000
G2 X64.733 Y45.281 Z-6.000 I0.098 J0.217 K0.000 F360.000
G2 X66.226 Y45.784 Z-6.000 I1.247 J-1.233 K0.000 F360.000
G2 X67.130 Y45.453 Z-6.000 I-0.070 J-1.594 K0.000 F360.000
G0 Z5.000
G0 Z5.000
(Finish operation: Profile011)
(Begin operation: Profile012)
(Path: Profile012)
(Profile012)
(Compensated Tool Path. Diameter: 3.0)
G0 Z5.000
G0 X78.589 Y60.783
G0 Z3.000
G1 X78.589 Y60.783 Z-3.000 F360.000
G2 X77.950 Y60.069 Z-3.000 I-1.709 J0.885 K0.000 F360.000
G3 X76.924 Y57.299 Z-3.000 I0.913 J-1.913 K0.000 F360.000
G3 X78.494 Y56.068 Z-3.000 I2.067 J1.018 K0.000 F360.000
G2 X78.788 Y55.940 Z-3.000 I-0.039 J-0.495 K0.000 F360.000
G2 X78.793 Y55.838 Z-3.000 I-0.024 J-0.052 K0.000 F360.000
G3 X76.444 Y53.150 Z-3.000 I1.789 J-3.934 K0.000 F360.000
G3 X76.334 Y51.217 Z-3.000 I3.086 J-1.145 K0.000 F360.000
G3 X78.820 Y48.154 Z-3.000 I4.198 J0.867 K0.000 F360.000
G2 X78.781 Y48.037 Z-3.000 I-0.349 J0.052 K0.000 F360.000
G2 X78.558 Y47.956 Z-3.000 I-4.630 J12.365 K0.000 F360.000
G3 X76.853 Y46.503 Z-3.000 I0.448 J-2.253 K0.000 F360.000
G3 X77.969 Y43.898 Z-3.000 I2.049 J-0.664 K0.000 F360.000
G2 X78.597 Y43.209 Z-3.000 I-0.739 J-1.305 K0.000 F360.000
G3 X74.613 Y43.784 Z-3.000 I-110.653 J-753.364 K0.000 F360.000
G2 X73.818 Y44.060 Z-3.000 I0.381 J2.379 K0.000 F360.000
G2 X73.800 Y44.673 Z-3.000 I3.799 J0.417 K0.000 F360.000
G3 X75.148 Y45.922 Z-3.000 I-0.737 J2.148 K0.000 F360.000
G3 X74.192 Y48.579 Z-3.000 I-1.964 J0.793 K0.000 F360.000
G2 X73.803 Y48.996 Z-3.000 I0.370 J0.733 K0.000 F360.000
G3 X75.055 Y50.391 Z-3.000 I-1.868 J2.935 K0.000 F360.000
G3 X75.322 Y52.540 Z-3.000 I-4.123 J1.604 K0.000 F360.000
G3 X73.804 Y54.986 Z-3.000 I-3.092 J-0.225 K0.000 F360.000
G2 X74.142 Y55.401 Z-3.000 I0.851 J-0.346 K0.000 F360.000
G3 X75.303 Y57.068 Z-3.000 I-0.953 J1.902 K0.000 F360.000
G3 X73.800 Y59.327 Z-3.000 I-2.177 J0.182 K0.000 F360.000
G2 X73.816 Y59.913 Z-3.000 I3.628 J0.191 K0.000 F360.000
G2 X74.823 Y60.257 Z-3.000 I1.317 J-2.215 K0.000 F360.000
G3 X78.589 Y60.783 Z-3.000 I-10.934 J91.911 K0.000 F360.000
G1 X78.589 Y60.783 Z-6.000 F360.000
G2 X77.950 Y60.069 Z-6.000 I-1.709 J0.885 K0.000 F360.000
G3 X76.924 Y57.299 Z-6.000 I0.913 J-1.913 K0.000 F360.000
G3 X78.494 Y56.068 Z-6.000 I2.067 J1.018 K0.000 F360.000
G2 X78.788 Y55.940 Z-6.000 I-0.039 J-0.495 K0.000 F360.000
G2 X78.793 Y55.838 Z-6.000 I-0.024 J-0.052 K0.000 F360.000
G3 X76.444 Y53.150 Z-6.000 I1.789 J-3.934 K0.000 F360.000
G3 X76.334 Y51.217 Z-6.000 I3.086 J-1.145 K0.000 F360.000
G3 X78.820 Y48.154 Z-6.000 I4.198 J0.867 K0.000 F360.000
G2 X78.781 Y48.037 Z-6.000 I-0.349 J0.052 K0.000 F360.000
G2 X78.558 Y47.956 Z-6.000 I-4.630 J12.365 K0.000 F360.000
G3 X76.853 Y46.503 Z-6.000 I0.448 J-2.253 K0.000 F360.000
G3 X77.969 Y43.898 Z-6.000 I2.049 J-0.664 K0.000 F360.000
G2 X78.597 Y43.209 Z-6.000 I-0.739 J-1.305 K0.000 F360.000
G3 X74.613 Y43.784 Z-6.000 I-110.653 J-753.364 K0.000 F360.000
G2 X73.818 Y44.060 Z-6.000 I0.381 J2.379 K0.000 F360.000
G2 X73.800 Y44.673 Z-6.000 I3.799 J0.417 K0.000 F360.000
G3 X75.148 Y45.922 Z-6.000 I-0.737 J2.148 K0.000 F360.000
G3 X74.192 Y48.579 Z-6.000 I-1.964 J0.793 K0.000 F360.000
G2 X73.803 Y48.996 Z-6.000 I0.370 J0.733 K0.000 F360.000
G3 X75.055 Y50.391 Z-6.000 I-1.868 J2.935 K0.000 F360.000
G3 X75.322 Y52.540 Z-6.000 I-4.123 J1.604 K0.000 F360.000
G3 X73.804 Y54.986 Z-6.000 I-3.092 J-0.225 K0.000 F360.000
G2 X74.142 Y55.401 Z-6.000 I0.851 J-0.346 K0.000 F360.000
G3 X75.303 Y57.068 Z-6.000 I-0.953 J1.902 K0.000 F360.000
G3 X73.800 Y59.327 Z-6.000 I-2.177 J0.182 K0.000 F360.000
G2 X73.816 Y59.913 Z-6.000 I3.628 J0.191 K0.000 F360.000
G2 X74.823 Y60.257 Z-6.000 I1.317 J-2.215 K0.000 F360.000
G3 X78.589 Y60.783 Z-6.000 I-10.934 J91.911 K0.000 F360.000
G0 Z5.000
G0 Z5.000
(Finish operation: Profile012)
(Begin operation: Profile013)
(Path: Profile013)
(Profile013)
(Compensated Tool Path. Diameter: 3.0)
G0 Z5.000
G0 X78.589 Y8.783
G0 Z3.000
G1 X78.589 Y8.783 Z-3.000 F360.000
G2 X77.950 Y8.069 Z-3.000 I-1.709 J0.885 K0.000 F360.000
G3 X76.924 Y5.299 Z-3.000 I0.913 J-1.913 K0.000 F360.000
G3 X78.494 Y4.068 Z-3.000 I2.067 J1.018 K0.000 F360.000
G2 X78.788 Y3.940 Z-3.000 I-0.039 J-0.495 K0.000 F360.000
G2 X78.793 Y3.838 Z-3.000 I-0.024 J-0.052 K0.000 F360.000
G3 X76.444 Y1.150 Z-3.000 I1.789 J-3.934 K0.000 F360.000
G3 X76.334 Y-0.783 Z-3.000 I3.086 J-1.145 K0.000 F360.000
G3 X78.820 Y-3.846 Z-3.000 I4.198 J0.867 K0.000 F360.000
G2 X78.781 Y-3.963 Z-3.000 I-0.349 J0.052 K0.000 F360.000
G2 X78.558 Y-4.044 Z-3.000 I-4.630 J12.365 K0.000 F360.000
G3 X76.853 Y-5.497 Z-3.000 I0.448 J-2.253 K0.000 F360.000
G3 X77.969 Y-8.102 Z-3.000 I2.049 J-0.664 K0.000 F360.000
G2 X78.597 Y-8.791 Z-3.000 I-0.739 J-1.305 K0.000 F360.000
G3 X74.613 Y-8.216 Z-3.000 I-110.653 J-753.364 K0.000 F360.000
G2 X73.818 Y-7.940 Z-3.000 I0.381 J2.379 K0.000 F360.000
G2 X73.800 Y-7.327 Z-3.000 I3.799 J0.417 K0.000 F360.000
G3 X75.148 Y-6.078 Z-3.000 I-0.737 J2.148 K0.000 F360.000
G3 X74.192 Y-3.421 Z-3.000 I-1.964 J0.793 K0.000 F360.000
G2 X73.803 Y-3.004 Z-3.000 I0.370 J0.733 K0.000 F360.000
G3 X75.055 Y-1.609 Z-3.000 I-1.868 J2.935 K0.000 F360.000
G3 X75.322 Y0.540 Z-3.000 I-4.123 J1.604 K0.000 F360.000
G3 X73.804 Y2.986 Z-3.000 I-3.092 J-0.225 K0.000 F360.000
G2 X74.142 Y3.401 Z-3.000 I0.851 J-0.346 K0.000 F360.000
G3 X75.303 Y5.068 Z-3.000 I-0.953 J1.902 K0.000 F360.000
G3 X73.800 Y7.327 Z-3.000 I-2.177 J0.182 K0.000 F360.000
G2 X73.816 Y7.913 Z-3.000 I3.628 J0.191 K0.000 F360.000
G2 X74.823 Y8.257 Z-3.000 I1.317 J-2.215 K0.000 F360.000
G3 X78.589 Y8.783 Z-3.000 I-10.934 J91.911 K0.000 F360.000
G1 X78.589 Y8.783 Z-6.000 F360.000
G2 X77.950 Y8.069 Z-6.000 I-1.709 J0.885 K0.000 F360.000
G3 X76.924 Y5.299 Z-6.000 I0.913 J-1.913 K0.000 F360.000
G3 X78.494 Y4.068 Z-6.000 I2.067 J1.018 K0.000 F360.000
G2 X78.788 Y3.940 Z-6.000 I-0.039 J-0.495 K0.000 F360.000
G2 X78.793 Y3.838 Z-6.000 I-0.024 J-0.052 K0.000 F360.000
G3 X76.444 Y1.150 Z-6.000 I1.789 J-3.934 K0.000 F360.000
G3 X76.334 Y-0.783 Z-6.000 I3.086 J-1.145 K0.000 F360.000
G3 X78.820 Y-3.846 Z-6.000 I4.198 J0.867 K0.000 F360.000
G2 X78.781 Y-3.963 Z-6.000 I-0.349 J0.052 K0.000 F360.000
G2 X78.558 Y-4.044 Z-6.000 I-4.630 J12.365 K0.000 F360.000
G3 X76.853 Y-5.497 Z-6.000 I0.448 J-2.253 K0.000 F360.000
G3 X77.969 Y-8.102 Z-6.000 I2.049 J-0.664 K0.000 F360.000
G2 X78.597 Y-8.791 Z-6.000 I-0.739 J-1.305 K0.000 F360.000
G3 X74.613 Y-8.216 Z-6.000 I-110.653 J-753.364 K0.000 F360.000
G2 X73.818 Y-7.940 Z-6.000 I0.381 J2.379 K0.000 F360.000
G2 X73.800 Y-7.327 Z-6.000 I3.799 J0.417 K0.000 F360.000
G3 X75.148 Y-6.078 Z-6.000 I-0.737 J2.148 K0.000 F360.000
G3 X74.192 Y-3.421 Z-6.000 I-1.964 J0.793 K0.000 F360.000
G2 X73.803 Y-3.004 Z-6.000 I0.370 J0.733 K0.000 F360.000
G3 X75.055 Y-1.609 Z-6.000 I-1.868 J2.935 K0.000 F360.000
G3 X75.322 Y0.540 Z-6.000 I-4.123 J1.604 K0.000 F360.000
G3 X73.804 Y2.986 Z-6.000 I-3.092 J-0.225 K0.000 F360.000
G2 X74.142 Y3.401 Z-6.000 I0.851 J-0.346 K0.000 F360.000
G3 X75.303 Y5.068 Z-6.000 I-0.953 J1.902 K0.000 F360.000
G3 X73.800 Y7.327 Z-6.000 I-2.177 J0.182 K0.000 F360.000
G2 X73.816 Y7.913 Z-6.000 I3.628 J0.191 K0.000 F360.000
G2 X74.823 Y8.257 Z-6.000 I1.317 J-2.215 K0.000 F360.000
G3 X78.589 Y8.783 Z-6.000 I-10.934 J91.911 K0.000 F360.000
G0 Z5.000
G0 Z5.000
(Finish operation: Profile013)
(Begin operation: Profile014)
(Path: Profile014)
(Profile014)
(Compensated Tool Path. Diameter: 3.0)
G0 Z5.000
G0 X67.130 Y-6.547
G0 Z3.000
G1 X67.130 Y-6.547 Z-3.000 F360.000
G2 X67.283 Y-6.682 Z-3.000 I-0.975 J-1.263 K0.000 F360.000
G2 X67.370 Y-7.012 Z-3.000 I-0.138 J-0.213 K0.000 F360.000
G2 X66.808 Y-7.360 Z-3.000 I-0.829 J0.712 K0.000 F360.000
G2 X64.861 Y-7.010 Z-3.000 I-0.689 J1.756 K0.000 F360.000
G2 X64.733 Y-6.719 Z-3.000 I0.098 J0.217 K0.000 F360.000
G2 X66.226 Y-6.216 Z-3.000 I1.247 J-1.233 K0.000 F360.000
G2 X67.130 Y-6.547 Z-3.000 I-0.070 J-1.594 K0.000 F360.000
G1 X67.130 Y-6.547 Z-6.000 F360.000
G2 X67.283 Y-6.682 Z-6.000 I-0.975 J-1.263 K0.000 F360.000
G2 X67.370 Y-7.012 Z-6.000 I-0.138 J-0.213 K0.000 F360.000
G2 X66.808 Y-7.360 Z-6.000 I-0.829 J0.712 K0.000 F360.000
G2 X64.861 Y-7.010 Z-6.000 I-0.689 J1.756 K0.000 F360.000
G2 X64.733 Y-6.719 Z-6.000 I0.098 J0.217 K0.000 F360.000
G2 X66.226 Y-6.216 Z-6.000 I1.247 J-1.233 K0.000 F360.000
G2 X67.130 Y-6.547 Z-6.000 I-0.070 J-1.594 K0.000 F360.000
G0 Z5.000
G0 Z5.000
(Finish operation: Profile014)
(Begin operation: Profile015)
(Path: Profile015)
(Profile015)
(Compensated Tool Path. Diameter: 3.0)
G0 Z5.000
G0 X67.195 Y7.163
G0 Z3.000
G1 X67.195 Y7.163 Z-3.000 F360.000
G2 X67.283 Y7.103 Z-3.000 I-1.057 J-1.635 K0.000 F360.000
G2 X67.359 Y6.791 Z-3.000 I-0.101 J-0.189 K0.000 F360.000
G2 X66.365 Y6.241 Z-3.000 I-1.079 J0.777 K0.000 F360.000
G2 X64.783 Y6.648 Z-3.000 I-0.396 J1.736 K0.000 F360.000
G2 X64.734 Y6.878 Z-3.000 I0.138 J0.150 K0.000 F360.000
G2 X67.195 Y7.163 Z-3.000 I1.403 J-1.350 K0.000 F360.000
G1 X67.195 Y7.163 Z-6.000 F360.000
G2 X67.283 Y7.103 Z-6.000 I-1.057 J-1.635 K0.000 F360.000
G2 X67.359 Y6.791 Z-6.000 I-0.101 J-0.189 K0.000 F360.000
G2 X66.365 Y6.241 Z-6.000 I-1.079 J0.777 K0.000 F360.000
G2 X64.783 Y6.648 Z-6.000 I-0.396 J1.736 K0.000 F360.000
G2 X64.734 Y6.878 Z-6.000 I0.138 J0.150 K0.000 F360.000
G2 X67.195 Y7.163 Z-6.000 I1.403 J-1.350 K0.000 F360.000
G0 Z5.000
G0 Z5.000
(Finish operation: Profile015)
(Begin operation: Profile016)
(Path: Profile016)
(Profile016)
(Compensated Tool Path. Diameter: 3.0)
G0 Z5.000
G0 X67.195 Y-44.837
G0 Z3.000
G1 X67.195 Y-44.837 Z-3.000 F360.000
G2 X67.283 Y-44.897 Z-3.000 I-1.057 J-1.635 K0.000 F360.000
G2 X67.359 Y-45.209 Z-3.000 I-0.101 J-0.189 K0.000 F360.000
G2 X66.365 Y-45.759 Z-3.000 I-1.079 J0.777 K0.000 F360.000
G2 X64.783 Y-45.352 Z-3.000 I-0.396 J1.736 K0.000 F360.000
G2 X64.734 Y-45.122 Z-3.000 I0.138 J0.150 K0.000 F360.000
G2 X67.195 Y-44.837 Z-3.000 I1.403 J-1.350 K0.000 F360.000
G1 X67.195 Y-44.837 Z-6.000 F360.000
G2 X67.283 Y-44.897 Z-6.000 I-1.057 J-1.635 K0.000 F360.000
G2 X67.359 Y-45.209 Z-6.000 I-0.101 J-0.189 K0.000 F360.000
G2 X66.365 Y-45.759 Z-6.000 I-1.079 J0.777 K0.000 F360.000
G2 X64.783 Y-45.352 Z-6.000 I-0.396 J1.736 K0.000 F360.000
G2 X64.734 Y-45.122 Z-6.000 I0.138 J0.150 K0.000 F360.000
G2 X67.195 Y-44.837 Z-6.000 I1.403 J-1.350 K0.000 F360.000
G0 Z5.000
G0 Z5.000
(Finish operation: Profile016)
(Begin operation: Profile017)
(Path: Profile017)
(Profile017)
(Compensated Tool Path. Diameter: 3.0)
G0 Z5.000
G0 X78.589 Y-43.217
G0 Z3.000
G1 X78.589 Y-43.217 Z-3.000 F360.000
G2 X77.950 Y-43.931 Z-3.000 I-1.709 J0.885 K0.000 F360.000
G3 X76.924 Y-46.701 Z-3.000 I0.913 J-1.913 K0.000 F360.000
G3 X78.494 Y-47.932 Z-3.000 I2.067 J1.018 K0.000 F360.000
G2 X78.788 Y-48.060 Z-3.000 I-0.039 J-0.495 K0.000 F360.000
G2 X78.793 Y-48.162 Z-3.000 I-0.024 J-0.052 K0.000 F360.000
G3 X76.444 Y-50.850 Z-3.000 I1.789 J-3.934 K0.000 F360.000
G3 X76.334 Y-52.783 Z-3.000 I3.086 J-1.145 K0.000 F360.000
G3 X78.820 Y-55.846 Z-3.000 I4.198 J0.867 K0.000 F360.000
G2 X78.781 Y-55.963 Z-3.000 I-0.349 J0.052 K0.000 F360.000
G2 X78.558 Y-56.044 Z-3.000 I-4.630 J12.365 K0.000 F360.000
G3 X76.853 Y-57.497 Z-3.000 I0.448 J-2.253 K0.000 F360.000
G3 X77.969 Y-60.102 Z-3.000 I2.049 J-0.664 K0.000 F360.000
G2 X78.597 Y-60.791 Z-3.000 I-0.739 J-1.305 K0.000 F360.000
G3 X74.613 Y-60.216 Z-3.000 I-110.653 J-753.364 K0.000 F360.000
G2 X73.818 Y-59.940 Z-3.000 I0.381 J2.379 K0.000 F360.000
G2 X73.800 Y-59.327 Z-3.000 I3.799 J0.417 K0.000 F360.000
G3 X75.148 Y-58.078 Z-3.000 I-0.737 J2.148 K0.000 F360.000
G3 X74.192 Y-55.421 Z-3.000 I-1.964 J0.793 K0.000 F360.000
G2 X73.803 Y-55.004 Z-3.000 I0.370 J0.733 K0.000 F360.000
G3 X75.055 Y-53.609 Z-3.000 I-1.868 J2.935 K0.000 F360.000
G3 X75.322 Y-51.460 Z-3.000 I-4.123 J1.604 K0.000 F360.000
G3 X73.804 Y-49.014 Z-3.000 I-3.092 J-0.225 K0.000 F360.000
G2 X74.142 Y-48.599 Z-3.000 I0.851 J-0.346 K0.000 F360.000
G3 X75.303 Y-46.932 Z-3.000 I-0.953 J1.902 K0.000 F360.000
G3 X73.800 Y-44.673 Z-3.000 I-2.177 J0.182 K0.000 F360.000
G2 X73.816 Y-44.087 Z-3.000 I3.628 J0.191 K0.000 F360.000
G2 X74.823 Y-43.743 Z-3.000 I1.317 J-2.215 K0.000 F360.000
G3 X78.589 Y-43.217 Z-3.000 I-10.934 J91.911 K0.000 F360.000
G1 X78.589 Y-43.217 Z-6.000 F360.000
G2 X77.950 Y-43.931 Z-6.000 I-1.709 J0.885 K0.000 F360.000
G3 X76.924 Y-46.701 Z-6.000 I0.913 J-1.913 K0.000 F360.000
G3 X78.494 Y-47.932 Z-6.000 I2.067 J1.018 K0.000 F360.000
G2 X78.788 Y-48.060 Z-6.000 I-0.039 J-0.495 K0.000 F360.000
G2 X78.793 Y-48.162 Z-6.000 I-0.024 J-0.052 K0.000 F360.000
G3 X76.444 Y-50.850 Z-6.000 I1.789 J-3.934 K0.000 F360.000
G3 X76.334 Y-52.783 Z-6.000 I3.086 J-1.145 K0.000 F360.000
G3 X78.820 Y-55.846 Z-6.000 I4.198 J0.867 K0.000 F360.000
G2 X78.781 Y-55.963 Z-6.000 I-0.349 J0.052 K0.000 F360.000
G2 X78.558 Y-56.044 Z-6.000 I-4.630 J12.365 K0.000 F360.000
G3 X76.853 Y-57.497 Z-6.000 I0.448 J-2.253 K0.000 F360.000
G3 X77.969 Y-60.102 Z-6.000 I2.049 J-0.664 K0.000 F360.000
G2 X78.597 Y-60.791 Z-6.000 I-0.739 J-1.305 K0.000 F360.000
G3 X74.613 Y-60.216 Z-6.000 I-110.653 J-753.364 K0.000 F360.000
G2 X73.818 Y-59.940 Z-6.000 I0.381 J2.379 K0.000 F360.000
G2 X73.800 Y-59.327 Z-6.000 I3.799 J0.417 K0.000 F360.000
G3 X75.148 Y-58.078 Z-6.000 I-0.737 J2.148 K0.000 F360.000
G3 X74.192 Y-55.421 Z-6.000 I-1.964 J0.793 K0.000 F360.000
G2 X73.803 Y-55.004 Z-6.000 I0.370 J0.733 K0.000 F360.000
G3 X75.055 Y-53.609 Z-6.000 I-1.868 J2.935 K0.000 F360.000
G3 X75.322 Y-51.460 Z-6.000 I-4.123 J1.604 K0.000 F360.000
G3 X73.804 Y-49.014 Z-6.000 I-3.092 J-0.225 K0.000 F360.000
G2 X74.142 Y-48.599 Z-6.000 I0.851 J-0.346 K0.000 F360.000
G3 X75.303 Y-46.932 Z-6.000 I-0.953 J1.902 K0.000 F360.000
G3 X73.800 Y-44.673 Z-6.000 I-2.177 J0.182 K0.000 F360.000
G2 X73.816 Y-44.087 Z-6.000 I3.628 J0.191 K0.000 F360.000
G2 X74.823 Y-43.743 Z-6.000 I1.317 J-2.215 K0.000 F360.000
G3 X78.589 Y-43.217 Z-6.000 I-10.934 J91.911 K0.000 F360.000
G0 Z5.000
G0 Z5.000
(Finish operation: Profile017)
(Begin operation: Profile018)
(Path: Profile018)
(Profile018)
(Compensated Tool Path. Diameter: 3.0)
G0 Z5.000
G0 X67.130 Y-58.547
G0 Z3.000
G1 X67.130 Y-58.547 Z-3.000 F360.000
G2 X67.283 Y-58.682 Z-3.000 I-0.975 J-1.263 K0.000 F360.000
G2 X67.370 Y-59.012 Z-3.000 I-0.138 J-0.213 K0.000 F360.000
G2 X66.808 Y-59.360 Z-3.000 I-0.829 J0.712 K0.000 F360.000
G2 X64.861 Y-59.010 Z-3.000 I-0.689 J1.756 K0.000 F360.000
G2 X64.733 Y-58.719 Z-3.000 I0.098 J0.217 K0.000 F360.000
G2 X66.226 Y-58.216 Z-3.000 I1.247 J-1.233 K0.000 F360.000
G2 X67.130 Y-58.547 Z-3.000 I-0.070 J-1.594 K0.000 F360.000
G1 X67.130 Y-58.547 Z-6.000 F360.000
G2 X67.283 Y-58.682 Z-6.000 I-0.975 J-1.263 K0.000 F360.000
G2 X67.370 Y-59.012 Z-6.000 I-0.138 J-0.213 K0.000 F360.000
G2 X66.808 Y-59.360 Z-6.000 I-0.829 J0.712 K0.000 F360.000
G2 X64.861 Y-59.010 Z-6.000 I-0.689 J1.756 K0.000 F360.000
G2 X64.733 Y-58.719 Z-6.000 I0.098 J0.217 K0.000 F360.000
G2 X66.226 Y-58.216 Z-6.000 I1.247 J-1.233 K0.000 F360.000
G2 X67.130 Y-58.547 Z-6.000 I-0.070 J-1.594 K0.000 F360.000
G0 Z5.000
G0 Z5.000
(Finish operation: Profile018)
(Begin operation: Profile019)
(Path: Profile019)
(Profile019)
(Compensated Tool Path. Diameter: 3.0)
G0 Z5.000
G0 X26.589 Y-43.217
G0 Z3.000
G1 X26.589 Y-43.217 Z-3.000 F360.000
G2 X25.950 Y-43.931 Z-3.000 I-1.709 J0.885 K0.000 F360.000
G3 X24.924 Y-46.701 Z-3.000 I0.913 J-1.913 K0.000 F360.000
G3 X26.494 Y-47.932 Z-3.000 I2.067 J1.018 K0.000 F360.000
G2 X26.788 Y-48.060 Z-3.000 I-0.039 J-0.495 K0.000 F360.000
G2 X26.793 Y-48.162 Z-3.000 I-0.024 J-0.052 K0.000 F360.000
G3 X24.444 Y-50.850 Z-3.000 I1.789 J-3.934 K0.000 F360.000
G3 X24.334 Y-52.783 Z-3.000 I3.086 J-1.145 K0.000 F360.000
G3 X26.820 Y-55.846 Z-3.000 I4.198 J0.867 K0.000 F360.000
G2 X26.781 Y-55.963 Z-3.000 I-0.349 J0.052 K0.000 F360.000
G2 X26.558 Y-56.044 Z-3.000 I-4.632 J12.369 K0.000 F360.000
G3 X24.853 Y-57.497 Z-3.000 I0.448 J-2.253 K0.000 F360.000
G3 X25.969 Y-60.102 Z-3.000 I2.049 J-0.664 K0.000 F360.000
G2 X26.597 Y-60.791 Z-3.000 I-0.739 J-1.305 K0.000 F360.000
G3 X22.613 Y-60.216 Z-3.000 I-110.653 J-753.364 K0.000 F360.000
G2 X21.818 Y-59.940 Z-3.000 I0.381 J2.379 K0.000 F360.000
G2 X21.800 Y-59.327 Z-3.000 I3.799 J0.417 K0.000 F360.000
G3 X23.148 Y-58.078 Z-3.000 I-0.737 J2.148 K0.000 F360.000
G3 X22.192 Y-55.421 Z-3.000 I-1.964 J0.793 K0.000 F360.000
G2 X21.803 Y-55.004 Z-3.000 I0.370 J0.733 K0.000 F360.000
G3 X23.055 Y-53.609 Z-3.000 I-1.868 J2.935 K0.000 F360.000
G3 X23.322 Y-51.460 Z-3.000 I-4.123 J1.604 K0.000 F360.000
G3 X21.804 Y-49.014 Z-3.000 I-3.092 J-0.225 K0.000 F360.000
G2 X22.142 Y-48.599 Z-3.000 I0.851 J-0.346 K0.000 F360.000
G3 X23.303 Y-46.932 Z-3.000 I-0.953 J1.902 K0.000 F360.000
G3 X21.800 Y-44.673 Z-3.000 I-2.177 J0.182 K0.000 F360.000
G2 X21.816 Y-44.087 Z-3.000 I3.628 J0.191 K0.000 F360.000
G2 X22.823 Y-43.743 Z-3.000 I1.317 J-2.215 K0.000 F360.000
G3 X26.589 Y-43.217 Z-3.000 I-10.934 J91.911 K0.000 F360.000
G1 X26.589 Y-43.217 Z-6.000 F360.000
G2 X25.950 Y-43.931 Z-6.000 I-1.709 J0.885 K0.000 F360.000
G3 X24.924 Y-46.701 Z-6.000 I0.913 J-1.913 K0.000 F360.000
G3 X26.494 Y-47.932 Z-6.000 I2.067 J1.018 K0.000 F360.000
G2 X26.788 Y-48.060 Z-6.000 I-0.039 J-0.495 K0.000 F360.000
G2 X26.793 Y-48.162 Z-6.000 I-0.024 J-0.052 K0.000 F360.000
G3 X24.444 Y-50.850 Z-6.000 I1.789 J-3.934 K0.000 F360.000
G3 X24.334 Y-52.783 Z-6.000 I3.086 J-1.145 K0.000 F360.000
G3 X26.820 Y-55.846 Z-6.000 I4.198 J0.867 K0.000 F360.000
G2 X26.781 Y-55.963 Z-6.000 I-0.349 J0.052 K0.000 F360.000
G2 X26.558 Y-56.044 Z-6.000 I-4.632 J12.369 K0.000 F360.000
G3 X24.853 Y-57.497 Z-6.000 I0.448 J-2.253 K0.000 F360.000
G3 X25.969 Y-60.102 Z-6.000 I2.049 J-0.664 K0.000 F360.000
G2 X26.597 Y-60.791 Z-6.000 I-0.739 J-1.305 K0.000 F360.000
G3 X22.613 Y-60.216 Z-6.000 I-110.653 J-753.364 K0.000 F360.000
G2 X21.818 Y-59.940 Z-6.000 I0.381 J2.379 K0.000 F360.000
G2 X21.800 Y-59.327 Z-6.000 I3.799 J0.417 K0.000 F360.000
G3 X23.148 Y-58.078 Z-6.000 I-0.737 J2.148 K0.000 F360.000
G3 X22.192 Y-55.421 Z-6.000 I-1.964 J0.793 K0.000 F360.000
G2 X21.803 Y-55.004 Z-6.000 I0.370 J0.733 K0.000 F360.000
G3 X23.055 Y-53.609 Z-6.000 I-1.868 J2.935 K0.000 F360.000
G3 X23.322 Y-51.460 Z-6.000 I-4.123 J1.604 K0.000 F360.000
G3 X21.804 Y-49.014 Z-6.000 I-3.092 J-0.225 K0.000 F360.000
G2 X22.142 Y-48.599 Z-6.000 I0.851 J-0.346 K0.000 F360.000
G3 X23.303 Y-46.932 Z-6.000 I-0.953 J1.902 K0.000 F360.000
G3 X21.800 Y-44.673 Z-6.000 I-2.177 J0.182 K0.000 F360.000
G2 X21.816 Y-44.087 Z-6.000 I3.628 J0.191 K0.000 F360.000
G2 X22.823 Y-43.743 Z-6.000 I1.317 J-2.215 K0.000 F360.000
G3 X26.589 Y-43.217 Z-6.000 I-10.934 J91.911 K0.000 F360.000
G0 Z5.000
G0 Z5.000
(Finish operation: Profile019)
(Begin operation: Profile020)
(Path: Profile020)
(Profile020)
(Compensated Tool Path. Diameter: 3.0)
G0 Z5.000
G0 X15.130 Y-58.547
G0 Z3.000
G1 X15.130 Y-58.547 Z-3.000 F360.000
G2 X15.283 Y-58.682 Z-3.000 I-0.975 J-1.263 K0.000 F360.000
G2 X15.370 Y-59.012 Z-3.000 I-0.138 J-0.213 K0.000 F360.000
G2 X14.808 Y-59.360 Z-3.000 I-0.829 J0.712 K0.000 F360.000
G2 X12.861 Y-59.010 Z-3.000 I-0.689 J1.756 K0.000 F360.000
G2 X12.733 Y-58.719 Z-3.000 I0.098 J0.217 K0.000 F360.000
G2 X14.226 Y-58.216 Z-3.000 I1.247 J-1.233 K0.000 F360.000
G2 X15.130 Y-58.547 Z-3.000 I-0.070 J-1.594 K0.000 F360.000
G1 X15.130 Y-58.547 Z-6.000 F360.000
G2 X15.283 Y-58.682 Z-6.000 I-0.975 J-1.263 K0.000 F360.000
G2 X15.370 Y-59.012 Z-6.000 I-0.138 J-0.213 K0.000 F360.000
G2 X14.808 Y-59.360 Z-6.000 I-0.829 J0.712 K0.000 F360.000
G2 X12.861 Y-59.010 Z-6.000 I-0.689 J1.756 K0.000 F360.000
G2 X12.733 Y-58.719 Z-6.000 I0.098 J0.217 K0.000 F360.000
G2 X14.226 Y-58.216 Z-6.000 I1.247 J-1.233 K0.000 F360.000
G2 X15.130 Y-58.547 Z-6.000 I-0.070 J-1.594 K0.000 F360.000
G0 Z5.000
G0 Z5.000
(Finish operation: Profile020)
(Begin operation: Profile021)
(Path: Profile021)
(Profile021)
(Compensated Tool Path. Diameter: 3.0)
G0 Z5.000
G0 X15.195 Y-44.837
G0 Z3.000
G1 X15.195 Y-44.837 Z-3.000 F360.000
G2 X15.283 Y-44.897 Z-3.000 I-1.057 J-1.635 K0.000 F360.000
G2 X15.359 Y-45.209 Z-3.000 I-0.101 J-0.189 K0.000 F360.000
G2 X14.365 Y-45.759 Z-3.000 I-1.079 J0.777 K0.000 F360.000
G2 X12.783 Y-45.352 Z-3.000 I-0.396 J1.736 K0.000 F360.000
G2 X12.734 Y-45.122 Z-3.000 I0.138 J0.150 K0.000 F360.000
G2 X15.195 Y-44.837 Z-3.000 I1.403 J-1.350 K0.000 F360.000
G1 X15.195 Y-44.837 Z-6.000 F360.000
G2 X15.283 Y-44.897 Z-6.000 I-1.057 J-1.635 K0.000 F360.000
G2 X15.359 Y-45.209 Z-6.000 I-0.101 J-0.189 K0.000 F360.000
G2 X14.365 Y-45.759 Z-6.000 I-1.079 J0.777 K0.000 F360.000
G2 X12.783 Y-45.352 Z-6.000 I-0.396 J1.736 K0.000 F360.000
G2 X12.734 Y-45.122 Z-6.000 I0.138 J0.150 K0.000 F360.000
G2 X15.195 Y-44.837 Z-6.000 I1.403 J-1.350 K0.000 F360.000
G0 Z5.000
G0 Z5.000
(Finish operation: Profile021)
(Begin operation: Profile022)
(Path: Profile022)
(Profile022)
(Compensated Tool Path. Diameter: 3.0)
G0 Z5.000
G0 X15.130 Y-6.547
G0 Z3.000
G1 X15.130 Y-6.547 Z-3.000 F360.000
G2 X15.283 Y-6.682 Z-3.000 I-0.975 J-1.263 K0.000 F360.000
G2 X15.370 Y-7.012 Z-3.000 I-0.138 J-0.213 K0.000 F360.000
G2 X14.808 Y-7.360 Z-3.000 I-0.829 J0.712 K0.000 F360.000
G2 X12.861 Y-7.010 Z-3.000 I-0.689 J1.756 K0.000 F360.000
G2 X12.733 Y-6.719 Z-3.000 I0.098 J0.217 K0.000 F360.000
G2 X14.226 Y-6.216 Z-3.000 I1.247 J-1.233 K0.000 F360.000
G2 X15.130 Y-6.547 Z-3.000 I-0.070 J-1.594 K0.000 F360.000
G1 X15.130 Y-6.547 Z-6.000 F360.000
G2 X15.283 Y-6.682 Z-6.000 I-0.975 J-1.263 K0.000 F360.000
G2 X15.370 Y-7.012 Z-6.000 I-0.138 J-0.213 K0.000 F360.000
G2 X14.808 Y-7.360 Z-6.000 I-0.829 J0.712 K0.000 F360.000
G2 X12.861 Y-7.010 Z-6.000 I-0.689 J1.756 K0.000 F360.000
G2 X12.733 Y-6.719 Z-6.000 I0.098 J0.217 K0.000 F360.000
G2 X14.226 Y-6.216 Z-6.000 I1.247 J-1.233 K0.000 F360.000
G2 X15.130 Y-6.547 Z-6.000 I-0.070 J-1.594 K0.000 F360.000
G0 Z5.000
G0 Z5.000
(Finish operation: Profile022)
(Begin operation: Profile023)
(Path: Profile023)
(Profile023)
(Compensated Tool Path. Diameter: 3.0)
G0 Z5.000
G0 X26.589 Y8.783
G0 Z3.000
G1 X26.589 Y8.783 Z-3.000 F360.000
G2 X25.950 Y8.069 Z-3.000 I-1.709 J0.885 K0.000 F360.000
G3 X24.924 Y5.299 Z-3.000 I0.913 J-1.913 K0.000 F360.000
G3 X26.494 Y4.068 Z-3.000 I2.067 J1.018 K0.000 F360.000
G2 X26.788 Y3.940 Z-3.000 I-0.039 J-0.495 K0.000 F360.000
G2 X26.793 Y3.838 Z-3.000 I-0.024 J-0.052 K0.000 F360.000
G3 X24.444 Y1.150 Z-3.000 I1.789 J-3.934 K0.000 F360.000
G3 X24.334 Y-0.783 Z-3.000 I3.086 J-1.145 K0.000 F360.000
G3 X26.820 Y-3.846 Z-3.000 I4.198 J0.867 K0.000 F360.000
G2 X26.781 Y-3.963 Z-3.000 I-0.349 J0.052 K0.000 F360.000
G2 X26.558 Y-4.044 Z-3.000 I-4.632 J12.369 K0.000 F360.000
G3 X24.853 Y-5.497 Z-3.000 I0.448 J-2.253 K0.000 F360.000
G3 X25.969 Y-8.102 Z-3.000 I2.049 J-0.664 K0.000 F360.000
G2 X26.597 Y-8.791 Z-3.000 I-0.739 J-1.305 K0.000 F360.000
G3 X22.613 Y-8.216 Z-3.000 I-110.653 J-753.364 K0.000 F360.000
G2 X21.818 Y-7.940 Z-3.000 I0.381 J2.379 K0.000 F360.000
G2 X21.800 Y-7.327 Z-3.000 I3.799 J0.417 K0.000 F360.000
G3 X23.148 Y-6.078 Z-3.000 I-0.737 J2.148 K0.000 F360.000
G3 X22.192 Y-3.421 Z-3.000 I-1.964 J0.793 K0.000 F360.000
G2 X21.803 Y-3.004 Z-3.000 I0.370 J0.733 K0.000 F360.000
G3 X23.055 Y-1.609 Z-3.000 I-1.868 J2.935 K0.000 F360.000
G3 X23.322 Y0.540 Z-3.000 I-4.123 J1.604 K0.000 F360.000
G3 X21.804 Y2.986 Z-3.000 I-3.092 J-0.225 K0.000 F360.000
G2 X22.142 Y3.401 Z-3.000 I0.851 J-0.346 K0.000 F360.000
G3 X23.303 Y5.068 Z-3.000 I-0.953 J1.902 K0.000 F360.000
G3 X21.800 Y7.327 Z-3.000 I-2.177 J0.182 K0.000 F360.000
G2 X21.816 Y7.913 Z-3.000 I3.628 J0.191 K0.000 F360.000
G2 X22.823 Y8.257 Z-3.000 I1.317 J-2.215 K0.000 F360.000
G3 X26.589 Y8.783 Z-3.000 I-10.934 J91.911 K0.000 F360.000
G1 X26.589 Y8.783 Z-6.000 F360.000
G2 X25.950 Y8.069 Z-6.000 I-1.709 J0.885 K0.000 F360.000
G3 X24.924 Y5.299 Z-6.000 I0.913 J-1.913 K0.000 F360.000
G3 X26.494 Y4.068 Z-6.000 I2.067 J1.018 K0.000 F360.000
G2 X26.788 Y3.940 Z-6.000 I-0.039 J-0.495 K0.000 F360.000
G2 X26.793 Y3.838 Z-6.000 I-0.024 J-0.052 K0.000 F360.000
G3 X24.444 Y1.150 Z-6.000 I1.789 J-3.934 K0.000 F360.000
G3 X24.334 Y-0.783 Z-6.000 I3.086 J-1.145 K0.000 F360.000
G3 X26.820 Y-3.846 Z-6.000 I4.198 J0.867 K0.000 F360.000
G2 X26.781 Y-3.963 Z-6.000 I-0.349 J0.052 K0.000 F360.000
G2 X26.558 Y-4.044 Z-6.000 I-4.632 J12.369 K0.000 F360.000
G3 X24.853 Y-5.497 Z-6.000 I0.448 J-2.253 K0.000 F360.000
G3 X25.969 Y-8.102 Z-6.000 I2.049 J-0.664 K0.000 F360.000
G2 X26.597 Y-8.791 Z-6.000 I-0.739 J-1.305 K0.000 F360.000
G3 X22.613 Y-8.216 Z-6.000 I-110.653 J-753.364 K0.000 F360.000
G2 X21.818 Y-7.940 Z-6.000 I0.381 J2.379 K0.000 F360.000
G2 X21.800 Y-7.327 Z-6.000 I3.799 J0.417 K0.000 F360.000
G3 X23.148 Y-6.078 Z-6.000 I-0.737 J2.148 K0.000 F360.000
G3 X22.192 Y-3.421 Z-6.000 I-1.964 J0.793 K0.000 F360.000
G2 X21.803 Y-3.004 Z-6.000 I0.370 J0.733 K0.000 F360.000
G3 X23.055 Y-1.609 Z-6.000 I-1.868 J2.935 K0.000 F360.000
G3 X23.322 Y0.540 Z-6.000 I-4.123 J1.604 K0.000 F360.000
G3 X21.804 Y2.986 Z-6.000 I-3.092 J-0.225 K0.000 F360.000
G2 X22.142 Y3.401 Z-6.000 I0.851 J-0.346 K0.000 F360.000
G3 X23.303 Y5.068 Z-6.000 I-0.953 J1.902 K0.000 F360.000
G3 X21.800 Y7.327 Z-6.000 I-2.177 J0.182 K0.000 F360.000
G2 X21.816 Y7.913 Z-6.000 I3.628 J0.191 K0.000 F360.000
G2 X22.823 Y8.257 Z-6.000 I1.317 J-2.215 K0.000 F360.000
G3 X26.589 Y8.783 Z-6.000 I-10.934 J91.911 K0.000 F360.000
G0 Z5.000
G0 Z5.000
(Finish operation: Profile023)
(Begin operation: Profile024)
(Path: Profile024)
(Profile024)
(Compensated Tool Path. Diameter: 3.0)
G0 Z5.000
G0 X15.195 Y7.163
G0 Z3.000
G1 X15.195 Y7.163 Z-3.000 F360.000
G2 X15.283 Y7.103 Z-3.000 I-1.057 J-1.635 K0.000 F360.000
G2 X15.359 Y6.791 Z-3.000 I-0.101 J-0.189 K0.000 F360.000
G2 X14.365 Y6.241 Z-3.000 I-1.079 J0.777 K0.000 F360.000
G2 X12.783 Y6.648 Z-3.000 I-0.396 J1.736 K0.000 F360.000
G2 X12.734 Y6.878 Z-3.000 I0.138 J0.150 K0.000 F360.000
G2 X15.195 Y7.163 Z-3.000 I1.403 J-1.350 K0.000 F360.000
G1 X15.195 Y7.163 Z-6.000 F360.000
G2 X15.283 Y7.103 Z-6.000 I-1.057 J-1.635 K0.000 F360.000
G2 X15.359 Y6.791 Z-6.000 I-0.101 J-0.189 K0.000 F360.000
G2 X14.365 Y6.241 Z-6.000 I-1.079 J0.777 K0.000 F360.000
G2 X12.783 Y6.648 Z-6.000 I-0.396 J1.736 K0.000 F360.000
G2 X12.734 Y6.878 Z-6.000 I0.138 J0.150 K0.000 F360.000
G2 X15.195 Y7.163 Z-6.000 I1.403 J-1.350 K0.000 F360.000
G0 Z5.000
G0 Z5.000
(Finish operation: Profile024)
(Begin operation: Profile025)
(Path: Profile025)
(Profile025)
(Compensated Tool Path. Diameter: 3.0)
G0 Z5.000
G0 X-25.411 Y8.783
G0 Z3.000
G1 X-25.411 Y8.783 Z-3.000 F360.000
G2 X-26.050 Y8.069 Z-3.000 I-1.709 J0.885 K0.000 F360.000
G3 X-27.076 Y5.299 Z-3.000 I0.913 J-1.913 K0.000 F360.000
G3 X-25.506 Y4.068 Z-3.000 I2.067 J1.018 K0.000 F360.000
G2 X-25.212 Y3.940 Z-3.000 I-0.039 J-0.495 K0.000 F360.000
G2 X-25.207 Y3.838 Z-3.000 I-0.024 J-0.052 K0.000 F360.000
G3 X-27.556 Y1.150 Z-3.000 I1.789 J-3.934 K0.000 F360.000
G3 X-27.666 Y-0.783 Z-3.000 I3.086 J-1.145 K0.000 F360.000
G3 X-25.180 Y-3.846 Z-3.000 I4.198 J0.867 K0.000 F360.000
G2 X-25.219 Y-3.963 Z-3.000 I-0.349 J0.052 K0.000 F360.000
G2 X-25.442 Y-4.044 Z-3.000 I-4.632 J12.369 K0.000 F360.000
G3 X-27.147 Y-5.497 Z-3.000 I0.448 J-2.253 K0.000 F360.000
G3 X-26.031 Y-8.102 Z-3.000 I2.049 J-0.664 K0.000 F360.000
G2 X-25.403 Y-8.791 Z-3.000 I-0.739 J-1.305 K0.000 F360.000
G3 X-29.387 Y-8.216 Z-3.000 I-110.653 J-753.364 K0.000 F360.000
G2 X-30.182 Y-7.940 Z-3.000 I0.381 J2.379 K0.000 F360.000
G2 X-30.200 Y-7.327 Z-3.000 I3.799 J0.417 K0.000 F360.000
G3 X-28.852 Y-6.078 Z-3.000 I-0.737 J2.148 K0.000 F360.000
G3 X-29.808 Y-3.421 Z-3.000 I-1.964 J0.793 K0.000 F360.000
G2 X-30.197 Y-3.004 Z-3.000 I0.370 J0.733 K0.000 F360.000
G3 X-28.945 Y-1.609 Z-3.000 I-1.868 J2.935 K0.000 F360.000
G3 X-28.678 Y0.540 Z-3.000 I-4.123 J1.604 K0.000 F360.000
G3 X-30.196 Y2.986 Z-3.000 I-3.092 J-0.225 K0.000 F360.000
G2 X-29.858 Y3.401 Z-3.000 I0.851 J-0.346 K0.000 F360.000
G3 X-28.697 Y5.068 Z-3.000 I-0.953 J1.902 K0.000 F360.000
G3 X-30.200 Y7.327 Z-3.000 I-2.177 J0.182 K0.000 F360.000
G2 X-30.184 Y7.913 Z-3.000 I3.628 J0.191 K0.000 F360.000
G2 X-29.177 Y8.257 Z-3.000 I1.317 J-2.215 K0.000 F360.000
G3 X-25.411 Y8.783 Z-3.000 I-10.934 J91.911 K0.000 F360.000
G1 X-25.411 Y8.783 Z-6.000 F360.000
G2 X-26.050 Y8.069 Z-6.000 I-1.709 J0.885 K0.000 F360.000
G3 X-27.076 Y5.299 Z-6.000 I0.913 J-1.913 K0.000 F360.000
G3 X-25.506 Y4.068 Z-6.000 I2.067 J1.018 K0.000 F360.000
G2 X-25.212 Y3.940 Z-6.000 I-0.039 J-0.495 K0.000 F360.000
G2 X-25.207 Y3.838 Z-6.000 I-0.024 J-0.052 K0.000 F360.000
G3 X-27.556 Y1.150 Z-6.000 I1.789 J-3.934 K0.000 F360.000
G3 X-27.666 Y-0.783 Z-6.000 I3.086 J-1.145 K0.000 F360.000
G3 X-25.180 Y-3.846 Z-6.000 I4.198 J0.867 K0.000 F360.000
G2 X-25.219 Y-3.963 Z-6.000 I-0.349 J0.052 K0.000 F360.000
G2 X-25.442 Y-4.044 Z-6.000 I-4.632 J12.369 K0.000 F360.000
G3 X-27.147 Y-5.497 Z-6.000 I0.448 J-2.253 K0.000 F360.000
G3 X-26.031 Y-8.102 Z-6.000 I2.049 J-0.664 K0.000 F360.000
G2 X-25.403 Y-8.791 Z-6.000 I-0.739 J-1.305 K0.000 F360.000
G3 X-29.387 Y-8.216 Z-6.000 I-110.653 J-753.364 K0.000 F360.000
G2 X-30.182 Y-7.940 Z-6.000 I0.381 J2.379 K0.000 F360.000
G2 X-30.200 Y-7.327 Z-6.000 I3.799 J0.417 K0.000 F360.000
G3 X-28.852 Y-6.078 Z-6.000 I-0.737 J2.148 K0.000 F360.000
G3 X-29.808 Y-3.421 Z-6.000 I-1.964 J0.793 K0.000 F360.000
G2 X-30.197 Y-3.004 Z-6.000 I0.370 J0.733 K0.000 F360.000
G3 X-28.945 Y-1.609 Z-6.000 I-1.868 J2.935 K0.000 F360.000
G3 X-28.678 Y0.540 Z-6.000 I-4.123 J1.604 K0.000 F360.000
G3 X-30.196 Y2.986 Z-6.000 I-3.092 J-0.225 K0.000 F360.000
G2 X-29.858 Y3.401 Z-6.000 I0.851 J-0.346 K0.000 F360.000
G3 X-28.697 Y5.068 Z-6.000 I-0.953 J1.902 K0.000 F360.000
G3 X-30.200 Y7.327 Z-6.000 I-2.177 J0.182 K0.000 F360.000
G2 X-30.184 Y7.913 Z-6.000 I3.628 J0.191 K0.000 F360.000
G2 X-29.177 Y8.257 Z-6.000 I1.317 J-2.215 K0.000 F360.000
G3 X-25.411 Y8.783 Z-6.000 I-10.934 J91.911 K0.000 F360.000
G0 Z5.000
G0 Z5.000
(Finish operation: Profile025)
(Begin operation: Profile026)
(Path: Profile026)
(Profile026)
(Compensated Tool Path. Diameter: 3.0)
G0 Z5.000
G0 X-36.805 Y7.163
G0 Z3.000
G1 X-36.805 Y7.163 Z-3.000 F360.000
G2 X-36.717 Y7.103 Z-3.000 I-1.057 J-1.635 K0.000 F360.000
G2 X-36.641 Y6.791 Z-3.000 I-0.101 J-0.189 K0.000 F360.000
G2 X-37.635 Y6.241 Z-3.000 I-1.079 J0.777 K0.000 F360.000
G2 X-39.217 Y6.648 Z-3.000 I-0.396 J1.736 K0.000 F360.000
G2 X-39.266 Y6.878 Z-3.000 I0.138 J0.150 K0.000 F360.000
G2 X-36.805 Y7.163 Z-3.000 I1.403 J-1.350 K0.000 F360.000
G1 X-36.805 Y7.163 Z-6.000 F360.000
G2 X-36.717 Y7.103 Z-6.000 I-1.057 J-1.635 K0.000 F360.000
G2 X-36.641 Y6.791 Z-6.000 I-0.101 J-0.189 K0.000 F360.000
G2 X-37.635 Y6.241 Z-6.000 I-1.079 J0.777 K0.000 F360.000
G2 X-39.217 Y6.648 Z-6.000 I-0.396 J1.736 K0.000 F360.000
G2 X-39.266 Y6.878 Z-6.000 I0.138 J0.150 K0.000 F360.000
G2 X-36.805 Y7.163 Z-6.000 I1.403 J-1.350 K0.000 F360.000
G0 Z5.000
G0 Z5.000
(Finish operation: Profile026)
(Begin operation: Profile027)
(Path: Profile027)
(Profile027)
(Compensated Tool Path. Diameter: 3.0)
G0 Z5.000
G0 X-36.870 Y-6.547
G0 Z3.000
G1 X-36.870 Y-6.547 Z-3.000 F360.000
G2 X-36.717 Y-6.682 Z-3.000 I-0.975 J-1.263 K0.000 F360.000
G2 X-36.630 Y-7.012 Z-3.000 I-0.138 J-0.213 K0.000 F360.000
G2 X-37.192 Y-7.360 Z-3.000 I-0.829 J0.712 K0.000 F360.000
G2 X-39.139 Y-7.010 Z-3.000 I-0.689 J1.756 K0.000 F360.000
G2 X-39.267 Y-6.719 Z-3.000 I0.098 J0.217 K0.000 F360.000
G2 X-37.774 Y-6.216 Z-3.000 I1.247 J-1.233 K0.000 F360.000
G2 X-36.870 Y-6.547 Z-3.000 I-0.070 J-1.594 K0.000 F360.000
G1 X-36.870 Y-6.547 Z-6.000 F360.000
G2 X-36.717 Y-6.682 Z-6.000 I-0.975 J-1.263 K0.000 F360.000
G2 X-36.630 Y-7.012 Z-6.000 I-0.138 J-0.213 K0.000 F360.000
G2 X-37.192 Y-7.360 Z-6.000 I-0.829 J0.712 K0.000 F360.000
G2 X-39.139 Y-7.010 Z-6.000 I-0.689 J1.756 K0.000 F360.000
G2 X-39.267 Y-6.719 Z-6.000 I0.098 J0.217 K0.000 F360.000
G2 X-37.774 Y-6.216 Z-6.000 I1.247 J-1.233 K0.000 F360.000
G2 X-36.870 Y-6.547 Z-6.000 I-0.070 J-1.594 K0.000 F360.000
G0 Z5.000
G0 Z5.000
(Finish operation: Profile027)
(Begin operation: Profile028)
(Path: Profile028)
(Profile028)
(Compensated Tool Path. Diameter: 3.0)
G0 Z5.000
G0 X-25.411 Y-43.217
G0 Z3.000
G1 X-25.411 Y-43.217 Z-3.000 F360.000
G2 X-26.050 Y-43.931 Z-3.000 I-1.709 J0.885 K0.000 F360.000
G3 X-27.076 Y-46.701 Z-3.000 I0.913 J-1.913 K0.000 F360.000
G3 X-25.506 Y-47.932 Z-3.000 I2.067 J1.018 K0.000 F360.000
G2 X-25.212 Y-48.060 Z-3.000 I-0.039 J-0.495 K0.000 F360.000
G2 X-25.207 Y-48.162 Z-3.000 I-0.024 J-0.052 K0.000 F360.000
G3 X-27.556 Y-50.850 Z-3.000 I1.789 J-3.934 K0.000 F360.000
G3 X-27.666 Y-52.783 Z-3.000 I3.086 J-1.145 K0.000 F360.000
G3 X-25.180 Y-55.846 Z-3.000 I4.198 J0.867 K0.000 F360.000
G2 X-25.219 Y-55.963 Z-3.000 I-0.349 J0.052 K0.000 F360.000
G2 X-25.442 Y-56.044 Z-3.000 I-4.629 J12.361 K0.000 F360.000
G3 X-27.147 Y-57.497 Z-3.000 I0.448 J-2.253 K0.000 F360.000
G3 X-26.031 Y-60.102 Z-3.000 I2.049 J-0.664 K0.000 F360.000
G2 X-25.403 Y-60.791 Z-3.000 I-0.739 J-1.305 K0.000 F360.000
G3 X-29.387 Y-60.216 Z-3.000 I-110.653 J-753.364 K0.000 F360.000
G2 X-30.182 Y-59.940 Z-3.000 I0.381 J2.379 K0.000 F360.000
G2 X-30.200 Y-59.327 Z-3.000 I3.799 J0.417 K0.000 F360.000
G3 X-28.852 Y-58.078 Z-3.000 I-0.737 J2.148 K0.000 F360.000
G3 X-29.808 Y-55.421 Z-3.000 I-1.964 J0.793 K0.000 F360.000
G2 X-30.197 Y-55.004 Z-3.000 I0.370 J0.733 K0.000 F360.000
G3 X-28.945 Y-53.609 Z-3.000 I-1.868 J2.935 K0.000 F360.000
G3 X-28.678 Y-51.460 Z-3.000 I-4.123 J1.604 K0.000 F360.000
G3 X-30.196 Y-49.014 Z-3.000 I-3.092 J-0.225 K0.000 F360.000
G2 X-29.858 Y-48.599 Z-3.000 I0.851 J-0.346 K0.000 F360.000
G3 X-28.697 Y-46.932 Z-3.000 I-0.953 J1.902 K0.000 F360.000
G3 X-30.200 Y-44.673 Z-3.000 I-2.177 J0.182 K0.000 F360.000
G2 X-30.184 Y-44.087 Z-3.000 I3.628 J0.191 K0.000 F360.000
G2 X-29.177 Y-43.743 Z-3.000 I1.317 J-2.215 K0.000 F360.000
G3 X-25.411 Y-43.217 Z-3.000 I-10.934 J91.911 K0.000 F360.000
G1 X-25.411 Y-43.217 Z-6.000 F360.000
G2 X-26.050 Y-43.931 Z-6.000 I-1.709 J0.885 K0.000 F360.000
G3 X-27.076 Y-46.701 Z-6.000 I0.913 J-1.913 K0.000 F360.000
G3 X-25.506 Y-47.932 Z-6.000 I2.067 J1.018 K0.000 F360.000
G2 X-25.212 Y-48.060 Z-6.000 I-0.039 J-0.495 K0.000 F360.000
G2 X-25.207 Y-48.162 Z-6.000 I-0.024 J-0.052 K0.000 F360.000
G3 X-27.556 Y-50.850 Z-6.000 I1.789 J-3.934 K0.000 F360.000
G3 X-27.666 Y-52.783 Z-6.000 I3.086 J-1.145 K0.000 F360.000
G3 X-25.180 Y-55.846 Z-6.000 I4.198 J0.867 K0.000 F360.000
G2 X-25.219 Y-55.963 Z-6.000 I-0.349 J0.052 K0.000 F360.000
G2 X-25.442 Y-56.044 Z-6.000 I-4.629 J12.361 K0.000 F360.000
G3 X-27.147 Y-57.497 Z-6.000 I0.448 J-2.253 K0.000 F360.000
G3 X-26.031 Y-60.102 Z-6.000 I2.049 J-0.664 K0.000 F360.000
G2 X-25.403 Y-60.791 Z-6.000 I-0.739 J-1.305 K0.000 F360.000
G3 X-29.387 Y-60.216 Z-6.000 I-110.653 J-753.364 K0.000 F360.000
G2 X-30.182 Y-59.940 Z-6.000 I0.381 J2.379 K0.000 F360.000
G2 X-30.200 Y-59.327 Z-6.000 I3.799 J0.417 K0.000 F360.000
G3 X-28.852 Y-58.078 Z-6.000 I-0.737 J2.148 K0.000 F360.000
G3 X-29.808 Y-55.421 Z-6.000 I-1.964 J0.793 K0.000 F360.000
G2 X-30.197 Y-55.004 Z-6.000 I0.370 J0.733 K0.000 F360.000
G3 X-28.945 Y-53.609 Z-6.000 I-1.868 J2.935 K0.000 F360.000
G3 X-28.678 Y-51.460 Z-6.000 I-4.123 J1.604 K0.000 F360.000
G3 X-30.196 Y-49.014 Z-6.000 I-3.092 J-0.225 K0.000 F360.000
G2 X-29.858 Y-48.599 Z-6.000 I0.851 J-0.346 K0.000 F360.000
G3 X-28.697 Y-46.932 Z-6.000 I-0.953 J1.902 K0.000 F360.000
G3 X-30.200 Y-44.673 Z-6.000 I-2.177 J0.182 K0.000 F360.000
G2 X-30.184 Y-44.087 Z-6.000 I3.628 J0.191 K0.000 F360.000
G2 X-29.177 Y-43.743 Z-6.000 I1.317 J-2.215 K0.000 F360.000
G3 X-25.411 Y-43.217 Z-6.000 I-10.934 J91.911 K0.000 F360.000
G0 Z5.000
G0 Z5.000
(Finish operation: Profile028)
(Begin operation: Profile029)
(Path: Profile029)
(Profile029)
(Compensated Tool Path. Diameter: 3.0)
G0 Z5.000
G0 X-36.870 Y-58.547
G0 Z3.000
G1 X-36.870 Y-58.547 Z-3.000 F360.000
G2 X-36.717 Y-58.682 Z-3.000 I-0.975 J-1.263 K0.000 F360.000
G2 X-36.630 Y-59.012 Z-3.000 I-0.138 J-0.213 K0.000 F360.000
G2 X-37.192 Y-59.360 Z-3.000 I-0.829 J0.712 K0.000 F360.000
G2 X-39.139 Y-59.010 Z-3.000 I-0.689 J1.756 K0.000 F360.000
G2 X-39.267 Y-58.719 Z-3.000 I0.098 J0.217 K0.000 F360.000
G2 X-37.774 Y-58.216 Z-3.000 I1.247 J-1.233 K0.000 F360.000
G2 X-36.870 Y-58.547 Z-3.000 I-0.070 J-1.594 K0.000 F360.000
G1 X-36.870 Y-58.547 Z-6.000 F360.000
G2 X-36.717 Y-58.682 Z-6.000 I-0.975 J-1.263 K0.000 F360.000
G2 X-36.630 Y-59.012 Z-6.000 I-0.138 J-0.213 K0.000 F360.000
G2 X-37.192 Y-59.360 Z-6.000 I-0.829 J0.712 K0.000 F360.000
G2 X-39.139 Y-59.010 Z-6.000 I-0.689 J1.756 K0.000 F360.000
G2 X-39.267 Y-58.719 Z-6.000 I0.098 J0.217 K0.000 F360.000
G2 X-37.774 Y-58.216 Z-6.000 I1.247 J-1.233 K0.000 F360.000
G2 X-36.870 Y-58.547 Z-6.000 I-0.070 J-1.594 K0.000 F360.000
G0 Z5.000
G0 Z5.000
(Finish operation: Profile029)
(Begin operation: Profile030)
(Path: Profile030)
(Profile030)
(Compensated Tool Path. Diameter: 3.0)
G0 Z5.000
G0 X-36.805 Y-44.837
G0 Z3.000
G1 X-36.805 Y-44.837 Z-3.000 F360.000
G2 X-36.717 Y-44.897 Z-3.000 I-1.057 J-1.635 K0.000 F360.000
G2 X-36.641 Y-45.209 Z-3.000 I-0.101 J-0.189 K0.000 F360.000
G2 X-37.635 Y-45.759 Z-3.000 I-1.079 J0.777 K0.000 F360.000
G2 X-39.217 Y-45.352 Z-3.000 I-0.396 J1.736 K0.000 F360.000
G2 X-39.266 Y-45.122 Z-3.000 I0.138 J0.150 K0.000 F360.000
G2 X-36.805 Y-44.837 Z-3.000 I1.403 J-1.350 K0.000 F360.000
G1 X-36.805 Y-44.837 Z-6.000 F360.000
G2 X-36.717 Y-44.897 Z-6.000 I-1.057 J-1.635 K0.000 F360.000
G2 X-36.641 Y-45.209 Z-6.000 I-0.101 J-0.189 K0.000 F360.000
G2 X-37.635 Y-45.759 Z-6.000 I-1.079 J0.777 K0.000 F360.000
G2 X-39.217 Y-45.352 Z-6.000 I-0.396 J1.736 K0.000 F360.000
G2 X-39.266 Y-45.122 Z-6.000 I0.138 J0.150 K0.000 F360.000
G2 X-36.805 Y-44.837 Z-6.000 I1.403 J-1.350 K0.000 F360.000
G0 Z5.000
G0 Z5.000
(Finish operation: Profile030)
(Begin operation: Profile031)
(Path: Profile031)
(Profile031)
(Compensated Tool Path. Diameter: 3.0)
G0 Z5.000
G0 X-77.411 Y-43.217
G0 Z3.000
G1 X-77.411 Y-43.217 Z-3.000 F360.000
G2 X-78.050 Y-43.931 Z-3.000 I-1.709 J0.885 K0.000 F360.000
G3 X-79.076 Y-46.701 Z-3.000 I0.913 J-1.913 K0.000 F360.000
G3 X-77.506 Y-47.932 Z-3.000 I2.067 J1.018 K0.000 F360.000
G2 X-77.212 Y-48.060 Z-3.000 I-0.039 J-0.495 K0.000 F360.000
G2 X-77.207 Y-48.162 Z-3.000 I-0.024 J-0.052 K0.000 F360.000
G3 X-79.556 Y-50.850 Z-3.000 I1.789 J-3.934 K0.000 F360.000
G3 X-79.666 Y-52.783 Z-3.000 I3.086 J-1.145 K0.000 F360.000
G3 X-77.180 Y-55.846 Z-3.000 I4.198 J0.867 K0.000 F360.000
G2 X-77.219 Y-55.963 Z-3.000 I-0.349 J0.052 K0.000 F360.000
G2 X-77.442 Y-56.044 Z-3.000 I-4.632 J12.369 K0.000 F360.000
G3 X-79.147 Y-57.497 Z-3.000 I0.448 J-2.253 K0.000 F360.000
G3 X-78.031 Y-60.102 Z-3.000 I2.049 J-0.664 K0.000 F360.000
G2 X-77.403 Y-60.791 Z-3.000 I-0.739 J-1.305 K0.000 F360.000
G3 X-81.387 Y-60.216 Z-3.000 I-110.653 J-753.364 K0.000 F360.000
G2 X-82.182 Y-59.940 Z-3.000 I0.381 J2.379 K0.000 F360.000
G2 X-82.200 Y-59.327 Z-3.000 I3.799 J0.417 K0.000 F360.000
G3 X-80.852 Y-58.078 Z-3.000 I-0.737 J2.148 K0.000 F360.000
G3 X-81.808 Y-55.421 Z-3.000 I-1.964 J0.793 K0.000 F360.000
G2 X-82.197 Y-55.004 Z-3.000 I0.370 J0.733 K0.000 F360.000
G3 X-80.945 Y-53.609 Z-3.000 I-1.868 J2.935 K0.000 F360.000
G3 X-80.678 Y-51.460 Z-3.000 I-4.123 J1.604 K0.000 F360.000
G3 X-82.196 Y-49.014 Z-3.000 I-3.092 J-0.225 K0.000 F360.000
G2 X-81.858 Y-48.599 Z-3.000 I0.851 J-0.346 K0.000 F360.000
G3 X-80.697 Y-46.932 Z-3.000 I-0.953 J1.902 K0.000 F360.000
G3 X-82.200 Y-44.673 Z-3.000 I-2.177 J0.182 K0.000 F360.000
G2 X-82.184 Y-44.087 Z-3.000 I3.628 J0.191 K0.000 F360.000
G2 X-81.177 Y-43.743 Z-3.000 I1.317 J-2.215 K0.000 F360.000
G3 X-77.411 Y-43.217 Z-3.000 I-10.934 J91.911 K0.000 F360.000
G1 X-77.411 Y-43.217 Z-6.000 F360.000
G2 X-78.050 Y-43.931 Z-6.000 I-1.709 J0.885 K0.000 F360.000
G3 X-79.076 Y-46.701 Z-6.000 I0.913 J-1.913 K0.000 F360.000
G3 X-77.506 Y-47.932 Z-6.000 I2.067 J1.018 K0.000 F360.000
G2 X-77.212 Y-48.060 Z-6.000 I-0.039 J-0.495 K0.000 F360.000
G2 X-77.207 Y-48.162 Z-6.000 I-0.024 J-0.052 K0.000 F360.000
G3 X-79.556 Y-50.850 Z-6.000 I1.789 J-3.934 K0.000 F360.000
G3 X-79.666 Y-52.783 Z-6.000 I3.086 J-1.145 K0.000 F360.000
G3 X-77.180 Y-55.846 Z-6.000 I4.198 J0.867 K0.000 F360.000
G2 X-77.219 Y-55.963 Z-6.000 I-0.349 J0.052 K0.000 F360.000
G2 X-77.442 Y-56.044 Z-6.000 I-4.632 J12.369 K0.000 F360.000
G3 X-79.147 Y-57.497 Z-6.000 I0.448 J-2.253 K0.000 F360.000
G3 X-78.031 Y-60.102 Z-6.000 I2.049 J-0.664 K0.000 F360.000
G2 X-77.403 Y-60.791 Z-6.000 I-0.739 J-1.305 K0.000 F360.000
G3 X-81.387 Y-60.216 Z-6.000 I-110.653 J-753.364 K0.000 F360.000
G2 X-82.182 Y-59.940 Z-6.000 I0.381 J2.379 K0.000 F360.000
G2 X-82.200 Y-59.327 Z-6.000 I3.799 J0.417 K0.000 F360.000
G3 X-80.852 Y-58.078 Z-6.000 I-0.737 J2.148 K0.000 F360.000
G3 X-81.808 Y-55.421 Z-6.000 I-1.964 J0.793 K0.000 F360.000
G2 X-82.197 Y-55.004 Z-6.000 I0.370 J0.733 K0.000 F360.000
G3 X-80.945 Y-53.609 Z-6.000 I-1.868 J2.935 K0.000 F360.000
G3 X-80.678 Y-51.460 Z-6.000 I-4.123 J1.604 K0.000 F360.000
G3 X-82.196 Y-49.014 Z-6.000 I-3.092 J-0.225 K0.000 F360.000
G2 X-81.858 Y-48.599 Z-6.000 I0.851 J-0.346 K0.000 F360.000
G3 X-80.697 Y-46.932 Z-6.000 I-0.953 J1.902 K0.000 F360.000
G3 X-82.200 Y-44.673 Z-6.000 I-2.177 J0.182 K0.000 F360.000
G2 X-82.184 Y-44.087 Z-6.000 I3.628 J0.191 K0.000 F360.000
G2 X-81.177 Y-43.743 Z-6.000 I1.317 J-2.215 K0.000 F360.000
G3 X-77.411 Y-43.217 Z-6.000 I-10.934 J91.911 K0.000 F360.000
G0 Z5.000
G0 Z5.000
(Finish operation: Profile031)
(Begin operation: Profile032)
(Path: Profile032)
(Profile032)
(Compensated Tool Path. Diameter: 3.0)
G0 Z5.000
G0 X-88.870 Y-58.547
G0 Z3.000
G1 X-88.870 Y-58.547 Z-3.000 F360.000
G2 X-88.717 Y-58.682 Z-3.000 I-0.975 J-1.263 K0.000 F360.000
G2 X-88.630 Y-59.012 Z-3.000 I-0.138 J-0.213 K0.000 F360.000
G2 X-89.192 Y-59.360 Z-3.000 I-0.829 J0.712 K0.000 F360.000
G2 X-91.139 Y-59.010 Z-3.000 I-0.689 J1.756 K0.000 F360.000
G2 X-91.267 Y-58.719 Z-3.000 I0.098 J0.217 K0.000 F360.000
G2 X-89.774 Y-58.216 Z-3.000 I1.247 J-1.233 K0.000 F360.000
G2 X-88.870 Y-58.547 Z-3.000 I-0.070 J-1.594 K0.000 F360.000
G1 X-88.870 Y-58.547 Z-6.000 F360.000
G2 X-88.717 Y-58.682 Z-6.000 I-0.975 J-1.263 K0.000 F360.000
G2 X-88.630 Y-59.012 Z-6.000 I-0.138 J-0.213 K0.000 F360.000
G2 X-89.192 Y-59.360 Z-6.000 I-0.829 J0.712 K0.000 F360.000
G2 X-91.139 Y-59.010 Z-6.000 I-0.689 J1.756 K0.000 F360.000
G2 X-91.267 Y-58.719 Z-6.000 I0.098 J0.217 K0.000 F360.000
G2 X-89.774 Y-58.216 Z-6.000 I1.247 J-1.233 K0.000 F360.000
G2 X-88.870 Y-58.547 Z-6.000 I-0.070 J-1.594 K0.000 F360.000
G0 Z5.000
G0 Z5.000
(Finish operation: Profile032)
(Begin operation: Profile033)
(Path: Profile033)
(Profile033)
(Compensated Tool Path. Diameter: 3.0)
G0 Z5.000
G0 X-88.805 Y-44.837
G0 Z3.000
G1 X-88.805 Y-44.837 Z-3.000 F360.000
G2 X-88.717 Y-44.897 Z-3.000 I-1.057 J-1.635 K0.000 F360.000
G2 X-88.641 Y-45.209 Z-3.000 I-0.101 J-0.189 K0.000 F360.000
G2 X-89.635 Y-45.759 Z-3.000 I-1.079 J0.777 K0.000 F360.000
G2 X-91.217 Y-45.352 Z-3.000 I-0.396 J1.736 K0.000 F360.000
G2 X-91.266 Y-45.122 Z-3.000 I0.138 J0.150 K0.000 F360.000
G2 X-88.805 Y-44.837 Z-3.000 I1.403 J-1.350 K0.000 F360.000
G1 X-88.805 Y-44.837 Z-6.000 F360.000
G2 X-88.717 Y-44.897 Z-6.000 I-1.057 J-1.635 K0.000 F360.000
G2 X-88.641 Y-45.209 Z-6.000 I-0.101 J-0.189 K0.000 F360.000
G2 X-89.635 Y-45.759 Z-6.000 I-1.079 J0.777 K0.000 F360.000
G2 X-91.217 Y-45.352 Z-6.000 I-0.396 J1.736 K0.000 F360.000
G2 X-91.266 Y-45.122 Z-6.000 I0.138 J0.150 K0.000 F360.000
G2 X-88.805 Y-44.837 Z-6.000 I1.403 J-1.350 K0.000 F360.000
G0 Z5.000
G0 Z5.000
(Finish operation: Profile033)
(Begin operation: Profile034)
(Path: Profile034)
(Profile034)
(Compensated Tool Path. Diameter: 3.0)
G0 Z5.000
G0 X-88.870 Y-6.547
G0 Z3.000
G1 X-88.870 Y-6.547 Z-3.000 F360.000
G2 X-88.717 Y-6.682 Z-3.000 I-0.975 J-1.263 K0.000 F360.000
G2 X-88.630 Y-7.012 Z-3.000 I-0.138 J-0.213 K0.000 F360.000
G2 X-89.192 Y-7.360 Z-3.000 I-0.829 J0.712 K0.000 F360.000
G2 X-91.139 Y-7.010 Z-3.000 I-0.689 J1.756 K0.000 F360.000
G2 X-91.267 Y-6.719 Z-3.000 I0.098 J0.217 K0.000 F360.000
G2 X-89.774 Y-6.216 Z-3.000 I1.247 J-1.233 K0.000 F360.000
G2 X-88.870 Y-6.547 Z-3.000 I-0.070 J-1.594 K0.000 F360.000
G1 X-88.870 Y-6.547 Z-6.000 F360.000
G2 X-88.717 Y-6.682 Z-6.000 I-0.975 J-1.263 K0.000 F360.000
G2 X-88.630 Y-7.012 Z-6.000 I-0.138 J-0.213 K0.000 F360.000
G2 X-89.192 Y-7.360 Z-6.000 I-0.829 J0.712 K0.000 F360.000
G2 X-91.139 Y-7.010 Z-6.000 I-0.689 J1.756 K0.000 F360.000
G2 X-91.267 Y-6.719 Z-6.000 I0.098 J0.217 K0.000 F360.000
G2 X-89.774 Y-6.216 Z-6.000 I1.247 J-1.233 K0.000 F360.000
G2 X-88.870 Y-6.547 Z-6.000 I-0.070 J-1.594 K0.000 F360.000
G0 Z5.000
G0 Z5.000
(Finish operation: Profile034)
(Begin operation: Profile035)
(Path: Profile035)
(Profile035)
(Compensated Tool Path. Diameter: 3.0)
G0 Z5.000
G0 X-88.805 Y7.163
G0 Z3.000
G1 X-88.805 Y7.163 Z-3.000 F360.000
G2 X-88.717 Y7.103 Z-3.000 I-1.057 J-1.635 K0.000 F360.000
G2 X-88.641 Y6.791 Z-3.000 I-0.101 J-0.189 K0.000 F360.000
G2 X-89.635 Y6.241 Z-3.000 I-1.079 J0.777 K0.000 F360.000
G2 X-91.217 Y6.648 Z-3.000 I-0.396 J1.736 K0.000 F360.000
G2 X-91.266 Y6.878 Z-3.000 I0.138 J0.150 K0.000 F360.000
G2 X-88.805 Y7.163 Z-3.000 I1.403 J-1.350 K0.000 F360.000
G1 X-88.805 Y7.163 Z-6.000 F360.000
G2 X-88.717 Y7.103 Z-6.000 I-1.057 J-1.635 K0.000 F360.000
G2 X-88.641 Y6.791 Z-6.000 I-0.101 J-0.189 K0.000 F360.000
G2 X-89.635 Y6.241 Z-6.000 I-1.079 J0.777 K0.000 F360.000
G2 X-91.217 Y6.648 Z-6.000 I-0.396 J1.736 K0.000 F360.000
G2 X-91.266 Y6.878 Z-6.000 I0.138 J0.150 K0.000 F360.000
G2 X-88.805 Y7.163 Z-6.000 I1.403 J-1.350 K0.000 F360.000
G0 Z5.000
G0 Z5.000
(Finish operation: Profile035)
(Begin operation: Profile036)
(Path: Profile036)
(Profile036)
(Compensated Tool Path. Diameter: 3.0)
G0 Z5.000
G0 X-77.411 Y8.783
G0 Z3.000
G1 X-77.411 Y8.783 Z-3.000 F360.000
G2 X-78.050 Y8.069 Z-3.000 I-1.709 J0.885 K0.000 F360.000
G3 X-79.076 Y5.299 Z-3.000 I0.913 J-1.913 K0.000 F360.000
G3 X-77.506 Y4.068 Z-3.000 I2.067 J1.018 K0.000 F360.000
G2 X-77.212 Y3.940 Z-3.000 I-0.039 J-0.495 K0.000 F360.000
G2 X-77.207 Y3.838 Z-3.000 I-0.024 J-0.052 K0.000 F360.000
G3 X-79.556 Y1.150 Z-3.000 I1.789 J-3.934 K0.000 F360.000
G3 X-79.666 Y-0.783 Z-3.000 I3.086 J-1.145 K0.000 F360.000
G3 X-77.180 Y-3.846 Z-3.000 I4.198 J0.867 K0.000 F360.000
G2 X-77.219 Y-3.963 Z-3.000 I-0.349 J0.052 K0.000 F360.000
G2 X-77.442 Y-4.044 Z-3.000 I-4.632 J12.369 K0.000 F360.000
G3 X-79.147 Y-5.497 Z-3.000 I0.448 J-2.253 K0.000 F360.000
G3 X-78.031 Y-8.102 Z-3.000 I2.049 J-0.664 K0.000 F360.000
G2 X-77.403 Y-8.791 Z-3.000 I-0.739 J-1.305 K0.000 F360.000
G3 X-81.387 Y-8.216 Z-3.000 I-110.653 J-753.364 K0.000 F360.000
G2 X-82.182 Y-7.940 Z-3.000 I0.381 J2.379 K0.000 F360.000
G2 X-82.200 Y-7.327 Z-3.000 I3.799 J0.417 K0.000 F360.000
G3 X-80.852 Y-6.078 Z-3.000 I-0.737 J2.148 K0.000 F360.000
G3 X-81.808 Y-3.421 Z-3.000 I-1.964 J0.793 K0.000 F360.000
G2 X-82.197 Y-3.004 Z-3.000 I0.370 J0.733 K0.000 F360.000
G3 X-80.945 Y-1.609 Z-3.000 I-1.868 J2.935 K0.000 F360.000
G3 X-80.678 Y0.540 Z-3.000 I-4.123 J1.604 K0.000 F360.000
G3 X-82.196 Y2.986 Z-3.000 I-3.092 J-0.225 K0.000 F360.000
G2 X-81.858 Y3.401 Z-3.000 I0.851 J-0.346 K0.000 F360.000
G3 X-80.697 Y5.068 Z-3.000 I-0.953 J1.902 K0.000 F360.000
G3 X-82.200 Y7.327 Z-3.000 I-2.177 J0.182 K0.000 F360.000
G2 X-82.184 Y7.913 Z-3.000 I3.628 J0.191 K0.000 F360.000
G2 X-81.177 Y8.257 Z-3.000 I1.317 J-2.215 K0.000 F360.000
G3 X-77.411 Y8.783 Z-3.000 I-10.934 J91.911 K0.000 F360.000
G1 X-77.411 Y8.783 Z-6.000 F360.000
G2 X-78.050 Y8.069 Z-6.000 I-1.709 J0.885 K0.000 F360.000
G3 X-79.076 Y5.299 Z-6.000 I0.913 J-1.913 K0.000 F360.000
G3 X-77.506 Y4.068 Z-6.000 I2.067 J1.018 K0.000 F360.000
G2 X-77.212 Y3.940 Z-6.000 I-0.039 J-0.495 K0.000 F360.000
G2 X-77.207 Y3.838 Z-6.000 I-0.024 J-0.052 K0.000 F360.000
G3 X-79.556 Y1.150 Z-6.000 I1.789 J-3.934 K0.000 F360.000
G3 X-79.666 Y-0.783 Z-6.000 I3.086 J-1.145 K0.000 F360.000
G3 X-77.180 Y-3.846 Z-6.000 I4.198 J0.867 K0.000 F360.000
G2 X-77.219 Y-3.963 Z-6.000 I-0.349 J0.052 K0.000 F360.000
G2 X-77.442 Y-4.044 Z-6.000 I-4.632 J12.369 K0.000 F360.000
G3 X-79.147 Y-5.497 Z-6.000 I0.448 J-2.253 K0.000 F360.000
G3 X-78.031 Y-8.102 Z-6.000 I2.049 J-0.664 K0.000 F360.000
G2 X-77.403 Y-8.791 Z-6.000 I-0.739 J-1.305 K0.000 F360.000
G3 X-81.387 Y-8.216 Z-6.000 I-110.653 J-753.364 K0.000 F360.000
G2 X-82.182 Y-7.940 Z-6.000 I0.381 J2.379 K0.000 F360.000
G2 X-82.200 Y-7.327 Z-6.000 I3.799 J0.417 K0.000 F360.000
G3 X-80.852 Y-6.078 Z-6.000 I-0.737 J2.148 K0.000 F360.000
G3 X-81.808 Y-3.421 Z-6.000 I-1.964 J0.793 K0.000 F360.000
G2 X-82.197 Y-3.004 Z-6.000 I0.370 J0.733 K0.000 F360.000
G3 X-80.945 Y-1.609 Z-6.000 I-1.868 J2.935 K0.000 F360.000
G3 X-80.678 Y0.540 Z-6.000 I-4.123 J1.604 K0.000 F360.000
G3 X-82.196 Y2.986 Z-6.000 I-3.092 J-0.225 K0.000 F360.000
G2 X-81.858 Y3.401 Z-6.000 I0.851 J-0.346 K0.000 F360.000
G3 X-80.697 Y5.068 Z-6.000 I-0.953 J1.902 K0.000 F360.000
G3 X-82.200 Y7.327 Z-6.000 I-2.177 J0.182 K0.000 F360.000
G2 X-82.184 Y7.913 Z-6.000 I3.628 J0.191 K0.000 F360.000
G2 X-81.177 Y8.257 Z-6.000 I1.317 J-2.215 K0.000 F360.000
G3 X-77.411 Y8.783 Z-6.000 I-10.934 J91.911 K0.000 F360.000
G0 Z5.000
G0 Z5.000
(Finish operation: Profile036)
(Begin operation: Profile037)
(Path: Profile037)
(Profile037)
(Compensated Tool Path. Diameter: 3.0)
G0 Z5.000
G0 X-55.431 Y74.685
G0 Z3.000
G1 X-55.431 Y74.685 Z-3.000 F360.000
G2 X-54.687 Y72.783 Z-3.000 I-2.871 J-2.220 K0.000 F360.000
G2 X-54.952 Y69.371 Z-3.000 I-12.508 J-0.744 K0.000 F360.000
G1 X-54.787 Y69.217 Z-3.000 F360.000
G2 X-52.855 Y67.410 Z-3.000 I-5.854 J-8.195 K0.000 F360.000
G2 X-51.676 Y64.724 Z-3.000 I-3.342 J-3.068 K0.000 F360.000
G2 X-51.926 Y62.209 Z-3.000 I-12.895 J0.009 K0.000 F360.000
G2 X-53.843 Y59.596 Z-3.000 I-4.708 J1.444 K0.000 F360.000
G1 X-53.843 Y59.596 Z-3.000 F360.000
G3 X-54.707 Y58.827 Z-3.000 I4.016 J-5.385 K0.000 F360.000
G3 X-55.125 Y58.153 Z-3.000 I0.934 J-1.045 K0.000 F360.000
G3 X-54.849 Y56.828 Z-3.000 I1.522 J-0.374 K0.000 F360.000
G2 X-52.933 Y53.921 Z-3.000 I-3.578 J-4.444 K0.000 F360.000
G2 X-52.753 Y51.153 Z-3.000 I-7.722 J-1.890 K0.000 F360.000
G2 X-54.616 Y47.395 Z-3.000 I-5.463 J0.367 K0.000 F360.000
G3 X-54.862 Y45.336 Z-3.000 I0.940 J-1.156 K0.000 F360.000
G3 X-53.251 Y43.903 Z-3.000 I17.513 J18.058 K0.000 F360.000
G2 X-51.927 Y41.760 Z-3.000 I-3.368 J-3.562 K0.000 F360.000
G2 X-51.695 Y40.204 Z-3.000 I-22.453 J-4.144 K0.000 F360.000
G2 X-52.149 Y37.628 Z-3.000 I-4.273 J-0.575 K0.000 F360.000
G2 X-54.510 Y34.980 Z-3.000 I-8.097 J4.842 K0.000 F360.000
G3 X-54.945 Y34.643 Z-3.000 I1.509 J-2.396 K0.000 F360.000
G1 X-54.923 Y34.498 Z-3.000 F360.000
G1 X-54.923 Y34.498 Z-3.000 F360.000
G2 X-54.691 Y31.327 Z-3.000 I-11.489 J-2.434 K0.000 F360.000
G2 X-56.344 Y28.469 Z-3.000 I-3.619 J0.187 K0.000 F360.000
G2 X-58.972 Y28.377 Z-3.000 I-1.407 J2.601 K0.000 F360.000
G2 X-62.109 Y29.953 Z-3.000 I151.976 J306.514 K0.000 F360.000
G3 X-63.945 Y30.682 Z-3.000 I-4.089 J-7.622 K0.000 F360.000
G1 X-69.418 Y31.867 Z-3.000 F360.000
G3 X-70.208 Y31.999 Z-3.000 I-1.351 J-5.672 K0.000 F360.000
G3 X-71.267 Y31.902 Z-3.000 I-0.384 J-1.632 K0.000 F360.000
G3 X-71.878 Y31.205 Z-3.000 I3.760 J-3.914 K0.000 F360.000
G2 X-74.941 Y27.950 Z-3.000 I-10.733 J7.032 K0.000 F360.000
G2 X-78.390 Y26.483 Z-3.000 I-4.678 J6.207 K0.000 F360.000
G2 X-80.237 Y26.407 Z-3.000 I-1.270 J8.417 K0.000 F360.000
G2 X-84.431 Y29.081 Z-3.000 I0.294 J5.087 K0.000 F360.000
G2 X-85.203 Y33.225 Z-3.000 I6.816 J3.413 K0.000 F360.000
G1 X-88.331 Y33.340 Z-3.000 F360.000
G2 X-89.263 Y33.474 Z-3.000 I0.679 J8.048 K0.000 F360.000
G2 X-95.105 Y35.382 Z-3.000 I2.390 J17.212 K0.000 F360.000
G1 X-97.241 Y36.783 Z-3.000 F360.000
G1 X-97.404 Y36.908 Z-3.000 F360.000
G1 X-99.327 Y38.586 Z-3.000 F360.000
G1 X-99.584 Y38.877 Z-3.000 F360.000
G2 X-103.010 Y44.983 Z-3.000 I28.313 J19.903 K0.000 F360.000
G1 X-103.846 Y47.451 Z-3.000 F360.000
G1 X-103.904 Y47.686 Z-3.000 F360.000
G1 X-104.244 Y49.767 Z-3.000 F360.000
G1 X-104.264 Y50.009 Z-3.000 F360.000
G1 X-104.264 Y53.991 Z-3.000 F360.000
G1 X-104.244 Y54.233 Z-3.000 F360.000
G1 X-103.904 Y56.314 Z-3.000 F360.000
G1 X-103.846 Y56.549 Z-3.000 F360.000
G1 X-103.069 Y58.869 Z-3.000 F360.000
G2 X-99.584 Y65.123 Z-3.000 I30.304 J-12.790 K0.000 F360.000
G1 X-99.327 Y65.414 Z-3.000 F360.000
G1 X-97.404 Y67.092 Z-3.000 F360.000
G1 X-97.241 Y67.217 Z-3.000 F360.000
G1 X-95.105 Y68.618 Z-3.000 F360.000
G2 X-94.071 Y69.135 Z-3.000 I4.580 J-7.860 K0.000 F360.000
G2 X-88.331 Y70.660 Z-3.000 I7.789 J-17.755 K0.000 F360.000
G1 X-85.203 Y70.775 Z-3.000 F360.000
G2 X-84.952 Y73.553 Z-3.000 I7.874 J0.690 K0.000 F360.000
G2 X-81.588 Y77.315 Z-3.000 I5.064 J-1.144 K0.000 F360.000
G2 X-78.949 Y77.578 Z-3.000 I2.021 J-6.884 K0.000 F360.000
G2 X-74.788 Y75.953 Z-3.000 I-0.668 J-7.846 K0.000 F360.000
G2 X-72.314 Y73.412 Z-3.000 I-8.020 J-10.285 K0.000 F360.000
G3 X-71.277 Y72.112 Z-3.000 I6.865 J4.408 K0.000 F360.000
G3 X-70.931 Y71.998 Z-3.000 I1.109 J2.800 K0.000 F360.000
G3 X-69.830 Y72.050 Z-3.000 I0.384 J3.581 K0.000 F360.000
G3 X-63.914 Y73.325 Z-3.000 I-37.805 J189.775 K0.000 F360.000
G3 X-63.121 Y73.582 Z-3.000 I-1.873 J7.134 K0.000 F360.000
G3 X-59.088 Y75.571 Z-3.000 I-41.785 J89.819 K0.000 F360.000
G2 X-56.639 Y75.691 Z-3.000 I1.368 J-2.874 K0.000 F360.000
G2 X-55.431 Y74.685 Z-3.000 I-1.663 J-3.226 K0.000 F360.000
G1 X-55.431 Y74.685 Z-6.000 F360.000
G2 X-54.687 Y72.783 Z-6.000 I-2.871 J-2.220 K0.000 F360.000
G2 X-54.952 Y69.371 Z-6.000 I-12.508 J-0.744 K0.000 F360.000
G1 X-54.787 Y69.217 Z-6.000 F360.000
G2 X-52.855 Y67.410 Z-6.000 I-5.854 J-8.195 K0.000 F360.000
G2 X-51.676 Y64.724 Z-6.000 I-3.342 J-3.068 K0.000 F360.000
G2 X-51.926 Y62.209 Z-6.000 I-12.895 J0.009 K0.000 F360.000
G2 X-53.843 Y59.596 Z-6.000 I-4.708 J1.444 K0.000 F360.000
G1 X-53.843 Y59.596 Z-6.000 F360.000
G3 X-54.707 Y58.827 Z-6.000 I4.016 J-5.385 K0.000 F360.000
G3 X-55.125 Y58.153 Z-6.000 I0.934 J-1.045 K0.000 F360.000
G3 X-54.849 Y56.828 Z-6.000 I1.522 J-0.374 K0.000 F360.000
G2 X-52.933 Y53.921 Z-6.000 I-3.578 J-4.444 K0.000 F360.000
G2 X-52.753 Y51.153 Z-6.000 I-7.722 J-1.890 K0.000 F360.000
G2 X-54.616 Y47.395 Z-6.000 I-5.463 J0.367 K0.000 F360.000
G3 X-54.862 Y45.336 Z-6.000 I0.940 J-1.156 K0.000 F360.000
G3 X-53.251 Y43.903 Z-6.000 I17.513 J18.058 K0.000 F360.000
G2 X-51.927 Y41.760 Z-6.000 I-3.368 J-3.562 K0.000 F360.000
G2 X-51.695 Y40.204 Z-6.000 I-22.453 J-4.144 K0.000 F360.000
G2 X-52.149 Y37.628 Z-6.000 I-4.273 J-0.575 K0.000 F360.000
G2 X-54.510 Y34.980 Z-6.000 I-8.097 J4.842 K0.000 F360.000
G3 X-54.945 Y34.643 Z-6.000 I1.509 J-2.396 K0.000 F360.000
G1 X-54.923 Y34.498 Z-6.000 F360.000
G1 X-54.923 Y34.498 Z-6.000 F360.000
G2 X-54.691 Y31.327 Z-6.000 I-11.489 J-2.434 K0.000 F360.000
G2 X-56.344 Y28.469 Z-6.000 I-3.619 J0.187 K0.000 F360.000
G2 X-58.972 Y28.377 Z-6.000 I-1.407 J2.601 K0.000 F360.000
G2 X-62.109 Y29.953 Z-6.000 I151.976 J306.514 K0.000 F360.000
G3 X-63.945 Y30.682 Z-6.000 I-4.089 J-7.622 K0.000 F360.000
G1 X-69.418 Y31.867 Z-6.000 F360.000
G3 X-70.208 Y31.999 Z-6.000 I-1.351 J-5.672 K0.000 F360.000
G3 X-71.267 Y31.902 Z-6.000 I-0.384 J-1.632 K0.000 F360.000
G3 X-71.878 Y31.205 Z-6.000 I3.760 J-3.914 K0.000 F360.000
G2 X-74.941 Y27.950 Z-6.000 I-10.733 J7.032 K0.000 F360.000
G2 X-78.390 Y26.483 Z-6.000 I-4.678 J6.207 K0.000 F360.000
G2 X-80.237 Y26.407 Z-6.000 I-1.270 J8.417 K0.000 F360.000
G2 X-84.431 Y29.081 Z-6.000 I0.294 J5.087 K0.000 F360.000
G2 X-85.203 Y33.225 Z-6.000 I6.816 J3.413 K0.000 F360.000
G1 X-88.331 Y33.340 Z-6.000 F360.000
G2 X-89.263 Y33.474 Z-6.000 I0.679 J8.048 K0.000 F360.000
G2 X-95.105 Y35.382 Z-6.000 I2.390 J17.212 K0.000 F360.000
G1 X-97.241 Y36.783 Z-6.000 F360.000
G1 X-97.404 Y36.908 Z-6.000 F360.000
G1 X-99.327 Y38.586 Z-6.000 F360.000
G1 X-99.584 Y38.877 Z-6.000 F360.000
G2 X-103.010 Y44.983 Z-6.000 I28.313 J19.903 K0.000 F360.000
G1 X-103.846 Y47.451 Z-6.000 F360.000
G1 X-103.904 Y47.686 Z-6.000 F360.000
G1 X-104.244 Y49.767 Z-6.000 F360.000
G1 X-104.264 Y50.009 Z-6.000 F360.000
G1 X-104.264 Y53.991 Z-6.000 F360.000
G1 X-104.244 Y54.233 Z-6.000 F360.000
G1 X-103.904 Y56.314 Z-6.000 F360.000
G1 X-103.846 Y56.549 Z-6.000 F360.000
G1 X-103.069 Y58.869 Z-6.000 F360.000
G2 X-99.584 Y65.123 Z-6.000 I30.304 J-12.790 K0.000 F360.000
G1 X-99.327 Y65.414 Z-6.000 F360.000
G1 X-97.404 Y67.092 Z-6.000 F360.000
G1 X-97.241 Y67.217 Z-6.000 F360.000
G1 X-95.105 Y68.618 Z-6.000 F360.000
G2 X-94.071 Y69.135 Z-6.000 I4.580 J-7.860 K0.000 F360.000
G2 X-88.331 Y70.660 Z-6.000 I7.789 J-17.755 K0.000 F360.000
G1 X-85.203 Y70.775 Z-6.000 F360.000
G2 X-84.952 Y73.553 Z-6.000 I7.874 J0.690 K0.000 F360.000
G2 X-81.588 Y77.315 Z-6.000 I5.064 J-1.144 K0.000 F360.000
G2 X-78.949 Y77.578 Z-6.000 I2.021 J-6.884 K0.000 F360.000
G2 X-74.788 Y75.953 Z-6.000 I-0.668 J-7.846 K0.000 F360.000
G2 X-72.314 Y73.412 Z-6.000 I-8.020 J-10.285 K0.000 F360.000
G3 X-71.277 Y72.112 Z-6.000 I6.865 J4.408 K0.000 F360.000
G3 X-70.931 Y71.998 Z-6.000 I1.109 J2.800 K0.000 F360.000
G3 X-69.830 Y72.050 Z-6.000 I0.384 J3.581 K0.000 F360.000
G3 X-63.914 Y73.325 Z-6.000 I-37.805 J189.775 K0.000 F360.000
G3 X-63.121 Y73.582 Z-6.000 I-1.873 J7.134 K0.000 F360.000
G3 X-59.088 Y75.571 Z-6.000 I-41.785 J89.819 K0.000 F360.000
G2 X-56.639 Y75.691 Z-6.000 I1.368 J-2.874 K0.000 F360.000
G2 X-55.431 Y74.685 Z-6.000 I-1.663 J-3.226 K0.000 F360.000
G0 Z5.000
G0 Z5.000
(Finish operation: Profile037)
(Begin operation: Profile038)
(Path: Profile038)
(Profile038)
(Compensated Tool Path. Diameter: 3.0)
G0 Z5.000
G0 X-55.431 Y22.685
G0 Z3.000
G1 X-55.431 Y22.685 Z-3.000 F360.000
G2 X-54.687 Y20.783 Z-3.000 I-2.871 J-2.220 K0.000 F360.000
G2 X-54.952 Y17.371 Z-3.000 I-12.508 J-0.744 K0.000 F360.000
G1 X-54.787 Y17.217 Z-3.000 F360.000
G2 X-52.855 Y15.410 Z-3.000 I-5.854 J-8.195 K0.000 F360.000
G2 X-51.676 Y12.724 Z-3.000 I-3.342 J-3.068 K0.000 F360.000
G2 X-51.926 Y10.209 Z-3.000 I-12.895 J0.009 K0.000 F360.000
G2 X-53.843 Y7.596 Z-3.000 I-4.708 J1.444 K0.000 F360.000
G1 X-53.843 Y7.596 Z-3.000 F360.000
G3 X-54.707 Y6.827 Z-3.000 I4.016 J-5.385 K0.000 F360.000
G3 X-55.125 Y6.153 Z-3.000 I0.934 J-1.045 K0.000 F360.000
G3 X-54.849 Y4.828 Z-3.000 I1.522 J-0.374 K0.000 F360.000
G2 X-52.933 Y1.921 Z-3.000 I-3.578 J-4.444 K0.000 F360.000
G2 X-52.753 Y-0.847 Z-3.000 I-7.722 J-1.890 K0.000 F360.000
G2 X-54.616 Y-4.605 Z-3.000 I-5.463 J0.367 K0.000 F360.000
G3 X-54.862 Y-6.664 Z-3.000 I0.940 J-1.156 K0.000 F360.000
G3 X-53.251 Y-8.097 Z-3.000 I17.513 J18.058 K0.000 F360.000
G2 X-51.927 Y-10.240 Z-3.000 I-3.368 J-3.562 K0.000 F360.000
G2 X-51.695 Y-11.796 Z-3.000 I-22.453 J-4.144 K0.000 F360.000
G2 X-52.149 Y-14.372 Z-3.000 I-4.273 J-0.575 K0.000 F360.000
G2 X-54.510 Y-17.020 Z-3.000 I-8.097 J4.842 K0.000 F360.000
G3 X-54.945 Y-17.357 Z-3.000 I1.509 J-2.396 K0.000 F360.000
G1 X-54.923 Y-17.502 Z-3.000 F360.000
G1 X-54.923 Y-17.502 Z-3.000 F360.000
G2 X-54.691 Y-20.673 Z-3.000 I-11.489 J-2.434 K0.000 F360.000
G2 X-56.344 Y-23.531 Z-3.000 I-3.619 J0.187 K0.000 F360.000
G2 X-58.972 Y-23.623 Z-3.000 I-1.407 J2.601 K0.000 F360.000
G2 X-62.109 Y-22.047 Z-3.000 I151.976 J306.514 K0.000 F360.000
G3 X-63.945 Y-21.318 Z-3.000 I-4.089 J-7.622 K0.000 F360.000
G1 X-69.418 Y-20.133 Z-3.000 F360.000
G3 X-70.208 Y-20.001 Z-3.000 I-1.351 J-5.672 K0.000 F360.000
G3 X-71.267 Y-20.098 Z-3.000 I-0.384 J-1.632 K0.000 F360.000
G3 X-71.878 Y-20.795 Z-3.000 I3.760 J-3.914 K0.000 F360.000
G2 X-74.941 Y-24.050 Z-3.000 I-10.733 J7.032 K0.000 F360.000
G2 X-78.390 Y-25.517 Z-3.000 I-4.678 J6.207 K0.000 F360.000
G2 X-80.237 Y-25.593 Z-3.000 I-1.270 J8.417 K0.000 F360.000
G2 X-84.431 Y-22.919 Z-3.000 I0.294 J5.087 K0.000 F360.000
G2 X-85.203 Y-18.775 Z-3.000 I6.816 J3.413 K0.000 F360.000
G1 X-88.331 Y-18.660 Z-3.000 F360.000
G2 X-89.263 Y-18.526 Z-3.000 I0.679 J8.048 K0.000 F360.000
G2 X-95.105 Y-16.618 Z-3.000 I2.390 J17.212 K0.000 F360.000
G1 X-97.241 Y-15.217 Z-3.000 F360.000
G1 X-97.404 Y-15.092 Z-3.000 F360.000
G1 X-99.327 Y-13.414 Z-3.000 F360.000
G1 X-99.584 Y-13.123 Z-3.000 F360.000
G2 X-103.010 Y-7.017 Z-3.000 I28.313 J19.903 K0.000 F360.000
G1 X-103.846 Y-4.549 Z-3.000 F360.000
G1 X-103.904 Y-4.314 Z-3.000 F360.000
G1 X-104.244 Y-2.233 Z-3.000 F360.000
G1 X-104.264 Y-1.991 Z-3.000 F360.000
G1 X-104.264 Y1.991 Z-3.000 F360.000
G1 X-104.244 Y2.233 Z-3.000 F360.000
G1 X-103.904 Y4.314 Z-3.000 F360.000
G1 X-103.846 Y4.549 Z-3.000 F360.000
G1 X-103.069 Y6.869 Z-3.000 F360.000
G2 X-99.584 Y13.123 Z-3.000 I30.304 J-12.790 K0.000 F360.000
G1 X-99.327 Y13.414 Z-3.000 F360.000
G1 X-97.404 Y15.092 Z-3.000 F360.000
G1 X-97.241 Y15.217 Z-3.000 F360.000
G1 X-95.105 Y16.618 Z-3.000 F360.000
G2 X-94.071 Y17.135 Z-3.000 I4.580 J-7.860 K0.000 F360.000
G2 X-88.331 Y18.660 Z-3.000 I7.789 J-17.755 K0.000 F360.000
G1 X-85.203 Y18.775 Z-3.000 F360.000
G2 X-84.952 Y21.553 Z-3.000 I7.874 J0.690 K0.000 F360.000
G2 X-81.588 Y25.315 Z-3.000 I5.064 J-1.144 K0.000 F360.000
G2 X-78.949 Y25.578 Z-3.000 I2.021 J-6.884 K0.000 F360.000
G2 X-74.788 Y23.953 Z-3.000 I-0.668 J-7.846 K0.000 F360.000
G2 X-72.314 Y21.412 Z-3.000 I-8.020 J-10.285 K0.000 F360.000
G3 X-71.277 Y20.112 Z-3.000 I6.865 J4.408 K0.000 F360.000
G3 X-70.931 Y19.998 Z-3.000 I1.109 J2.800 K0.000 F360.000
G3 X-69.830 Y20.050 Z-3.000 I0.384 J3.581 K0.000 F360.000
G3 X-63.914 Y21.325 Z-3.000 I-37.805 J189.775 K0.000 F360.000
G3 X-63.121 Y21.582 Z-3.000 I-1.873 J7.134 K0.000 F360.000
G3 X-59.088 Y23.571 Z-3.000 I-41.785 J89.819 K0.000 F360.000
G2 X-56.639 Y23.691 Z-3.000 I1.368 J-2.874 K0.000 F360.000
G2 X-55.431 Y22.685 Z-3.000 I-1.663 J-3.226 K0.000 F360.000
G1 X-55.431 Y22.685 Z-6.000 F360.000
G2 X-54.687 Y20.783 Z-6.000 I-2.871 J-2.220 K0.000 F360.000
G2 X-54.952 Y17.371 Z-6.000 I-12.508 J-0.744 K0.000 F360.000
G1 X-54.787 Y17.217 Z-6.000 F360.000
G2 X-52.855 Y15.410 Z-6.000 I-5.854 J-8.195 K0.000 F360.000
G2 X-51.676 Y12.724 Z-6.000 I-3.342 J-3.068 K0.000 F360.000
G2 X-51.926 Y10.209 Z-6.000 I-12.895 J0.009 K0.000 F360.000
G2 X-53.843 Y7.596 Z-6.000 I-4.708 J1.444 K0.000 F360.000
G1 X-53.843 Y7.596 Z-6.000 F360.000
G3 X-54.707 Y6.827 Z-6.000 I4.016 J-5.385 K0.000 F360.000
G3 X-55.125 Y6.153 Z-6.000 I0.934 J-1.045 K0.000 F360.000
G3 X-54.849 Y4.828 Z-6.000 I1.522 J-0.374 K0.000 F360.000
G2 X-52.933 Y1.921 Z-6.000 I-3.578 J-4.444 K0.000 F360.000
G2 X-52.753 Y-0.847 Z-6.000 I-7.722 J-1.890 K0.000 F360.000
G2 X-54.616 Y-4.605 Z-6.000 I-5.463 J0.367 K0.000 F360.000
G3 X-54.862 Y-6.664 Z-6.000 I0.940 J-1.156 K0.000 F360.000
G3 X-53.251 Y-8.097 Z-6.000 I17.513 J18.058 K0.000 F360.000
G2 X-51.927 Y-10.240 Z-6.000 I-3.368 J-3.562 K0.000 F360.000
G2 X-51.695 Y-11.796 Z-6.000 I-22.453 J-4.144 K0.000 F360.000
G2 X-52.149 Y-14.372 Z-6.000 I-4.273 J-0.575 K0.000 F360.000
G2 X-54.510 Y-17.020 Z-6.000 I-8.097 J4.842 K0.000 F360.000
G3 X-54.945 Y-17.357 Z-6.000 I1.509 J-2.396 K0.000 F360.000
G1 X-54.923 Y-17.502 Z-6.000 F360.000
G1 X-54.923 Y-17.502 Z-6.000 F360.000
G2 X-54.691 Y-20.673 Z-6.000 I-11.489 J-2.434 K0.000 F360.000
G2 X-56.344 Y-23.531 Z-6.000 I-3.619 J0.187 K0.000 F360.000
G2 X-58.972 Y-23.623 Z-6.000 I-1.407 J2.601 K0.000 F360.000
G2 X-62.109 Y-22.047 Z-6.000 I151.976 J306.514 K0.000 F360.000
G3 X-63.945 Y-21.318 Z-6.000 I-4.089 J-7.622 K0.000 F360.000
G1 X-69.418 Y-20.133 Z-6.000 F360.000
G3 X-70.208 Y-20.001 Z-6.000 I-1.351 J-5.672 K0.000 F360.000
G3 X-71.267 Y-20.098 Z-6.000 I-0.384 J-1.632 K0.000 F360.000
G3 X-71.878 Y-20.795 Z-6.000 I3.760 J-3.914 K0.000 F360.000
G2 X-74.941 Y-24.050 Z-6.000 I-10.733 J7.032 K0.000 F360.000
G2 X-78.390 Y-25.517 Z-6.000 I-4.678 J6.207 K0.000 F360.000
G2 X-80.237 Y-25.593 Z-6.000 I-1.270 J8.417 K0.000 F360.000
G2 X-84.431 Y-22.919 Z-6.000 I0.294 J5.087 K0.000 F360.000
G2 X-85.203 Y-18.775 Z-6.000 I6.816 J3.413 K0.000 F360.000
G1 X-88.331 Y-18.660 Z-6.000 F360.000
G2 X-89.263 Y-18.526 Z-6.000 I0.679 J8.048 K0.000 F360.000
G2 X-95.105 Y-16.618 Z-6.000 I2.390 J17.212 K0.000 F360.000
G1 X-97.241 Y-15.217 Z-6.000 F360.000
G1 X-97.404 Y-15.092 Z-6.000 F360.000
G1 X-99.327 Y-13.414 Z-6.000 F360.000
G1 X-99.584 Y-13.123 Z-6.000 F360.000
G2 X-103.010 Y-7.017 Z-6.000 I28.313 J19.903 K0.000 F360.000
G1 X-103.846 Y-4.549 Z-6.000 F360.000
G1 X-103.904 Y-4.314 Z-6.000 F360.000
G1 X-104.244 Y-2.233 Z-6.000 F360.000
G1 X-104.264 Y-1.991 Z-6.000 F360.000
G1 X-104.264 Y1.991 Z-6.000 F360.000
G1 X-104.244 Y2.233 Z-6.000 F360.000
G1 X-103.904 Y4.314 Z-6.000 F360.000
G1 X-103.846 Y4.549 Z-6.000 F360.000
G1 X-103.069 Y6.869 Z-6.000 F360.000
G2 X-99.584 Y13.123 Z-6.000 I30.304 J-12.790 K0.000 F360.000
G1 X-99.327 Y13.414 Z-6.000 F360.000
G1 X-97.404 Y15.092 Z-6.000 F360.000
G1 X-97.241 Y15.217 Z-6.000 F360.000
G1 X-95.105 Y16.618 Z-6.000 F360.000
G2 X-94.071 Y17.135 Z-6.000 I4.580 J-7.860 K0.000 F360.000
G2 X-88.331 Y18.660 Z-6.000 I7.789 J-17.755 K0.000 F360.000
G1 X-85.203 Y18.775 Z-6.000 F360.000
G2 X-84.952 Y21.553 Z-6.000 I7.874 J0.690 K0.000 F360.000
G2 X-81.588 Y25.315 Z-6.000 I5.064 J-1.144 K0.000 F360.000
G2 X-78.949 Y25.578 Z-6.000 I2.021 J-6.884 K0.000 F360.000
G2 X-74.788 Y23.953 Z-6.000 I-0.668 J-7.846 K0.000 F360.000
G2 X-72.314 Y21.412 Z-6.000 I-8.020 J-10.285 K0.000 F360.000
G3 X-71.277 Y20.112 Z-6.000 I6.865 J4.408 K0.000 F360.000
G3 X-70.931 Y19.998 Z-6.000 I1.109 J2.800 K0.000 F360.000
G3 X-69.830 Y20.050 Z-6.000 I0.384 J3.581 K0.000 F360.000
G3 X-63.914 Y21.325 Z-6.000 I-37.805 J189.775 K0.000 F360.000
G3 X-63.121 Y21.582 Z-6.000 I-1.873 J7.134 K0.000 F360.000
G3 X-59.088 Y23.571 Z-6.000 I-41.785 J89.819 K0.000 F360.000
G2 X-56.639 Y23.691 Z-6.000 I1.368 J-2.874 K0.000 F360.000
G2 X-55.431 Y22.685 Z-6.000 I-1.663 J-3.226 K0.000 F360.000
G0 Z5.000
G0 Z5.000
(Finish operation: Profile038)
(Begin operation: Profile039)
(Path: Profile039)
(Profile039)
(Compensated Tool Path. Diameter: 3.0)
G0 Z5.000
G0 X-55.431 Y-29.315
G0 Z3.000
G1 X-55.431 Y-29.315 Z-3.000 F360.000
G2 X-54.687 Y-31.217 Z-3.000 I-2.871 J-2.220 K0.000 F360.000
G2 X-54.952 Y-34.629 Z-3.000 I-12.508 J-0.744 K0.000 F360.000
G1 X-54.787 Y-34.783 Z-3.000 F360.000
G2 X-52.855 Y-36.590 Z-3.000 I-5.854 J-8.195 K0.000 F360.000
G2 X-51.676 Y-39.276 Z-3.000 I-3.342 J-3.068 K0.000 F360.000
G2 X-51.926 Y-41.791 Z-3.000 I-12.895 J0.009 K0.000 F360.000
G2 X-53.843 Y-44.404 Z-3.000 I-4.708 J1.444 K0.000 F360.000
G1 X-53.843 Y-44.404 Z-3.000 F360.000
G3 X-54.707 Y-45.173 Z-3.000 I4.016 J-5.385 K0.000 F360.000
G3 X-55.125 Y-45.847 Z-3.000 I0.934 J-1.045 K0.000 F360.000
G3 X-54.849 Y-47.172 Z-3.000 I1.522 J-0.374 K0.000 F360.000
G2 X-52.933 Y-50.079 Z-3.000 I-3.578 J-4.444 K0.000 F360.000
G2 X-52.753 Y-52.847 Z-3.000 I-7.722 J-1.890 K0.000 F360.000
G2 X-54.616 Y-56.605 Z-3.000 I-5.463 J0.367 K0.000 F360.000
G3 X-54.862 Y-58.664 Z-3.000 I0.940 J-1.156 K0.000 F360.000
G3 X-53.251 Y-60.097 Z-3.000 I17.513 J18.058 K0.000 F360.000
G2 X-51.927 Y-62.240 Z-3.000 I-3.368 J-3.562 K0.000 F360.000
G2 X-51.695 Y-63.796 Z-3.000 I-22.453 J-4.144 K0.000 F360.000
G2 X-52.149 Y-66.372 Z-3.000 I-4.273 J-0.575 K0.000 F360.000
G2 X-54.510 Y-69.020 Z-3.000 I-8.097 J4.842 K0.000 F360.000
G3 X-54.945 Y-69.357 Z-3.000 I1.509 J-2.396 K0.000 F360.000
G1 X-54.923 Y-69.502 Z-3.000 F360.000
G1 X-54.923 Y-69.502 Z-3.000 F360.000
G2 X-54.691 Y-72.673 Z-3.000 I-11.489 J-2.434 K0.000 F360.000
G2 X-56.344 Y-75.531 Z-3.000 I-3.619 J0.187 K0.000 F360.000
G2 X-58.972 Y-75.623 Z-3.000 I-1.407 J2.601 K0.000 F360.000
G2 X-62.109 Y-74.047 Z-3.000 I151.976 J306.514 K0.000 F360.000
G3 X-63.945 Y-73.318 Z-3.000 I-4.089 J-7.622 K0.000 F360.000
G1 X-69.418 Y-72.133 Z-3.000 F360.000
G3 X-70.208 Y-72.001 Z-3.000 I-1.351 J-5.672 K0.000 F360.000
G3 X-71.267 Y-72.098 Z-3.000 I-0.384 J-1.632 K0.000 F360.000
G3 X-71.878 Y-72.795 Z-3.000 I3.760 J-3.914 K0.000 F360.000
G2 X-74.941 Y-76.050 Z-3.000 I-10.733 J7.032 K0.000 F360.000
G2 X-78.390 Y-77.517 Z-3.000 I-4.678 J6.207 K0.000 F360.000
G2 X-80.237 Y-77.593 Z-3.000 I-1.270 J8.417 K0.000 F360.000
G2 X-84.431 Y-74.919 Z-3.000 I0.294 J5.087 K0.000 F360.000
G2 X-85.203 Y-70.775 Z-3.000 I6.816 J3.413 K0.000 F360.000
G1 X-88.331 Y-70.660 Z-3.000 F360.000
G2 X-89.263 Y-70.526 Z-3.000 I0.679 J8.048 K0.000 F360.000
G2 X-95.105 Y-68.618 Z-3.000 I2.390 J17.212 K0.000 F360.000
G1 X-97.241 Y-67.217 Z-3.000 F360.000
G1 X-97.404 Y-67.092 Z-3.000 F360.000
G1 X-99.327 Y-65.414 Z-3.000 F360.000
G1 X-99.584 Y-65.123 Z-3.000 F360.000
G2 X-103.010 Y-59.017 Z-3.000 I28.313 J19.903 K0.000 F360.000
G1 X-103.846 Y-56.549 Z-3.000 F360.000
G1 X-103.904 Y-56.314 Z-3.000 F360.000
G1 X-104.244 Y-54.233 Z-3.000 F360.000
G1 X-104.264 Y-53.991 Z-3.000 F360.000
G1 X-104.264 Y-50.009 Z-3.000 F360.000
G1 X-104.244 Y-49.767 Z-3.000 F360.000
G1 X-103.904 Y-47.686 Z-3.000 F360.000
G1 X-103.846 Y-47.451 Z-3.000 F360.000
G1 X-103.069 Y-45.131 Z-3.000 F360.000
G2 X-99.584 Y-38.877 Z-3.000 I30.304 J-12.790 K0.000 F360.000
G1 X-99.327 Y-38.586 Z-3.000 F360.000
G1 X-97.404 Y-36.908 Z-3.000 F360.000
G1 X-97.241 Y-36.783 Z-3.000 F360.000
G1 X-95.105 Y-35.382 Z-3.000 F360.000
G2 X-94.071 Y-34.865 Z-3.000 I4.580 J-7.860 K0.000 F360.000
G2 X-88.331 Y-33.340 Z-3.000 I7.789 J-17.755 K0.000 F360.000
G1 X-85.203 Y-33.225 Z-3.000 F360.000
G2 X-84.952 Y-30.447 Z-3.000 I7.874 J0.690 K0.000 F360.000
G2 X-81.588 Y-26.685 Z-3.000 I5.064 J-1.144 K0.000 F360.000
G2 X-78.949 Y-26.422 Z-3.000 I2.021 J-6.884 K0.000 F360.000
G2 X-74.788 Y-28.047 Z-3.000 I-0.668 J-7.846 K0.000 F360.000
G2 X-72.314 Y-30.588 Z-3.000 I-8.020 J-10.285 K0.000 F360.000
G3 X-71.277 Y-31.888 Z-3.000 I6.865 J4.408 K0.000 F360.000
G3 X-70.931 Y-32.002 Z-3.000 I1.109 J2.800 K0.000 F360.000
G3 X-69.830 Y-31.950 Z-3.000 I0.384 J3.581 K0.000 F360.000
G3 X-63.914 Y-30.675 Z-3.000 I-37.805 J189.775 K0.000 F360.000
G3 X-63.121 Y-30.418 Z-3.000 I-1.873 J7.134 K0.000 F360.000
G3 X-59.088 Y-28.429 Z-3.000 I-41.785 J89.819 K0.000 F360.000
G2 X-56.639 Y-28.309 Z-3.000 I1.368 J-2.874 K0.000 F360.000
G2 X-55.431 Y-29.315 Z-3.000 I-1.663 J-3.226 K0.000 F360.000
G1 X-55.431 Y-29.315 Z-6.000 F360.000
G2 X-54.687 Y-31.217 Z-6.000 I-2.871 J-2.220 K0.000 F360.000
G2 X-54.952 Y-34.629 Z-6.000 I-12.508 J-0.744 K0.000 F360.000
G1 X-54.787 Y-34.783 Z-6.000 F360.000
G2 X-52.855 Y-36.590 Z-6.000 I-5.854 J-8.195 K0.000 F360.000
G2 X-51.676 Y-39.276 Z-6.000 I-3.342 J-3.068 K0.000 F360.000
G2 X-51.926 Y-41.791 Z-6.000 I-12.895 J0.009 K0.000 F360.000
G2 X-53.843 Y-44.404 Z-6.000 I-4.708 J1.444 K0.000 F360.000
G1 X-53.843 Y-44.404 Z-6.000 F360.000
G3 X-54.707 Y-45.173 Z-6.000 I4.016 J-5.385 K0.000 F360.000
G3 X-55.125 Y-45.847 Z-6.000 I0.934 J-1.045 K0.000 F360.000
G3 X-54.849 Y-47.172 Z-6.000 I1.522 J-0.374 K0.000 F360.000
G2 X-52.933 Y-50.079 Z-6.000 I-3.578 J-4.444 K0.000 F360.000
G2 X-52.753 Y-52.847 Z-6.000 I-7.722 J-1.890 K0.000 F360.000
G2 X-54.616 Y-56.605 Z-6.000 I-5.463 J0.367 K0.000 F360.000
G3 X-54.862 Y-58.664 Z-6.000 I0.940 J-1.156 K0.000 F360.000
G3 X-53.251 Y-60.097 Z-6.000 I17.513 J18.058 K0.000 F360.000
G2 X-51.927 Y-62.240 Z-6.000 I-3.368 J-3.562 K0.000 F360.000
G2 X-51.695 Y-63.796 Z-6.000 I-22.453 J-4.144 K0.000 F360.000
G2 X-52.149 Y-66.372 Z-6.000 I-4.273 J-0.575 K0.000 F360.000
G2 X-54.510 Y-69.020 Z-6.000 I-8.097 J4.842 K0.000 F360.000
G3 X-54.945 Y-69.357 Z-6.000 I1.509 J-2.396 K0.000 F360.000
G1 X-54.923 Y-69.502 Z-6.000 F360.000
G1 X-54.923 Y-69.502 Z-6.000 F360.000
G2 X-54.691 Y-72.673 Z-6.000 I-11.489 J-2.434 K0.000 F360.000
G2 X-56.344 Y-75.531 Z-6.000 I-3.619 J0.187 K0.000 F360.000
G2 X-58.972 Y-75.623 Z-6.000 I-1.407 J2.601 K0.000 F360.000
G2 X-62.109 Y-74.047 Z-6.000 I151.976 J306.514 K0.000 F360.000
G3 X-63.945 Y-73.318 Z-6.000 I-4.089 J-7.622 K0.000 F360.000
G1 X-69.418 Y-72.133 Z-6.000 F360.000
G3 X-70.208 Y-72.001 Z-6.000 I-1.351 J-5.672 K0.000 F360.000
G3 X-71.267 Y-72.098 Z-6.000 I-0.384 J-1.632 K0.000 F360.000
G3 X-71.878 Y-72.795 Z-6.000 I3.760 J-3.914 K0.000 F360.000
G2 X-74.941 Y-76.050 Z-6.000 I-10.733 J7.032 K0.000 F360.000
G2 X-78.390 Y-77.517 Z-6.000 I-4.678 J6.207 K0.000 F360.000
G2 X-80.237 Y-77.593 Z-6.000 I-1.270 J8.417 K0.000 F360.000
G2 X-84.431 Y-74.919 Z-6.000 I0.294 J5.087 K0.000 F360.000
G2 X-85.203 Y-70.775 Z-6.000 I6.816 J3.413 K0.000 F360.000
G1 X-88.331 Y-70.660 Z-6.000 F360.000
G2 X-89.263 Y-70.526 Z-6.000 I0.679 J8.048 K0.000 F360.000
G2 X-95.105 Y-68.618 Z-6.000 I2.390 J17.212 K0.000 F360.000
G1 X-97.241 Y-67.217 Z-6.000 F360.000
G1 X-97.404 Y-67.092 Z-6.000 F360.000
G1 X-99.327 Y-65.414 Z-6.000 F360.000
G1 X-99.584 Y-65.123 Z-6.000 F360.000
G2 X-103.010 Y-59.017 Z-6.000 I28.313 J19.903 K0.000 F360.000
G1 X-103.846 Y-56.549 Z-6.000 F360.000
G1 X-103.904 Y-56.314 Z-6.000 F360.000
G1 X-104.244 Y-54.233 Z-6.000 F360.000
G1 X-104.264 Y-53.991 Z-6.000 F360.000
G1 X-104.264 Y-50.009 Z-6.000 F360.000
G1 X-104.244 Y-49.767 Z-6.000 F360.000
G1 X-103.904 Y-47.686 Z-6.000 F360.000
G1 X-103.846 Y-47.451 Z-6.000 F360.000
G1 X-103.069 Y-45.131 Z-6.000 F360.000
G2 X-99.584 Y-38.877 Z-6.000 I30.304 J-12.790 K0.000 F360.000
G1 X-99.327 Y-38.586 Z-6.000 F360.000
G1 X-97.404 Y-36.908 Z-6.000 F360.000
G1 X-97.241 Y-36.783 Z-6.000 F360.000
G1 X-95.105 Y-35.382 Z-6.000 F360.000
G2 X-94.071 Y-34.865 Z-6.000 I4.580 J-7.860 K0.000 F360.000
G2 X-88.331 Y-33.340 Z-6.000 I7.789 J-17.755 K0.000 F360.000
G1 X-85.203 Y-33.225 Z-6.000 F360.000
G2 X-84.952 Y-30.447 Z-6.000 I7.874 J0.690 K0.000 F360.000
G2 X-81.588 Y-26.685 Z-6.000 I5.064 J-1.144 K0.000 F360.000
G2 X-78.949 Y-26.422 Z-6.000 I2.021 J-6.884 K0.000 F360.000
G2 X-74.788 Y-28.047 Z-6.000 I-0.668 J-7.846 K0.000 F360.000
G2 X-72.314 Y-30.588 Z-6.000 I-8.020 J-10.285 K0.000 F360.000
G3 X-71.277 Y-31.888 Z-6.000 I6.865 J4.408 K0.000 F360.000
G3 X-70.931 Y-32.002 Z-6.000 I1.109 J2.800 K0.000 F360.000
G3 X-69.830 Y-31.950 Z-6.000 I0.384 J3.581 K0.000 F360.000
G3 X-63.914 Y-30.675 Z-6.000 I-37.805 J189.775 K0.000 F360.000
G3 X-63.121 Y-30.418 Z-6.000 I-1.873 J7.134 K0.000 F360.000
G3 X-59.088 Y-28.429 Z-6.000 I-41.785 J89.819 K0.000 F360.000
G2 X-56.639 Y-28.309 Z-6.000 I1.368 J-2.874 K0.000 F360.000
G2 X-55.431 Y-29.315 Z-6.000 I-1.663 J-3.226 K0.000 F360.000
G0 Z5.000
G0 Z5.000
(Finish operation: Profile039)
(Begin operation: Profile040)
(Path: Profile040)
(Profile040)
(Compensated Tool Path. Diameter: 3.0)
G0 Z5.000
G0 X-3.431 Y-29.315
G0 Z3.000
G1 X-3.431 Y-29.315 Z-3.000 F360.000
G2 X-2.687 Y-31.217 Z-3.000 I-2.871 J-2.220 K0.000 F360.000
G2 X-2.952 Y-34.629 Z-3.000 I-12.508 J-0.744 K0.000 F360.000
G1 X-2.787 Y-34.783 Z-3.000 F360.000
G2 X-0.855 Y-36.590 Z-3.000 I-5.854 J-8.195 K0.000 F360.000
G2 X0.324 Y-39.276 Z-3.000 I-3.342 J-3.068 K0.000 F360.000
G2 X0.074 Y-41.791 Z-3.000 I-12.895 J0.009 K0.000 F360.000
G2 X-1.843 Y-44.404 Z-3.000 I-4.708 J1.444 K0.000 F360.000
G1 X-1.843 Y-44.404 Z-3.000 F360.000
G3 X-2.707 Y-45.173 Z-3.000 I4.016 J-5.385 K0.000 F360.000
G3 X-3.125 Y-45.847 Z-3.000 I0.934 J-1.045 K0.000 F360.000
G3 X-2.849 Y-47.172 Z-3.000 I1.522 J-0.374 K0.000 F360.000
G2 X-0.933 Y-50.079 Z-3.000 I-3.578 J-4.444 K0.000 F360.000
G2 X-0.753 Y-52.847 Z-3.000 I-7.722 J-1.890 K0.000 F360.000
G2 X-2.616 Y-56.605 Z-3.000 I-5.463 J0.367 K0.000 F360.000
G3 X-2.862 Y-58.664 Z-3.000 I0.940 J-1.156 K0.000 F360.000
G3 X-1.251 Y-60.097 Z-3.000 I17.513 J18.058 K0.000 F360.000
G2 X0.073 Y-62.240 Z-3.000 I-3.368 J-3.562 K0.000 F360.000
G2 X0.305 Y-63.796 Z-3.000 I-22.453 J-4.144 K0.000 F360.000
G2 X-0.149 Y-66.372 Z-3.000 I-4.273 J-0.575 K0.000 F360.000
G2 X-2.510 Y-69.020 Z-3.000 I-8.097 J4.842 K0.000 F360.000
G3 X-2.945 Y-69.357 Z-3.000 I1.509 J-2.396 K0.000 F360.000
G1 X-2.923 Y-69.502 Z-3.000 F360.000
G1 X-2.923 Y-69.502 Z-3.000 F360.000
G2 X-2.691 Y-72.673 Z-3.000 I-11.489 J-2.434 K0.000 F360.000
G2 X-4.344 Y-75.531 Z-3.000 I-3.619 J0.187 K0.000 F360.000
G2 X-6.972 Y-75.623 Z-3.000 I-1.407 J2.601 K0.000 F360.000
G2 X-10.109 Y-74.047 Z-3.000 I151.972 J306.506 K0.000 F360.000
G3 X-11.945 Y-73.318 Z-3.000 I-4.089 J-7.622 K0.000 F360.000
G1 X-17.418 Y-72.133 Z-3.000 F360.000
G3 X-18.208 Y-72.001 Z-3.000 I-1.351 J-5.672 K0.000 F360.000
G3 X-19.267 Y-72.098 Z-3.000 I-0.384 J-1.632 K0.000 F360.000
G3 X-19.878 Y-72.795 Z-3.000 I3.760 J-3.914 K0.000 F360.000
G2 X-22.941 Y-76.050 Z-3.000 I-10.733 J7.032 K0.000 F360.000
G2 X-26.390 Y-77.517 Z-3.000 I-4.678 J6.207 K0.000 F360.000
G2 X-28.237 Y-77.593 Z-3.000 I-1.270 J8.417 K0.000 F360.000
G2 X-32.431 Y-74.919 Z-3.000 I0.294 J5.087 K0.000 F360.000
G2 X-33.203 Y-70.775 Z-3.000 I6.816 J3.413 K0.000 F360.000
G1 X-36.331 Y-70.660 Z-3.000 F360.000
G2 X-37.263 Y-70.526 Z-3.000 I0.679 J8.048 K0.000 F360.000
G2 X-43.105 Y-68.618 Z-3.000 I2.390 J17.212 K0.000 F360.000
G1 X-45.241 Y-67.217 Z-3.000 F360.000
G1 X-45.404 Y-67.092 Z-3.000 F360.000
G1 X-47.327 Y-65.414 Z-3.000 F360.000
G1 X-47.584 Y-65.123 Z-3.000 F360.000
G2 X-51.010 Y-59.017 Z-3.000 I28.313 J19.903 K0.000 F360.000
G1 X-51.846 Y-56.549 Z-3.000 F360.000
G1 X-51.904 Y-56.314 Z-3.000 F360.000
G1 X-52.244 Y-54.233 Z-3.000 F360.000
G1 X-52.264 Y-53.991 Z-3.000 F360.000
G1 X-52.264 Y-50.009 Z-3.000 F360.000
G1 X-52.244 Y-49.767 Z-3.000 F360.000
G1 X-51.904 Y-47.686 Z-3.000 F360.000
G1 X-51.846 Y-47.451 Z-3.000 F360.000
G1 X-51.069 Y-45.131 Z-3.000 F360.000
G2 X-47.584 Y-38.877 Z-3.000 I30.304 J-12.790 K0.000 F360.000
G1 X-47.327 Y-38.586 Z-3.000 F360.000
G1 X-45.404 Y-36.908 Z-3.000 F360.000
G1 X-45.241 Y-36.783 Z-3.000 F360.000
G1 X-43.105 Y-35.382 Z-3.000 F360.000
G2 X-42.071 Y-34.865 Z-3.000 I4.580 J-7.860 K0.000 F360.000
G2 X-36.331 Y-33.340 Z-3.000 I7.789 J-17.755 K0.000 F360.000
G1 X-33.203 Y-33.225 Z-3.000 F360.000
G2 X-32.952 Y-30.447 Z-3.000 I7.874 J0.690 K0.000 F360.000
G2 X-29.588 Y-26.685 Z-3.000 I5.064 J-1.144 K0.000 F360.000
G2 X-26.949 Y-26.422 Z-3.000 I2.021 J-6.884 K0.000 F360.000
G2 X-22.788 Y-28.047 Z-3.000 I-0.668 J-7.846 K0.000 F360.000
G2 X-20.314 Y-30.588 Z-3.000 I-8.020 J-10.285 K0.000 F360.000
G3 X-19.277 Y-31.888 Z-3.000 I6.865 J4.408 K0.000 F360.000
G3 X-18.931 Y-32.002 Z-3.000 I1.109 J2.800 K0.000 F360.000
G3 X-17.830 Y-31.950 Z-3.000 I0.384 J3.581 K0.000 F360.000
G3 X-11.914 Y-30.675 Z-3.000 I-37.805 J189.773 K0.000 F360.000
G3 X-11.121 Y-30.418 Z-3.000 I-1.873 J7.134 K0.000 F360.000
G3 X-7.088 Y-28.429 Z-3.000 I-41.785 J89.820 K0.000 F360.000
G2 X-4.639 Y-28.309 Z-3.000 I1.368 J-2.874 K0.000 F360.000
G2 X-3.431 Y-29.315 Z-3.000 I-1.663 J-3.226 K0.000 F360.000
G1 X-3.431 Y-29.315 Z-6.000 F360.000
G2 X-2.687 Y-31.217 Z-6.000 I-2.871 J-2.220 K0.000 F360.000
G2 X-2.952 Y-34.629 Z-6.000 I-12.508 J-0.744 K0.000 F360.000
G1 X-2.787 Y-34.783 Z-6.000 F360.000
G2 X-0.855 Y-36.590 Z-6.000 I-5.854 J-8.195 K0.000 F360.000
G2 X0.324 Y-39.276 Z-6.000 I-3.342 J-3.068 K0.000 F360.000
G2 X0.074 Y-41.791 Z-6.000 I-12.895 J0.009 K0.000 F360.000
G2 X-1.843 Y-44.404 Z-6.000 I-4.708 J1.444 K0.000 F360.000
G1 X-1.843 Y-44.404 Z-6.000 F360.000
G3 X-2.707 Y-45.173 Z-6.000 I4.016 J-5.385 K0.000 F360.000
G3 X-3.125 Y-45.847 Z-6.000 I0.934 J-1.045 K0.000 F360.000
G3 X-2.849 Y-47.172 Z-6.000 I1.522 J-0.374 K0.000 F360.000
G2 X-0.933 Y-50.079 Z-6.000 I-3.578 J-4.444 K0.000 F360.000
G2 X-0.753 Y-52.847 Z-6.000 I-7.722 J-1.890 K0.000 F360.000
G2 X-2.616 Y-56.605 Z-6.000 I-5.463 J0.367 K0.000 F360.000
G3 X-2.862 Y-58.664 Z-6.000 I0.940 J-1.156 K0.000 F360.000
G3 X-1.251 Y-60.097 Z-6.000 I17.513 J18.058 K0.000 F360.000
G2 X0.073 Y-62.240 Z-6.000 I-3.368 J-3.562 K0.000 F360.000
G2 X0.305 Y-63.796 Z-6.000 I-22.453 J-4.144 K0.000 F360.000
G2 X-0.149 Y-66.372 Z-6.000 I-4.273 J-0.575 K0.000 F360.000
G2 X-2.510 Y-69.020 Z-6.000 I-8.097 J4.842 K0.000 F360.000
G3 X-2.945 Y-69.357 Z-6.000 I1.509 J-2.396 K0.000 F360.000
G1 X-2.923 Y-69.502 Z-6.000 F360.000
G1 X-2.923 Y-69.502 Z-6.000 F360.000
G2 X-2.691 Y-72.673 Z-6.000 I-11.489 J-2.434 K0.000 F360.000
G2 X-4.344 Y-75.531 Z-6.000 I-3.619 J0.187 K0.000 F360.000
G2 X-6.972 Y-75.623 Z-6.000 I-1.407 J2.601 K0.000 F360.000
G2 X-10.109 Y-74.047 Z-6.000 I151.972 J306.506 K0.000 F360.000
G3 X-11.945 Y-73.318 Z-6.000 I-4.089 J-7.622 K0.000 F360.000
G1 X-17.418 Y-72.133 Z-6.000 F360.000
G3 X-18.208 Y-72.001 Z-6.000 I-1.351 J-5.672 K0.000 F360.000
G3 X-19.267 Y-72.098 Z-6.000 I-0.384 J-1.632 K0.000 F360.000
G3 X-19.878 Y-72.795 Z-6.000 I3.760 J-3.914 K0.000 F360.000
G2 X-22.941 Y-76.050 Z-6.000 I-10.733 J7.032 K0.000 F360.000
G2 X-26.390 Y-77.517 Z-6.000 I-4.678 J6.207 K0.000 F360.000
G2 X-28.237 Y-77.593 Z-6.000 I-1.270 J8.417 K0.000 F360.000
G2 X-32.431 Y-74.919 Z-6.000 I0.294 J5.087 K0.000 F360.000
G2 X-33.203 Y-70.775 Z-6.000 I6.816 J3.413 K0.000 F360.000
G1 X-36.331 Y-70.660 Z-6.000 F360.000
G2 X-37.263 Y-70.526 Z-6.000 I0.679 J8.048 K0.000 F360.000
G2 X-43.105 Y-68.618 Z-6.000 I2.390 J17.212 K0.000 F360.000
G1 X-45.241 Y-67.217 Z-6.000 F360.000
G1 X-45.404 Y-67.092 Z-6.000 F360.000
G1 X-47.327 Y-65.414 Z-6.000 F360.000
G1 X-47.584 Y-65.123 Z-6.000 F360.000
G2 X-51.010 Y-59.017 Z-6.000 I28.313 J19.903 K0.000 F360.000
G1 X-51.846 Y-56.549 Z-6.000 F360.000
G1 X-51.904 Y-56.314 Z-6.000 F360.000
G1 X-52.244 Y-54.233 Z-6.000 F360.000
G1 X-52.264 Y-53.991 Z-6.000 F360.000
G1 X-52.264 Y-50.009 Z-6.000 F360.000
G1 X-52.244 Y-49.767 Z-6.000 F360.000
G1 X-51.904 Y-47.686 Z-6.000 F360.000
G1 X-51.846 Y-47.451 Z-6.000 F360.000
G1 X-51.069 Y-45.131 Z-6.000 F360.000
G2 X-47.584 Y-38.877 Z-6.000 I30.304 J-12.790 K0.000 F360.000
G1 X-47.327 Y-38.586 Z-6.000 F360.000
G1 X-45.404 Y-36.908 Z-6.000 F360.000
G1 X-45.241 Y-36.783 Z-6.000 F360.000
G1 X-43.105 Y-35.382 Z-6.000 F360.000
G2 X-42.071 Y-34.865 Z-6.000 I4.580 J-7.860 K0.000 F360.000
G2 X-36.331 Y-33.340 Z-6.000 I7.789 J-17.755 K0.000 F360.000
G1 X-33.203 Y-33.225 Z-6.000 F360.000
G2 X-32.952 Y-30.447 Z-6.000 I7.874 J0.690 K0.000 F360.000
G2 X-29.588 Y-26.685 Z-6.000 I5.064 J-1.144 K0.000 F360.000
G2 X-26.949 Y-26.422 Z-6.000 I2.021 J-6.884 K0.000 F360.000
G2 X-22.788 Y-28.047 Z-6.000 I-0.668 J-7.846 K0.000 F360.000
