(Exported by FreeCAD)
(Post Processor: script_module)
(Output Time:2026-06-05 19:51:18.797406)
(Begin preamble)
G17 G90
G21
(Begin operation: Fixture)
(Path: Fixture)
G54
(Finish operation: Fixture)
(Begin operation: 3175001)
(Path: 3175001)
(3175001)
(Begin toolchange)
( M6 T3 )
M3 S10000
(Finish operation: 3175001)
(Begin operation: Profile)
(Path: Profile)
(Profile)
(Compensated Tool Path. Diameter: 3.17)
G0 Z5.000
G0 X-88.873 Y59.107
G0 Z3.000
G1 X-88.873 Y59.107 Z-3.170 F360.000
G2 X-88.768 Y59.034 Z-3.170 I-0.988 J-1.547 K0.000 F360.000
G2 X-88.714 Y58.837 Z-3.170 I-0.052 J-0.121 K0.000 F360.000
G2 X-89.650 Y58.325 Z-3.170 I-1.008 J0.733 K0.000 F360.000
G2 X-91.156 Y58.707 Z-3.170 I-0.382 J1.653 K0.000 F360.000
G2 X-91.195 Y58.822 Z-3.170 I0.081 J0.092 K0.000 F360.000
G2 X-88.873 Y59.107 Z-3.170 I1.333 J-1.263 K0.000 F360.000
G1 X-88.873 Y59.107 Z-6.000 F360.000
G2 X-88.768 Y59.034 Z-6.000 I-0.988 J-1.547 K0.000 F360.000
G2 X-88.714 Y58.837 Z-6.000 I-0.052 J-0.121 K0.000 F360.000
G2 X-89.650 Y58.325 Z-6.000 I-1.008 J0.733 K0.000 F360.000
G2 X-91.156 Y58.707 Z-6.000 I-0.382 J1.653 K0.000 F360.000
G2 X-91.195 Y58.822 Z-6.000 I0.081 J0.092 K0.000 F360.000
G2 X-88.873 Y59.107 Z-6.000 I1.333 J-1.263 K0.000 F360.000
G0 Z5.000
G0 Z5.000
(Finish operation: Profile)
(Begin operation: Profile001)
(Path: Profile001)
(Profile001)
(Compensated Tool Path. Diameter: 3.17)
G0 Z5.000
G0 X-88.931 Y45.393
G0 Z3.000
G1 X-88.931 Y45.393 Z-3.170 F360.000
G2 X-88.780 Y45.262 Z-3.170 I-0.914 J-1.203 K0.000 F360.000
G2 X-88.704 Y45.031 Z-3.170 I-0.081 J-0.155 K0.000 F360.000
G2 X-89.731 Y44.614 Z-3.170 I-1.081 J1.190 K0.000 F360.000
G2 X-91.188 Y45.178 Z-3.170 I-0.224 J1.586 K0.000 F360.000
G2 X-91.188 Y45.248 Z-3.170 I0.085 J0.035 K0.000 F360.000
G2 X-89.784 Y45.700 Z-3.170 I1.177 J-1.251 K0.000 F360.000
G2 X-88.931 Y45.393 Z-3.170 I-0.061 J-1.510 K0.000 F360.000
G1 X-88.931 Y45.393 Z-6.000 F360.000
G2 X-88.780 Y45.262 Z-6.000 I-0.914 J-1.203 K0.000 F360.000
G2 X-88.704 Y45.031 Z-6.000 I-0.081 J-0.155 K0.000 F360.000
G2 X-89.731 Y44.614 Z-6.000 I-1.081 J1.190 K0.000 F360.000
G2 X-91.188 Y45.178 Z-6.000 I-0.224 J1.586 K0.000 F360.000
G2 X-91.188 Y45.248 Z-6.000 I0.085 J0.035 K0.000 F360.000
G2 X-89.784 Y45.700 Z-6.000 I1.177 J-1.251 K0.000 F360.000
G2 X-88.931 Y45.393 Z-6.000 I-0.061 J-1.510 K0.000 F360.000
G0 Z5.000
G0 Z5.000
(Finish operation: Profile001)
(Begin operation: Profile003)
(Path: Profile003)
(Profile003)
(Compensated Tool Path. Diameter: 3.17)
G0 Z5.000
G0 X-77.560 Y60.673
G0 Z3.000
G1 X-77.560 Y60.673 Z-3.170 F360.000
G2 X-78.096 Y60.141 Z-3.170 I-1.791 J1.266 K0.000 F360.000
G3 X-79.154 Y57.265 Z-3.170 I0.958 J-1.985 K0.000 F360.000
G3 X-77.533 Y55.987 Z-3.170 I2.144 J1.051 K0.000 F360.000
G2 X-77.283 Y55.889 Z-3.170 I0.009 J-0.347 K0.000 F360.000
G3 X-79.637 Y53.176 Z-3.170 I1.827 J-3.962 K0.000 F360.000
G3 X-79.749 Y51.199 Z-3.170 I3.167 J-1.172 K0.000 F360.000
G3 X-77.283 Y48.110 Z-3.170 I4.230 J0.848 K0.000 F360.000
G1 X-77.286 Y48.103 Z-3.170 F360.000
G2 X-77.686 Y47.960 Z-3.170 I-8.222 J22.298 K0.000 F360.000
G3 X-78.362 Y44.014 Z-3.170 I0.534 J-2.122 K0.000 F360.000
G2 X-77.537 Y43.315 Z-3.170 I-0.997 J-2.015 K0.000 F360.000
G3 X-81.372 Y43.867 Z-3.170 I-109.725 J-747.915 K0.000 F360.000
G2 X-82.102 Y44.113 Z-3.170 I0.365 J2.291 K0.000 F360.000
G2 X-82.117 Y44.615 Z-3.170 I3.309 J0.354 K0.000 F360.000
G3 X-80.698 Y46.090 Z-3.170 I-0.802 J2.192 K0.000 F360.000
G3 X-81.770 Y48.655 Z-3.170 I-2.157 J0.604 K0.000 F360.000
G2 X-82.085 Y48.972 Z-3.170 I0.307 J0.618 K0.000 F360.000
G3 X-80.866 Y50.360 Z-3.170 I-1.725 J2.743 K0.000 F360.000
G3 X-80.593 Y52.546 Z-3.170 I-4.213 J1.637 K0.000 F360.000
G3 X-82.068 Y55.008 Z-3.170 I-3.139 J-0.208 K0.000 F360.000
G2 X-81.803 Y55.337 Z-3.170 I0.464 J-0.103 K0.000 F360.000
G3 X-80.613 Y57.055 Z-3.170 I-0.992 J1.957 K0.000 F360.000
G3 X-82.117 Y59.384 Z-3.170 I-2.245 J0.200 K0.000 F360.000
G2 X-82.103 Y59.870 Z-3.170 I3.528 J0.141 K0.000 F360.000
G2 X-81.163 Y60.173 Z-3.170 I1.406 J-2.758 K0.000 F360.000
G3 X-77.560 Y60.673 Z-3.170 I-10.943 J91.959 K0.000 F360.000
G1 X-77.560 Y60.673 Z-6.000 F360.000
G2 X-78.096 Y60.141 Z-6.000 I-1.791 J1.266 K0.000 F360.000
G3 X-79.154 Y57.265 Z-6.000 I0.958 J-1.985 K0.000 F360.000
G3 X-77.533 Y55.987 Z-6.000 I2.144 J1.051 K0.000 F360.000
G2 X-77.283 Y55.889 Z-6.000 I0.009 J-0.347 K0.000 F360.000
G3 X-79.637 Y53.176 Z-6.000 I1.827 J-3.962 K0.000 F360.000
G3 X-79.749 Y51.199 Z-6.000 I3.167 J-1.172 K0.000 F360.000
G3 X-77.283 Y48.110 Z-6.000 I4.230 J0.848 K0.000 F360.000
G1 X-77.286 Y48.103 Z-6.000 F360.000
G2 X-77.686 Y47.960 Z-6.000 I-8.222 J22.298 K0.000 F360.000
G3 X-78.362 Y44.014 Z-6.000 I0.534 J-2.122 K0.000 F360.000
G2 X-77.537 Y43.315 Z-6.000 I-0.997 J-2.015 K0.000 F360.000
G3 X-81.372 Y43.867 Z-6.000 I-109.725 J-747.915 K0.000 F360.000
G2 X-82.102 Y44.113 Z-6.000 I0.365 J2.291 K0.000 F360.000
G2 X-82.117 Y44.615 Z-6.000 I3.309 J0.354 K0.000 F360.000
G3 X-80.698 Y46.090 Z-6.000 I-0.802 J2.192 K0.000 F360.000
G3 X-81.770 Y48.655 Z-6.000 I-2.157 J0.604 K0.000 F360.000
G2 X-82.085 Y48.972 Z-6.000 I0.307 J0.618 K0.000 F360.000
G3 X-80.866 Y50.360 Z-6.000 I-1.725 J2.743 K0.000 F360.000
G3 X-80.593 Y52.546 Z-6.000 I-4.213 J1.637 K0.000 F360.000
G3 X-82.068 Y55.008 Z-6.000 I-3.139 J-0.208 K0.000 F360.000
G2 X-81.803 Y55.337 Z-6.000 I0.464 J-0.103 K0.000 F360.000
G3 X-80.613 Y57.055 Z-6.000 I-0.992 J1.957 K0.000 F360.000
G3 X-82.117 Y59.384 Z-6.000 I-2.245 J0.200 K0.000 F360.000
G2 X-82.103 Y59.870 Z-6.000 I3.528 J0.141 K0.000 F360.000
G2 X-81.163 Y60.173 Z-6.000 I1.406 J-2.758 K0.000 F360.000
G3 X-77.560 Y60.673 Z-6.000 I-10.943 J91.959 K0.000 F360.000
G0 Z5.000
G0 Z5.000
(Finish operation: Profile003)
(Begin operation: Profile004)
(Path: Profile004)
(Profile004)
(Compensated Tool Path. Diameter: 3.17)
G0 Z5.000
G0 X-36.873 Y59.107
G0 Z3.000
G1 X-36.873 Y59.107 Z-3.170 F360.000
G2 X-36.768 Y59.034 Z-3.170 I-0.988 J-1.547 K0.000 F360.000
G2 X-36.714 Y58.837 Z-3.170 I-0.052 J-0.121 K0.000 F360.000
G2 X-37.650 Y58.325 Z-3.170 I-1.008 J0.733 K0.000 F360.000
G2 X-39.156 Y58.707 Z-3.170 I-0.382 J1.653 K0.000 F360.000
G2 X-39.195 Y58.822 Z-3.170 I0.081 J0.092 K0.000 F360.000
G2 X-36.873 Y59.107 Z-3.170 I1.333 J-1.263 K0.000 F360.000
G1 X-36.873 Y59.107 Z-6.000 F360.000
G2 X-36.768 Y59.034 Z-6.000 I-0.988 J-1.547 K0.000 F360.000
G2 X-36.714 Y58.837 Z-6.000 I-0.052 J-0.121 K0.000 F360.000
G2 X-37.650 Y58.325 Z-6.000 I-1.008 J0.733 K0.000 F360.000
G2 X-39.156 Y58.707 Z-6.000 I-0.382 J1.653 K0.000 F360.000
G2 X-39.195 Y58.822 Z-6.000 I0.081 J0.092 K0.000 F360.000
G2 X-36.873 Y59.107 Z-6.000 I1.333 J-1.263 K0.000 F360.000
G0 Z5.000
G0 Z5.000
(Finish operation: Profile004)
(Begin operation: Profile005)
(Path: Profile005)
(Profile005)
(Compensated Tool Path. Diameter: 3.17)
G0 Z5.000
G0 X-36.931 Y45.393
G0 Z3.000
G1 X-36.931 Y45.393 Z-3.170 F360.000
G2 X-36.780 Y45.262 Z-3.170 I-0.914 J-1.203 K0.000 F360.000
G2 X-36.704 Y45.031 Z-3.170 I-0.081 J-0.155 K0.000 F360.000
G2 X-37.731 Y44.614 Z-3.170 I-1.081 J1.190 K0.000 F360.000
G2 X-39.188 Y45.178 Z-3.170 I-0.224 J1.586 K0.000 F360.000
G2 X-39.188 Y45.248 Z-3.170 I0.085 J0.035 K0.000 F360.000
G2 X-37.784 Y45.700 Z-3.170 I1.177 J-1.251 K0.000 F360.000
G2 X-36.931 Y45.393 Z-3.170 I-0.061 J-1.510 K0.000 F360.000
G1 X-36.931 Y45.393 Z-6.000 F360.000
G2 X-36.780 Y45.262 Z-6.000 I-0.914 J-1.203 K0.000 F360.000
G2 X-36.704 Y45.031 Z-6.000 I-0.081 J-0.155 K0.000 F360.000
G2 X-37.731 Y44.614 Z-6.000 I-1.081 J1.190 K0.000 F360.000
G2 X-39.188 Y45.178 Z-6.000 I-0.224 J1.586 K0.000 F360.000
G2 X-39.188 Y45.248 Z-6.000 I0.085 J0.035 K0.000 F360.000
G2 X-37.784 Y45.700 Z-6.000 I1.177 J-1.251 K0.000 F360.000
G2 X-36.931 Y45.393 Z-6.000 I-0.061 J-1.510 K0.000 F360.000
G0 Z5.000
G0 Z5.000
(Finish operation: Profile005)
(Begin operation: Profile006)
(Path: Profile006)
(Profile006)
(Compensated Tool Path. Diameter: 3.17)
G0 Z5.000
G0 X-25.560 Y60.673
G0 Z3.000
G1 X-25.560 Y60.673 Z-3.170 F360.000
G2 X-26.096 Y60.141 Z-3.170 I-1.791 J1.266 K0.000 F360.000
G3 X-27.154 Y57.265 Z-3.170 I0.958 J-1.985 K0.000 F360.000
G3 X-25.533 Y55.987 Z-3.170 I2.144 J1.051 K0.000 F360.000
G2 X-25.283 Y55.889 Z-3.170 I0.009 J-0.347 K0.000 F360.000
G3 X-27.637 Y53.176 Z-3.170 I1.827 J-3.962 K0.000 F360.000
G3 X-27.749 Y51.199 Z-3.170 I3.167 J-1.172 K0.000 F360.000
G3 X-25.283 Y48.110 Z-3.170 I4.230 J0.848 K0.000 F360.000
G1 X-25.286 Y48.103 Z-3.170 F360.000
G2 X-25.686 Y47.960 Z-3.170 I-8.222 J22.300 K0.000 F360.000
G3 X-26.362 Y44.014 Z-3.170 I0.534 J-2.122 K0.000 F360.000
G2 X-25.537 Y43.315 Z-3.170 I-0.997 J-2.015 K0.000 F360.000
G3 X-29.372 Y43.867 Z-3.170 I-109.722 J-747.898 K0.000 F360.000
G2 X-30.102 Y44.113 Z-3.170 I0.365 J2.291 K0.000 F360.000
G2 X-30.117 Y44.615 Z-3.170 I3.309 J0.354 K0.000 F360.000
G3 X-28.698 Y46.090 Z-3.170 I-0.802 J2.192 K0.000 F360.000
G3 X-29.770 Y48.655 Z-3.170 I-2.157 J0.604 K0.000 F360.000
G2 X-30.085 Y48.972 Z-3.170 I0.307 J0.618 K0.000 F360.000
G3 X-28.866 Y50.360 Z-3.170 I-1.725 J2.743 K0.000 F360.000
G3 X-28.593 Y52.546 Z-3.170 I-4.213 J1.637 K0.000 F360.000
G3 X-30.068 Y55.008 Z-3.170 I-3.139 J-0.208 K0.000 F360.000
G2 X-29.803 Y55.337 Z-3.170 I0.464 J-0.103 K0.000 F360.000
G3 X-28.613 Y57.055 Z-3.170 I-0.992 J1.957 K0.000 F360.000
G3 X-30.117 Y59.384 Z-3.170 I-2.245 J0.200 K0.000 F360.000
G2 X-30.103 Y59.870 Z-3.170 I3.528 J0.141 K0.000 F360.000
G2 X-29.163 Y60.173 Z-3.170 I1.406 J-2.758 K0.000 F360.000
G3 X-25.560 Y60.673 Z-3.170 I-10.943 J91.959 K0.000 F360.000
G1 X-25.560 Y60.673 Z-6.000 F360.000
G2 X-26.096 Y60.141 Z-6.000 I-1.791 J1.266 K0.000 F360.000
G3 X-27.154 Y57.265 Z-6.000 I0.958 J-1.985 K0.000 F360.000
G3 X-25.533 Y55.987 Z-6.000 I2.144 J1.051 K0.000 F360.000
G2 X-25.283 Y55.889 Z-6.000 I0.009 J-0.347 K0.000 F360.000
G3 X-27.637 Y53.176 Z-6.000 I1.827 J-3.962 K0.000 F360.000
G3 X-27.749 Y51.199 Z-6.000 I3.167 J-1.172 K0.000 F360.000
G3 X-25.283 Y48.110 Z-6.000 I4.230 J0.848 K0.000 F360.000
G1 X-25.286 Y48.103 Z-6.000 F360.000
G2 X-25.686 Y47.960 Z-6.000 I-8.222 J22.300 K0.000 F360.000
G3 X-26.362 Y44.014 Z-6.000 I0.534 J-2.122 K0.000 F360.000
G2 X-25.537 Y43.315 Z-6.000 I-0.997 J-2.015 K0.000 F360.000
G3 X-29.372 Y43.867 Z-6.000 I-109.722 J-747.898 K0.000 F360.000
G2 X-30.102 Y44.113 Z-6.000 I0.365 J2.291 K0.000 F360.000
G2 X-30.117 Y44.615 Z-6.000 I3.309 J0.354 K0.000 F360.000
G3 X-28.698 Y46.090 Z-6.000 I-0.802 J2.192 K0.000 F360.000
G3 X-29.770 Y48.655 Z-6.000 I-2.157 J0.604 K0.000 F360.000
G2 X-30.085 Y48.972 Z-6.000 I0.307 J0.618 K0.000 F360.000
G3 X-28.866 Y50.360 Z-6.000 I-1.725 J2.743 K0.000 F360.000
G3 X-28.593 Y52.546 Z-6.000 I-4.213 J1.637 K0.000 F360.000
G3 X-30.068 Y55.008 Z-6.000 I-3.139 J-0.208 K0.000 F360.000
G2 X-29.803 Y55.337 Z-6.000 I0.464 J-0.103 K0.000 F360.000
G3 X-28.613 Y57.055 Z-6.000 I-0.992 J1.957 K0.000 F360.000
G3 X-30.117 Y59.384 Z-6.000 I-2.245 J0.200 K0.000 F360.000
G2 X-30.103 Y59.870 Z-6.000 I3.528 J0.141 K0.000 F360.000
G2 X-29.163 Y60.173 Z-6.000 I1.406 J-2.758 K0.000 F360.000
G3 X-25.560 Y60.673 Z-6.000 I-10.943 J91.959 K0.000 F360.000
G0 Z5.000
G0 Z5.000
(Finish operation: Profile006)
(Begin operation: Profile007)
(Path: Profile007)
(Profile007)
(Compensated Tool Path. Diameter: 3.17)
G0 Z5.000
G0 X15.127 Y59.107
G0 Z3.000
G1 X15.127 Y59.107 Z-3.170 F360.000
G2 X15.232 Y59.034 Z-3.170 I-0.988 J-1.547 K0.000 F360.000
G2 X15.286 Y58.837 Z-3.170 I-0.052 J-0.121 K0.000 F360.000
G2 X14.350 Y58.325 Z-3.170 I-1.008 J0.733 K0.000 F360.000
G2 X12.844 Y58.707 Z-3.170 I-0.382 J1.653 K0.000 F360.000
G2 X12.805 Y58.822 Z-3.170 I0.081 J0.092 K0.000 F360.000
G2 X15.127 Y59.107 Z-3.170 I1.333 J-1.263 K0.000 F360.000
G1 X15.127 Y59.107 Z-6.000 F360.000
G2 X15.232 Y59.034 Z-6.000 I-0.988 J-1.547 K0.000 F360.000
G2 X15.286 Y58.837 Z-6.000 I-0.052 J-0.121 K0.000 F360.000
G2 X14.350 Y58.325 Z-6.000 I-1.008 J0.733 K0.000 F360.000
G2 X12.844 Y58.707 Z-6.000 I-0.382 J1.653 K0.000 F360.000
G2 X12.805 Y58.822 Z-6.000 I0.081 J0.092 K0.000 F360.000
G2 X15.127 Y59.107 Z-6.000 I1.333 J-1.263 K0.000 F360.000
G0 Z5.000
G0 Z5.000
(Finish operation: Profile007)
(Begin operation: Profile008)
(Path: Profile008)
(Profile008)
(Compensated Tool Path. Diameter: 3.17)
G0 Z5.000
G0 X15.069 Y45.393
G0 Z3.000
G1 X15.069 Y45.393 Z-3.170 F360.000
G2 X15.220 Y45.262 Z-3.170 I-0.914 J-1.203 K0.000 F360.000
G2 X15.296 Y45.031 Z-3.170 I-0.081 J-0.155 K0.000 F360.000
G2 X14.269 Y44.614 Z-3.170 I-1.081 J1.190 K0.000 F360.000
G2 X12.812 Y45.178 Z-3.170 I-0.224 J1.586 K0.000 F360.000
G2 X12.812 Y45.248 Z-3.170 I0.085 J0.035 K0.000 F360.000
G2 X14.216 Y45.700 Z-3.170 I1.177 J-1.251 K0.000 F360.000
G2 X15.069 Y45.393 Z-3.170 I-0.061 J-1.510 K0.000 F360.000
G1 X15.069 Y45.393 Z-6.000 F360.000
G2 X15.220 Y45.262 Z-6.000 I-0.914 J-1.203 K0.000 F360.000
G2 X15.296 Y45.031 Z-6.000 I-0.081 J-0.155 K0.000 F360.000
G2 X14.269 Y44.614 Z-6.000 I-1.081 J1.190 K0.000 F360.000
G2 X12.812 Y45.178 Z-6.000 I-0.224 J1.586 K0.000 F360.000
G2 X12.812 Y45.248 Z-6.000 I0.085 J0.035 K0.000 F360.000
G2 X14.216 Y45.700 Z-6.000 I1.177 J-1.251 K0.000 F360.000
G2 X15.069 Y45.393 Z-6.000 I-0.061 J-1.510 K0.000 F360.000
G0 Z5.000
G0 Z5.000
(Finish operation: Profile008)
(Begin operation: Profile009)
(Path: Profile009)
(Profile009)
(Compensated Tool Path. Diameter: 3.17)
G0 Z5.000
G0 X26.440 Y60.673
G0 Z3.000
G1 X26.440 Y60.673 Z-3.170 F360.000
G2 X25.904 Y60.141 Z-3.170 I-1.791 J1.266 K0.000 F360.000
G3 X24.846 Y57.265 Z-3.170 I0.958 J-1.985 K0.000 F360.000
G3 X26.467 Y55.987 Z-3.170 I2.144 J1.051 K0.000 F360.000
G2 X26.717 Y55.889 Z-3.170 I0.009 J-0.347 K0.000 F360.000
G3 X24.363 Y53.176 Z-3.170 I1.827 J-3.962 K0.000 F360.000
G3 X24.251 Y51.199 Z-3.170 I3.167 J-1.172 K0.000 F360.000
G3 X26.717 Y48.110 Z-3.170 I4.230 J0.848 K0.000 F360.000
G1 X26.714 Y48.103 Z-3.170 F360.000
G2 X26.314 Y47.960 Z-3.170 I-8.222 J22.298 K0.000 F360.000
G3 X25.638 Y44.014 Z-3.170 I0.534 J-2.122 K0.000 F360.000
G2 X26.463 Y43.315 Z-3.170 I-0.997 J-2.015 K0.000 F360.000
G3 X22.628 Y43.867 Z-3.170 I-109.725 J-747.915 K0.000 F360.000
G2 X21.898 Y44.113 Z-3.170 I0.365 J2.291 K0.000 F360.000
G2 X21.883 Y44.615 Z-3.170 I3.309 J0.354 K0.000 F360.000
G3 X23.302 Y46.090 Z-3.170 I-0.802 J2.192 K0.000 F360.000
G3 X22.230 Y48.655 Z-3.170 I-2.157 J0.604 K0.000 F360.000
G2 X21.915 Y48.972 Z-3.170 I0.307 J0.618 K0.000 F360.000
G3 X23.134 Y50.360 Z-3.170 I-1.725 J2.743 K0.000 F360.000
G3 X23.407 Y52.546 Z-3.170 I-4.213 J1.637 K0.000 F360.000
G3 X21.932 Y55.008 Z-3.170 I-3.139 J-0.208 K0.000 F360.000
G2 X22.197 Y55.337 Z-3.170 I0.464 J-0.103 K0.000 F360.000
G3 X23.387 Y57.055 Z-3.170 I-0.992 J1.957 K0.000 F360.000
G3 X21.883 Y59.384 Z-3.170 I-2.245 J0.200 K0.000 F360.000
G2 X21.897 Y59.870 Z-3.170 I3.528 J0.141 K0.000 F360.000
G2 X22.837 Y60.173 Z-3.170 I1.406 J-2.758 K0.000 F360.000
G3 X26.440 Y60.673 Z-3.170 I-10.943 J91.959 K0.000 F360.000
G1 X26.440 Y60.673 Z-6.000 F360.000
G2 X25.904 Y60.141 Z-6.000 I-1.791 J1.266 K0.000 F360.000
G3 X24.846 Y57.265 Z-6.000 I0.958 J-1.985 K0.000 F360.000
G3 X26.467 Y55.987 Z-6.000 I2.144 J1.051 K0.000 F360.000
G2 X26.717 Y55.889 Z-6.000 I0.009 J-0.347 K0.000 F360.000
G3 X24.363 Y53.176 Z-6.000 I1.827 J-3.962 K0.000 F360.000
G3 X24.251 Y51.199 Z-6.000 I3.167 J-1.172 K0.000 F360.000
G3 X26.717 Y48.110 Z-6.000 I4.230 J0.848 K0.000 F360.000
G1 X26.714 Y48.103 Z-6.000 F360.000
G2 X26.314 Y47.960 Z-6.000 I-8.222 J22.298 K0.000 F360.000
G3 X25.638 Y44.014 Z-6.000 I0.534 J-2.122 K0.000 F360.000
G2 X26.463 Y43.315 Z-6.000 I-0.997 J-2.015 K0.000 F360.000
G3 X22.628 Y43.867 Z-6.000 I-109.725 J-747.915 K0.000 F360.000
G2 X21.898 Y44.113 Z-6.000 I0.365 J2.291 K0.000 F360.000
G2 X21.883 Y44.615 Z-6.000 I3.309 J0.354 K0.000 F360.000
G3 X23.302 Y46.090 Z-6.000 I-0.802 J2.192 K0.000 F360.000
G3 X22.230 Y48.655 Z-6.000 I-2.157 J0.604 K0.000 F360.000
G2 X21.915 Y48.972 Z-6.000 I0.307 J0.618 K0.000 F360.000
G3 X23.134 Y50.360 Z-6.000 I-1.725 J2.743 K0.000 F360.000
G3 X23.407 Y52.546 Z-6.000 I-4.213 J1.637 K0.000 F360.000
G3 X21.932 Y55.008 Z-6.000 I-3.139 J-0.208 K0.000 F360.000
G2 X22.197 Y55.337 Z-6.000 I0.464 J-0.103 K0.000 F360.000
G3 X23.387 Y57.055 Z-6.000 I-0.992 J1.957 K0.000 F360.000
G3 X21.883 Y59.384 Z-6.000 I-2.245 J0.200 K0.000 F360.000
G2 X21.897 Y59.870 Z-6.000 I3.528 J0.141 K0.000 F360.000
G2 X22.837 Y60.173 Z-6.000 I1.406 J-2.758 K0.000 F360.000
G3 X26.440 Y60.673 Z-6.000 I-10.943 J91.959 K0.000 F360.000
G0 Z5.000
G0 Z5.000
(Finish operation: Profile009)
(Begin operation: Profile010)
(Path: Profile010)
(Profile010)
(Compensated Tool Path. Diameter: 3.17)
G0 Z5.000
G0 X67.127 Y59.107
G0 Z3.000
G1 X67.127 Y59.107 Z-3.170 F360.000
G2 X67.232 Y59.034 Z-3.170 I-0.988 J-1.547 K0.000 F360.000
G2 X67.286 Y58.837 Z-3.170 I-0.052 J-0.121 K0.000 F360.000
G2 X66.350 Y58.325 Z-3.170 I-1.008 J0.733 K0.000 F360.000
G2 X64.844 Y58.707 Z-3.170 I-0.382 J1.653 K0.000 F360.000
G2 X64.805 Y58.822 Z-3.170 I0.081 J0.092 K0.000 F360.000
G2 X67.127 Y59.107 Z-3.170 I1.333 J-1.263 K0.000 F360.000
G1 X67.127 Y59.107 Z-6.000 F360.000
G2 X67.232 Y59.034 Z-6.000 I-0.988 J-1.547 K0.000 F360.000
G2 X67.286 Y58.837 Z-6.000 I-0.052 J-0.121 K0.000 F360.000
G2 X66.350 Y58.325 Z-6.000 I-1.008 J0.733 K0.000 F360.000
G2 X64.844 Y58.707 Z-6.000 I-0.382 J1.653 K0.000 F360.000
G2 X64.805 Y58.822 Z-6.000 I0.081 J0.092 K0.000 F360.000
G2 X67.127 Y59.107 Z-6.000 I1.333 J-1.263 K0.000 F360.000
G0 Z5.000
G0 Z5.000
(Finish operation: Profile010)
(Begin operation: Profile011)
(Path: Profile011)
(Profile011)
(Compensated Tool Path. Diameter: 3.17)
G0 Z5.000
G0 X67.069 Y45.393
G0 Z3.000
G1 X67.069 Y45.393 Z-3.170 F360.000
G2 X67.220 Y45.262 Z-3.170 I-0.914 J-1.203 K0.000 F360.000
G2 X67.296 Y45.031 Z-3.170 I-0.081 J-0.155 K0.000 F360.000
G2 X66.269 Y44.614 Z-3.170 I-1.081 J1.190 K0.000 F360.000
G2 X64.812 Y45.178 Z-3.170 I-0.224 J1.586 K0.000 F360.000
G2 X64.812 Y45.248 Z-3.170 I0.085 J0.035 K0.000 F360.000
G2 X66.216 Y45.700 Z-3.170 I1.177 J-1.251 K0.000 F360.000
G2 X67.069 Y45.393 Z-3.170 I-0.061 J-1.510 K0.000 F360.000
G1 X67.069 Y45.393 Z-6.000 F360.000
G2 X67.220 Y45.262 Z-6.000 I-0.914 J-1.203 K0.000 F360.000
G2 X67.296 Y45.031 Z-6.000 I-0.081 J-0.155 K0.000 F360.000
G2 X66.269 Y44.614 Z-6.000 I-1.081 J1.190 K0.000 F360.000
G2 X64.812 Y45.178 Z-6.000 I-0.224 J1.586 K0.000 F360.000
G2 X64.812 Y45.248 Z-6.000 I0.085 J0.035 K0.000 F360.000
G2 X66.216 Y45.700 Z-6.000 I1.177 J-1.251 K0.000 F360.000
G2 X67.069 Y45.393 Z-6.000 I-0.061 J-1.510 K0.000 F360.000
G0 Z5.000
G0 Z5.000
(Finish operation: Profile011)
(Begin operation: Profile012)
(Path: Profile012)
(Profile012)
(Compensated Tool Path. Diameter: 3.17)
G0 Z5.000
G0 X78.440 Y60.673
G0 Z3.000
G1 X78.440 Y60.673 Z-3.170 F360.000
G2 X77.904 Y60.141 Z-3.170 I-1.791 J1.266 K0.000 F360.000
G3 X76.846 Y57.265 Z-3.170 I0.958 J-1.985 K0.000 F360.000
G3 X78.467 Y55.987 Z-3.170 I2.144 J1.051 K0.000 F360.000
G2 X78.717 Y55.889 Z-3.170 I0.009 J-0.347 K0.000 F360.000
G3 X76.363 Y53.176 Z-3.170 I1.827 J-3.962 K0.000 F360.000
G3 X76.251 Y51.199 Z-3.170 I3.167 J-1.172 K0.000 F360.000
G3 X78.717 Y48.110 Z-3.170 I4.230 J0.848 K0.000 F360.000
G1 X78.714 Y48.103 Z-3.170 F360.000
G2 X78.314 Y47.960 Z-3.170 I-8.222 J22.299 K0.000 F360.000
G3 X77.638 Y44.014 Z-3.170 I0.534 J-2.122 K0.000 F360.000
G2 X78.463 Y43.315 Z-3.170 I-0.997 J-2.015 K0.000 F360.000
G3 X74.628 Y43.867 Z-3.170 I-109.725 J-747.915 K0.000 F360.000
G2 X73.898 Y44.113 Z-3.170 I0.365 J2.291 K0.000 F360.000
G2 X73.883 Y44.615 Z-3.170 I3.309 J0.354 K0.000 F360.000
G3 X75.302 Y46.090 Z-3.170 I-0.802 J2.192 K0.000 F360.000
G3 X74.230 Y48.655 Z-3.170 I-2.157 J0.604 K0.000 F360.000
G2 X73.915 Y48.972 Z-3.170 I0.307 J0.618 K0.000 F360.000
G3 X75.134 Y50.360 Z-3.170 I-1.725 J2.743 K0.000 F360.000
G3 X75.407 Y52.546 Z-3.170 I-4.213 J1.637 K0.000 F360.000
G3 X73.932 Y55.008 Z-3.170 I-3.139 J-0.208 K0.000 F360.000
G2 X74.197 Y55.337 Z-3.170 I0.464 J-0.103 K0.000 F360.000
G3 X75.387 Y57.055 Z-3.170 I-0.992 J1.957 K0.000 F360.000
G3 X73.883 Y59.384 Z-3.170 I-2.245 J0.200 K0.000 F360.000
G2 X73.897 Y59.870 Z-3.170 I3.528 J0.141 K0.000 F360.000
G2 X74.837 Y60.173 Z-3.170 I1.406 J-2.758 K0.000 F360.000
G3 X78.440 Y60.673 Z-3.170 I-10.943 J91.959 K0.000 F360.000
G1 X78.440 Y60.673 Z-6.000 F360.000
G2 X77.904 Y60.141 Z-6.000 I-1.791 J1.266 K0.000 F360.000
G3 X76.846 Y57.265 Z-6.000 I0.958 J-1.985 K0.000 F360.000
G3 X78.467 Y55.987 Z-6.000 I2.144 J1.051 K0.000 F360.000
G2 X78.717 Y55.889 Z-6.000 I0.009 J-0.347 K0.000 F360.000
G3 X76.363 Y53.176 Z-6.000 I1.827 J-3.962 K0.000 F360.000
G3 X76.251 Y51.199 Z-6.000 I3.167 J-1.172 K0.000 F360.000
G3 X78.717 Y48.110 Z-6.000 I4.230 J0.848 K0.000 F360.000
G1 X78.714 Y48.103 Z-6.000 F360.000
G2 X78.314 Y47.960 Z-6.000 I-8.222 J22.299 K0.000 F360.000
G3 X77.638 Y44.014 Z-6.000 I0.534 J-2.122 K0.000 F360.000
G2 X78.463 Y43.315 Z-6.000 I-0.997 J-2.015 K0.000 F360.000
G3 X74.628 Y43.867 Z-6.000 I-109.725 J-747.915 K0.000 F360.000
G2 X73.898 Y44.113 Z-6.000 I0.365 J2.291 K0.000 F360.000
G2 X73.883 Y44.615 Z-6.000 I3.309 J0.354 K0.000 F360.000
G3 X75.302 Y46.090 Z-6.000 I-0.802 J2.192 K0.000 F360.000
G3 X74.230 Y48.655 Z-6.000 I-2.157 J0.604 K0.000 F360.000
G2 X73.915 Y48.972 Z-6.000 I0.307 J0.618 K0.000 F360.000
G3 X75.134 Y50.360 Z-6.000 I-1.725 J2.743 K0.000 F360.000
G3 X75.407 Y52.546 Z-6.000 I-4.213 J1.637 K0.000 F360.000
G3 X73.932 Y55.008 Z-6.000 I-3.139 J-0.208 K0.000 F360.000
G2 X74.197 Y55.337 Z-6.000 I0.464 J-0.103 K0.000 F360.000
G3 X75.387 Y57.055 Z-6.000 I-0.992 J1.957 K0.000 F360.000
G3 X73.883 Y59.384 Z-6.000 I-2.245 J0.200 K0.000 F360.000
G2 X73.897 Y59.870 Z-6.000 I3.528 J0.141 K0.000 F360.000
G2 X74.837 Y60.173 Z-6.000 I1.406 J-2.758 K0.000 F360.000
G3 X78.440 Y60.673 Z-6.000 I-10.943 J91.959 K0.000 F360.000
G0 Z5.000
G0 Z5.000
(Finish operation: Profile012)
(Begin operation: Profile013)
(Path: Profile013)
(Profile013)
(Compensated Tool Path. Diameter: 3.17)
G0 Z5.000
G0 X78.440 Y8.673
G0 Z3.000
G1 X78.440 Y8.673 Z-3.170 F360.000
G2 X77.904 Y8.141 Z-3.170 I-1.791 J1.266 K0.000 F360.000
G3 X76.846 Y5.265 Z-3.170 I0.958 J-1.985 K0.000 F360.000
G3 X78.467 Y3.987 Z-3.170 I2.144 J1.051 K0.000 F360.000
G2 X78.717 Y3.889 Z-3.170 I0.009 J-0.347 K0.000 F360.000
G3 X76.363 Y1.176 Z-3.170 I1.827 J-3.962 K0.000 F360.000
G3 X76.251 Y-0.801 Z-3.170 I3.167 J-1.172 K0.000 F360.000
G3 X78.717 Y-3.890 Z-3.170 I4.230 J0.848 K0.000 F360.000
G1 X78.714 Y-3.897 Z-3.170 F360.000
G2 X78.314 Y-4.040 Z-3.170 I-8.222 J22.299 K0.000 F360.000
G3 X77.638 Y-7.986 Z-3.170 I0.534 J-2.122 K0.000 F360.000
G2 X78.463 Y-8.685 Z-3.170 I-0.997 J-2.015 K0.000 F360.000
G3 X74.628 Y-8.133 Z-3.170 I-109.725 J-747.915 K0.000 F360.000
G2 X73.898 Y-7.887 Z-3.170 I0.365 J2.291 K0.000 F360.000
G2 X73.883 Y-7.385 Z-3.170 I3.309 J0.354 K0.000 F360.000
G3 X75.302 Y-5.910 Z-3.170 I-0.802 J2.192 K0.000 F360.000
G3 X74.230 Y-3.345 Z-3.170 I-2.157 J0.604 K0.000 F360.000
G2 X73.915 Y-3.028 Z-3.170 I0.307 J0.618 K0.000 F360.000
G3 X75.134 Y-1.640 Z-3.170 I-1.725 J2.743 K0.000 F360.000
G3 X75.407 Y0.546 Z-3.170 I-4.213 J1.637 K0.000 F360.000
G3 X73.932 Y3.008 Z-3.170 I-3.139 J-0.208 K0.000 F360.000
G2 X74.197 Y3.337 Z-3.170 I0.464 J-0.103 K0.000 F360.000
G3 X75.387 Y5.055 Z-3.170 I-0.992 J1.957 K0.000 F360.000
G3 X73.883 Y7.384 Z-3.170 I-2.245 J0.200 K0.000 F360.000
G2 X73.897 Y7.870 Z-3.170 I3.528 J0.141 K0.000 F360.000
G2 X74.837 Y8.173 Z-3.170 I1.406 J-2.758 K0.000 F360.000
G3 X78.440 Y8.673 Z-3.170 I-10.943 J91.959 K0.000 F360.000
G1 X78.440 Y8.673 Z-6.000 F360.000
G2 X77.904 Y8.141 Z-6.000 I-1.791 J1.266 K0.000 F360.000
G3 X76.846 Y5.265 Z-6.000 I0.958 J-1.985 K0.000 F360.000
G3 X78.467 Y3.987 Z-6.000 I2.144 J1.051 K0.000 F360.000
G2 X78.717 Y3.889 Z-6.000 I0.009 J-0.347 K0.000 F360.000
G3 X76.363 Y1.176 Z-6.000 I1.827 J-3.962 K0.000 F360.000
G3 X76.251 Y-0.801 Z-6.000 I3.167 J-1.172 K0.000 F360.000
G3 X78.717 Y-3.890 Z-6.000 I4.230 J0.848 K0.000 F360.000
G1 X78.714 Y-3.897 Z-6.000 F360.000
G2 X78.314 Y-4.040 Z-6.000 I-8.222 J22.299 K0.000 F360.000
G3 X77.638 Y-7.986 Z-6.000 I0.534 J-2.122 K0.000 F360.000
G2 X78.463 Y-8.685 Z-6.000 I-0.997 J-2.015 K0.000 F360.000
G3 X74.628 Y-8.133 Z-6.000 I-109.725 J-747.915 K0.000 F360.000
G2 X73.898 Y-7.887 Z-6.000 I0.365 J2.291 K0.000 F360.000
G2 X73.883 Y-7.385 Z-6.000 I3.309 J0.354 K0.000 F360.000
G3 X75.302 Y-5.910 Z-6.000 I-0.802 J2.192 K0.000 F360.000
G3 X74.230 Y-3.345 Z-6.000 I-2.157 J0.604 K0.000 F360.000
G2 X73.915 Y-3.028 Z-6.000 I0.307 J0.618 K0.000 F360.000
G3 X75.134 Y-1.640 Z-6.000 I-1.725 J2.743 K0.000 F360.000
G3 X75.407 Y0.546 Z-6.000 I-4.213 J1.637 K0.000 F360.000
G3 X73.932 Y3.008 Z-6.000 I-3.139 J-0.208 K0.000 F360.000
G2 X74.197 Y3.337 Z-6.000 I0.464 J-0.103 K0.000 F360.000
G3 X75.387 Y5.055 Z-6.000 I-0.992 J1.957 K0.000 F360.000
G3 X73.883 Y7.384 Z-6.000 I-2.245 J0.200 K0.000 F360.000
G2 X73.897 Y7.870 Z-6.000 I3.528 J0.141 K0.000 F360.000
G2 X74.837 Y8.173 Z-6.000 I1.406 J-2.758 K0.000 F360.000
G3 X78.440 Y8.673 Z-6.000 I-10.943 J91.959 K0.000 F360.000
G0 Z5.000
G0 Z5.000
(Finish operation: Profile013)
(Begin operation: Profile014)
(Path: Profile014)
(Profile014)
(Compensated Tool Path. Diameter: 3.17)
G0 Z5.000
G0 X67.069 Y-6.607
G0 Z3.000
G1 X67.069 Y-6.607 Z-3.170 F360.000
G2 X67.220 Y-6.738 Z-3.170 I-0.914 J-1.203 K0.000 F360.000
G2 X67.296 Y-6.969 Z-3.170 I-0.081 J-0.155 K0.000 F360.000
G2 X66.269 Y-7.386 Z-3.170 I-1.081 J1.190 K0.000 F360.000
G2 X64.812 Y-6.822 Z-3.170 I-0.224 J1.586 K0.000 F360.000
G2 X64.812 Y-6.752 Z-3.170 I0.085 J0.035 K0.000 F360.000
G2 X66.216 Y-6.300 Z-3.170 I1.177 J-1.251 K0.000 F360.000
G2 X67.069 Y-6.607 Z-3.170 I-0.061 J-1.510 K0.000 F360.000
G1 X67.069 Y-6.607 Z-6.000 F360.000
G2 X67.220 Y-6.738 Z-6.000 I-0.914 J-1.203 K0.000 F360.000
G2 X67.296 Y-6.969 Z-6.000 I-0.081 J-0.155 K0.000 F360.000
G2 X66.269 Y-7.386 Z-6.000 I-1.081 J1.190 K0.000 F360.000
G2 X64.812 Y-6.822 Z-6.000 I-0.224 J1.586 K0.000 F360.000
G2 X64.812 Y-6.752 Z-6.000 I0.085 J0.035 K0.000 F360.000
G2 X66.216 Y-6.300 Z-6.000 I1.177 J-1.251 K0.000 F360.000
G2 X67.069 Y-6.607 Z-6.000 I-0.061 J-1.510 K0.000 F360.000
G0 Z5.000
G0 Z5.000
(Finish operation: Profile014)
(Begin operation: Profile015)
(Path: Profile015)
(Profile015)
(Compensated Tool Path. Diameter: 3.17)
G0 Z5.000
G0 X67.127 Y7.107
G0 Z3.000
G1 X67.127 Y7.107 Z-3.170 F360.000
G2 X67.232 Y7.034 Z-3.170 I-0.988 J-1.547 K0.000 F360.000
G2 X67.286 Y6.837 Z-3.170 I-0.052 J-0.121 K0.000 F360.000
G2 X66.350 Y6.325 Z-3.170 I-1.008 J0.733 K0.000 F360.000
G2 X64.844 Y6.707 Z-3.170 I-0.382 J1.653 K0.000 F360.000
G2 X64.805 Y6.822 Z-3.170 I0.081 J0.092 K0.000 F360.000
G2 X67.127 Y7.107 Z-3.170 I1.333 J-1.263 K0.000 F360.000
G1 X67.127 Y7.107 Z-6.000 F360.000
G2 X67.232 Y7.034 Z-6.000 I-0.988 J-1.547 K0.000 F360.000
G2 X67.286 Y6.837 Z-6.000 I-0.052 J-0.121 K0.000 F360.000
G2 X66.350 Y6.325 Z-6.000 I-1.008 J0.733 K0.000 F360.000
G2 X64.844 Y6.707 Z-6.000 I-0.382 J1.653 K0.000 F360.000
G2 X64.805 Y6.822 Z-6.000 I0.081 J0.092 K0.000 F360.000
G2 X67.127 Y7.107 Z-6.000 I1.333 J-1.263 K0.000 F360.000
G0 Z5.000
G0 Z5.000
(Finish operation: Profile015)
(Begin operation: Profile016)
(Path: Profile016)
(Profile016)
(Compensated Tool Path. Diameter: 3.17)
G0 Z5.000
G0 X67.127 Y-44.893
G0 Z3.000
G1 X67.127 Y-44.893 Z-3.170 F360.000
G2 X67.232 Y-44.966 Z-3.170 I-0.988 J-1.547 K0.000 F360.000
G2 X67.286 Y-45.163 Z-3.170 I-0.052 J-0.121 K0.000 F360.000
G2 X66.350 Y-45.675 Z-3.170 I-1.008 J0.733 K0.000 F360.000
G2 X64.844 Y-45.293 Z-3.170 I-0.382 J1.653 K0.000 F360.000
G2 X64.805 Y-45.178 Z-3.170 I0.081 J0.092 K0.000 F360.000
G2 X67.127 Y-44.893 Z-3.170 I1.333 J-1.263 K0.000 F360.000
G1 X67.127 Y-44.893 Z-6.000 F360.000
G2 X67.232 Y-44.966 Z-6.000 I-0.988 J-1.547 K0.000 F360.000
G2 X67.286 Y-45.163 Z-6.000 I-0.052 J-0.121 K0.000 F360.000
G2 X66.350 Y-45.675 Z-6.000 I-1.008 J0.733 K0.000 F360.000
G2 X64.844 Y-45.293 Z-6.000 I-0.382 J1.653 K0.000 F360.000
G2 X64.805 Y-45.178 Z-6.000 I0.081 J0.092 K0.000 F360.000
G2 X67.127 Y-44.893 Z-6.000 I1.333 J-1.263 K0.000 F360.000
G0 Z5.000
G0 Z5.000
(Finish operation: Profile016)
(Begin operation: Profile017)
(Path: Profile017)
(Profile017)
(Compensated Tool Path. Diameter: 3.17)
G0 Z5.000
G0 X78.440 Y-43.327
G0 Z3.000
G1 X78.440 Y-43.327 Z-3.170 F360.000
G2 X77.904 Y-43.859 Z-3.170 I-1.791 J1.266 K0.000 F360.000
G3 X76.846 Y-46.735 Z-3.170 I0.958 J-1.985 K0.000 F360.000
G3 X78.467 Y-48.013 Z-3.170 I2.144 J1.051 K0.000 F360.000
G2 X78.717 Y-48.111 Z-3.170 I0.009 J-0.347 K0.000 F360.000
G3 X76.363 Y-50.824 Z-3.170 I1.827 J-3.962 K0.000 F360.000
G3 X76.251 Y-52.801 Z-3.170 I3.167 J-1.172 K0.000 F360.000
G3 X78.717 Y-55.890 Z-3.170 I4.230 J0.848 K0.000 F360.000
G1 X78.714 Y-55.897 Z-3.170 F360.000
G2 X78.314 Y-56.040 Z-3.170 I-8.222 J22.299 K0.000 F360.000
G3 X77.638 Y-59.986 Z-3.170 I0.534 J-2.122 K0.000 F360.000
G2 X78.463 Y-60.685 Z-3.170 I-0.997 J-2.015 K0.000 F360.000
G3 X74.628 Y-60.133 Z-3.170 I-109.725 J-747.915 K0.000 F360.000
G2 X73.898 Y-59.887 Z-3.170 I0.365 J2.291 K0.000 F360.000
G2 X73.883 Y-59.385 Z-3.170 I3.309 J0.354 K0.000 F360.000
G3 X75.302 Y-57.910 Z-3.170 I-0.802 J2.192 K0.000 F360.000
G3 X74.230 Y-55.345 Z-3.170 I-2.157 J0.604 K0.000 F360.000
G2 X73.915 Y-55.028 Z-3.170 I0.307 J0.618 K0.000 F360.000
G3 X75.134 Y-53.640 Z-3.170 I-1.725 J2.743 K0.000 F360.000
G3 X75.407 Y-51.454 Z-3.170 I-4.213 J1.637 K0.000 F360.000
G3 X73.932 Y-48.992 Z-3.170 I-3.139 J-0.208 K0.000 F360.000
G2 X74.197 Y-48.663 Z-3.170 I0.464 J-0.103 K0.000 F360.000
G3 X75.387 Y-46.945 Z-3.170 I-0.992 J1.957 K0.000 F360.000
G3 X73.883 Y-44.616 Z-3.170 I-2.245 J0.200 K0.000 F360.000
G2 X73.897 Y-44.130 Z-3.170 I3.528 J0.141 K0.000 F360.000
G2 X74.837 Y-43.827 Z-3.170 I1.406 J-2.758 K0.000 F360.000
G3 X78.440 Y-43.327 Z-3.170 I-10.943 J91.959 K0.000 F360.000
G1 X78.440 Y-43.327 Z-6.000 F360.000
G2 X77.904 Y-43.859 Z-6.000 I-1.791 J1.266 K0.000 F360.000
G3 X76.846 Y-46.735 Z-6.000 I0.958 J-1.985 K0.000 F360.000
G3 X78.467 Y-48.013 Z-6.000 I2.144 J1.051 K0.000 F360.000
G2 X78.717 Y-48.111 Z-6.000 I0.009 J-0.347 K0.000 F360.000
G3 X76.363 Y-50.824 Z-6.000 I1.827 J-3.962 K0.000 F360.000
G3 X76.251 Y-52.801 Z-6.000 I3.167 J-1.172 K0.000 F360.000
G3 X78.717 Y-55.890 Z-6.000 I4.230 J0.848 K0.000 F360.000
G1 X78.714 Y-55.897 Z-6.000 F360.000
G2 X78.314 Y-56.040 Z-6.000 I-8.222 J22.299 K0.000 F360.000
G3 X77.638 Y-59.986 Z-6.000 I0.534 J-2.122 K0.000 F360.000
G2 X78.463 Y-60.685 Z-6.000 I-0.997 J-2.015 K0.000 F360.000
G3 X74.628 Y-60.133 Z-6.000 I-109.725 J-747.915 K0.000 F360.000
G2 X73.898 Y-59.887 Z-6.000 I0.365 J2.291 K0.000 F360.000
G2 X73.883 Y-59.385 Z-6.000 I3.309 J0.354 K0.000 F360.000
G3 X75.302 Y-57.910 Z-6.000 I-0.802 J2.192 K0.000 F360.000
G3 X74.230 Y-55.345 Z-6.000 I-2.157 J0.604 K0.000 F360.000
G2 X73.915 Y-55.028 Z-6.000 I0.307 J0.618 K0.000 F360.000
G3 X75.134 Y-53.640 Z-6.000 I-1.725 J2.743 K0.000 F360.000
G3 X75.407 Y-51.454 Z-6.000 I-4.213 J1.637 K0.000 F360.000
G3 X73.932 Y-48.992 Z-6.000 I-3.139 J-0.208 K0.000 F360.000
G2 X74.197 Y-48.663 Z-6.000 I0.464 J-0.103 K0.000 F360.000
G3 X75.387 Y-46.945 Z-6.000 I-0.992 J1.957 K0.000 F360.000
G3 X73.883 Y-44.616 Z-6.000 I-2.245 J0.200 K0.000 F360.000
G2 X73.897 Y-44.130 Z-6.000 I3.528 J0.141 K0.000 F360.000
G2 X74.837 Y-43.827 Z-6.000 I1.406 J-2.758 K0.000 F360.000
G3 X78.440 Y-43.327 Z-6.000 I-10.943 J91.959 K0.000 F360.000
G0 Z5.000
G0 Z5.000
(Finish operation: Profile017)
(Begin operation: Profile018)
(Path: Profile018)
(Profile018)
(Compensated Tool Path. Diameter: 3.17)
G0 Z5.000
G0 X67.069 Y-58.607
G0 Z3.000
G1 X67.069 Y-58.607 Z-3.170 F360.000
G2 X67.220 Y-58.738 Z-3.170 I-0.914 J-1.203 K0.000 F360.000
G2 X67.296 Y-58.969 Z-3.170 I-0.081 J-0.155 K0.000 F360.000
G2 X66.269 Y-59.386 Z-3.170 I-1.081 J1.190 K0.000 F360.000
G2 X64.812 Y-58.822 Z-3.170 I-0.224 J1.586 K0.000 F360.000
G2 X64.812 Y-58.752 Z-3.170 I0.085 J0.035 K0.000 F360.000
G2 X66.216 Y-58.300 Z-3.170 I1.177 J-1.251 K0.000 F360.000
G2 X67.069 Y-58.607 Z-3.170 I-0.061 J-1.510 K0.000 F360.000
G1 X67.069 Y-58.607 Z-6.000 F360.000
G2 X67.220 Y-58.738 Z-6.000 I-0.914 J-1.203 K0.000 F360.000
G2 X67.296 Y-58.969 Z-6.000 I-0.081 J-0.155 K0.000 F360.000
G2 X66.269 Y-59.386 Z-6.000 I-1.081 J1.190 K0.000 F360.000
G2 X64.812 Y-58.822 Z-6.000 I-0.224 J1.586 K0.000 F360.000
G2 X64.812 Y-58.752 Z-6.000 I0.085 J0.035 K0.000 F360.000
G2 X66.216 Y-58.300 Z-6.000 I1.177 J-1.251 K0.000 F360.000
G2 X67.069 Y-58.607 Z-6.000 I-0.061 J-1.510 K0.000 F360.000
G0 Z5.000
G0 Z5.000
(Finish operation: Profile018)
(Begin operation: Profile019)
(Path: Profile019)
(Profile019)
(Compensated Tool Path. Diameter: 3.17)
G0 Z5.000
G0 X26.440 Y-43.327
G0 Z3.000
G1 X26.440 Y-43.327 Z-3.170 F360.000
G2 X25.904 Y-43.859 Z-3.170 I-1.791 J1.266 K0.000 F360.000
G3 X24.846 Y-46.735 Z-3.170 I0.958 J-1.985 K0.000 F360.000
G3 X26.467 Y-48.013 Z-3.170 I2.144 J1.051 K0.000 F360.000
G2 X26.717 Y-48.111 Z-3.170 I0.009 J-0.347 K0.000 F360.000
G3 X24.363 Y-50.824 Z-3.170 I1.827 J-3.962 K0.000 F360.000
G3 X24.251 Y-52.801 Z-3.170 I3.167 J-1.172 K0.000 F360.000
G3 X26.717 Y-55.890 Z-3.170 I4.230 J0.848 K0.000 F360.000
G1 X26.714 Y-55.897 Z-3.170 F360.000
G2 X26.314 Y-56.040 Z-3.170 I-8.222 J22.298 K0.000 F360.000
G3 X25.638 Y-59.986 Z-3.170 I0.534 J-2.122 K0.000 F360.000
G2 X26.463 Y-60.685 Z-3.170 I-0.997 J-2.015 K0.000 F360.000
G3 X22.628 Y-60.133 Z-3.170 I-109.725 J-747.915 K0.000 F360.000
G2 X21.898 Y-59.887 Z-3.170 I0.365 J2.291 K0.000 F360.000
G2 X21.883 Y-59.385 Z-3.170 I3.309 J0.354 K0.000 F360.000
G3 X23.302 Y-57.910 Z-3.170 I-0.802 J2.192 K0.000 F360.000
G3 X22.230 Y-55.345 Z-3.170 I-2.157 J0.604 K0.000 F360.000
G2 X21.915 Y-55.028 Z-3.170 I0.307 J0.618 K0.000 F360.000
G3 X23.134 Y-53.640 Z-3.170 I-1.725 J2.743 K0.000 F360.000
G3 X23.407 Y-51.454 Z-3.170 I-4.213 J1.637 K0.000 F360.000
G3 X21.932 Y-48.992 Z-3.170 I-3.139 J-0.208 K0.000 F360.000
G2 X22.197 Y-48.663 Z-3.170 I0.464 J-0.103 K0.000 F360.000
G3 X23.387 Y-46.945 Z-3.170 I-0.992 J1.957 K0.000 F360.000
G3 X21.883 Y-44.616 Z-3.170 I-2.245 J0.200 K0.000 F360.000
G2 X21.897 Y-44.130 Z-3.170 I3.528 J0.141 K0.000 F360.000
G2 X22.837 Y-43.827 Z-3.170 I1.406 J-2.758 K0.000 F360.000
G3 X26.440 Y-43.327 Z-3.170 I-10.943 J91.959 K0.000 F360.000
G1 X26.440 Y-43.327 Z-6.000 F360.000
G2 X25.904 Y-43.859 Z-6.000 I-1.791 J1.266 K0.000 F360.000
G3 X24.846 Y-46.735 Z-6.000 I0.958 J-1.985 K0.000 F360.000
G3 X26.467 Y-48.013 Z-6.000 I2.144 J1.051 K0.000 F360.000
G2 X26.717 Y-48.111 Z-6.000 I0.009 J-0.347 K0.000 F360.000
G3 X24.363 Y-50.824 Z-6.000 I1.827 J-3.962 K0.000 F360.000
G3 X24.251 Y-52.801 Z-6.000 I3.167 J-1.172 K0.000 F360.000
G3 X26.717 Y-55.890 Z-6.000 I4.230 J0.848 K0.000 F360.000
G1 X26.714 Y-55.897 Z-6.000 F360.000
G2 X26.314 Y-56.040 Z-6.000 I-8.222 J22.298 K0.000 F360.000
G3 X25.638 Y-59.986 Z-6.000 I0.534 J-2.122 K0.000 F360.000
G2 X26.463 Y-60.685 Z-6.000 I-0.997 J-2.015 K0.000 F360.000
G3 X22.628 Y-60.133 Z-6.000 I-109.725 J-747.915 K0.000 F360.000
G2 X21.898 Y-59.887 Z-6.000 I0.365 J2.291 K0.000 F360.000
G2 X21.883 Y-59.385 Z-6.000 I3.309 J0.354 K0.000 F360.000
G3 X23.302 Y-57.910 Z-6.000 I-0.802 J2.192 K0.000 F360.000
G3 X22.230 Y-55.345 Z-6.000 I-2.157 J0.604 K0.000 F360.000
G2 X21.915 Y-55.028 Z-6.000 I0.307 J0.618 K0.000 F360.000
G3 X23.134 Y-53.640 Z-6.000 I-1.725 J2.743 K0.000 F360.000
G3 X23.407 Y-51.454 Z-6.000 I-4.213 J1.637 K0.000 F360.000
G3 X21.932 Y-48.992 Z-6.000 I-3.139 J-0.208 K0.000 F360.000
G2 X22.197 Y-48.663 Z-6.000 I0.464 J-0.103 K0.000 F360.000
G3 X23.387 Y-46.945 Z-6.000 I-0.992 J1.957 K0.000 F360.000
G3 X21.883 Y-44.616 Z-6.000 I-2.245 J0.200 K0.000 F360.000
G2 X21.897 Y-44.130 Z-6.000 I3.528 J0.141 K0.000 F360.000
G2 X22.837 Y-43.827 Z-6.000 I1.406 J-2.758 K0.000 F360.000
G3 X26.440 Y-43.327 Z-6.000 I-10.943 J91.959 K0.000 F360.000
G0 Z5.000
G0 Z5.000
(Finish operation: Profile019)
(Begin operation: Profile020)
(Path: Profile020)
(Profile020)
(Compensated Tool Path. Diameter: 3.17)
G0 Z5.000
G0 X15.069 Y-58.607
G0 Z3.000
G1 X15.069 Y-58.607 Z-3.170 F360.000
G2 X15.220 Y-58.738 Z-3.170 I-0.914 J-1.203 K0.000 F360.000
G2 X15.296 Y-58.969 Z-3.170 I-0.081 J-0.155 K0.000 F360.000
G2 X14.269 Y-59.386 Z-3.170 I-1.081 J1.190 K0.000 F360.000
G2 X12.812 Y-58.822 Z-3.170 I-0.224 J1.586 K0.000 F360.000
G2 X12.812 Y-58.752 Z-3.170 I0.085 J0.035 K0.000 F360.000
G2 X14.216 Y-58.300 Z-3.170 I1.177 J-1.251 K0.000 F360.000
G2 X15.069 Y-58.607 Z-3.170 I-0.061 J-1.510 K0.000 F360.000
G1 X15.069 Y-58.607 Z-6.000 F360.000
G2 X15.220 Y-58.738 Z-6.000 I-0.914 J-1.203 K0.000 F360.000
G2 X15.296 Y-58.969 Z-6.000 I-0.081 J-0.155 K0.000 F360.000
G2 X14.269 Y-59.386 Z-6.000 I-1.081 J1.190 K0.000 F360.000
G2 X12.812 Y-58.822 Z-6.000 I-0.224 J1.586 K0.000 F360.000
G2 X12.812 Y-58.752 Z-6.000 I0.085 J0.035 K0.000 F360.000
G2 X14.216 Y-58.300 Z-6.000 I1.177 J-1.251 K0.000 F360.000
G2 X15.069 Y-58.607 Z-6.000 I-0.061 J-1.510 K0.000 F360.000
G0 Z5.000
G0 Z5.000
(Finish operation: Profile020)
(Begin operation: Profile021)
(Path: Profile021)
(Profile021)
(Compensated Tool Path. Diameter: 3.17)
G0 Z5.000
G0 X15.127 Y-44.893
G0 Z3.000
G1 X15.127 Y-44.893 Z-3.170 F360.000
G2 X15.232 Y-44.966 Z-3.170 I-0.988 J-1.547 K0.000 F360.000
G2 X15.286 Y-45.163 Z-3.170 I-0.052 J-0.121 K0.000 F360.000
G2 X14.350 Y-45.675 Z-3.170 I-1.008 J0.733 K0.000 F360.000
G2 X12.844 Y-45.293 Z-3.170 I-0.382 J1.653 K0.000 F360.000
G2 X12.805 Y-45.178 Z-3.170 I0.081 J0.092 K0.000 F360.000
G2 X15.127 Y-44.893 Z-3.170 I1.333 J-1.263 K0.000 F360.000
G1 X15.127 Y-44.893 Z-6.000 F360.000
G2 X15.232 Y-44.966 Z-6.000 I-0.988 J-1.547 K0.000 F360.000
G2 X15.286 Y-45.163 Z-6.000 I-0.052 J-0.121 K0.000 F360.000
G2 X14.350 Y-45.675 Z-6.000 I-1.008 J0.733 K0.000 F360.000
G2 X12.844 Y-45.293 Z-6.000 I-0.382 J1.653 K0.000 F360.000
G2 X12.805 Y-45.178 Z-6.000 I0.081 J0.092 K0.000 F360.000
G2 X15.127 Y-44.893 Z-6.000 I1.333 J-1.263 K0.000 F360.000
G0 Z5.000
G0 Z5.000
(Finish operation: Profile021)
(Begin operation: Profile022)
(Path: Profile022)
(Profile022)
(Compensated Tool Path. Diameter: 3.17)
G0 Z5.000
G0 X15.069 Y-6.607
G0 Z3.000
G1 X15.069 Y-6.607 Z-3.170 F360.000
G2 X15.220 Y-6.738 Z-3.170 I-0.914 J-1.203 K0.000 F360.000
G2 X15.296 Y-6.969 Z-3.170 I-0.081 J-0.155 K0.000 F360.000
G2 X14.269 Y-7.386 Z-3.170 I-1.081 J1.190 K0.000 F360.000
G2 X12.812 Y-6.822 Z-3.170 I-0.224 J1.586 K0.000 F360.000
G2 X12.812 Y-6.752 Z-3.170 I0.085 J0.035 K0.000 F360.000
G2 X14.216 Y-6.300 Z-3.170 I1.177 J-1.251 K0.000 F360.000
G2 X15.069 Y-6.607 Z-3.170 I-0.061 J-1.510 K0.000 F360.000
G1 X15.069 Y-6.607 Z-6.000 F360.000
G2 X15.220 Y-6.738 Z-6.000 I-0.914 J-1.203 K0.000 F360.000
G2 X15.296 Y-6.969 Z-6.000 I-0.081 J-0.155 K0.000 F360.000
G2 X14.269 Y-7.386 Z-6.000 I-1.081 J1.190 K0.000 F360.000
G2 X12.812 Y-6.822 Z-6.000 I-0.224 J1.586 K0.000 F360.000
G2 X12.812 Y-6.752 Z-6.000 I0.085 J0.035 K0.000 F360.000
G2 X14.216 Y-6.300 Z-6.000 I1.177 J-1.251 K0.000 F360.000
G2 X15.069 Y-6.607 Z-6.000 I-0.061 J-1.510 K0.000 F360.000
G0 Z5.000
G0 Z5.000
(Finish operation: Profile022)
(Begin operation: Profile023)
(Path: Profile023)
(Profile023)
(Compensated Tool Path. Diameter: 3.17)
G0 Z5.000
G0 X26.440 Y8.673
G0 Z3.000
G1 X26.440 Y8.673 Z-3.170 F360.000
G2 X25.904 Y8.141 Z-3.170 I-1.791 J1.266 K0.000 F360.000
G3 X24.846 Y5.265 Z-3.170 I0.958 J-1.985 K0.000 F360.000
G3 X26.467 Y3.987 Z-3.170 I2.144 J1.051 K0.000 F360.000
G2 X26.717 Y3.889 Z-3.170 I0.009 J-0.347 K0.000 F360.000
G3 X24.363 Y1.176 Z-3.170 I1.827 J-3.962 K0.000 F360.000
G3 X24.251 Y-0.801 Z-3.170 I3.167 J-1.172 K0.000 F360.000
G3 X26.717 Y-3.890 Z-3.170 I4.230 J0.848 K0.000 F360.000
G1 X26.714 Y-3.897 Z-3.170 F360.000
G2 X26.314 Y-4.040 Z-3.170 I-8.222 J22.298 K0.000 F360.000
G3 X25.638 Y-7.986 Z-3.170 I0.534 J-2.122 K0.000 F360.000
G2 X26.463 Y-8.685 Z-3.170 I-0.997 J-2.015 K0.000 F360.000
G3 X22.628 Y-8.133 Z-3.170 I-109.725 J-747.915 K0.000 F360.000
G2 X21.898 Y-7.887 Z-3.170 I0.365 J2.291 K0.000 F360.000
G2 X21.883 Y-7.385 Z-3.170 I3.309 J0.354 K0.000 F360.000
G3 X23.302 Y-5.910 Z-3.170 I-0.802 J2.192 K0.000 F360.000
G3 X22.230 Y-3.345 Z-3.170 I-2.157 J0.604 K0.000 F360.000
G2 X21.915 Y-3.028 Z-3.170 I0.307 J0.618 K0.000 F360.000
G3 X23.134 Y-1.640 Z-3.170 I-1.725 J2.743 K0.000 F360.000
G3 X23.407 Y0.546 Z-3.170 I-4.213 J1.637 K0.000 F360.000
G3 X21.932 Y3.008 Z-3.170 I-3.139 J-0.208 K0.000 F360.000
G2 X22.197 Y3.337 Z-3.170 I0.464 J-0.103 K0.000 F360.000
G3 X23.387 Y5.055 Z-3.170 I-0.992 J1.957 K0.000 F360.000
G3 X21.883 Y7.384 Z-3.170 I-2.245 J0.200 K0.000 F360.000
G2 X21.897 Y7.870 Z-3.170 I3.528 J0.141 K0.000 F360.000
G2 X22.837 Y8.173 Z-3.170 I1.406 J-2.758 K0.000 F360.000
G3 X26.440 Y8.673 Z-3.170 I-10.943 J91.959 K0.000 F360.000
G1 X26.440 Y8.673 Z-6.000 F360.000
G2 X25.904 Y8.141 Z-6.000 I-1.791 J1.266 K0.000 F360.000
G3 X24.846 Y5.265 Z-6.000 I0.958 J-1.985 K0.000 F360.000
G3 X26.467 Y3.987 Z-6.000 I2.144 J1.051 K0.000 F360.000
G2 X26.717 Y3.889 Z-6.000 I0.009 J-0.347 K0.000 F360.000
G3 X24.363 Y1.176 Z-6.000 I1.827 J-3.962 K0.000 F360.000
G3 X24.251 Y-0.801 Z-6.000 I3.167 J-1.172 K0.000 F360.000
G3 X26.717 Y-3.890 Z-6.000 I4.230 J0.848 K0.000 F360.000
G1 X26.714 Y-3.897 Z-6.000 F360.000
G2 X26.314 Y-4.040 Z-6.000 I-8.222 J22.298 K0.000 F360.000
G3 X25.638 Y-7.986 Z-6.000 I0.534 J-2.122 K0.000 F360.000
G2 X26.463 Y-8.685 Z-6.000 I-0.997 J-2.015 K0.000 F360.000
G3 X22.628 Y-8.133 Z-6.000 I-109.725 J-747.915 K0.000 F360.000
G2 X21.898 Y-7.887 Z-6.000 I0.365 J2.291 K0.000 F360.000
G2 X21.883 Y-7.385 Z-6.000 I3.309 J0.354 K0.000 F360.000
G3 X23.302 Y-5.910 Z-6.000 I-0.802 J2.192 K0.000 F360.000
G3 X22.230 Y-3.345 Z-6.000 I-2.157 J0.604 K0.000 F360.000
G2 X21.915 Y-3.028 Z-6.000 I0.307 J0.618 K0.000 F360.000
G3 X23.134 Y-1.640 Z-6.000 I-1.725 J2.743 K0.000 F360.000
G3 X23.407 Y0.546 Z-6.000 I-4.213 J1.637 K0.000 F360.000
G3 X21.932 Y3.008 Z-6.000 I-3.139 J-0.208 K0.000 F360.000
G2 X22.197 Y3.337 Z-6.000 I0.464 J-0.103 K0.000 F360.000
G3 X23.387 Y5.055 Z-6.000 I-0.992 J1.957 K0.000 F360.000
G3 X21.883 Y7.384 Z-6.000 I-2.245 J0.200 K0.000 F360.000
G2 X21.897 Y7.870 Z-6.000 I3.528 J0.141 K0.000 F360.000
G2 X22.837 Y8.173 Z-6.000 I1.406 J-2.758 K0.000 F360.000
G3 X26.440 Y8.673 Z-6.000 I-10.943 J91.959 K0.000 F360.000
G0 Z5.000
G0 Z5.000
(Finish operation: Profile023)
(Begin operation: Profile024)
(Path: Profile024)
(Profile024)
(Compensated Tool Path. Diameter: 3.17)
G0 Z5.000
G0 X15.127 Y7.107
G0 Z3.000
G1 X15.127 Y7.107 Z-3.170 F360.000
G2 X15.232 Y7.034 Z-3.170 I-0.988 J-1.547 K0.000 F360.000
G2 X15.286 Y6.837 Z-3.170 I-0.052 J-0.121 K0.000 F360.000
G2 X14.350 Y6.325 Z-3.170 I-1.008 J0.733 K0.000 F360.000
G2 X12.844 Y6.707 Z-3.170 I-0.382 J1.653 K0.000 F360.000
G2 X12.805 Y6.822 Z-3.170 I0.081 J0.092 K0.000 F360.000
G2 X15.127 Y7.107 Z-3.170 I1.333 J-1.263 K0.000 F360.000
G1 X15.127 Y7.107 Z-6.000 F360.000
G2 X15.232 Y7.034 Z-6.000 I-0.988 J-1.547 K0.000 F360.000
G2 X15.286 Y6.837 Z-6.000 I-0.052 J-0.121 K0.000 F360.000
G2 X14.350 Y6.325 Z-6.000 I-1.008 J0.733 K0.000 F360.000
G2 X12.844 Y6.707 Z-6.000 I-0.382 J1.653 K0.000 F360.000
G2 X12.805 Y6.822 Z-6.000 I0.081 J0.092 K0.000 F360.000
G2 X15.127 Y7.107 Z-6.000 I1.333 J-1.263 K0.000 F360.000
G0 Z5.000
G0 Z5.000
(Finish operation: Profile024)
(Begin operation: Profile025)
(Path: Profile025)
(Profile025)
(Compensated Tool Path. Diameter: 3.17)
G0 Z5.000
G0 X-25.560 Y8.673
G0 Z3.000
G1 X-25.560 Y8.673 Z-3.170 F360.000
G2 X-26.096 Y8.141 Z-3.170 I-1.791 J1.266 K0.000 F360.000
G3 X-27.154 Y5.265 Z-3.170 I0.958 J-1.985 K0.000 F360.000
G3 X-25.533 Y3.987 Z-3.170 I2.144 J1.051 K0.000 F360.000
G2 X-25.283 Y3.889 Z-3.170 I0.009 J-0.347 K0.000 F360.000
G3 X-27.637 Y1.176 Z-3.170 I1.827 J-3.962 K0.000 F360.000
G3 X-27.749 Y-0.801 Z-3.170 I3.167 J-1.172 K0.000 F360.000
G3 X-25.283 Y-3.890 Z-3.170 I4.230 J0.848 K0.000 F360.000
G1 X-25.286 Y-3.897 Z-3.170 F360.000
G2 X-25.686 Y-4.040 Z-3.170 I-8.222 J22.298 K0.000 F360.000
G3 X-26.362 Y-7.986 Z-3.170 I0.534 J-2.122 K0.000 F360.000
G2 X-25.537 Y-8.685 Z-3.170 I-0.997 J-2.015 K0.000 F360.000
G3 X-29.372 Y-8.133 Z-3.170 I-109.725 J-747.915 K0.000 F360.000
G2 X-30.102 Y-7.887 Z-3.170 I0.365 J2.291 K0.000 F360.000
G2 X-30.117 Y-7.385 Z-3.170 I3.309 J0.354 K0.000 F360.000
G3 X-28.698 Y-5.910 Z-3.170 I-0.802 J2.192 K0.000 F360.000
G3 X-29.770 Y-3.345 Z-3.170 I-2.157 J0.604 K0.000 F360.000
G2 X-30.085 Y-3.028 Z-3.170 I0.307 J0.618 K0.000 F360.000
G3 X-28.866 Y-1.640 Z-3.170 I-1.725 J2.743 K0.000 F360.000
G3 X-28.593 Y0.546 Z-3.170 I-4.213 J1.637 K0.000 F360.000
G3 X-30.068 Y3.008 Z-3.170 I-3.139 J-0.208 K0.000 F360.000
G2 X-29.803 Y3.337 Z-3.170 I0.464 J-0.103 K0.000 F360.000
G3 X-28.613 Y5.055 Z-3.170 I-0.992 J1.957 K0.000 F360.000
G3 X-30.117 Y7.384 Z-3.170 I-2.245 J0.200 K0.000 F360.000
G2 X-30.103 Y7.870 Z-3.170 I3.528 J0.141 K0.000 F360.000
G2 X-29.163 Y8.173 Z-3.170 I1.406 J-2.758 K0.000 F360.000
G3 X-25.560 Y8.673 Z-3.170 I-10.943 J91.959 K0.000 F360.000
G1 X-25.560 Y8.673 Z-6.000 F360.000
G2 X-26.096 Y8.141 Z-6.000 I-1.791 J1.266 K0.000 F360.000
G3 X-27.154 Y5.265 Z-6.000 I0.958 J-1.985 K0.000 F360.000
G3 X-25.533 Y3.987 Z-6.000 I2.144 J1.051 K0.000 F360.000
G2 X-25.283 Y3.889 Z-6.000 I0.009 J-0.347 K0.000 F360.000
G3 X-27.637 Y1.176 Z-6.000 I1.827 J-3.962 K0.000 F360.000
G3 X-27.749 Y-0.801 Z-6.000 I3.167 J-1.172 K0.000 F360.000
G3 X-25.283 Y-3.890 Z-6.000 I4.230 J0.848 K0.000 F360.000
G1 X-25.286 Y-3.897 Z-6.000 F360.000
G2 X-25.686 Y-4.040 Z-6.000 I-8.222 J22.298 K0.000 F360.000
G3 X-26.362 Y-7.986 Z-6.000 I0.534 J-2.122 K0.000 F360.000
G2 X-25.537 Y-8.685 Z-6.000 I-0.997 J-2.015 K0.000 F360.000
G3 X-29.372 Y-8.133 Z-6.000 I-109.725 J-747.915 K0.000 F360.000
G2 X-30.102 Y-7.887 Z-6.000 I0.365 J2.291 K0.000 F360.000
G2 X-30.117 Y-7.385 Z-6.000 I3.309 J0.354 K0.000 F360.000
G3 X-28.698 Y-5.910 Z-6.000 I-0.802 J2.192 K0.000 F360.000
G3 X-29.770 Y-3.345 Z-6.000 I-2.157 J0.604 K0.000 F360.000
G2 X-30.085 Y-3.028 Z-6.000 I0.307 J0.618 K0.000 F360.000
G3 X-28.866 Y-1.640 Z-6.000 I-1.725 J2.743 K0.000 F360.000
G3 X-28.593 Y0.546 Z-6.000 I-4.213 J1.637 K0.000 F360.000
G3 X-30.068 Y3.008 Z-6.000 I-3.139 J-0.208 K0.000 F360.000
G2 X-29.803 Y3.337 Z-6.000 I0.464 J-0.103 K0.000 F360.000
G3 X-28.613 Y5.055 Z-6.000 I-0.992 J1.957 K0.000 F360.000
G3 X-30.117 Y7.384 Z-6.000 I-2.245 J0.200 K0.000 F360.000
G2 X-30.103 Y7.870 Z-6.000 I3.528 J0.141 K0.000 F360.000
G2 X-29.163 Y8.173 Z-6.000 I1.406 J-2.758 K0.000 F360.000
G3 X-25.560 Y8.673 Z-6.000 I-10.943 J91.959 K0.000 F360.000
G0 Z5.000
G0 Z5.000
(Finish operation: Profile025)
(Begin operation: Profile026)
(Path: Profile026)
(Profile026)
(Compensated Tool Path. Diameter: 3.17)
G0 Z5.000
G0 X-36.873 Y7.107
G0 Z3.000
G1 X-36.873 Y7.107 Z-3.170 F360.000
G2 X-36.768 Y7.034 Z-3.170 I-0.988 J-1.547 K0.000 F360.000
G2 X-36.714 Y6.837 Z-3.170 I-0.052 J-0.121 K0.000 F360.000
G2 X-37.650 Y6.325 Z-3.170 I-1.008 J0.733 K0.000 F360.000
G2 X-39.156 Y6.707 Z-3.170 I-0.382 J1.653 K0.000 F360.000
G2 X-39.195 Y6.822 Z-3.170 I0.081 J0.092 K0.000 F360.000
G2 X-36.873 Y7.107 Z-3.170 I1.333 J-1.263 K0.000 F360.000
G1 X-36.873 Y7.107 Z-6.000 F360.000
G2 X-36.768 Y7.034 Z-6.000 I-0.988 J-1.547 K0.000 F360.000
G2 X-36.714 Y6.837 Z-6.000 I-0.052 J-0.121 K0.000 F360.000
G2 X-37.650 Y6.325 Z-6.000 I-1.008 J0.733 K0.000 F360.000
G2 X-39.156 Y6.707 Z-6.000 I-0.382 J1.653 K0.000 F360.000
G2 X-39.195 Y6.822 Z-6.000 I0.081 J0.092 K0.000 F360.000
G2 X-36.873 Y7.107 Z-6.000 I1.333 J-1.263 K0.000 F360.000
G0 Z5.000
G0 Z5.000
(Finish operation: Profile026)
(Begin operation: Profile027)
(Path: Profile027)
(Profile027)
(Compensated Tool Path. Diameter: 3.17)
G0 Z5.000
G0 X-36.931 Y-6.607
G0 Z3.000
G1 X-36.931 Y-6.607 Z-3.170 F360.000
G2 X-36.780 Y-6.738 Z-3.170 I-0.914 J-1.203 K0.000 F360.000
G2 X-36.704 Y-6.969 Z-3.170 I-0.081 J-0.155 K0.000 F360.000
G2 X-37.731 Y-7.386 Z-3.170 I-1.081 J1.190 K0.000 F360.000
G2 X-39.188 Y-6.822 Z-3.170 I-0.224 J1.586 K0.000 F360.000
G2 X-39.188 Y-6.752 Z-3.170 I0.085 J0.035 K0.000 F360.000
G2 X-37.784 Y-6.300 Z-3.170 I1.177 J-1.251 K0.000 F360.000
G2 X-36.931 Y-6.607 Z-3.170 I-0.061 J-1.510 K0.000 F360.000
G1 X-36.931 Y-6.607 Z-6.000 F360.000
G2 X-36.780 Y-6.738 Z-6.000 I-0.914 J-1.203 K0.000 F360.000
G2 X-36.704 Y-6.969 Z-6.000 I-0.081 J-0.155 K0.000 F360.000
G2 X-37.731 Y-7.386 Z-6.000 I-1.081 J1.190 K0.000 F360.000
G2 X-39.188 Y-6.822 Z-6.000 I-0.224 J1.586 K0.000 F360.000
G2 X-39.188 Y-6.752 Z-6.000 I0.085 J0.035 K0.000 F360.000
G2 X-37.784 Y-6.300 Z-6.000 I1.177 J-1.251 K0.000 F360.000
G2 X-36.931 Y-6.607 Z-6.000 I-0.061 J-1.510 K0.000 F360.000
G0 Z5.000
G0 Z5.000
(Finish operation: Profile027)
(Begin operation: Profile028)
(Path: Profile028)
(Profile028)
(Compensated Tool Path. Diameter: 3.17)
G0 Z5.000
G0 X-25.560 Y-43.327
G0 Z3.000
G1 X-25.560 Y-43.327 Z-3.170 F360.000
G2 X-26.096 Y-43.859 Z-3.170 I-1.791 J1.266 K0.000 F360.000
G3 X-27.154 Y-46.735 Z-3.170 I0.958 J-1.985 K0.000 F360.000
G3 X-25.533 Y-48.013 Z-3.170 I2.144 J1.051 K0.000 F360.000
G2 X-25.283 Y-48.111 Z-3.170 I0.009 J-0.347 K0.000 F360.000
G3 X-27.637 Y-50.824 Z-3.170 I1.827 J-3.962 K0.000 F360.000
G3 X-27.749 Y-52.801 Z-3.170 I3.167 J-1.172 K0.000 F360.000
G3 X-25.283 Y-55.890 Z-3.170 I4.230 J0.848 K0.000 F360.000
G1 X-25.286 Y-55.897 Z-3.170 F360.000
G2 X-25.686 Y-56.040 Z-3.170 I-8.221 J22.297 K0.000 F360.000
G3 X-26.362 Y-59.986 Z-3.170 I0.534 J-2.122 K0.000 F360.000
G2 X-25.537 Y-60.685 Z-3.170 I-0.997 J-2.015 K0.000 F360.000
G3 X-29.372 Y-60.133 Z-3.170 I-109.722 J-747.898 K0.000 F360.000
G2 X-30.102 Y-59.887 Z-3.170 I0.365 J2.291 K0.000 F360.000
G2 X-30.117 Y-59.385 Z-3.170 I3.309 J0.354 K0.000 F360.000
G3 X-28.698 Y-57.910 Z-3.170 I-0.802 J2.192 K0.000 F360.000
G3 X-29.770 Y-55.345 Z-3.170 I-2.157 J0.604 K0.000 F360.000
G2 X-30.085 Y-55.028 Z-3.170 I0.307 J0.618 K0.000 F360.000
G3 X-28.866 Y-53.640 Z-3.170 I-1.725 J2.743 K0.000 F360.000
G3 X-28.593 Y-51.454 Z-3.170 I-4.213 J1.637 K0.000 F360.000
G3 X-30.068 Y-48.992 Z-3.170 I-3.139 J-0.208 K0.000 F360.000
G2 X-29.803 Y-48.663 Z-3.170 I0.464 J-0.103 K0.000 F360.000
G3 X-28.613 Y-46.945 Z-3.170 I-0.992 J1.957 K0.000 F360.000
G3 X-30.117 Y-44.616 Z-3.170 I-2.245 J0.200 K0.000 F360.000
G2 X-30.103 Y-44.130 Z-3.170 I3.528 J0.141 K0.000 F360.000
G2 X-29.163 Y-43.827 Z-3.170 I1.406 J-2.758 K0.000 F360.000
G3 X-25.560 Y-43.327 Z-3.170 I-10.943 J91.959 K0.000 F360.000
G1 X-25.560 Y-43.327 Z-6.000 F360.000
G2 X-26.096 Y-43.859 Z-6.000 I-1.791 J1.266 K0.000 F360.000
G3 X-27.154 Y-46.735 Z-6.000 I0.958 J-1.985 K0.000 F360.000
G3 X-25.533 Y-48.013 Z-6.000 I2.144 J1.051 K0.000 F360.000
G2 X-25.283 Y-48.111 Z-6.000 I0.009 J-0.347 K0.000 F360.000
G3 X-27.637 Y-50.824 Z-6.000 I1.827 J-3.962 K0.000 F360.000
G3 X-27.749 Y-52.801 Z-6.000 I3.167 J-1.172 K0.000 F360.000
G3 X-25.283 Y-55.890 Z-6.000 I4.230 J0.848 K0.000 F360.000
G1 X-25.286 Y-55.897 Z-6.000 F360.000
G2 X-25.686 Y-56.040 Z-6.000 I-8.221 J22.297 K0.000 F360.000
G3 X-26.362 Y-59.986 Z-6.000 I0.534 J-2.122 K0.000 F360.000
G2 X-25.537 Y-60.685 Z-6.000 I-0.997 J-2.015 K0.000 F360.000
G3 X-29.372 Y-60.133 Z-6.000 I-109.722 J-747.898 K0.000 F360.000
G2 X-30.102 Y-59.887 Z-6.000 I0.365 J2.291 K0.000 F360.000
G2 X-30.117 Y-59.385 Z-6.000 I3.309 J0.354 K0.000 F360.000
G3 X-28.698 Y-57.910 Z-6.000 I-0.802 J2.192 K0.000 F360.000
G3 X-29.770 Y-55.345 Z-6.000 I-2.157 J0.604 K0.000 F360.000
G2 X-30.085 Y-55.028 Z-6.000 I0.307 J0.618 K0.000 F360.000
G3 X-28.866 Y-53.640 Z-6.000 I-1.725 J2.743 K0.000 F360.000
G3 X-28.593 Y-51.454 Z-6.000 I-4.213 J1.637 K0.000 F360.000
G3 X-30.068 Y-48.992 Z-6.000 I-3.139 J-0.208 K0.000 F360.000
G2 X-29.803 Y-48.663 Z-6.000 I0.464 J-0.103 K0.000 F360.000
G3 X-28.613 Y-46.945 Z-6.000 I-0.992 J1.957 K0.000 F360.000
G3 X-30.117 Y-44.616 Z-6.000 I-2.245 J0.200 K0.000 F360.000
G2 X-30.103 Y-44.130 Z-6.000 I3.528 J0.141 K0.000 F360.000
G2 X-29.163 Y-43.827 Z-6.000 I1.406 J-2.758 K0.000 F360.000
G3 X-25.560 Y-43.327 Z-6.000 I-10.943 J91.959 K0.000 F360.000
G0 Z5.000
G0 Z5.000
(Finish operation: Profile028)
(Begin operation: Profile029)
(Path: Profile029)
(Profile029)
(Compensated Tool Path. Diameter: 3.17)
G0 Z5.000
G0 X-36.931 Y-58.607
G0 Z3.000
G1 X-36.931 Y-58.607 Z-3.170 F360.000
G2 X-36.780 Y-58.738 Z-3.170 I-0.914 J-1.203 K0.000 F360.000
G2 X-36.704 Y-58.969 Z-3.170 I-0.081 J-0.155 K0.000 F360.000
G2 X-37.731 Y-59.386 Z-3.170 I-1.081 J1.190 K0.000 F360.000
G2 X-39.188 Y-58.822 Z-3.170 I-0.224 J1.586 K0.000 F360.000
G2 X-39.188 Y-58.752 Z-3.170 I0.085 J0.035 K0.000 F360.000
G2 X-37.784 Y-58.300 Z-3.170 I1.177 J-1.251 K0.000 F360.000
G2 X-36.931 Y-58.607 Z-3.170 I-0.061 J-1.510 K0.000 F360.000
G1 X-36.931 Y-58.607 Z-6.000 F360.000
G2 X-36.780 Y-58.738 Z-6.000 I-0.914 J-1.203 K0.000 F360.000
G2 X-36.704 Y-58.969 Z-6.000 I-0.081 J-0.155 K0.000 F360.000
G2 X-37.731 Y-59.386 Z-6.000 I-1.081 J1.190 K0.000 F360.000
G2 X-39.188 Y-58.822 Z-6.000 I-0.224 J1.586 K0.000 F360.000
G2 X-39.188 Y-58.752 Z-6.000 I0.085 J0.035 K0.000 F360.000
G2 X-37.784 Y-58.300 Z-6.000 I1.177 J-1.251 K0.000 F360.000
G2 X-36.931 Y-58.607 Z-6.000 I-0.061 J-1.510 K0.000 F360.000
G0 Z5.000
G0 Z5.000
(Finish operation: Profile029)
(Begin operation: Profile030)
(Path: Profile030)
(Profile030)
(Compensated Tool Path. Diameter: 3.17)
G0 Z5.000
G0 X-36.873 Y-44.893
G0 Z3.000
G1 X-36.873 Y-44.893 Z-3.170 F360.000
G2 X-36.768 Y-44.966 Z-3.170 I-0.988 J-1.547 K0.000 F360.000
G2 X-36.714 Y-45.163 Z-3.170 I-0.052 J-0.121 K0.000 F360.000
G2 X-37.650 Y-45.675 Z-3.170 I-1.008 J0.733 K0.000 F360.000
G2 X-39.156 Y-45.293 Z-3.170 I-0.382 J1.653 K0.000 F360.000
G2 X-39.195 Y-45.178 Z-3.170 I0.081 J0.092 K0.000 F360.000
G2 X-36.873 Y-44.893 Z-3.170 I1.333 J-1.263 K0.000 F360.000
G1 X-36.873 Y-44.893 Z-6.000 F360.000
G2 X-36.768 Y-44.966 Z-6.000 I-0.988 J-1.547 K0.000 F360.000
G2 X-36.714 Y-45.163 Z-6.000 I-0.052 J-0.121 K0.000 F360.000
G2 X-37.650 Y-45.675 Z-6.000 I-1.008 J0.733 K0.000 F360.000
G2 X-39.156 Y-45.293 Z-6.000 I-0.382 J1.653 K0.000 F360.000
G2 X-39.195 Y-45.178 Z-6.000 I0.081 J0.092 K0.000 F360.000
G2 X-36.873 Y-44.893 Z-6.000 I1.333 J-1.263 K0.000 F360.000
G0 Z5.000
G0 Z5.000
(Finish operation: Profile030)
(Begin operation: Profile031)
(Path: Profile031)
(Profile031)
(Compensated Tool Path. Diameter: 3.17)
G0 Z5.000
G0 X-77.560 Y-43.327
G0 Z3.000
G1 X-77.560 Y-43.327 Z-3.170 F360.000
G2 X-78.096 Y-43.859 Z-3.170 I-1.791 J1.266 K0.000 F360.000
G3 X-79.154 Y-46.735 Z-3.170 I0.958 J-1.985 K0.000 F360.000
G3 X-77.533 Y-48.013 Z-3.170 I2.144 J1.051 K0.000 F360.000
G2 X-77.283 Y-48.111 Z-3.170 I0.009 J-0.347 K0.000 F360.000
G3 X-79.637 Y-50.824 Z-3.170 I1.827 J-3.962 K0.000 F360.000
G3 X-79.749 Y-52.801 Z-3.170 I3.167 J-1.172 K0.000 F360.000
G3 X-77.283 Y-55.890 Z-3.170 I4.230 J0.848 K0.000 F360.000
G1 X-77.286 Y-55.897 Z-3.170 F360.000
G2 X-77.686 Y-56.040 Z-3.170 I-8.222 J22.298 K0.000 F360.000
G3 X-78.362 Y-59.986 Z-3.170 I0.534 J-2.122 K0.000 F360.000
G2 X-77.537 Y-60.685 Z-3.170 I-0.997 J-2.015 K0.000 F360.000
G3 X-81.372 Y-60.133 Z-3.170 I-109.725 J-747.915 K0.000 F360.000
G2 X-82.102 Y-59.887 Z-3.170 I0.365 J2.291 K0.000 F360.000
G2 X-82.117 Y-59.385 Z-3.170 I3.309 J0.354 K0.000 F360.000
G3 X-80.698 Y-57.910 Z-3.170 I-0.802 J2.192 K0.000 F360.000
G3 X-81.770 Y-55.345 Z-3.170 I-2.157 J0.604 K0.000 F360.000
G2 X-82.085 Y-55.028 Z-3.170 I0.307 J0.618 K0.000 F360.000
G3 X-80.866 Y-53.640 Z-3.170 I-1.725 J2.743 K0.000 F360.000
G3 X-80.593 Y-51.454 Z-3.170 I-4.213 J1.637 K0.000 F360.000
G3 X-82.068 Y-48.992 Z-3.170 I-3.139 J-0.208 K0.000 F360.000
G2 X-81.803 Y-48.663 Z-3.170 I0.464 J-0.103 K0.000 F360.000
G3 X-80.613 Y-46.945 Z-3.170 I-0.992 J1.957 K0.000 F360.000
G3 X-82.117 Y-44.616 Z-3.170 I-2.245 J0.200 K0.000 F360.000
G2 X-82.103 Y-44.130 Z-3.170 I3.528 J0.141 K0.000 F360.000
G2 X-81.163 Y-43.827 Z-3.170 I1.406 J-2.758 K0.000 F360.000
G3 X-77.560 Y-43.327 Z-3.170 I-10.943 J91.959 K0.000 F360.000
G1 X-77.560 Y-43.327 Z-6.000 F360.000
G2 X-78.096 Y-43.859 Z-6.000 I-1.791 J1.266 K0.000 F360.000
G3 X-79.154 Y-46.735 Z-6.000 I0.958 J-1.985 K0.000 F360.000
G3 X-77.533 Y-48.013 Z-6.000 I2.144 J1.051 K0.000 F360.000
G2 X-77.283 Y-48.111 Z-6.000 I0.009 J-0.347 K0.000 F360.000
G3 X-79.637 Y-50.824 Z-6.000 I1.827 J-3.962 K0.000 F360.000
G3 X-79.749 Y-52.801 Z-6.000 I3.167 J-1.172 K0.000 F360.000
G3 X-77.283 Y-55.890 Z-6.000 I4.230 J0.848 K0.000 F360.000
G1 X-77.286 Y-55.897 Z-6.000 F360.000
G2 X-77.686 Y-56.040 Z-6.000 I-8.222 J22.298 K0.000 F360.000
G3 X-78.362 Y-59.986 Z-6.000 I0.534 J-2.122 K0.000 F360.000
G2 X-77.537 Y-60.685 Z-6.000 I-0.997 J-2.015 K0.000 F360.000
G3 X-81.372 Y-60.133 Z-6.000 I-109.725 J-747.915 K0.000 F360.000
G2 X-82.102 Y-59.887 Z-6.000 I0.365 J2.291 K0.000 F360.000
G2 X-82.117 Y-59.385 Z-6.000 I3.309 J0.354 K0.000 F360.000
G3 X-80.698 Y-57.910 Z-6.000 I-0.802 J2.192 K0.000 F360.000
G3 X-81.770 Y-55.345 Z-6.000 I-2.157 J0.604 K0.000 F360.000
G2 X-82.085 Y-55.028 Z-6.000 I0.307 J0.618 K0.000 F360.000
G3 X-80.866 Y-53.640 Z-6.000 I-1.725 J2.743 K0.000 F360.000
G3 X-80.593 Y-51.454 Z-6.000 I-4.213 J1.637 K0.000 F360.000
G3 X-82.068 Y-48.992 Z-6.000 I-3.139 J-0.208 K0.000 F360.000
G2 X-81.803 Y-48.663 Z-6.000 I0.464 J-0.103 K0.000 F360.000
G3 X-80.613 Y-46.945 Z-6.000 I-0.992 J1.957 K0.000 F360.000
G3 X-82.117 Y-44.616 Z-6.000 I-2.245 J0.200 K0.000 F360.000
G2 X-82.103 Y-44.130 Z-6.000 I3.528 J0.141 K0.000 F360.000
G2 X-81.163 Y-43.827 Z-6.000 I1.406 J-2.758 K0.000 F360.000
G3 X-77.560 Y-43.327 Z-6.000 I-10.943 J91.959 K0.000 F360.000
G0 Z5.000
G0 Z5.000
(Finish operation: Profile031)
(Begin operation: Profile032)
(Path: Profile032)
(Profile032)
(Compensated Tool Path. Diameter: 3.17)
G0 Z5.000
G0 X-88.931 Y-58.607
G0 Z3.000
G1 X-88.931 Y-58.607 Z-3.170 F360.000
G2 X-88.780 Y-58.738 Z-3.170 I-0.914 J-1.203 K0.000 F360.000
G2 X-88.704 Y-58.969 Z-3.170 I-0.081 J-0.155 K0.000 F360.000
G2 X-89.731 Y-59.386 Z-3.170 I-1.081 J1.190 K0.000 F360.000
G2 X-91.188 Y-58.822 Z-3.170 I-0.224 J1.586 K0.000 F360.000
G2 X-91.188 Y-58.752 Z-3.170 I0.085 J0.035 K0.000 F360.000
G2 X-89.784 Y-58.300 Z-3.170 I1.177 J-1.251 K0.000 F360.000
G2 X-88.931 Y-58.607 Z-3.170 I-0.061 J-1.510 K0.000 F360.000
G1 X-88.931 Y-58.607 Z-6.000 F360.000
G2 X-88.780 Y-58.738 Z-6.000 I-0.914 J-1.203 K0.000 F360.000
G2 X-88.704 Y-58.969 Z-6.000 I-0.081 J-0.155 K0.000 F360.000
G2 X-89.731 Y-59.386 Z-6.000 I-1.081 J1.190 K0.000 F360.000
G2 X-91.188 Y-58.822 Z-6.000 I-0.224 J1.586 K0.000 F360.000
G2 X-91.188 Y-58.752 Z-6.000 I0.085 J0.035 K0.000 F360.000
G2 X-89.784 Y-58.300 Z-6.000 I1.177 J-1.251 K0.000 F360.000
G2 X-88.931 Y-58.607 Z-6.000 I-0.061 J-1.510 K0.000 F360.000
G0 Z5.000
G0 Z5.000
(Finish operation: Profile032)
(Begin operation: Profile033)
(Path: Profile033)
(Profile033)
(Compensated Tool Path. Diameter: 3.17)
G0 Z5.000
G0 X-88.873 Y-44.893
G0 Z3.000
G1 X-88.873 Y-44.893 Z-3.170 F360.000
G2 X-88.768 Y-44.966 Z-3.170 I-0.988 J-1.547 K0.000 F360.000
G2 X-88.714 Y-45.163 Z-3.170 I-0.052 J-0.121 K0.000 F360.000
G2 X-89.650 Y-45.675 Z-3.170 I-1.008 J0.733 K0.000 F360.000
G2 X-91.156 Y-45.293 Z-3.170 I-0.382 J1.653 K0.000 F360.000
G2 X-91.195 Y-45.178 Z-3.170 I0.081 J0.092 K0.000 F360.000
G2 X-88.873 Y-44.893 Z-3.170 I1.333 J-1.263 K0.000 F360.000
G1 X-88.873 Y-44.893 Z-6.000 F360.000
G2 X-88.768 Y-44.966 Z-6.000 I-0.988 J-1.547 K0.000 F360.000
G2 X-88.714 Y-45.163 Z-6.000 I-0.052 J-0.121 K0.000 F360.000
G2 X-89.650 Y-45.675 Z-6.000 I-1.008 J0.733 K0.000 F360.000
G2 X-91.156 Y-45.293 Z-6.000 I-0.382 J1.653 K0.000 F360.000
G2 X-91.195 Y-45.178 Z-6.000 I0.081 J0.092 K0.000 F360.000
G2 X-88.873 Y-44.893 Z-6.000 I1.333 J-1.263 K0.000 F360.000
G0 Z5.000
G0 Z5.000
(Finish operation: Profile033)
(Begin operation: Profile034)
(Path: Profile034)
(Profile034)
(Compensated Tool Path. Diameter: 3.17)
G0 Z5.000
G0 X-88.931 Y-6.607
G0 Z3.000
G1 X-88.931 Y-6.607 Z-3.170 F360.000
G2 X-88.780 Y-6.738 Z-3.170 I-0.914 J-1.203 K0.000 F360.000
G2 X-88.704 Y-6.969 Z-3.170 I-0.081 J-0.155 K0.000 F360.000
G2 X-89.731 Y-7.386 Z-3.170 I-1.081 J1.190 K0.000 F360.000
G2 X-91.188 Y-6.822 Z-3.170 I-0.224 J1.586 K0.000 F360.000
G2 X-91.188 Y-6.752 Z-3.170 I0.085 J0.035 K0.000 F360.000
G2 X-89.784 Y-6.300 Z-3.170 I1.177 J-1.251 K0.000 F360.000
G2 X-88.931 Y-6.607 Z-3.170 I-0.061 J-1.510 K0.000 F360.000
G1 X-88.931 Y-6.607 Z-6.000 F360.000
G2 X-88.780 Y-6.738 Z-6.000 I-0.914 J-1.203 K0.000 F360.000
G2 X-88.704 Y-6.969 Z-6.000 I-0.081 J-0.155 K0.000 F360.000
G2 X-89.731 Y-7.386 Z-6.000 I-1.081 J1.190 K0.000 F360.000
G2 X-91.188 Y-6.822 Z-6.000 I-0.224 J1.586 K0.000 F360.000
G2 X-91.188 Y-6.752 Z-6.000 I0.085 J0.035 K0.000 F360.000
G2 X-89.784 Y-6.300 Z-6.000 I1.177 J-1.251 K0.000 F360.000
G2 X-88.931 Y-6.607 Z-6.000 I-0.061 J-1.510 K0.000 F360.000
G0 Z5.000
G0 Z5.000
(Finish operation: Profile034)
(Begin operation: Profile035)
(Path: Profile035)
(Profile035)
(Compensated Tool Path. Diameter: 3.17)
G0 Z5.000
G0 X-88.873 Y7.107
G0 Z3.000
G1 X-88.873 Y7.107 Z-3.170 F360.000
G2 X-88.768 Y7.034 Z-3.170 I-0.988 J-1.547 K0.000 F360.000
G2 X-88.714 Y6.837 Z-3.170 I-0.052 J-0.121 K0.000 F360.000
G2 X-89.650 Y6.325 Z-3.170 I-1.008 J0.733 K0.000 F360.000
G2 X-91.156 Y6.707 Z-3.170 I-0.382 J1.653 K0.000 F360.000
G2 X-91.195 Y6.822 Z-3.170 I0.081 J0.092 K0.000 F360.000
G2 X-88.873 Y7.107 Z-3.170 I1.333 J-1.263 K0.000 F360.000
G1 X-88.873 Y7.107 Z-6.000 F360.000
G2 X-88.768 Y7.034 Z-6.000 I-0.988 J-1.547 K0.000 F360.000
G2 X-88.714 Y6.837 Z-6.000 I-0.052 J-0.121 K0.000 F360.000
G2 X-89.650 Y6.325 Z-6.000 I-1.008 J0.733 K0.000 F360.000
G2 X-91.156 Y6.707 Z-6.000 I-0.382 J1.653 K0.000 F360.000
G2 X-91.195 Y6.822 Z-6.000 I0.081 J0.092 K0.000 F360.000
G2 X-88.873 Y7.107 Z-6.000 I1.333 J-1.263 K0.000 F360.000
G0 Z5.000
G0 Z5.000
(Finish operation: Profile035)
(Begin operation: Profile036)
(Path: Profile036)
(Profile036)
(Compensated Tool Path. Diameter: 3.17)
G0 Z5.000
G0 X-77.560 Y8.673
G0 Z3.000
G1 X-77.560 Y8.673 Z-3.170 F360.000
G2 X-78.096 Y8.141 Z-3.170 I-1.791 J1.266 K0.000 F360.000
G3 X-79.154 Y5.265 Z-3.170 I0.958 J-1.985 K0.000 F360.000
G3 X-77.533 Y3.987 Z-3.170 I2.144 J1.051 K0.000 F360.000
G2 X-77.283 Y3.889 Z-3.170 I0.009 J-0.347 K0.000 F360.000
G3 X-79.637 Y1.176 Z-3.170 I1.827 J-3.962 K0.000 F360.000
G3 X-79.749 Y-0.801 Z-3.170 I3.167 J-1.172 K0.000 F360.000
G3 X-77.283 Y-3.890 Z-3.170 I4.230 J0.848 K0.000 F360.000
G1 X-77.286 Y-3.897 Z-3.170 F360.000
G2 X-77.686 Y-4.040 Z-3.170 I-8.222 J22.298 K0.000 F360.000
G3 X-78.362 Y-7.986 Z-3.170 I0.534 J-2.122 K0.000 F360.000
G2 X-77.537 Y-8.685 Z-3.170 I-0.997 J-2.015 K0.000 F360.000
G3 X-81.372 Y-8.133 Z-3.170 I-109.725 J-747.915 K0.000 F360.000
G2 X-82.102 Y-7.887 Z-3.170 I0.365 J2.291 K0.000 F360.000
G2 X-82.117 Y-7.385 Z-3.170 I3.309 J0.354 K0.000 F360.000
G3 X-80.698 Y-5.910 Z-3.170 I-0.802 J2.192 K0.000 F360.000
G3 X-81.770 Y-3.345 Z-3.170 I-2.157 J0.604 K0.000 F360.000
G2 X-82.085 Y-3.028 Z-3.170 I0.307 J0.618 K0.000 F360.000
G3 X-80.866 Y-1.640 Z-3.170 I-1.725 J2.743 K0.000 F360.000
G3 X-80.593 Y0.546 Z-3.170 I-4.213 J1.637 K0.000 F360.000
G3 X-82.068 Y3.008 Z-3.170 I-3.139 J-0.208 K0.000 F360.000
G2 X-81.803 Y3.337 Z-3.170 I0.464 J-0.103 K0.000 F360.000
G3 X-80.613 Y5.055 Z-3.170 I-0.992 J1.957 K0.000 F360.000
G3 X-82.117 Y7.384 Z-3.170 I-2.245 J0.200 K0.000 F360.000
G2 X-82.103 Y7.870 Z-3.170 I3.528 J0.141 K0.000 F360.000
G2 X-81.163 Y8.173 Z-3.170 I1.406 J-2.758 K0.000 F360.000
G3 X-77.560 Y8.673 Z-3.170 I-10.943 J91.959 K0.000 F360.000
G1 X-77.560 Y8.673 Z-6.000 F360.000
G2 X-78.096 Y8.141 Z-6.000 I-1.791 J1.266 K0.000 F360.000
G3 X-79.154 Y5.265 Z-6.000 I0.958 J-1.985 K0.000 F360.000
G3 X-77.533 Y3.987 Z-6.000 I2.144 J1.051 K0.000 F360.000
G2 X-77.283 Y3.889 Z-6.000 I0.009 J-0.347 K0.000 F360.000
G3 X-79.637 Y1.176 Z-6.000 I1.827 J-3.962 K0.000 F360.000
G3 X-79.749 Y-0.801 Z-6.000 I3.167 J-1.172 K0.000 F360.000
G3 X-77.283 Y-3.890 Z-6.000 I4.230 J0.848 K0.000 F360.000
G1 X-77.286 Y-3.897 Z-6.000 F360.000
G2 X-77.686 Y-4.040 Z-6.000 I-8.222 J22.298 K0.000 F360.000
G3 X-78.362 Y-7.986 Z-6.000 I0.534 J-2.122 K0.000 F360.000
G2 X-77.537 Y-8.685 Z-6.000 I-0.997 J-2.015 K0.000 F360.000
G3 X-81.372 Y-8.133 Z-6.000 I-109.725 J-747.915 K0.000 F360.000
G2 X-82.102 Y-7.887 Z-6.000 I0.365 J2.291 K0.000 F360.000
G2 X-82.117 Y-7.385 Z-6.000 I3.309 J0.354 K0.000 F360.000
G3 X-80.698 Y-5.910 Z-6.000 I-0.802 J2.192 K0.000 F360.000
G3 X-81.770 Y-3.345 Z-6.000 I-2.157 J0.604 K0.000 F360.000
G2 X-82.085 Y-3.028 Z-6.000 I0.307 J0.618 K0.000 F360.000
G3 X-80.866 Y-1.640 Z-6.000 I-1.725 J2.743 K0.000 F360.000
G3 X-80.593 Y0.546 Z-6.000 I-4.213 J1.637 K0.000 F360.000
G3 X-82.068 Y3.008 Z-6.000 I-3.139 J-0.208 K0.000 F360.000
G2 X-81.803 Y3.337 Z-6.000 I0.464 J-0.103 K0.000 F360.000
G3 X-80.613 Y5.055 Z-6.000 I-0.992 J1.957 K0.000 F360.000
G3 X-82.117 Y7.384 Z-6.000 I-2.245 J0.200 K0.000 F360.000
G2 X-82.103 Y7.870 Z-6.000 I3.528 J0.141 K0.000 F360.000
G2 X-81.163 Y8.173 Z-6.000 I1.406 J-2.758 K0.000 F360.000
G3 X-77.560 Y8.673 Z-6.000 I-10.943 J91.959 K0.000 F360.000
G0 Z5.000
G0 Z5.000
(Finish operation: Profile036)
(Begin operation: Profile037)
(Path: Profile037)
(Profile037)
(Compensated Tool Path. Diameter: 3.17)
G0 Z5.000
G0 X-55.364 Y74.748
G0 Z3.000
G1 X-55.364 Y74.748 Z-3.170 F360.000
G3 X-56.607 Y75.769 Z-3.170 I-2.870 J-2.226 K0.000 F360.000
G3 X-59.127 Y75.646 Z-3.170 I-1.113 J-3.073 K0.000 F360.000
G2 X-63.152 Y73.661 Z-3.170 I-45.945 J88.083 K0.000 F360.000
G2 X-63.935 Y73.408 Z-3.170 I-2.633 J6.793 K0.000 F360.000
G2 X-69.844 Y72.134 Z-3.170 I-43.671 J188.273 K0.000 F360.000
G2 X-70.909 Y72.081 Z-3.170 I-0.710 J3.516 K0.000 F360.000
G2 X-71.230 Y72.185 Z-3.170 I0.702 J2.701 K0.000 F360.000
G2 X-72.247 Y73.465 Z-3.170 I5.825 J5.671 K0.000 F360.000
G3 X-74.741 Y76.024 Z-3.170 I-10.549 J-7.786 K0.000 F360.000
G3 X-78.946 Y77.663 Z-3.170 I-4.875 J-6.289 K0.000 F360.000
G3 X-81.620 Y77.393 Z-3.170 I-0.622 J-7.217 K0.000 F360.000
G3 X-85.035 Y73.573 Z-3.170 I1.732 J-4.984 K0.000 F360.000
G3 X-85.291 Y70.857 Z-3.170 I7.496 J-2.077 K0.000 F360.000
G1 X-88.334 Y70.745 Z-3.170 F360.000
G3 X-94.109 Y69.211 Z-3.170 I2.049 J-19.354 K0.000 F360.000
G3 X-95.151 Y68.689 Z-3.170 I3.583 J-8.454 K0.000 F360.000
G1 X-97.287 Y67.288 Z-3.170 F360.000
G1 X-97.460 Y67.156 Z-3.170 F360.000
G1 X-99.383 Y65.478 Z-3.170 F360.000
G1 X-99.655 Y65.170 Z-3.170 F360.000
G3 X-103.150 Y58.896 Z-3.170 I26.870 J-19.079 K0.000 F360.000
G1 X-103.927 Y56.576 Z-3.170 F360.000
G1 X-103.988 Y56.328 Z-3.170 F360.000
G1 X-104.328 Y54.247 Z-3.170 F360.000
G1 X-104.349 Y53.991 Z-3.170 F360.000
G1 X-104.349 Y50.009 Z-3.170 F360.000
G1 X-104.328 Y49.753 Z-3.170 F360.000
G1 X-103.988 Y47.672 Z-3.170 F360.000
G1 X-103.927 Y47.424 Z-3.170 F360.000
G1 X-103.088 Y44.947 Z-3.170 F360.000
G3 X-99.655 Y38.830 Z-3.170 I31.816 J13.833 K0.000 F360.000
G1 X-99.383 Y38.522 Z-3.170 F360.000
G1 X-97.460 Y36.844 Z-3.170 F360.000
G1 X-97.287 Y36.712 Z-3.170 F360.000
G1 X-95.151 Y35.311 Z-3.170 F360.000
G3 X-89.276 Y33.390 Z-3.170 I8.276 J15.366 K0.000 F360.000
G3 X-88.334 Y33.255 Z-3.170 I1.624 J7.999 K0.000 F360.000
G1 X-85.290 Y33.143 Z-3.170 F360.000
G3 X-84.714 Y29.459 Z-3.170 I7.879 J-0.655 K0.000 F360.000
G3 X-80.240 Y26.322 Z-3.170 I4.794 J2.078 K0.000 F360.000
G3 X-78.375 Y26.399 Z-3.170 I0.580 J8.573 K0.000 F360.000
G3 X-74.888 Y27.884 Z-3.170 I-1.244 J7.759 K0.000 F360.000
G3 X-71.810 Y31.154 Z-3.170 I-7.721 J10.351 K0.000 F360.000
G2 X-71.220 Y31.829 Z-3.170 I4.233 J-3.106 K0.000 F360.000
G2 X-70.216 Y31.914 Z-3.170 I0.630 J-1.461 K0.000 F360.000
G2 X-69.435 Y31.784 Z-3.170 I-0.555 J-5.735 K0.000 F360.000
G1 X-63.968 Y30.600 Z-3.170 F360.000
G2 X-62.146 Y29.876 Z-3.170 I-2.237 J-8.287 K0.000 F360.000
G3 X-59.002 Y28.298 Z-3.170 I140.711 J276.326 K0.000 F360.000
G3 X-56.295 Y28.399 Z-3.170 I1.251 J2.769 K0.000 F360.000
G3 X-54.606 Y31.320 Z-3.170 I-2.015 J3.114 K0.000 F360.000
G3 X-54.839 Y34.511 Z-3.170 I-11.812 J0.743 K0.000 F360.000
G1 X-54.839 Y34.511 Z-3.170 F360.000
G2 X-54.788 Y34.669 Z-3.170 I0.076 J0.063 K0.000 F360.000
G3 X-52.503 Y36.908 Z-3.170 I-7.419 J9.861 K0.000 F360.000
G3 X-51.611 Y40.213 Z-3.170 I-3.504 J2.719 K0.000 F360.000
G3 X-51.846 Y41.785 Z-3.170 I-22.376 J-2.545 K0.000 F360.000
G3 X-53.197 Y43.967 Z-3.170 I-4.775 J-1.446 K0.000 F360.000
G2 X-54.793 Y45.386 Z-3.170 I16.254 J19.901 K0.000 F360.000
G2 X-54.558 Y47.333 Z-3.170 I1.118 J0.852 K0.000 F360.000
G3 X-52.669 Y51.147 Z-3.170 I-3.659 J4.187 K0.000 F360.000
G3 X-52.852 Y53.947 Z-3.170 I-7.989 J0.884 K0.000 F360.000
G3 X-54.785 Y56.884 Z-3.170 I-5.567 J-1.560 K0.000 F360.000
G2 X-54.969 Y58.335 Z-3.170 I1.235 J0.893 K0.000 F360.000
G2 X-53.790 Y59.529 Z-3.170 I3.480 J-2.255 K0.000 F360.000
G1 X-53.790 Y59.530 Z-3.170 F360.000
G3 X-51.843 Y62.192 Z-3.170 I-2.845 J4.125 K0.000 F360.000
G3 X-51.592 Y64.733 Z-3.170 I-12.668 J2.533 K0.000 F360.000
G3 X-52.792 Y67.467 Z-3.170 I-4.605 J-0.391 K0.000 F360.000
G3 X-54.731 Y69.281 Z-3.170 I-7.834 J-6.431 K0.000 F360.000
G1 X-54.863 Y69.404 Z-3.170 F360.000
G3 X-54.643 Y73.064 Z-3.170 I-10.576 J2.473 K0.000 F360.000
G3 X-55.364 Y74.748 Z-3.170 I-3.592 J-0.543 K0.000 F360.000
G1 X-55.364 Y74.748 Z-6.000 F360.000
G3 X-56.607 Y75.769 Z-6.000 I-2.870 J-2.226 K0.000 F360.000
G3 X-59.127 Y75.646 Z-6.000 I-1.113 J-3.073 K0.000 F360.000
G2 X-63.152 Y73.661 Z-6.000 I-45.945 J88.083 K0.000 F360.000
G2 X-63.935 Y73.408 Z-6.000 I-2.633 J6.793 K0.000 F360.000
G2 X-69.844 Y72.134 Z-6.000 I-43.671 J188.273 K0.000 F360.000
G2 X-70.909 Y72.081 Z-6.000 I-0.710 J3.516 K0.000 F360.000
G2 X-71.230 Y72.185 Z-6.000 I0.702 J2.701 K0.000 F360.000
G2 X-72.247 Y73.465 Z-6.000 I5.825 J5.671 K0.000 F360.000
G3 X-74.741 Y76.024 Z-6.000 I-10.549 J-7.786 K0.000 F360.000
G3 X-78.946 Y77.663 Z-6.000 I-4.875 J-6.289 K0.000 F360.000
G3 X-81.620 Y77.393 Z-6.000 I-0.622 J-7.217 K0.000 F360.000
G3 X-85.035 Y73.573 Z-6.000 I1.732 J-4.984 K0.000 F360.000
G3 X-85.291 Y70.857 Z-6.000 I7.496 J-2.077 K0.000 F360.000
G1 X-88.334 Y70.745 Z-6.000 F360.000
G3 X-94.109 Y69.211 Z-6.000 I2.049 J-19.354 K0.000 F360.000
G3 X-95.151 Y68.689 Z-6.000 I3.583 J-8.454 K0.000 F360.000
G1 X-97.287 Y67.288 Z-6.000 F360.000
G1 X-97.460 Y67.156 Z-6.000 F360.000
G1 X-99.383 Y65.478 Z-6.000 F360.000
G1 X-99.655 Y65.170 Z-6.000 F360.000
G3 X-103.150 Y58.896 Z-6.000 I26.870 J-19.079 K0.000 F360.000
G1 X-103.927 Y56.576 Z-6.000 F360.000
G1 X-103.988 Y56.328 Z-6.000 F360.000
G1 X-104.328 Y54.247 Z-6.000 F360.000
G1 X-104.349 Y53.991 Z-6.000 F360.000
G1 X-104.349 Y50.009 Z-6.000 F360.000
G1 X-104.328 Y49.753 Z-6.000 F360.000
G1 X-103.988 Y47.672 Z-6.000 F360.000
G1 X-103.927 Y47.424 Z-6.000 F360.000
G1 X-103.088 Y44.947 Z-6.000 F360.000
G3 X-99.655 Y38.830 Z-6.000 I31.816 J13.833 K0.000 F360.000
G1 X-99.383 Y38.522 Z-6.000 F360.000
G1 X-97.460 Y36.844 Z-6.000 F360.000
G1 X-97.287 Y36.712 Z-6.000 F360.000
G1 X-95.151 Y35.311 Z-6.000 F360.000
G3 X-89.276 Y33.390 Z-6.000 I8.276 J15.366 K0.000 F360.000
G3 X-88.334 Y33.255 Z-6.000 I1.624 J7.999 K0.000 F360.000
G1 X-85.290 Y33.143 Z-6.000 F360.000
G3 X-84.714 Y29.459 Z-6.000 I7.879 J-0.655 K0.000 F360.000
G3 X-80.240 Y26.322 Z-6.000 I4.794 J2.078 K0.000 F360.000
G3 X-78.375 Y26.399 Z-6.000 I0.580 J8.573 K0.000 F360.000
G3 X-74.888 Y27.884 Z-6.000 I-1.244 J7.759 K0.000 F360.000
G3 X-71.810 Y31.154 Z-6.000 I-7.721 J10.351 K0.000 F360.000
G2 X-71.220 Y31.829 Z-6.000 I4.233 J-3.106 K0.000 F360.000
G2 X-70.216 Y31.914 Z-6.000 I0.630 J-1.461 K0.000 F360.000
G2 X-69.435 Y31.784 Z-6.000 I-0.555 J-5.735 K0.000 F360.000
G1 X-63.968 Y30.600 Z-6.000 F360.000
G2 X-62.146 Y29.876 Z-6.000 I-2.237 J-8.287 K0.000 F360.000
G3 X-59.002 Y28.298 Z-6.000 I140.711 J276.326 K0.000 F360.000
G3 X-56.295 Y28.399 Z-6.000 I1.251 J2.769 K0.000 F360.000
G3 X-54.606 Y31.320 Z-6.000 I-2.015 J3.114 K0.000 F360.000
G3 X-54.839 Y34.511 Z-6.000 I-11.812 J0.743 K0.000 F360.000
G1 X-54.839 Y34.511 Z-6.000 F360.000
G2 X-54.788 Y34.669 Z-6.000 I0.076 J0.063 K0.000 F360.000
G3 X-52.503 Y36.908 Z-6.000 I-7.419 J9.861 K0.000 F360.000
G3 X-51.611 Y40.213 Z-6.000 I-3.504 J2.719 K0.000 F360.000
G3 X-51.846 Y41.785 Z-6.000 I-22.376 J-2.545 K0.000 F360.000
G3 X-53.197 Y43.967 Z-6.000 I-4.775 J-1.446 K0.000 F360.000
G2 X-54.793 Y45.386 Z-6.000 I16.254 J19.901 K0.000 F360.000
G2 X-54.558 Y47.333 Z-6.000 I1.118 J0.852 K0.000 F360.000
G3 X-52.669 Y51.147 Z-6.000 I-3.659 J4.187 K0.000 F360.000
G3 X-52.852 Y53.947 Z-6.000 I-7.989 J0.884 K0.000 F360.000
G3 X-54.785 Y56.884 Z-6.000 I-5.567 J-1.560 K0.000 F360.000
G2 X-54.969 Y58.335 Z-6.000 I1.235 J0.893 K0.000 F360.000
G2 X-53.790 Y59.529 Z-6.000 I3.480 J-2.255 K0.000 F360.000
G1 X-53.790 Y59.530 Z-6.000 F360.000
G3 X-51.843 Y62.192 Z-6.000 I-2.845 J4.125 K0.000 F360.000
G3 X-51.592 Y64.733 Z-6.000 I-12.668 J2.533 K0.000 F360.000
G3 X-52.792 Y67.467 Z-6.000 I-4.605 J-0.391 K0.000 F360.000
G3 X-54.731 Y69.281 Z-6.000 I-7.834 J-6.431 K0.000 F360.000
G1 X-54.863 Y69.404 Z-6.000 F360.000
G3 X-54.643 Y73.064 Z-6.000 I-10.576 J2.473 K0.000 F360.000
G3 X-55.364 Y74.748 Z-6.000 I-3.592 J-0.543 K0.000 F360.000
G0 Z5.000
G0 Z5.000
(Finish operation: Profile037)
(Begin operation: Profile038)
(Path: Profile038)
(Profile038)
(Compensated Tool Path. Diameter: 3.17)
G0 Z5.000
G0 X-55.364 Y22.748
G0 Z3.000
G1 X-55.364 Y22.748 Z-3.170 F360.000
G3 X-56.607 Y23.769 Z-3.170 I-2.870 J-2.226 K0.000 F360.000
G3 X-59.127 Y23.646 Z-3.170 I-1.113 J-3.073 K0.000 F360.000
G2 X-63.152 Y21.661 Z-3.170 I-45.945 J88.083 K0.000 F360.000
G2 X-63.935 Y21.408 Z-3.170 I-2.633 J6.793 K0.000 F360.000
G2 X-69.844 Y20.134 Z-3.170 I-43.671 J188.273 K0.000 F360.000
G2 X-70.909 Y20.081 Z-3.170 I-0.710 J3.516 K0.000 F360.000
G2 X-71.230 Y20.185 Z-3.170 I0.702 J2.701 K0.000 F360.000
G2 X-72.247 Y21.465 Z-3.170 I5.825 J5.671 K0.000 F360.000
G3 X-74.741 Y24.024 Z-3.170 I-10.549 J-7.786 K0.000 F360.000
G3 X-78.946 Y25.663 Z-3.170 I-4.875 J-6.289 K0.000 F360.000
G3 X-81.620 Y25.393 Z-3.170 I-0.622 J-7.217 K0.000 F360.000
G3 X-85.035 Y21.573 Z-3.170 I1.732 J-4.984 K0.000 F360.000
G3 X-85.291 Y18.857 Z-3.170 I7.496 J-2.077 K0.000 F360.000
G1 X-88.334 Y18.745 Z-3.170 F360.000
G3 X-94.109 Y17.211 Z-3.170 I2.049 J-19.354 K0.000 F360.000
G3 X-95.151 Y16.689 Z-3.170 I3.583 J-8.454 K0.000 F360.000
G1 X-97.287 Y15.288 Z-3.170 F360.000
G1 X-97.460 Y15.156 Z-3.170 F360.000
G1 X-99.383 Y13.478 Z-3.170 F360.000
G1 X-99.655 Y13.170 Z-3.170 F360.000
G3 X-103.150 Y6.896 Z-3.170 I26.870 J-19.079 K0.000 F360.000
G1 X-103.927 Y4.576 Z-3.170 F360.000
G1 X-103.988 Y4.328 Z-3.170 F360.000
G1 X-104.328 Y2.247 Z-3.170 F360.000
G1 X-104.349 Y1.991 Z-3.170 F360.000
G1 X-104.349 Y-1.991 Z-3.170 F360.000
G1 X-104.328 Y-2.247 Z-3.170 F360.000
G1 X-103.988 Y-4.328 Z-3.170 F360.000
G1 X-103.927 Y-4.576 Z-3.170 F360.000
G1 X-103.088 Y-7.053 Z-3.170 F360.000
G3 X-99.655 Y-13.170 Z-3.170 I31.816 J13.833 K0.000 F360.000
G1 X-99.383 Y-13.478 Z-3.170 F360.000
G1 X-97.460 Y-15.156 Z-3.170 F360.000
G1 X-97.287 Y-15.288 Z-3.170 F360.000
G1 X-95.151 Y-16.689 Z-3.170 F360.000
G3 X-89.276 Y-18.610 Z-3.170 I8.276 J15.366 K0.000 F360.000
G3 X-88.334 Y-18.745 Z-3.170 I1.624 J7.999 K0.000 F360.000
G1 X-85.290 Y-18.857 Z-3.170 F360.000
G3 X-84.714 Y-22.541 Z-3.170 I7.879 J-0.655 K0.000 F360.000
G3 X-80.240 Y-25.678 Z-3.170 I4.794 J2.078 K0.000 F360.000
G3 X-78.375 Y-25.601 Z-3.170 I0.580 J8.573 K0.000 F360.000
G3 X-74.888 Y-24.116 Z-3.170 I-1.244 J7.759 K0.000 F360.000
G3 X-71.810 Y-20.846 Z-3.170 I-7.721 J10.351 K0.000 F360.000
G2 X-71.220 Y-20.171 Z-3.170 I4.233 J-3.106 K0.000 F360.000
G2 X-70.216 Y-20.086 Z-3.170 I0.630 J-1.461 K0.000 F360.000
G2 X-69.435 Y-20.216 Z-3.170 I-0.555 J-5.735 K0.000 F360.000
G1 X-63.968 Y-21.400 Z-3.170 F360.000
G2 X-62.146 Y-22.124 Z-3.170 I-2.237 J-8.287 K0.000 F360.000
G3 X-59.002 Y-23.702 Z-3.170 I140.711 J276.326 K0.000 F360.000
G3 X-56.295 Y-23.601 Z-3.170 I1.251 J2.769 K0.000 F360.000
G3 X-54.606 Y-20.680 Z-3.170 I-2.015 J3.114 K0.000 F360.000
G3 X-54.839 Y-17.489 Z-3.170 I-11.812 J0.743 K0.000 F360.000
G1 X-54.839 Y-17.489 Z-3.170 F360.000
G2 X-54.788 Y-17.331 Z-3.170 I0.076 J0.063 K0.000 F360.000
G3 X-52.503 Y-15.092 Z-3.170 I-7.419 J9.861 K0.000 F360.000
G3 X-51.611 Y-11.787 Z-3.170 I-3.504 J2.719 K0.000 F360.000
G3 X-51.846 Y-10.215 Z-3.170 I-22.376 J-2.545 K0.000 F360.000
G3 X-53.197 Y-8.033 Z-3.170 I-4.775 J-1.446 K0.000 F360.000
G2 X-54.793 Y-6.614 Z-3.170 I16.254 J19.901 K0.000 F360.000
G2 X-54.558 Y-4.667 Z-3.170 I1.118 J0.852 K0.000 F360.000
G3 X-52.669 Y-0.853 Z-3.170 I-3.659 J4.187 K0.000 F360.000
G3 X-52.852 Y1.947 Z-3.170 I-7.989 J0.884 K0.000 F360.000
G3 X-54.785 Y4.884 Z-3.170 I-5.567 J-1.560 K0.000 F360.000
G2 X-54.969 Y6.335 Z-3.170 I1.235 J0.893 K0.000 F360.000
G2 X-53.790 Y7.529 Z-3.170 I3.480 J-2.255 K0.000 F360.000
G1 X-53.790 Y7.530 Z-3.170 F360.000
G3 X-51.843 Y10.192 Z-3.170 I-2.845 J4.125 K0.000 F360.000
G3 X-51.592 Y12.733 Z-3.170 I-12.668 J2.533 K0.000 F360.000
G3 X-52.792 Y15.467 Z-3.170 I-4.605 J-0.391 K0.000 F360.000
G3 X-54.731 Y17.281 Z-3.170 I-7.834 J-6.431 K0.000 F360.000
G1 X-54.863 Y17.404 Z-3.170 F360.000
G3 X-54.643 Y21.064 Z-3.170 I-10.576 J2.473 K0.000 F360.000
G3 X-55.364 Y22.748 Z-3.170 I-3.592 J-0.543 K0.000 F360.000
G1 X-55.364 Y22.748 Z-6.000 F360.000
G3 X-56.607 Y23.769 Z-6.000 I-2.870 J-2.226 K0.000 F360.000
G3 X-59.127 Y23.646 Z-6.000 I-1.113 J-3.073 K0.000 F360.000
G2 X-63.152 Y21.661 Z-6.000 I-45.945 J88.083 K0.000 F360.000
G2 X-63.935 Y21.408 Z-6.000 I-2.633 J6.793 K0.000 F360.000
G2 X-69.844 Y20.134 Z-6.000 I-43.671 J188.273 K0.000 F360.000
G2 X-70.909 Y20.081 Z-6.000 I-0.710 J3.516 K0.000 F360.000
G2 X-71.230 Y20.185 Z-6.000 I0.702 J2.701 K0.000 F360.000
G2 X-72.247 Y21.465 Z-6.000 I5.825 J5.671 K0.000 F360.000
G3 X-74.741 Y24.024 Z-6.000 I-10.549 J-7.786 K0.000 F360.000
G3 X-78.946 Y25.663 Z-6.000 I-4.875 J-6.289 K0.000 F360.000
G3 X-81.620 Y25.393 Z-6.000 I-0.622 J-7.217 K0.000 F360.000
G3 X-85.035 Y21.573 Z-6.000 I1.732 J-4.984 K0.000 F360.000
G3 X-85.291 Y18.857 Z-6.000 I7.496 J-2.077 K0.000 F360.000
G1 X-88.334 Y18.745 Z-6.000 F360.000
G3 X-94.109 Y17.211 Z-6.000 I2.049 J-19.354 K0.000 F360.000
G3 X-95.151 Y16.689 Z-6.000 I3.583 J-8.454 K0.000 F360.000
G1 X-97.287 Y15.288 Z-6.000 F360.000
G1 X-97.460 Y15.156 Z-6.000 F360.000
G1 X-99.383 Y13.478 Z-6.000 F360.000
G1 X-99.655 Y13.170 Z-6.000 F360.000
G3 X-103.150 Y6.896 Z-6.000 I26.870 J-19.079 K0.000 F360.000
G1 X-103.927 Y4.576 Z-6.000 F360.000
G1 X-103.988 Y4.328 Z-6.000 F360.000
G1 X-104.328 Y2.247 Z-6.000 F360.000
G1 X-104.349 Y1.991 Z-6.000 F360.000
G1 X-104.349 Y-1.991 Z-6.000 F360.000
G1 X-104.328 Y-2.247 Z-6.000 F360.000
G1 X-103.988 Y-4.328 Z-6.000 F360.000
G1 X-103.927 Y-4.576 Z-6.000 F360.000
G1 X-103.088 Y-7.053 Z-6.000 F360.000
G3 X-99.655 Y-13.170 Z-6.000 I31.816 J13.833 K0.000 F360.000
G1 X-99.383 Y-13.478 Z-6.000 F360.000
G1 X-97.460 Y-15.156 Z-6.000 F360.000
G1 X-97.287 Y-15.288 Z-6.000 F360.000
G1 X-95.151 Y-16.689 Z-6.000 F360.000
G3 X-89.276 Y-18.610 Z-6.000 I8.276 J15.366 K0.000 F360.000
G3 X-88.334 Y-18.745 Z-6.000 I1.624 J7.999 K0.000 F360.000
G1 X-85.290 Y-18.857 Z-6.000 F360.000
G3 X-84.714 Y-22.541 Z-6.000 I7.879 J-0.655 K0.000 F360.000
G3 X-80.240 Y-25.678 Z-6.000 I4.794 J2.078 K0.000 F360.000
G3 X-78.375 Y-25.601 Z-6.000 I0.580 J8.573 K0.000 F360.000
G3 X-74.888 Y-24.116 Z-6.000 I-1.244 J7.759 K0.000 F360.000
G3 X-71.810 Y-20.846 Z-6.000 I-7.721 J10.351 K0.000 F360.000
G2 X-71.220 Y-20.171 Z-6.000 I4.233 J-3.106 K0.000 F360.000
G2 X-70.216 Y-20.086 Z-6.000 I0.630 J-1.461 K0.000 F360.000
G2 X-69.435 Y-20.216 Z-6.000 I-0.555 J-5.735 K0.000 F360.000
G1 X-63.968 Y-21.400 Z-6.000 F360.000
G2 X-62.146 Y-22.124 Z-6.000 I-2.237 J-8.287 K0.000 F360.000
G3 X-59.002 Y-23.702 Z-6.000 I140.711 J276.326 K0.000 F360.000
G3 X-56.295 Y-23.601 Z-6.000 I1.251 J2.769 K0.000 F360.000
G3 X-54.606 Y-20.680 Z-6.000 I-2.015 J3.114 K0.000 F360.000
G3 X-54.839 Y-17.489 Z-6.000 I-11.812 J0.743 K0.000 F360.000
G1 X-54.839 Y-17.489 Z-6.000 F360.000
G2 X-54.788 Y-17.331 Z-6.000 I0.076 J0.063 K0.000 F360.000
G3 X-52.503 Y-15.092 Z-6.000 I-7.419 J9.861 K0.000 F360.000
G3 X-51.611 Y-11.787 Z-6.000 I-3.504 J2.719 K0.000 F360.000
G3 X-51.846 Y-10.215 Z-6.000 I-22.376 J-2.545 K0.000 F360.000
G3 X-53.197 Y-8.033 Z-6.000 I-4.775 J-1.446 K0.000 F360.000
G2 X-54.793 Y-6.614 Z-6.000 I16.254 J19.901 K0.000 F360.000
G2 X-54.558 Y-4.667 Z-6.000 I1.118 J0.852 K0.000 F360.000
G3 X-52.669 Y-0.853 Z-6.000 I-3.659 J4.187 K0.000 F360.000
G3 X-52.852 Y1.947 Z-6.000 I-7.989 J0.884 K0.000 F360.000
G3 X-54.785 Y4.884 Z-6.000 I-5.567 J-1.560 K0.000 F360.000
G2 X-54.969 Y6.335 Z-6.000 I1.235 J0.893 K0.000 F360.000
G2 X-53.790 Y7.529 Z-6.000 I3.480 J-2.255 K0.000 F360.000
G1 X-53.790 Y7.530 Z-6.000 F360.000
G3 X-51.843 Y10.192 Z-6.000 I-2.845 J4.125 K0.000 F360.000
G3 X-51.592 Y12.733 Z-6.000 I-12.668 J2.533 K0.000 F360.000
G3 X-52.792 Y15.467 Z-6.000 I-4.605 J-0.391 K0.000 F360.000
G3 X-54.731 Y17.281 Z-6.000 I-7.834 J-6.431 K0.000 F360.000
G1 X-54.863 Y17.404 Z-6.000 F360.000
G3 X-54.643 Y21.064 Z-6.000 I-10.576 J2.473 K0.000 F360.000
G3 X-55.364 Y22.748 Z-6.000 I-3.592 J-0.543 K0.000 F360.000
G0 Z5.000
G0 Z5.000
(Finish operation: Profile038)
(Begin operation: Profile039)
(Path: Profile039)
(Profile039)
(Compensated Tool Path. Diameter: 3.17)
G0 Z5.000
G0 X-55.364 Y-29.252
G0 Z3.000
G1 X-55.364 Y-29.252 Z-3.170 F360.000
G3 X-56.607 Y-28.231 Z-3.170 I-2.870 J-2.226 K0.000 F360.000
G3 X-59.127 Y-28.354 Z-3.170 I-1.113 J-3.073 K0.000 F360.000
G2 X-63.152 Y-30.339 Z-3.170 I-45.945 J88.083 K0.000 F360.000
G2 X-63.935 Y-30.592 Z-3.170 I-2.633 J6.793 K0.000 F360.000
G2 X-69.844 Y-31.866 Z-3.170 I-43.671 J188.273 K0.000 F360.000
G2 X-70.909 Y-31.919 Z-3.170 I-0.710 J3.516 K0.000 F360.000
G2 X-71.230 Y-31.815 Z-3.170 I0.702 J2.701 K0.000 F360.000
G2 X-72.247 Y-30.535 Z-3.170 I5.825 J5.671 K0.000 F360.000
G3 X-74.741 Y-27.976 Z-3.170 I-10.549 J-7.786 K0.000 F360.000
G3 X-78.946 Y-26.337 Z-3.170 I-4.875 J-6.289 K0.000 F360.000
G3 X-81.620 Y-26.607 Z-3.170 I-0.622 J-7.217 K0.000 F360.000
G3 X-85.035 Y-30.427 Z-3.170 I1.732 J-4.984 K0.000 F360.000
G3 X-85.291 Y-33.143 Z-3.170 I7.496 J-2.077 K0.000 F360.000
G1 X-88.334 Y-33.255 Z-3.170 F360.000
G3 X-94.109 Y-34.789 Z-3.170 I2.049 J-19.354 K0.000 F360.000
G3 X-95.151 Y-35.311 Z-3.170 I3.583 J-8.454 K0.000 F360.000
G1 X-97.287 Y-36.712 Z-3.170 F360.000
G1 X-97.460 Y-36.844 Z-3.170 F360.000
G1 X-99.383 Y-38.522 Z-3.170 F360.000
G1 X-99.655 Y-38.830 Z-3.170 F360.000
G3 X-103.150 Y-45.104 Z-3.170 I26.870 J-19.079 K0.000 F360.000
G1 X-103.927 Y-47.424 Z-3.170 F360.000
G1 X-103.988 Y-47.672 Z-3.170 F360.000
G1 X-104.328 Y-49.753 Z-3.170 F360.000
G1 X-104.349 Y-50.009 Z-3.170 F360.000
G1 X-104.349 Y-53.991 Z-3.170 F360.000
G1 X-104.328 Y-54.247 Z-3.170 F360.000
G1 X-103.988 Y-56.328 Z-3.170 F360.000
G1 X-103.927 Y-56.576 Z-3.170 F360.000
G1 X-103.088 Y-59.053 Z-3.170 F360.000
G3 X-99.655 Y-65.170 Z-3.170 I31.816 J13.833 K0.000 F360.000
G1 X-99.383 Y-65.478 Z-3.170 F360.000
G1 X-97.460 Y-67.156 Z-3.170 F360.000
G1 X-97.287 Y-67.288 Z-3.170 F360.000
G1 X-95.151 Y-68.689 Z-3.170 F360.000
G3 X-89.276 Y-70.610 Z-3.170 I8.276 J15.366 K0.000 F360.000
G3 X-88.334 Y-70.745 Z-3.170 I1.624 J7.999 K0.000 F360.000
G1 X-85.290 Y-70.857 Z-3.170 F360.000
G3 X-84.714 Y-74.541 Z-3.170 I7.879 J-0.655 K0.000 F360.000
G3 X-80.240 Y-77.678 Z-3.170 I4.794 J2.078 K0.000 F360.000
G3 X-78.375 Y-77.601 Z-3.170 I0.580 J8.573 K0.000 F360.000
G3 X-74.888 Y-76.116 Z-3.170 I-1.244 J7.759 K0.000 F360.000
G3 X-71.810 Y-72.846 Z-3.170 I-7.721 J10.351 K0.000 F360.000
G2 X-71.220 Y-72.171 Z-3.170 I4.233 J-3.106 K0.000 F360.000
G2 X-70.216 Y-72.086 Z-3.170 I0.630 J-1.461 K0.000 F360.000
G2 X-69.435 Y-72.216 Z-3.170 I-0.555 J-5.735 K0.000 F360.000
G1 X-63.968 Y-73.400 Z-3.170 F360.000
G2 X-62.146 Y-74.124 Z-3.170 I-2.237 J-8.287 K0.000 F360.000
G3 X-59.002 Y-75.702 Z-3.170 I140.711 J276.326 K0.000 F360.000
G3 X-56.295 Y-75.601 Z-3.170 I1.251 J2.769 K0.000 F360.000
G3 X-54.606 Y-72.680 Z-3.170 I-2.015 J3.114 K0.000 F360.000
G3 X-54.839 Y-69.489 Z-3.170 I-11.812 J0.743 K0.000 F360.000
G1 X-54.839 Y-69.489 Z-3.170 F360.000
G2 X-54.788 Y-69.331 Z-3.170 I0.076 J0.063 K0.000 F360.000
G3 X-52.503 Y-67.092 Z-3.170 I-7.419 J9.861 K0.000 F360.000
G3 X-51.611 Y-63.787 Z-3.170 I-3.504 J2.719 K0.000 F360.000
G3 X-51.846 Y-62.215 Z-3.170 I-22.376 J-2.545 K0.000 F360.000
G3 X-53.197 Y-60.033 Z-3.170 I-4.775 J-1.446 K0.000 F360.000
G2 X-54.793 Y-58.614 Z-3.170 I16.254 J19.901 K0.000 F360.000
G2 X-54.558 Y-56.667 Z-3.170 I1.118 J0.852 K0.000 F360.000
G3 X-52.669 Y-52.853 Z-3.170 I-3.659 J4.187 K0.000 F360.000
G3 X-52.852 Y-50.053 Z-3.170 I-7.989 J0.884 K0.000 F360.000
G3 X-54.785 Y-47.116 Z-3.170 I-5.567 J-1.560 K0.000 F360.000
G2 X-54.969 Y-45.665 Z-3.170 I1.235 J0.893 K0.000 F360.000
G2 X-53.790 Y-44.471 Z-3.170 I3.480 J-2.255 K0.000 F360.000
G1 X-53.790 Y-44.470 Z-3.170 F360.000
G3 X-51.843 Y-41.808 Z-3.170 I-2.845 J4.125 K0.000 F360.000
G3 X-51.592 Y-39.267 Z-3.170 I-12.668 J2.533 K0.000 F360.000
G3 X-52.792 Y-36.533 Z-3.170 I-4.605 J-0.391 K0.000 F360.000
G3 X-54.731 Y-34.719 Z-3.170 I-7.834 J-6.431 K0.000 F360.000
G1 X-54.863 Y-34.596 Z-3.170 F360.000
G3 X-54.643 Y-30.936 Z-3.170 I-10.576 J2.473 K0.000 F360.000
G3 X-55.364 Y-29.252 Z-3.170 I-3.592 J-0.543 K0.000 F360.000
G1 X-55.364 Y-29.252 Z-6.000 F360.000
G3 X-56.607 Y-28.231 Z-6.000 I-2.870 J-2.226 K0.000 F360.000
G3 X-59.127 Y-28.354 Z-6.000 I-1.113 J-3.073 K0.000 F360.000
G2 X-63.152 Y-30.339 Z-6.000 I-45.945 J88.083 K0.000 F360.000
G2 X-63.935 Y-30.592 Z-6.000 I-2.633 J6.793 K0.000 F360.000
G2 X-69.844 Y-31.866 Z-6.000 I-43.671 J188.273 K0.000 F360.000
G2 X-70.909 Y-31.919 Z-6.000 I-0.710 J3.516 K0.000 F360.000
G2 X-71.230 Y-31.815 Z-6.000 I0.702 J2.701 K0.000 F360.000
G2 X-72.247 Y-30.535 Z-6.000 I5.825 J5.671 K0.000 F360.000
G3 X-74.741 Y-27.976 Z-6.000 I-10.549 J-7.786 K0.000 F360.000
G3 X-78.946 Y-26.337 Z-6.000 I-4.875 J-6.289 K0.000 F360.000
G3 X-81.620 Y-26.607 Z-6.000 I-0.622 J-7.217 K0.000 F360.000
G3 X-85.035 Y-30.427 Z-6.000 I1.732 J-4.984 K0.000 F360.000
G3 X-85.291 Y-33.143 Z-6.000 I7.496 J-2.077 K0.000 F360.000
G1 X-88.334 Y-33.255 Z-6.000 F360.000
G3 X-94.109 Y-34.789 Z-6.000 I2.049 J-19.354 K0.000 F360.000
G3 X-95.151 Y-35.311 Z-6.000 I3.583 J-8.454 K0.000 F360.000
G1 X-97.287 Y-36.712 Z-6.000 F360.000
G1 X-97.460 Y-36.844 Z-6.000 F360.000
G1 X-99.383 Y-38.522 Z-6.000 F360.000
G1 X-99.655 Y-38.830 Z-6.000 F360.000
G3 X-103.150 Y-45.104 Z-6.000 I26.870 J-19.079 K0.000 F360.000
G1 X-103.927 Y-47.424 Z-6.000 F360.000
G1 X-103.988 Y-47.672 Z-6.000 F360.000
G1 X-104.328 Y-49.753 Z-6.000 F360.000
G1 X-104.349 Y-50.009 Z-6.000 F360.000
G1 X-104.349 Y-53.991 Z-6.000 F360.000
G1 X-104.328 Y-54.247 Z-6.000 F360.000
G1 X-103.988 Y-56.328 Z-6.000 F360.000
G1 X-103.927 Y-56.576 Z-6.000 F360.000
G1 X-103.088 Y-59.053 Z-6.000 F360.000
G3 X-99.655 Y-65.170 Z-6.000 I31.816 J13.833 K0.000 F360.000
G1 X-99.383 Y-65.478 Z-6.000 F360.000
G1 X-97.460 Y-67.156 Z-6.000 F360.000
G1 X-97.287 Y-67.288 Z-6.000 F360.000
G1 X-95.151 Y-68.689 Z-6.000 F360.000
G3 X-89.276 Y-70.610 Z-6.000 I8.276 J15.366 K0.000 F360.000
G3 X-88.334 Y-70.745 Z-6.000 I1.624 J7.999 K0.000 F360.000
G1 X-85.290 Y-70.857 Z-6.000 F360.000
G3 X-84.714 Y-74.541 Z-6.000 I7.879 J-0.655 K0.000 F360.000
G3 X-80.240 Y-77.678 Z-6.000 I4.794 J2.078 K0.000 F360.000
G3 X-78.375 Y-77.601 Z-6.000 I0.580 J8.573 K0.000 F360.000
G3 X-74.888 Y-76.116 Z-6.000 I-1.244 J7.759 K0.000 F360.000
G3 X-71.810 Y-72.846 Z-6.000 I-7.721 J10.351 K0.000 F360.000
G2 X-71.220 Y-72.171 Z-6.000 I4.233 J-3.106 K0.000 F360.000
G2 X-70.216 Y-72.086 Z-6.000 I0.630 J-1.461 K0.000 F360.000
G2 X-69.435 Y-72.216 Z-6.000 I-0.555 J-5.735 K0.000 F360.000
G1 X-63.968 Y-73.400 Z-6.000 F360.000
G2 X-62.146 Y-74.124 Z-6.000 I-2.237 J-8.287 K0.000 F360.000
G3 X-59.002 Y-75.702 Z-6.000 I140.711 J276.326 K0.000 F360.000
G3 X-56.295 Y-75.601 Z-6.000 I1.251 J2.769 K0.000 F360.000
G3 X-54.606 Y-72.680 Z-6.000 I-2.015 J3.114 K0.000 F360.000
G3 X-54.839 Y-69.489 Z-6.000 I-11.812 J0.743 K0.000 F360.000
G1 X-54.839 Y-69.489 Z-6.000 F360.000
G2 X-54.788 Y-69.331 Z-6.000 I0.076 J0.063 K0.000 F360.000
G3 X-52.503 Y-67.092 Z-6.000 I-7.419 J9.861 K0.000 F360.000
G3 X-51.611 Y-63.787 Z-6.000 I-3.504 J2.719 K0.000 F360.000
G3 X-51.846 Y-62.215 Z-6.000 I-22.376 J-2.545 K0.000 F360.000
G3 X-53.197 Y-60.033 Z-6.000 I-4.775 J-1.446 K0.000 F360.000
G2 X-54.793 Y-58.614 Z-6.000 I16.254 J19.901 K0.000 F360.000
G2 X-54.558 Y-56.667 Z-6.000 I1.118 J0.852 K0.000 F360.000
G3 X-52.669 Y-52.853 Z-6.000 I-3.659 J4.187 K0.000 F360.000
G3 X-52.852 Y-50.053 Z-6.000 I-7.989 J0.884 K0.000 F360.000
G3 X-54.785 Y-47.116 Z-6.000 I-5.567 J-1.560 K0.000 F360.000
G2 X-54.969 Y-45.665 Z-6.000 I1.235 J0.893 K0.000 F360.000
G2 X-53.790 Y-44.471 Z-6.000 I3.480 J-2.255 K0.000 F360.000
G1 X-53.790 Y-44.470 Z-6.000 F360.000
G3 X-51.843 Y-41.808 Z-6.000 I-2.845 J4.125 K0.000 F360.000
G3 X-51.592 Y-39.267 Z-6.000 I-12.668 J2.533 K0.000 F360.000
G3 X-52.792 Y-36.533 Z-6.000 I-4.605 J-0.391 K0.000 F360.000
G3 X-54.731 Y-34.719 Z-6.000 I-7.834 J-6.431 K0.000 F360.000
G1 X-54.863 Y-34.596 Z-6.000 F360.000
G3 X-54.643 Y-30.936 Z-6.000 I-10.576 J2.473 K0.000 F360.000
G3 X-55.364 Y-29.252 Z-6.000 I-3.592 J-0.543 K0.000 F360.000
G0 Z5.000
G0 Z5.000
(Finish operation: Profile039)
(Begin operation: Profile040)
(Path: Profile040)
(Profile040)
(Compensated Tool Path. Diameter: 3.17)
G0 Z5.000
G0 X-3.364 Y-29.252
G0 Z3.000
G1 X-3.364 Y-29.252 Z-3.170 F360.000
G3 X-4.607 Y-28.231 Z-3.170 I-2.870 J-2.226 K0.000 F360.000
G3 X-7.127 Y-28.354 Z-3.170 I-1.113 J-3.073 K0.000 F360.000
G2 X-11.152 Y-30.339 Z-3.170 I-45.945 J88.083 K0.000 F360.000
G2 X-11.935 Y-30.592 Z-3.170 I-2.633 J6.793 K0.000 F360.000
G2 X-17.844 Y-31.866 Z-3.170 I-43.670 J188.271 K0.000 F360.000
G2 X-18.909 Y-31.919 Z-3.170 I-0.710 J3.516 K0.000 F360.000
G2 X-19.230 Y-31.815 Z-3.170 I0.702 J2.701 K0.000 F360.000
G2 X-20.247 Y-30.535 Z-3.170 I5.825 J5.671 K0.000 F360.000
G3 X-22.741 Y-27.976 Z-3.170 I-10.549 J-7.786 K0.000 F360.000
G3 X-26.946 Y-26.337 Z-3.170 I-4.875 J-6.289 K0.000 F360.000
G3 X-29.620 Y-26.607 Z-3.170 I-0.622 J-7.217 K0.000 F360.000
G3 X-33.035 Y-30.427 Z-3.170 I1.732 J-4.984 K0.000 F360.000
G3 X-33.291 Y-33.143 Z-3.170 I7.496 J-2.077 K0.000 F360.000
G1 X-36.334 Y-33.255 Z-3.170 F360.000
G3 X-42.109 Y-34.789 Z-3.170 I2.049 J-19.354 K0.000 F360.000
G3 X-43.151 Y-35.311 Z-3.170 I3.583 J-8.454 K0.000 F360.000
G1 X-45.287 Y-36.712 Z-3.170 F360.000
G1 X-45.460 Y-36.844 Z-3.170 F360.000
G1 X-47.383 Y-38.522 Z-3.170 F360.000
G1 X-47.655 Y-38.830 Z-3.170 F360.000
G3 X-51.150 Y-45.104 Z-3.170 I26.870 J-19.079 K0.000 F360.000
G1 X-51.927 Y-47.424 Z-3.170 F360.000
G1 X-51.988 Y-47.672 Z-3.170 F360.000
G1 X-52.328 Y-49.753 Z-3.170 F360.000
G1 X-52.349 Y-50.009 Z-3.170 F360.000
G1 X-52.349 Y-53.991 Z-3.170 F360.000
G1 X-52.328 Y-54.247 Z-3.170 F360.000
G1 X-51.988 Y-56.328 Z-3.170 F360.000
G1 X-51.927 Y-56.576 Z-3.170 F360.000
G1 X-51.088 Y-59.053 Z-3.170 F360.000
G3 X-47.655 Y-65.170 Z-3.170 I31.816 J13.833 K0.000 F360.000
G1 X-47.383 Y-65.478 Z-3.170 F360.000
G1 X-45.460 Y-67.156 Z-3.170 F360.000
G1 X-45.287 Y-67.288 Z-3.170 F360.000
G1 X-43.151 Y-68.689 Z-3.170 F360.000
G3 X-37.276 Y-70.610 Z-3.170 I8.276 J15.366 K0.000 F360.000
G3 X-36.334 Y-70.745 Z-3.170 I1.624 J7.999 K0.000 F360.000
G1 X-33.290 Y-70.857 Z-3.170 F360.000
G3 X-32.714 Y-74.541 Z-3.170 I7.879 J-0.655 K0.000 F360.000
G3 X-28.240 Y-77.678 Z-3.170 I4.794 J2.078 K0.000 F360.000
G3 X-26.375 Y-77.601 Z-3.170 I0.580 J8.573 K0.000 F360.000
G3 X-22.888 Y-76.116 Z-3.170 I-1.244 J7.759 K0.000 F360.000
G3 X-19.810 Y-72.846 Z-3.170 I-7.721 J10.351 K0.000 F360.000
G2 X-19.220 Y-72.171 Z-3.170 I4.233 J-3.106 K0.000 F360.000
G2 X-18.216 Y-72.086 Z-3.170 I0.630 J-1.461 K0.000 F360.000
G2 X-17.435 Y-72.216 Z-3.170 I-0.555 J-5.735 K0.000 F360.000
G1 X-11.968 Y-73.400 Z-3.170 F360.000
G2 X-10.146 Y-74.124 Z-3.170 I-2.237 J-8.287 K0.000 F360.000
G3 X-7.002 Y-75.702 Z-3.170 I140.711 J276.326 K0.000 F360.000
G3 X-4.295 Y-75.601 Z-3.170 I1.251 J2.769 K0.000 F360.000
G3 X-2.606 Y-72.680 Z-3.170 I-2.015 J3.114 K0.000 F360.000
G3 X-2.839 Y-69.489 Z-3.170 I-11.812 J0.743 K0.000 F360.000
G1 X-2.839 Y-69.489 Z-3.170 F360.000
G2 X-2.788 Y-69.331 Z-3.170 I0.076 J0.063 K0.000 F360.000
G3 X-0.503 Y-67.092 Z-3.170 I-7.419 J9.861 K0.000 F360.000
G3 X0.389 Y-63.787 Z-3.170 I-3.504 J2.719 K0.000 F360.000
G3 X0.154 Y-62.215 Z-3.170 I-22.376 J-2.545 K0.000 F360.000
G3 X-1.197 Y-60.033 Z-3.170 I-4.775 J-1.446 K0.000 F360.000
G2 X-2.793 Y-58.614 Z-3.170 I16.254 J19.901 K0.000 F360.000
G2 X-2.558 Y-56.667 Z-3.170 I1.118 J0.852 K0.000 F360.000
G3 X-0.669 Y-52.853 Z-3.170 I-3.659 J4.187 K0.000 F360.000
G3 X-0.852 Y-50.053 Z-3.170 I-7.989 J0.884 K0.000 F360.000
G3 X-2.785 Y-47.116 Z-3.170 I-5.567 J-1.560 K0.000 F360.000
G2 X-2.969 Y-45.665 Z-3.170 I1.235 J0.893 K0.000 F360.000
G2 X-1.790 Y-44.471 Z-3.170 I3.480 J-2.255 K0.000 F360.000
G1 X-1.790 Y-44.470 Z-3.170 F360.000
G3 X0.157 Y-41.808 Z-3.170 I-2.845 J4.125 K0.000 F360.000
G3 X0.408 Y-39.267 Z-3.170 I-12.668 J2.533 K0.000 F360.000
G3 X-0.792 Y-36.533 Z-3.170 I-4.605 J-0.391 K0.000 F360.000
G3 X-2.731 Y-34.719 Z-3.170 I-7.834 J-6.431 K0.000 F360.000
G1 X-2.863 Y-34.596 Z-3.170 F360.000
G3 X-2.643 Y-30.936 Z-3.170 I-10.576 J2.473 K0.000 F360.000
G3 X-3.364 Y-29.252 Z-3.170 I-3.592 J-0.543 K0.000 F360.000
G1 X-3.364 Y-29.252 Z-6.000 F360.000
G3 X-4.607 Y-28.231 Z-6.000 I-2.870 J-2.226 K0.000 F360.000
G3 X-7.127 Y-28.354 Z-6.000 I-1.113 J-3.073 K0.000 F360.000
G2 X-11.152 Y-30.339 Z-6.000 I-45.945 J88.083 K0.000 F360.000
G2 X-11.935 Y-30.592 Z-6.000 I-2.633 J6.793 K0.000 F360.000
G2 X-17.844 Y-31.866 Z-6.000 I-43.670 J188.271 K0.000 F360.000
G2 X-18.909 Y-31.919 Z-6.000 I-0.710 J3.516 K0.000 F360.000
G2 X-19.230 Y-31.815 Z-6.000 I0.702 J2.701 K0.000 F360.000
G2 X-20.247 Y-30.535 Z-6.000 I5.825 J5.671 K0.000 F360.000
G3 X-22.741 Y-27.976 Z-6.000 I-10.549 J-7.786 K0.000 F360.000
G3 X-26.946 Y-26.337 Z-6.000 I-4.875 J-6.289 K0.000 F360.000
G3 X-29.620 Y-26.607 Z-6.000 I-0.622 J-7.217 K0.000 F360.000
G3 X-33.035 Y-30.427 Z-6.000 I1.732 J-4.984 K0.000 F360.000
G3 X-33.291 Y-33.143 Z-6.000 I7.496 J-2.077 K0.000 F360.000
G1 X-36.334 Y-33.255 Z-6.000 F360.000
G3 X-42.109 Y-34.789 Z-6.000 I2.049 J-19.354 K0.000 F360.000
G3 X-43.151 Y-35.311 Z-6.000 I3.583 J-8.454 K0.000 F360.000
G1 X-45.287 Y-36.712 Z-6.000 F360.000
G1 X-45.460 Y-36.844 Z-6.000 F360.000
G1 X-47.383 Y-38.522 Z-6.000 F360.000
G1 X-47.655 Y-38.830 Z-6.000 F360.000
G3 X-51.150 Y-45.104 Z-6.000 I26.870 J-19.079 K0.000 F360.000
G1 X-51.927 Y-47.424 Z-6.000 F360.000
G1 X-51.988 Y-47.672 Z-6.000 F360.000
G1 X-52.328 Y-49.753 Z-6.000 F360.000
G1 X-52.349 Y-50.009 Z-6.000 F360.000
G1 X-52.349 Y-53.991 Z-6.000 F360.000
G1 X-52.328 Y-54.247 Z-6.000 F360.000
G1 X-51.988 Y-56.328 Z-6.000 F360.000
G1 X-51.927 Y-56.576 Z-6.000 F360.000
G1 X-51.088 Y-59.053 Z-6.000 F360.000
G3 X-47.655 Y-65.170 Z-6.000 I31.816 J13.833 K0.000 F360.000
G1 X-47.383 Y-65.478 Z-6.000 F360.000
G1 X-45.460 Y-67.156 Z-6.000 F360.000
G1 X-45.287 Y-67.288 Z-6.000 F360.000
G1 X-43.151 Y-68.689 Z-6.000 F360.000
G3 X-37.276 Y-70.610 Z-6.000 I8.276 J15.366 K0.000 F360.000
G3 X-36.334 Y-70.745 Z-6.000 I1.624 J7.999 K0.000 F360.000
G1 X-33.290 Y-70.857 Z-6.000 F360.000
G3 X-32.714 Y-74.541 Z-6.000 I7.879 J-0.655 K0.000 F360.000
G3 X-28.240 Y-77.678 Z-6.000 I4.794 J2.078 K0.000 F360.000
G3 X-26.375 Y-77.601 Z-6.000 I0.580 J8.573 K0.000 F360.000
G3 X-22.888 Y-76.116 Z-6.000 I-1.244 J7.759 K0.000 F360.000
G3 X-19.810 Y-72.846 Z-6.000 I-7.721 J10.351 K0.000 F360.000
G2 X-19.220 Y-72.171 Z-6.000 I4.233 J-3.106 K0.000 F360.000
G2 X-18.216 Y-72.086 Z-6.000 I0.630 J-1.461 K0.000 F360.000
G2 X-17.435 Y-72.216 Z-6.000 I-0.555 J-5.735 K0.000 F360.000
G1 X-11.968 Y-73.400 Z-6.000 F360.000
G2 X-10.146 Y-74.124 Z-6.000 I-2.237 J-8.287 K0.000 F360.000
G3 X-7.002 Y-75.702 Z-6.000 I140.711 J276.326 K0.000 F360.000
G3 X-4.295 Y-75.601 Z-6.000 I1.251 J2.769 K0.000 F360.000
G3 X-2.606 Y-72.680 Z-6.000 I-2.015 J3.114 K0.000 F360.000
G3 X-2.839 Y-69.489 Z-6.000 I-11.812 J0.743 K0.000 F360.000
G1 X-2.839 Y-69.489 Z-6.000 F360.000
G2 X-2.788 Y-69.331 Z-6.000 I0.076 J0.063 K0.000 F360.000
G3 X-0.503 Y-67.092 Z-6.000 I-7.419 J9.861 K0.000 F360.000
G3 X0.389 Y-63.787 Z-6.000 I-3.504 J2.719 K0.000 F360.000
G3 X0.154 Y-62.215 Z-6.000 I-22.376 J-2.545 K0.000 F360.000
G3 X-1.197 Y-60.033 Z-6.000 I-4.775 J-1.446 K0.000 F360.000
G2 X-2.793 Y-58.614 Z-6.000 I16.254 J19.901 K0.000 F360.000
G2 X-2.558 Y-56.667 Z-6.000 I1.118 J0.852 K0.000 F360.000
G3 X-0.669 Y-52.853 Z-6.000 I-3.659 J4.187 K0.000 F360.000
G3 X-0.852 Y-50.053 Z-6.000 I-7.989 J0.884 K0.000 F360.000
G3 X-2.785 Y-47.116 Z-6.000 I-5.567 J-1.560 K0.000 F360.000
G2 X-2.969 Y-45.665 Z-6.000 I1.235 J0.893 K0.000 F360.000
G2 X-1.790 Y-44.471 Z-6.000 I3.480 J-2.255 K0.000 F360.000
G1 X-1.790 Y-44.470 Z-6.000 F360.000
G3 X0.157 Y-41.808 Z-6.000 I-2.845 J4.125 K0.000 F360.000
G3 X0.408 Y-39.267 Z-6.000 I-12.668 J2.533 K0.000 F360.000
G3 X-0.792 Y-36.533 Z-6.000 I-4.605 J-0.391 K0.000 F360.000
G3 X-2.731 Y-34.719 Z-6.000 I-7.834 J-6.431 K0.000 F360.000
G1 X-2.863 Y-34.596 Z-6.000 F360.000
G3 X-2.643 Y-30.936 Z-6.000 I-10.576 J2.473 K0.000 F360.000
G3 X-3.364 Y-29.252 Z-6.000 I-3.592 J-0.543 K0.000 F360.000
G0 Z5.000
G0 Z5.000
(Finish operation: Profile040)
(Begin operation: Profile041)
(Path: Profile041)
(Profile041)
(Compensated Tool Path. Diameter: 3.17)
G0 Z5.000
G0 X-3.364 Y22.748
G0 Z3.000
G1 X-3.364 Y22.748 Z-3.170 F360.000
G3 X-4.607 Y23.769 Z-3.170 I-2.870 J-2.226 K0.000 F360.000
G3 X-7.127 Y23.646 Z-3.170 I-1.113 J-3.073 K0.000 F360.000
G2 X-11.152 Y21.661 Z-3.170 I-45.945 J88.083 K0.000 F360.000
G2 X-11.935 Y21.408 Z-3.170 I-2.633 J6.793 K0.000 F360.000
G2 X-17.844 Y20.134 Z-3.170 I-43.670 J188.271 K0.000 F360.000
G2 X-18.909 Y20.081 Z-3.170 I-0.710 J3.516 K0.000 F360.000
G2 X-19.230 Y20.185 Z-3.170 I0.702 J2.701 K0.000 F360.000
G2 X-20.247 Y21.465 Z-3.170 I5.825 J5.671 K0.000 F360.000
G3 X-22.741 Y24.024 Z-3.170 I-10.549 J-7.786 K0.000 F360.000
G3 X-26.946 Y25.663 Z-3.170 I-4.875 J-6.289 K0.000 F360.000
G3 X-29.620 Y25.393 Z-3.170 I-0.622 J-7.217 K0.000 F360.000
G3 X-33.035 Y21.573 Z-3.170 I1.732 J-4.984 K0.000 F360.000
G3 X-33.291 Y18.857 Z-3.170 I7.496 J-2.077 K0.000 F360.000
G1 X-36.334 Y18.745 Z-3.170 F360.000
G3 X-42.109 Y17.211 Z-3.170 I2.049 J-19.354 K0.000 F360.000
G3 X-43.151 Y16.689 Z-3.170 I3.583 J-8.454 K0.000 F360.000
G1 X-45.287 Y15.288 Z-3.170 F360.000
G1 X-45.460 Y15.156 Z-3.170 F360.000
G1 X-47.383 Y13.478 Z-3.170 F360.000
G1 X-47.655 Y13.170 Z-3.170 F360.000
G3 X-51.150 Y6.896 Z-3.170 I26.870 J-19.079 K0.000 F360.000
G1 X-51.927 Y4.576 Z-3.170 F360.000
G1 X-51.988 Y4.328 Z-3.170 F360.000
G1 X-52.328 Y2.247 Z-3.170 F360.000
G1 X-52.349 Y1.991 Z-3.170 F360.000
G1 X-52.349 Y-1.991 Z-3.170 F360.000
G1 X-52.328 Y-2.247 Z-3.170 F360.000
G1 X-51.988 Y-4.328 Z-3.170 F360.000
G1 X-51.927 Y-4.576 Z-3.170 F360.000
G1 X-51.088 Y-7.053 Z-3.170 F360.000
G3 X-47.655 Y-13.170 Z-3.170 I31.816 J13.833 K0.000 F360.000
G1 X-47.383 Y-13.478 Z-3.170 F360.000
G1 X-45.460 Y-15.156 Z-3.170 F360.000
G1 X-45.287 Y-15.288 Z-3.170 F360.000
G1 X-43.151 Y-16.689 Z-3.170 F360.000
G3 X-37.276 Y-18.610 Z-3.170 I8.276 J15.366 K0.000 F360.000
G3 X-36.334 Y-18.745 Z-3.170 I1.624 J7.999 K0.000 F360.000
G1 X-33.290 Y-18.857 Z-3.170 F360.000
G3 X-32.714 Y-22.541 Z-3.170 I7.879 J-0.655 K0.000 F360.000
G3 X-28.240 Y-25.678 Z-3.170 I4.794 J2.078 K0.000 F360.000
G3 X-26.375 Y-25.601 Z-3.170 I0.580 J8.573 K0.000 F360.000
G3 X-22.888 Y-24.116 Z-3.170 I-1.244 J7.759 K0.000 F360.000
G3 X-19.810 Y-20.846 Z-3.170 I-7.721 J10.351 K0.000 F360.000
G2 X-19.220 Y-20.171 Z-3.170 I4.233 J-3.106 K0.000 F360.000
G2 X-18.216 Y-20.086 Z-3.170 I0.630 J-1.461 K0.000 F360.000
G2 X-17.435 Y-20.216 Z-3.170 I-0.555 J-5.735 K0.000 F360.000
G1 X-11.968 Y-21.400 Z-3.170 F360.000
G2 X-10.146 Y-22.124 Z-3.170 I-2.237 J-8.287 K0.000 F360.000
G3 X-7.002 Y-23.702 Z-3.170 I140.711 J276.326 K0.000 F360.000
G3 X-4.295 Y-23.601 Z-3.170 I1.251 J2.769 K0.000 F360.000
G3 X-2.606 Y-20.680 Z-3.170 I-2.015 J3.114 K0.000 F360.000
G3 X-2.839 Y-17.489 Z-3.170 I-11.812 J0.743 K0.000 F360.000
G1 X-2.839 Y-17.489 Z-3.170 F360.000
G2 X-2.788 Y-17.331 Z-3.170 I0.076 J0.063 K0.000 F360.000
G3 X-0.503 Y-15.092 Z-3.170 I-7.419 J9.861 K0.000 F360.000
G3 X0.389 Y-11.787 Z-3.170 I-3.504 J2.719 K0.000 F360.000
G3 X0.154 Y-10.215 Z-3.170 I-22.376 J-2.545 K0.000 F360.000
G3 X-1.197 Y-8.033 Z-3.170 I-4.775 J-1.446 K0.000 F360.000
G2 X-2.793 Y-6.614 Z-3.170 I16.254 J19.901 K0.000 F360.000
G2 X-2.558 Y-4.667 Z-3.170 I1.118 J0.852 K0.000 F360.000
G3 X-0.669 Y-0.853 Z-3.170 I-3.659 J4.187 K0.000 F360.000
G3 X-0.852 Y1.947 Z-3.170 I-7.989 J0.884 K0.000 F360.000
G3 X-2.785 Y4.884 Z-3.170 I-5.567 J-1.560 K0.000 F360.000
G2 X-2.969 Y6.335 Z-3.170 I1.235 J0.893 K0.000 F360.000
G2 X-1.790 Y7.529 Z-3.170 I3.480 J-2.255 K0.000 F360.000
