(Exported by FreeCAD)
(Post Processor: script_module)
(Output Time:2026-04-10 15:01:11.292679)
(Begin preamble)
G17 G90
G21
(Begin operation: Fixture)
(Path: Fixture)
G54
(Finish operation: Fixture)
(Begin operation: 3mm003)
(Path: 3mm003)
(3mm003)
(Begin toolchange)
( M6 T2 )
M3 S20000
(Finish operation: 3mm003)
(Begin operation: Profile004)
(Path: Profile004)
(Profile004)
(Compensated Tool Path. Diameter: 3.0)
G0 Z5.000
G0 X-92.805 Y37.163
G0 Z3.000
G1 X-92.805 Y37.163 Z-3.000 F300.000
G2 X-92.717 Y37.103 Z-3.000 I-1.057 J-1.635 K0.000 F300.000
G2 X-92.641 Y36.791 Z-3.000 I-0.101 J-0.189 K0.000 F300.000
G2 X-93.635 Y36.241 Z-3.000 I-1.079 J0.777 K0.000 F300.000
G2 X-95.217 Y36.648 Z-3.000 I-0.396 J1.736 K0.000 F300.000
G2 X-95.266 Y36.878 Z-3.000 I0.138 J0.150 K0.000 F300.000
G2 X-92.805 Y37.163 Z-3.000 I1.403 J-1.350 K0.000 F300.000
G1 X-92.805 Y37.163 Z-6.000 F300.000
G2 X-92.717 Y37.103 Z-6.000 I-1.057 J-1.635 K0.000 F300.000
G2 X-92.641 Y36.791 Z-6.000 I-0.101 J-0.189 K0.000 F300.000
G2 X-93.635 Y36.241 Z-6.000 I-1.079 J0.777 K0.000 F300.000
G2 X-95.217 Y36.648 Z-6.000 I-0.396 J1.736 K0.000 F300.000
G2 X-95.266 Y36.878 Z-6.000 I0.138 J0.150 K0.000 F300.000
G2 X-92.805 Y37.163 Z-6.000 I1.403 J-1.350 K0.000 F300.000
G0 Z5.000
G0 Z5.000
(Finish operation: Profile004)
(Begin operation: Profile005)
(Path: Profile005)
(Profile005)
(Compensated Tool Path. Diameter: 3.0)
G0 Z5.000
G0 X-92.870 Y23.453
G0 Z3.000
G1 X-92.870 Y23.453 Z-3.000 F300.000
G2 X-92.717 Y23.318 Z-3.000 I-0.975 J-1.263 K0.000 F300.000
G2 X-92.630 Y22.988 Z-3.000 I-0.138 J-0.213 K0.000 F300.000
G2 X-93.192 Y22.640 Z-3.000 I-0.829 J0.712 K0.000 F300.000
G2 X-95.139 Y22.990 Z-3.000 I-0.689 J1.756 K0.000 F300.000
G2 X-95.267 Y23.281 Z-3.000 I0.098 J0.217 K0.000 F300.000
G2 X-93.774 Y23.784 Z-3.000 I1.247 J-1.233 K0.000 F300.000
G2 X-92.870 Y23.453 Z-3.000 I-0.070 J-1.594 K0.000 F300.000
G1 X-92.870 Y23.453 Z-6.000 F300.000
G2 X-92.717 Y23.318 Z-6.000 I-0.975 J-1.263 K0.000 F300.000
G2 X-92.630 Y22.988 Z-6.000 I-0.138 J-0.213 K0.000 F300.000
G2 X-93.192 Y22.640 Z-6.000 I-0.829 J0.712 K0.000 F300.000
G2 X-95.139 Y22.990 Z-6.000 I-0.689 J1.756 K0.000 F300.000
G2 X-95.267 Y23.281 Z-6.000 I0.098 J0.217 K0.000 F300.000
G2 X-93.774 Y23.784 Z-6.000 I1.247 J-1.233 K0.000 F300.000
G2 X-92.870 Y23.453 Z-6.000 I-0.070 J-1.594 K0.000 F300.000
G0 Z5.000
G0 Z5.000
(Finish operation: Profile005)
(Begin operation: Profile006)
(Path: Profile006)
(Profile006)
(Compensated Tool Path. Diameter: 3.0)
G0 Z5.000
G0 X-81.411 Y38.783
G0 Z3.000
G1 X-81.411 Y38.783 Z-3.000 F300.000
G2 X-82.050 Y38.069 Z-3.000 I-1.709 J0.885 K0.000 F300.000
G3 X-83.076 Y35.299 Z-3.000 I0.913 J-1.913 K0.000 F300.000
G3 X-81.506 Y34.068 Z-3.000 I2.067 J1.018 K0.000 F300.000
G2 X-81.212 Y33.940 Z-3.000 I-0.039 J-0.495 K0.000 F300.000
G2 X-81.207 Y33.838 Z-3.000 I-0.024 J-0.052 K0.000 F300.000
G3 X-83.556 Y31.150 Z-3.000 I1.789 J-3.934 K0.000 F300.000
G3 X-83.666 Y29.217 Z-3.000 I3.086 J-1.145 K0.000 F300.000
G3 X-81.180 Y26.154 Z-3.000 I4.198 J0.867 K0.000 F300.000
G2 X-81.219 Y26.037 Z-3.000 I-0.349 J0.052 K0.000 F300.000
G2 X-81.442 Y25.956 Z-3.000 I-4.632 J12.369 K0.000 F300.000
G3 X-83.147 Y24.503 Z-3.000 I0.448 J-2.253 K0.000 F300.000
G3 X-82.031 Y21.898 Z-3.000 I2.049 J-0.664 K0.000 F300.000
G2 X-81.403 Y21.209 Z-3.000 I-0.739 J-1.305 K0.000 F300.000
G3 X-85.387 Y21.784 Z-3.000 I-110.653 J-753.364 K0.000 F300.000
G2 X-86.182 Y22.060 Z-3.000 I0.381 J2.379 K0.000 F300.000
G2 X-86.200 Y22.673 Z-3.000 I3.799 J0.417 K0.000 F300.000
G3 X-84.852 Y23.922 Z-3.000 I-0.737 J2.148 K0.000 F300.000
G3 X-85.808 Y26.579 Z-3.000 I-1.964 J0.793 K0.000 F300.000
G2 X-86.197 Y26.996 Z-3.000 I0.370 J0.733 K0.000 F300.000
G3 X-84.945 Y28.391 Z-3.000 I-1.868 J2.935 K0.000 F300.000
G3 X-84.678 Y30.540 Z-3.000 I-4.123 J1.604 K0.000 F300.000
G3 X-86.196 Y32.986 Z-3.000 I-3.092 J-0.225 K0.000 F300.000
G2 X-85.858 Y33.401 Z-3.000 I0.851 J-0.346 K0.000 F300.000
G3 X-84.697 Y35.068 Z-3.000 I-0.953 J1.902 K0.000 F300.000
G3 X-86.200 Y37.327 Z-3.000 I-2.177 J0.182 K0.000 F300.000
G2 X-86.184 Y37.913 Z-3.000 I3.628 J0.191 K0.000 F300.000
G2 X-85.177 Y38.257 Z-3.000 I1.317 J-2.215 K0.000 F300.000
G3 X-81.411 Y38.783 Z-3.000 I-10.934 J91.911 K0.000 F300.000
G1 X-81.411 Y38.783 Z-6.000 F300.000
G2 X-82.050 Y38.069 Z-6.000 I-1.709 J0.885 K0.000 F300.000
G3 X-83.076 Y35.299 Z-6.000 I0.913 J-1.913 K0.000 F300.000
G3 X-81.506 Y34.068 Z-6.000 I2.067 J1.018 K0.000 F300.000
G2 X-81.212 Y33.940 Z-6.000 I-0.039 J-0.495 K0.000 F300.000
G2 X-81.207 Y33.838 Z-6.000 I-0.024 J-0.052 K0.000 F300.000
G3 X-83.556 Y31.150 Z-6.000 I1.789 J-3.934 K0.000 F300.000
G3 X-83.666 Y29.217 Z-6.000 I3.086 J-1.145 K0.000 F300.000
G3 X-81.180 Y26.154 Z-6.000 I4.198 J0.867 K0.000 F300.000
G2 X-81.219 Y26.037 Z-6.000 I-0.349 J0.052 K0.000 F300.000
G2 X-81.442 Y25.956 Z-6.000 I-4.632 J12.369 K0.000 F300.000
G3 X-83.147 Y24.503 Z-6.000 I0.448 J-2.253 K0.000 F300.000
G3 X-82.031 Y21.898 Z-6.000 I2.049 J-0.664 K0.000 F300.000
G2 X-81.403 Y21.209 Z-6.000 I-0.739 J-1.305 K0.000 F300.000
G3 X-85.387 Y21.784 Z-6.000 I-110.653 J-753.364 K0.000 F300.000
G2 X-86.182 Y22.060 Z-6.000 I0.381 J2.379 K0.000 F300.000
G2 X-86.200 Y22.673 Z-6.000 I3.799 J0.417 K0.000 F300.000
G3 X-84.852 Y23.922 Z-6.000 I-0.737 J2.148 K0.000 F300.000
G3 X-85.808 Y26.579 Z-6.000 I-1.964 J0.793 K0.000 F300.000
G2 X-86.197 Y26.996 Z-6.000 I0.370 J0.733 K0.000 F300.000
G3 X-84.945 Y28.391 Z-6.000 I-1.868 J2.935 K0.000 F300.000
G3 X-84.678 Y30.540 Z-6.000 I-4.123 J1.604 K0.000 F300.000
G3 X-86.196 Y32.986 Z-6.000 I-3.092 J-0.225 K0.000 F300.000
G2 X-85.858 Y33.401 Z-6.000 I0.851 J-0.346 K0.000 F300.000
G3 X-84.697 Y35.068 Z-6.000 I-0.953 J1.902 K0.000 F300.000
G3 X-86.200 Y37.327 Z-6.000 I-2.177 J0.182 K0.000 F300.000
G2 X-86.184 Y37.913 Z-6.000 I3.628 J0.191 K0.000 F300.000
G2 X-85.177 Y38.257 Z-6.000 I1.317 J-2.215 K0.000 F300.000
G3 X-81.411 Y38.783 Z-6.000 I-10.934 J91.911 K0.000 F300.000
G0 Z5.000
G0 Z5.000
(Finish operation: Profile006)
(Begin operation: Profile007)
(Path: Profile007)
(Profile007)
(Compensated Tool Path. Diameter: 3.0)
G0 Z5.000
G0 X-38.805 Y37.163
G0 Z3.000
G1 X-38.805 Y37.163 Z-3.000 F300.000
G2 X-38.717 Y37.103 Z-3.000 I-1.057 J-1.635 K0.000 F300.000
G2 X-38.641 Y36.791 Z-3.000 I-0.101 J-0.189 K0.000 F300.000
G2 X-39.635 Y36.241 Z-3.000 I-1.079 J0.777 K0.000 F300.000
G2 X-41.217 Y36.648 Z-3.000 I-0.396 J1.736 K0.000 F300.000
G2 X-41.266 Y36.878 Z-3.000 I0.138 J0.150 K0.000 F300.000
G2 X-38.805 Y37.163 Z-3.000 I1.403 J-1.350 K0.000 F300.000
G1 X-38.805 Y37.163 Z-6.000 F300.000
G2 X-38.717 Y37.103 Z-6.000 I-1.057 J-1.635 K0.000 F300.000
G2 X-38.641 Y36.791 Z-6.000 I-0.101 J-0.189 K0.000 F300.000
G2 X-39.635 Y36.241 Z-6.000 I-1.079 J0.777 K0.000 F300.000
G2 X-41.217 Y36.648 Z-6.000 I-0.396 J1.736 K0.000 F300.000
G2 X-41.266 Y36.878 Z-6.000 I0.138 J0.150 K0.000 F300.000
G2 X-38.805 Y37.163 Z-6.000 I1.403 J-1.350 K0.000 F300.000
G0 Z5.000
G0 Z5.000
(Finish operation: Profile007)
(Begin operation: Profile008)
(Path: Profile008)
(Profile008)
(Compensated Tool Path. Diameter: 3.0)
G0 Z5.000
G0 X-38.870 Y23.453
G0 Z3.000
G1 X-38.870 Y23.453 Z-3.000 F300.000
G2 X-38.717 Y23.318 Z-3.000 I-0.975 J-1.263 K0.000 F300.000
G2 X-38.630 Y22.988 Z-3.000 I-0.138 J-0.213 K0.000 F300.000
G2 X-39.192 Y22.640 Z-3.000 I-0.829 J0.712 K0.000 F300.000
G2 X-41.139 Y22.990 Z-3.000 I-0.689 J1.756 K0.000 F300.000
G2 X-41.267 Y23.281 Z-3.000 I0.098 J0.217 K0.000 F300.000
G2 X-39.774 Y23.784 Z-3.000 I1.247 J-1.233 K0.000 F300.000
G2 X-38.870 Y23.453 Z-3.000 I-0.070 J-1.594 K0.000 F300.000
G1 X-38.870 Y23.453 Z-6.000 F300.000
G2 X-38.717 Y23.318 Z-6.000 I-0.975 J-1.263 K0.000 F300.000
G2 X-38.630 Y22.988 Z-6.000 I-0.138 J-0.213 K0.000 F300.000
G2 X-39.192 Y22.640 Z-6.000 I-0.829 J0.712 K0.000 F300.000
G2 X-41.139 Y22.990 Z-6.000 I-0.689 J1.756 K0.000 F300.000
G2 X-41.267 Y23.281 Z-6.000 I0.098 J0.217 K0.000 F300.000
G2 X-39.774 Y23.784 Z-6.000 I1.247 J-1.233 K0.000 F300.000
G2 X-38.870 Y23.453 Z-6.000 I-0.070 J-1.594 K0.000 F300.000
G0 Z5.000
G0 Z5.000
(Finish operation: Profile008)
(Begin operation: Profile009)
(Path: Profile009)
(Profile009)
(Compensated Tool Path. Diameter: 3.0)
G0 Z5.000
G0 X-27.411 Y38.783
G0 Z3.000
G1 X-27.411 Y38.783 Z-3.000 F300.000
G2 X-28.050 Y38.069 Z-3.000 I-1.709 J0.885 K0.000 F300.000
G3 X-29.076 Y35.299 Z-3.000 I0.913 J-1.913 K0.000 F300.000
G3 X-27.506 Y34.068 Z-3.000 I2.067 J1.018 K0.000 F300.000
G2 X-27.212 Y33.940 Z-3.000 I-0.039 J-0.495 K0.000 F300.000
G2 X-27.207 Y33.838 Z-3.000 I-0.024 J-0.052 K0.000 F300.000
G3 X-29.556 Y31.150 Z-3.000 I1.789 J-3.934 K0.000 F300.000
G3 X-29.666 Y29.217 Z-3.000 I3.086 J-1.145 K0.000 F300.000
G3 X-27.180 Y26.154 Z-3.000 I4.198 J0.867 K0.000 F300.000
G2 X-27.219 Y26.037 Z-3.000 I-0.349 J0.052 K0.000 F300.000
G2 X-27.442 Y25.956 Z-3.000 I-4.632 J12.369 K0.000 F300.000
G3 X-29.147 Y24.503 Z-3.000 I0.448 J-2.253 K0.000 F300.000
G3 X-28.031 Y21.898 Z-3.000 I2.049 J-0.664 K0.000 F300.000
G2 X-27.403 Y21.209 Z-3.000 I-0.739 J-1.305 K0.000 F300.000
G3 X-31.387 Y21.784 Z-3.000 I-110.653 J-753.364 K0.000 F300.000
G2 X-32.182 Y22.060 Z-3.000 I0.381 J2.379 K0.000 F300.000
G2 X-32.200 Y22.673 Z-3.000 I3.799 J0.417 K0.000 F300.000
G3 X-30.852 Y23.922 Z-3.000 I-0.737 J2.148 K0.000 F300.000
G3 X-31.808 Y26.579 Z-3.000 I-1.964 J0.793 K0.000 F300.000
G2 X-32.197 Y26.996 Z-3.000 I0.370 J0.733 K0.000 F300.000
G3 X-30.945 Y28.391 Z-3.000 I-1.868 J2.935 K0.000 F300.000
G3 X-30.678 Y30.540 Z-3.000 I-4.123 J1.604 K0.000 F300.000
G3 X-32.196 Y32.986 Z-3.000 I-3.092 J-0.225 K0.000 F300.000
G2 X-31.858 Y33.401 Z-3.000 I0.851 J-0.346 K0.000 F300.000
G3 X-30.697 Y35.068 Z-3.000 I-0.953 J1.902 K0.000 F300.000
G3 X-32.200 Y37.327 Z-3.000 I-2.177 J0.182 K0.000 F300.000
G2 X-32.184 Y37.913 Z-3.000 I3.628 J0.191 K0.000 F300.000
G2 X-31.177 Y38.257 Z-3.000 I1.317 J-2.215 K0.000 F300.000
G3 X-27.411 Y38.783 Z-3.000 I-10.934 J91.911 K0.000 F300.000
G1 X-27.411 Y38.783 Z-6.000 F300.000
G2 X-28.050 Y38.069 Z-6.000 I-1.709 J0.885 K0.000 F300.000
G3 X-29.076 Y35.299 Z-6.000 I0.913 J-1.913 K0.000 F300.000
G3 X-27.506 Y34.068 Z-6.000 I2.067 J1.018 K0.000 F300.000
G2 X-27.212 Y33.940 Z-6.000 I-0.039 J-0.495 K0.000 F300.000
G2 X-27.207 Y33.838 Z-6.000 I-0.024 J-0.052 K0.000 F300.000
G3 X-29.556 Y31.150 Z-6.000 I1.789 J-3.934 K0.000 F300.000
G3 X-29.666 Y29.217 Z-6.000 I3.086 J-1.145 K0.000 F300.000
G3 X-27.180 Y26.154 Z-6.000 I4.198 J0.867 K0.000 F300.000
G2 X-27.219 Y26.037 Z-6.000 I-0.349 J0.052 K0.000 F300.000
G2 X-27.442 Y25.956 Z-6.000 I-4.632 J12.369 K0.000 F300.000
G3 X-29.147 Y24.503 Z-6.000 I0.448 J-2.253 K0.000 F300.000
G3 X-28.031 Y21.898 Z-6.000 I2.049 J-0.664 K0.000 F300.000
G2 X-27.403 Y21.209 Z-6.000 I-0.739 J-1.305 K0.000 F300.000
G3 X-31.387 Y21.784 Z-6.000 I-110.653 J-753.364 K0.000 F300.000
G2 X-32.182 Y22.060 Z-6.000 I0.381 J2.379 K0.000 F300.000
G2 X-32.200 Y22.673 Z-6.000 I3.799 J0.417 K0.000 F300.000
G3 X-30.852 Y23.922 Z-6.000 I-0.737 J2.148 K0.000 F300.000
G3 X-31.808 Y26.579 Z-6.000 I-1.964 J0.793 K0.000 F300.000
G2 X-32.197 Y26.996 Z-6.000 I0.370 J0.733 K0.000 F300.000
G3 X-30.945 Y28.391 Z-6.000 I-1.868 J2.935 K0.000 F300.000
G3 X-30.678 Y30.540 Z-6.000 I-4.123 J1.604 K0.000 F300.000
G3 X-32.196 Y32.986 Z-6.000 I-3.092 J-0.225 K0.000 F300.000
G2 X-31.858 Y33.401 Z-6.000 I0.851 J-0.346 K0.000 F300.000
G3 X-30.697 Y35.068 Z-6.000 I-0.953 J1.902 K0.000 F300.000
G3 X-32.200 Y37.327 Z-6.000 I-2.177 J0.182 K0.000 F300.000
G2 X-32.184 Y37.913 Z-6.000 I3.628 J0.191 K0.000 F300.000
G2 X-31.177 Y38.257 Z-6.000 I1.317 J-2.215 K0.000 F300.000
G3 X-27.411 Y38.783 Z-6.000 I-10.934 J91.911 K0.000 F300.000
G0 Z5.000
G0 Z5.000
(Finish operation: Profile009)
(Begin operation: Profile010)
(Path: Profile010)
(Profile010)
(Compensated Tool Path. Diameter: 3.0)
G0 Z5.000
G0 X15.195 Y37.163
G0 Z3.000
G1 X15.195 Y37.163 Z-3.000 F300.000
G2 X15.283 Y37.103 Z-3.000 I-1.057 J-1.635 K0.000 F300.000
G2 X15.359 Y36.791 Z-3.000 I-0.101 J-0.189 K0.000 F300.000
G2 X14.365 Y36.241 Z-3.000 I-1.079 J0.777 K0.000 F300.000
G2 X12.783 Y36.648 Z-3.000 I-0.396 J1.736 K0.000 F300.000
G2 X12.734 Y36.878 Z-3.000 I0.138 J0.150 K0.000 F300.000
G2 X15.195 Y37.163 Z-3.000 I1.403 J-1.350 K0.000 F300.000
G1 X15.195 Y37.163 Z-6.000 F300.000
G2 X15.283 Y37.103 Z-6.000 I-1.057 J-1.635 K0.000 F300.000
G2 X15.359 Y36.791 Z-6.000 I-0.101 J-0.189 K0.000 F300.000
G2 X14.365 Y36.241 Z-6.000 I-1.079 J0.777 K0.000 F300.000
G2 X12.783 Y36.648 Z-6.000 I-0.396 J1.736 K0.000 F300.000
G2 X12.734 Y36.878 Z-6.000 I0.138 J0.150 K0.000 F300.000
G2 X15.195 Y37.163 Z-6.000 I1.403 J-1.350 K0.000 F300.000
G0 Z5.000
G0 Z5.000
(Finish operation: Profile010)
(Begin operation: Profile011)
(Path: Profile011)
(Profile011)
(Compensated Tool Path. Diameter: 3.0)
G0 Z5.000
G0 X15.130 Y23.453
G0 Z3.000
G1 X15.130 Y23.453 Z-3.000 F300.000
G2 X15.283 Y23.318 Z-3.000 I-0.975 J-1.263 K0.000 F300.000
G2 X15.370 Y22.988 Z-3.000 I-0.138 J-0.213 K0.000 F300.000
G2 X14.808 Y22.640 Z-3.000 I-0.829 J0.712 K0.000 F300.000
G2 X12.861 Y22.990 Z-3.000 I-0.689 J1.756 K0.000 F300.000
G2 X12.733 Y23.281 Z-3.000 I0.098 J0.217 K0.000 F300.000
G2 X14.226 Y23.784 Z-3.000 I1.247 J-1.233 K0.000 F300.000
G2 X15.130 Y23.453 Z-3.000 I-0.070 J-1.594 K0.000 F300.000
G1 X15.130 Y23.453 Z-6.000 F300.000
G2 X15.283 Y23.318 Z-6.000 I-0.975 J-1.263 K0.000 F300.000
G2 X15.370 Y22.988 Z-6.000 I-0.138 J-0.213 K0.000 F300.000
G2 X14.808 Y22.640 Z-6.000 I-0.829 J0.712 K0.000 F300.000
G2 X12.861 Y22.990 Z-6.000 I-0.689 J1.756 K0.000 F300.000
G2 X12.733 Y23.281 Z-6.000 I0.098 J0.217 K0.000 F300.000
G2 X14.226 Y23.784 Z-6.000 I1.247 J-1.233 K0.000 F300.000
G2 X15.130 Y23.453 Z-6.000 I-0.070 J-1.594 K0.000 F300.000
G0 Z5.000
G0 Z5.000
(Finish operation: Profile011)
(Begin operation: Profile012)
(Path: Profile012)
(Profile012)
(Compensated Tool Path. Diameter: 3.0)
G0 Z5.000
G0 X26.589 Y38.783
G0 Z3.000
G1 X26.589 Y38.783 Z-3.000 F300.000
G2 X25.950 Y38.069 Z-3.000 I-1.709 J0.885 K0.000 F300.000
G3 X24.924 Y35.299 Z-3.000 I0.913 J-1.913 K0.000 F300.000
G3 X26.494 Y34.068 Z-3.000 I2.067 J1.018 K0.000 F300.000
G2 X26.788 Y33.940 Z-3.000 I-0.039 J-0.495 K0.000 F300.000
G2 X26.793 Y33.838 Z-3.000 I-0.024 J-0.052 K0.000 F300.000
G3 X24.444 Y31.150 Z-3.000 I1.789 J-3.934 K0.000 F300.000
G3 X24.334 Y29.217 Z-3.000 I3.086 J-1.145 K0.000 F300.000
G3 X26.820 Y26.154 Z-3.000 I4.198 J0.867 K0.000 F300.000
G2 X26.781 Y26.037 Z-3.000 I-0.349 J0.052 K0.000 F300.000
G2 X26.558 Y25.956 Z-3.000 I-4.632 J12.369 K0.000 F300.000
G3 X24.853 Y24.503 Z-3.000 I0.448 J-2.253 K0.000 F300.000
G3 X25.969 Y21.898 Z-3.000 I2.049 J-0.664 K0.000 F300.000
G2 X26.597 Y21.209 Z-3.000 I-0.739 J-1.305 K0.000 F300.000
G3 X22.613 Y21.784 Z-3.000 I-110.653 J-753.364 K0.000 F300.000
G2 X21.818 Y22.060 Z-3.000 I0.381 J2.379 K0.000 F300.000
G2 X21.800 Y22.673 Z-3.000 I3.799 J0.417 K0.000 F300.000
G3 X23.148 Y23.922 Z-3.000 I-0.737 J2.148 K0.000 F300.000
G3 X22.192 Y26.579 Z-3.000 I-1.964 J0.793 K0.000 F300.000
G2 X21.803 Y26.996 Z-3.000 I0.370 J0.733 K0.000 F300.000
G3 X23.055 Y28.391 Z-3.000 I-1.868 J2.935 K0.000 F300.000
G3 X23.322 Y30.540 Z-3.000 I-4.123 J1.604 K0.000 F300.000
G3 X21.804 Y32.986 Z-3.000 I-3.092 J-0.225 K0.000 F300.000
G2 X22.142 Y33.401 Z-3.000 I0.851 J-0.346 K0.000 F300.000
G3 X23.303 Y35.068 Z-3.000 I-0.953 J1.902 K0.000 F300.000
G3 X21.800 Y37.327 Z-3.000 I-2.177 J0.182 K0.000 F300.000
G2 X21.816 Y37.913 Z-3.000 I3.628 J0.191 K0.000 F300.000
G2 X22.823 Y38.257 Z-3.000 I1.317 J-2.215 K0.000 F300.000
G3 X26.589 Y38.783 Z-3.000 I-10.934 J91.911 K0.000 F300.000
G1 X26.589 Y38.783 Z-6.000 F300.000
G2 X25.950 Y38.069 Z-6.000 I-1.709 J0.885 K0.000 F300.000
G3 X24.924 Y35.299 Z-6.000 I0.913 J-1.913 K0.000 F300.000
G3 X26.494 Y34.068 Z-6.000 I2.067 J1.018 K0.000 F300.000
G2 X26.788 Y33.940 Z-6.000 I-0.039 J-0.495 K0.000 F300.000
G2 X26.793 Y33.838 Z-6.000 I-0.024 J-0.052 K0.000 F300.000
G3 X24.444 Y31.150 Z-6.000 I1.789 J-3.934 K0.000 F300.000
G3 X24.334 Y29.217 Z-6.000 I3.086 J-1.145 K0.000 F300.000
G3 X26.820 Y26.154 Z-6.000 I4.198 J0.867 K0.000 F300.000
G2 X26.781 Y26.037 Z-6.000 I-0.349 J0.052 K0.000 F300.000
G2 X26.558 Y25.956 Z-6.000 I-4.632 J12.369 K0.000 F300.000
G3 X24.853 Y24.503 Z-6.000 I0.448 J-2.253 K0.000 F300.000
G3 X25.969 Y21.898 Z-6.000 I2.049 J-0.664 K0.000 F300.000
G2 X26.597 Y21.209 Z-6.000 I-0.739 J-1.305 K0.000 F300.000
G3 X22.613 Y21.784 Z-6.000 I-110.653 J-753.364 K0.000 F300.000
G2 X21.818 Y22.060 Z-6.000 I0.381 J2.379 K0.000 F300.000
G2 X21.800 Y22.673 Z-6.000 I3.799 J0.417 K0.000 F300.000
G3 X23.148 Y23.922 Z-6.000 I-0.737 J2.148 K0.000 F300.000
G3 X22.192 Y26.579 Z-6.000 I-1.964 J0.793 K0.000 F300.000
G2 X21.803 Y26.996 Z-6.000 I0.370 J0.733 K0.000 F300.000
G3 X23.055 Y28.391 Z-6.000 I-1.868 J2.935 K0.000 F300.000
G3 X23.322 Y30.540 Z-6.000 I-4.123 J1.604 K0.000 F300.000
G3 X21.804 Y32.986 Z-6.000 I-3.092 J-0.225 K0.000 F300.000
G2 X22.142 Y33.401 Z-6.000 I0.851 J-0.346 K0.000 F300.000
G3 X23.303 Y35.068 Z-6.000 I-0.953 J1.902 K0.000 F300.000
G3 X21.800 Y37.327 Z-6.000 I-2.177 J0.182 K0.000 F300.000
G2 X21.816 Y37.913 Z-6.000 I3.628 J0.191 K0.000 F300.000
G2 X22.823 Y38.257 Z-6.000 I1.317 J-2.215 K0.000 F300.000
G3 X26.589 Y38.783 Z-6.000 I-10.934 J91.911 K0.000 F300.000
G0 Z5.000
G0 Z5.000
(Finish operation: Profile012)
(Begin operation: Profile013)
(Path: Profile013)
(Profile013)
(Compensated Tool Path. Diameter: 3.0)
G0 Z5.000
G0 X69.195 Y37.163
G0 Z3.000
G1 X69.195 Y37.163 Z-3.000 F300.000
G2 X69.283 Y37.103 Z-3.000 I-1.057 J-1.635 K0.000 F300.000
G2 X69.359 Y36.791 Z-3.000 I-0.101 J-0.189 K0.000 F300.000
G2 X68.365 Y36.241 Z-3.000 I-1.079 J0.777 K0.000 F300.000
G2 X66.783 Y36.648 Z-3.000 I-0.396 J1.736 K0.000 F300.000
G2 X66.734 Y36.878 Z-3.000 I0.138 J0.150 K0.000 F300.000
G2 X69.195 Y37.163 Z-3.000 I1.403 J-1.350 K0.000 F300.000
G1 X69.195 Y37.163 Z-6.000 F300.000
G2 X69.283 Y37.103 Z-6.000 I-1.057 J-1.635 K0.000 F300.000
G2 X69.359 Y36.791 Z-6.000 I-0.101 J-0.189 K0.000 F300.000
G2 X68.365 Y36.241 Z-6.000 I-1.079 J0.777 K0.000 F300.000
G2 X66.783 Y36.648 Z-6.000 I-0.396 J1.736 K0.000 F300.000
G2 X66.734 Y36.878 Z-6.000 I0.138 J0.150 K0.000 F300.000
G2 X69.195 Y37.163 Z-6.000 I1.403 J-1.350 K0.000 F300.000
G0 Z5.000
G0 Z5.000
(Finish operation: Profile013)
(Begin operation: Profile014)
(Path: Profile014)
(Profile014)
(Compensated Tool Path. Diameter: 3.0)
G0 Z5.000
G0 X69.130 Y23.453
G0 Z3.000
G1 X69.130 Y23.453 Z-3.000 F300.000
G2 X69.283 Y23.318 Z-3.000 I-0.975 J-1.263 K0.000 F300.000
G2 X69.370 Y22.988 Z-3.000 I-0.138 J-0.213 K0.000 F300.000
G2 X68.808 Y22.640 Z-3.000 I-0.829 J0.712 K0.000 F300.000
G2 X66.861 Y22.990 Z-3.000 I-0.689 J1.756 K0.000 F300.000
G2 X66.733 Y23.281 Z-3.000 I0.098 J0.217 K0.000 F300.000
G2 X68.226 Y23.784 Z-3.000 I1.247 J-1.233 K0.000 F300.000
G2 X69.130 Y23.453 Z-3.000 I-0.070 J-1.594 K0.000 F300.000
G1 X69.130 Y23.453 Z-6.000 F300.000
G2 X69.283 Y23.318 Z-6.000 I-0.975 J-1.263 K0.000 F300.000
G2 X69.370 Y22.988 Z-6.000 I-0.138 J-0.213 K0.000 F300.000
G2 X68.808 Y22.640 Z-6.000 I-0.829 J0.712 K0.000 F300.000
G2 X66.861 Y22.990 Z-6.000 I-0.689 J1.756 K0.000 F300.000
G2 X66.733 Y23.281 Z-6.000 I0.098 J0.217 K0.000 F300.000
G2 X68.226 Y23.784 Z-6.000 I1.247 J-1.233 K0.000 F300.000
G2 X69.130 Y23.453 Z-6.000 I-0.070 J-1.594 K0.000 F300.000
G0 Z5.000
G0 Z5.000
(Finish operation: Profile014)
(Begin operation: Profile015)
(Path: Profile015)
(Profile015)
(Compensated Tool Path. Diameter: 3.0)
G0 Z5.000
G0 X80.589 Y38.783
G0 Z3.000
G1 X80.589 Y38.783 Z-3.000 F300.000
G2 X79.950 Y38.069 Z-3.000 I-1.709 J0.885 K0.000 F300.000
G3 X78.924 Y35.299 Z-3.000 I0.913 J-1.913 K0.000 F300.000
G3 X80.494 Y34.068 Z-3.000 I2.067 J1.018 K0.000 F300.000
G2 X80.788 Y33.940 Z-3.000 I-0.039 J-0.495 K0.000 F300.000
G2 X80.793 Y33.838 Z-3.000 I-0.024 J-0.052 K0.000 F300.000
G3 X78.444 Y31.150 Z-3.000 I1.789 J-3.934 K0.000 F300.000
G3 X78.334 Y29.217 Z-3.000 I3.086 J-1.145 K0.000 F300.000
G3 X80.820 Y26.154 Z-3.000 I4.198 J0.867 K0.000 F300.000
G2 X80.781 Y26.037 Z-3.000 I-0.349 J0.052 K0.000 F300.000
G2 X80.558 Y25.956 Z-3.000 I-4.630 J12.365 K0.000 F300.000
G3 X78.853 Y24.503 Z-3.000 I0.448 J-2.253 K0.000 F300.000
G3 X79.969 Y21.898 Z-3.000 I2.049 J-0.664 K0.000 F300.000
G2 X80.597 Y21.209 Z-3.000 I-0.739 J-1.305 K0.000 F300.000
G3 X76.613 Y21.784 Z-3.000 I-110.653 J-753.364 K0.000 F300.000
G2 X75.818 Y22.060 Z-3.000 I0.381 J2.379 K0.000 F300.000
G2 X75.800 Y22.673 Z-3.000 I3.799 J0.417 K0.000 F300.000
G3 X77.148 Y23.922 Z-3.000 I-0.737 J2.148 K0.000 F300.000
G3 X76.192 Y26.579 Z-3.000 I-1.964 J0.793 K0.000 F300.000
G2 X75.803 Y26.996 Z-3.000 I0.370 J0.733 K0.000 F300.000
G3 X77.055 Y28.391 Z-3.000 I-1.868 J2.935 K0.000 F300.000
G3 X77.322 Y30.540 Z-3.000 I-4.123 J1.604 K0.000 F300.000
G3 X75.804 Y32.986 Z-3.000 I-3.092 J-0.225 K0.000 F300.000
G2 X76.142 Y33.401 Z-3.000 I0.851 J-0.346 K0.000 F300.000
G3 X77.303 Y35.068 Z-3.000 I-0.953 J1.902 K0.000 F300.000
G3 X75.800 Y37.327 Z-3.000 I-2.177 J0.182 K0.000 F300.000
G2 X75.816 Y37.913 Z-3.000 I3.628 J0.191 K0.000 F300.000
G2 X76.823 Y38.257 Z-3.000 I1.317 J-2.215 K0.000 F300.000
G3 X80.589 Y38.783 Z-3.000 I-10.934 J91.911 K0.000 F300.000
G1 X80.589 Y38.783 Z-6.000 F300.000
G2 X79.950 Y38.069 Z-6.000 I-1.709 J0.885 K0.000 F300.000
G3 X78.924 Y35.299 Z-6.000 I0.913 J-1.913 K0.000 F300.000
G3 X80.494 Y34.068 Z-6.000 I2.067 J1.018 K0.000 F300.000
G2 X80.788 Y33.940 Z-6.000 I-0.039 J-0.495 K0.000 F300.000
G2 X80.793 Y33.838 Z-6.000 I-0.024 J-0.052 K0.000 F300.000
G3 X78.444 Y31.150 Z-6.000 I1.789 J-3.934 K0.000 F300.000
G3 X78.334 Y29.217 Z-6.000 I3.086 J-1.145 K0.000 F300.000
G3 X80.820 Y26.154 Z-6.000 I4.198 J0.867 K0.000 F300.000
G2 X80.781 Y26.037 Z-6.000 I-0.349 J0.052 K0.000 F300.000
G2 X80.558 Y25.956 Z-6.000 I-4.630 J12.365 K0.000 F300.000
G3 X78.853 Y24.503 Z-6.000 I0.448 J-2.253 K0.000 F300.000
G3 X79.969 Y21.898 Z-6.000 I2.049 J-0.664 K0.000 F300.000
G2 X80.597 Y21.209 Z-6.000 I-0.739 J-1.305 K0.000 F300.000
G3 X76.613 Y21.784 Z-6.000 I-110.653 J-753.364 K0.000 F300.000
G2 X75.818 Y22.060 Z-6.000 I0.381 J2.379 K0.000 F300.000
G2 X75.800 Y22.673 Z-6.000 I3.799 J0.417 K0.000 F300.000
G3 X77.148 Y23.922 Z-6.000 I-0.737 J2.148 K0.000 F300.000
G3 X76.192 Y26.579 Z-6.000 I-1.964 J0.793 K0.000 F300.000
G2 X75.803 Y26.996 Z-6.000 I0.370 J0.733 K0.000 F300.000
G3 X77.055 Y28.391 Z-6.000 I-1.868 J2.935 K0.000 F300.000
G3 X77.322 Y30.540 Z-6.000 I-4.123 J1.604 K0.000 F300.000
G3 X75.804 Y32.986 Z-6.000 I-3.092 J-0.225 K0.000 F300.000
G2 X76.142 Y33.401 Z-6.000 I0.851 J-0.346 K0.000 F300.000
G3 X77.303 Y35.068 Z-6.000 I-0.953 J1.902 K0.000 F300.000
G3 X75.800 Y37.327 Z-6.000 I-2.177 J0.182 K0.000 F300.000
G2 X75.816 Y37.913 Z-6.000 I3.628 J0.191 K0.000 F300.000
G2 X76.823 Y38.257 Z-6.000 I1.317 J-2.215 K0.000 F300.000
G3 X80.589 Y38.783 Z-6.000 I-10.934 J91.911 K0.000 F300.000
G0 Z5.000
G0 Z5.000
(Finish operation: Profile015)
(Begin operation: Profile016)
(Path: Profile016)
(Profile016)
(Compensated Tool Path. Diameter: 3.0)
G0 Z5.000
G0 X80.589 Y-21.217
G0 Z3.000
G1 X80.589 Y-21.217 Z-3.000 F300.000
G2 X79.950 Y-21.931 Z-3.000 I-1.709 J0.885 K0.000 F300.000
G3 X78.924 Y-24.701 Z-3.000 I0.913 J-1.913 K0.000 F300.000
G3 X80.494 Y-25.932 Z-3.000 I2.067 J1.018 K0.000 F300.000
G2 X80.788 Y-26.060 Z-3.000 I-0.039 J-0.495 K0.000 F300.000
G2 X80.793 Y-26.162 Z-3.000 I-0.024 J-0.052 K0.000 F300.000
G3 X78.444 Y-28.850 Z-3.000 I1.789 J-3.934 K0.000 F300.000
G3 X78.334 Y-30.783 Z-3.000 I3.086 J-1.145 K0.000 F300.000
G3 X80.820 Y-33.846 Z-3.000 I4.198 J0.867 K0.000 F300.000
G2 X80.781 Y-33.963 Z-3.000 I-0.349 J0.052 K0.000 F300.000
G2 X80.558 Y-34.044 Z-3.000 I-4.638 J12.384 K0.000 F300.000
G3 X78.853 Y-35.497 Z-3.000 I0.448 J-2.253 K0.000 F300.000
G3 X79.969 Y-38.102 Z-3.000 I2.049 J-0.664 K0.000 F300.000
G2 X80.597 Y-38.791 Z-3.000 I-0.739 J-1.305 K0.000 F300.000
G3 X76.613 Y-38.216 Z-3.000 I-110.653 J-753.364 K0.000 F300.000
G2 X75.818 Y-37.940 Z-3.000 I0.381 J2.379 K0.000 F300.000
G2 X75.800 Y-37.327 Z-3.000 I3.799 J0.417 K0.000 F300.000
G3 X77.148 Y-36.078 Z-3.000 I-0.737 J2.148 K0.000 F300.000
G3 X76.192 Y-33.421 Z-3.000 I-1.964 J0.793 K0.000 F300.000
G2 X75.803 Y-33.004 Z-3.000 I0.370 J0.733 K0.000 F300.000
G3 X77.055 Y-31.609 Z-3.000 I-1.868 J2.935 K0.000 F300.000
G3 X77.322 Y-29.460 Z-3.000 I-4.123 J1.604 K0.000 F300.000
G3 X75.804 Y-27.014 Z-3.000 I-3.092 J-0.225 K0.000 F300.000
G2 X76.142 Y-26.599 Z-3.000 I0.851 J-0.346 K0.000 F300.000
G3 X77.303 Y-24.932 Z-3.000 I-0.953 J1.902 K0.000 F300.000
G3 X75.800 Y-22.673 Z-3.000 I-2.177 J0.182 K0.000 F300.000
G2 X75.816 Y-22.087 Z-3.000 I3.628 J0.191 K0.000 F300.000
G2 X76.823 Y-21.743 Z-3.000 I1.317 J-2.215 K0.000 F300.000
G3 X80.589 Y-21.217 Z-3.000 I-10.934 J91.911 K0.000 F300.000
G1 X80.589 Y-21.217 Z-6.000 F300.000
G2 X79.950 Y-21.931 Z-6.000 I-1.709 J0.885 K0.000 F300.000
G3 X78.924 Y-24.701 Z-6.000 I0.913 J-1.913 K0.000 F300.000
G3 X80.494 Y-25.932 Z-6.000 I2.067 J1.018 K0.000 F300.000
G2 X80.788 Y-26.060 Z-6.000 I-0.039 J-0.495 K0.000 F300.000
G2 X80.793 Y-26.162 Z-6.000 I-0.024 J-0.052 K0.000 F300.000
G3 X78.444 Y-28.850 Z-6.000 I1.789 J-3.934 K0.000 F300.000
G3 X78.334 Y-30.783 Z-6.000 I3.086 J-1.145 K0.000 F300.000
G3 X80.820 Y-33.846 Z-6.000 I4.198 J0.867 K0.000 F300.000
G2 X80.781 Y-33.963 Z-6.000 I-0.349 J0.052 K0.000 F300.000
G2 X80.558 Y-34.044 Z-6.000 I-4.638 J12.384 K0.000 F300.000
G3 X78.853 Y-35.497 Z-6.000 I0.448 J-2.253 K0.000 F300.000
G3 X79.969 Y-38.102 Z-6.000 I2.049 J-0.664 K0.000 F300.000
G2 X80.597 Y-38.791 Z-6.000 I-0.739 J-1.305 K0.000 F300.000
G3 X76.613 Y-38.216 Z-6.000 I-110.653 J-753.364 K0.000 F300.000
G2 X75.818 Y-37.940 Z-6.000 I0.381 J2.379 K0.000 F300.000
G2 X75.800 Y-37.327 Z-6.000 I3.799 J0.417 K0.000 F300.000
G3 X77.148 Y-36.078 Z-6.000 I-0.737 J2.148 K0.000 F300.000
G3 X76.192 Y-33.421 Z-6.000 I-1.964 J0.793 K0.000 F300.000
G2 X75.803 Y-33.004 Z-6.000 I0.370 J0.733 K0.000 F300.000
G3 X77.055 Y-31.609 Z-6.000 I-1.868 J2.935 K0.000 F300.000
G3 X77.322 Y-29.460 Z-6.000 I-4.123 J1.604 K0.000 F300.000
G3 X75.804 Y-27.014 Z-6.000 I-3.092 J-0.225 K0.000 F300.000
G2 X76.142 Y-26.599 Z-6.000 I0.851 J-0.346 K0.000 F300.000
G3 X77.303 Y-24.932 Z-6.000 I-0.953 J1.902 K0.000 F300.000
G3 X75.800 Y-22.673 Z-6.000 I-2.177 J0.182 K0.000 F300.000
G2 X75.816 Y-22.087 Z-6.000 I3.628 J0.191 K0.000 F300.000
G2 X76.823 Y-21.743 Z-6.000 I1.317 J-2.215 K0.000 F300.000
G3 X80.589 Y-21.217 Z-6.000 I-10.934 J91.911 K0.000 F300.000
G0 Z5.000
G0 Z5.000
(Finish operation: Profile016)
(Begin operation: Profile017)
(Path: Profile017)
(Profile017)
(Compensated Tool Path. Diameter: 3.0)
G0 Z5.000
G0 X69.195 Y-22.837
G0 Z3.000
G1 X69.195 Y-22.837 Z-3.000 F300.000
G2 X69.283 Y-22.897 Z-3.000 I-1.057 J-1.635 K0.000 F300.000
G2 X69.359 Y-23.209 Z-3.000 I-0.101 J-0.189 K0.000 F300.000
G2 X68.365 Y-23.759 Z-3.000 I-1.079 J0.777 K0.000 F300.000
G2 X66.783 Y-23.352 Z-3.000 I-0.396 J1.736 K0.000 F300.000
G2 X66.734 Y-23.122 Z-3.000 I0.138 J0.150 K0.000 F300.000
G2 X69.195 Y-22.837 Z-3.000 I1.403 J-1.350 K0.000 F300.000
G1 X69.195 Y-22.837 Z-6.000 F300.000
G2 X69.283 Y-22.897 Z-6.000 I-1.057 J-1.635 K0.000 F300.000
G2 X69.359 Y-23.209 Z-6.000 I-0.101 J-0.189 K0.000 F300.000
G2 X68.365 Y-23.759 Z-6.000 I-1.079 J0.777 K0.000 F300.000
G2 X66.783 Y-23.352 Z-6.000 I-0.396 J1.736 K0.000 F300.000
G2 X66.734 Y-23.122 Z-6.000 I0.138 J0.150 K0.000 F300.000
G2 X69.195 Y-22.837 Z-6.000 I1.403 J-1.350 K0.000 F300.000
G0 Z5.000
G0 Z5.000
(Finish operation: Profile017)
(Begin operation: Profile018)
(Path: Profile018)
(Profile018)
(Compensated Tool Path. Diameter: 3.0)
G0 Z5.000
G0 X69.130 Y-36.547
G0 Z3.000
G1 X69.130 Y-36.547 Z-3.000 F300.000
G2 X69.283 Y-36.682 Z-3.000 I-0.975 J-1.263 K0.000 F300.000
G2 X69.370 Y-37.012 Z-3.000 I-0.138 J-0.213 K0.000 F300.000
G2 X68.808 Y-37.360 Z-3.000 I-0.829 J0.712 K0.000 F300.000
G2 X66.861 Y-37.010 Z-3.000 I-0.689 J1.756 K0.000 F300.000
G2 X66.733 Y-36.719 Z-3.000 I0.098 J0.217 K0.000 F300.000
G2 X68.226 Y-36.216 Z-3.000 I1.247 J-1.233 K0.000 F300.000
G2 X69.130 Y-36.547 Z-3.000 I-0.070 J-1.594 K0.000 F300.000
G1 X69.130 Y-36.547 Z-6.000 F300.000
G2 X69.283 Y-36.682 Z-6.000 I-0.975 J-1.263 K0.000 F300.000
G2 X69.370 Y-37.012 Z-6.000 I-0.138 J-0.213 K0.000 F300.000
G2 X68.808 Y-37.360 Z-6.000 I-0.829 J0.712 K0.000 F300.000
G2 X66.861 Y-37.010 Z-6.000 I-0.689 J1.756 K0.000 F300.000
G2 X66.733 Y-36.719 Z-6.000 I0.098 J0.217 K0.000 F300.000
G2 X68.226 Y-36.216 Z-6.000 I1.247 J-1.233 K0.000 F300.000
G2 X69.130 Y-36.547 Z-6.000 I-0.070 J-1.594 K0.000 F300.000
G0 Z5.000
G0 Z5.000
(Finish operation: Profile018)
(Begin operation: Profile019)
(Path: Profile019)
(Profile019)
(Compensated Tool Path. Diameter: 3.0)
G0 Z5.000
G0 X26.589 Y-21.217
G0 Z3.000
G1 X26.589 Y-21.217 Z-3.000 F300.000
G2 X25.950 Y-21.931 Z-3.000 I-1.709 J0.885 K0.000 F300.000
G3 X24.924 Y-24.701 Z-3.000 I0.913 J-1.913 K0.000 F300.000
G3 X26.494 Y-25.932 Z-3.000 I2.067 J1.018 K0.000 F300.000
G2 X26.788 Y-26.060 Z-3.000 I-0.039 J-0.495 K0.000 F300.000
G2 X26.793 Y-26.162 Z-3.000 I-0.024 J-0.052 K0.000 F300.000
G3 X24.444 Y-28.850 Z-3.000 I1.789 J-3.934 K0.000 F300.000
G3 X24.334 Y-30.783 Z-3.000 I3.086 J-1.145 K0.000 F300.000
G3 X26.820 Y-33.846 Z-3.000 I4.198 J0.867 K0.000 F300.000
G2 X26.781 Y-33.963 Z-3.000 I-0.349 J0.052 K0.000 F300.000
G2 X26.558 Y-34.044 Z-3.000 I-4.629 J12.361 K0.000 F300.000
G3 X24.853 Y-35.497 Z-3.000 I0.448 J-2.253 K0.000 F300.000
G3 X25.969 Y-38.102 Z-3.000 I2.049 J-0.664 K0.000 F300.000
G2 X26.597 Y-38.791 Z-3.000 I-0.739 J-1.305 K0.000 F300.000
G3 X22.613 Y-38.216 Z-3.000 I-110.653 J-753.364 K0.000 F300.000
G2 X21.818 Y-37.940 Z-3.000 I0.381 J2.379 K0.000 F300.000
G2 X21.800 Y-37.327 Z-3.000 I3.799 J0.417 K0.000 F300.000
G3 X23.148 Y-36.078 Z-3.000 I-0.737 J2.148 K0.000 F300.000
G3 X22.192 Y-33.421 Z-3.000 I-1.964 J0.793 K0.000 F300.000
G2 X21.803 Y-33.004 Z-3.000 I0.370 J0.733 K0.000 F300.000
G3 X23.055 Y-31.609 Z-3.000 I-1.868 J2.935 K0.000 F300.000
G3 X23.322 Y-29.460 Z-3.000 I-4.123 J1.604 K0.000 F300.000
G3 X21.804 Y-27.014 Z-3.000 I-3.092 J-0.225 K0.000 F300.000
G2 X22.142 Y-26.599 Z-3.000 I0.851 J-0.346 K0.000 F300.000
G3 X23.303 Y-24.932 Z-3.000 I-0.953 J1.902 K0.000 F300.000
G3 X21.800 Y-22.673 Z-3.000 I-2.177 J0.182 K0.000 F300.000
G2 X21.816 Y-22.087 Z-3.000 I3.628 J0.191 K0.000 F300.000
G2 X22.823 Y-21.743 Z-3.000 I1.317 J-2.215 K0.000 F300.000
G3 X26.589 Y-21.217 Z-3.000 I-10.934 J91.911 K0.000 F300.000
G1 X26.589 Y-21.217 Z-6.000 F300.000
G2 X25.950 Y-21.931 Z-6.000 I-1.709 J0.885 K0.000 F300.000
G3 X24.924 Y-24.701 Z-6.000 I0.913 J-1.913 K0.000 F300.000
G3 X26.494 Y-25.932 Z-6.000 I2.067 J1.018 K0.000 F300.000
G2 X26.788 Y-26.060 Z-6.000 I-0.039 J-0.495 K0.000 F300.000
G2 X26.793 Y-26.162 Z-6.000 I-0.024 J-0.052 K0.000 F300.000
G3 X24.444 Y-28.850 Z-6.000 I1.789 J-3.934 K0.000 F300.000
G3 X24.334 Y-30.783 Z-6.000 I3.086 J-1.145 K0.000 F300.000
G3 X26.820 Y-33.846 Z-6.000 I4.198 J0.867 K0.000 F300.000
G2 X26.781 Y-33.963 Z-6.000 I-0.349 J0.052 K0.000 F300.000
G2 X26.558 Y-34.044 Z-6.000 I-4.629 J12.361 K0.000 F300.000
G3 X24.853 Y-35.497 Z-6.000 I0.448 J-2.253 K0.000 F300.000
G3 X25.969 Y-38.102 Z-6.000 I2.049 J-0.664 K0.000 F300.000
G2 X26.597 Y-38.791 Z-6.000 I-0.739 J-1.305 K0.000 F300.000
G3 X22.613 Y-38.216 Z-6.000 I-110.653 J-753.364 K0.000 F300.000
G2 X21.818 Y-37.940 Z-6.000 I0.381 J2.379 K0.000 F300.000
G2 X21.800 Y-37.327 Z-6.000 I3.799 J0.417 K0.000 F300.000
G3 X23.148 Y-36.078 Z-6.000 I-0.737 J2.148 K0.000 F300.000
G3 X22.192 Y-33.421 Z-6.000 I-1.964 J0.793 K0.000 F300.000
G2 X21.803 Y-33.004 Z-6.000 I0.370 J0.733 K0.000 F300.000
G3 X23.055 Y-31.609 Z-6.000 I-1.868 J2.935 K0.000 F300.000
G3 X23.322 Y-29.460 Z-6.000 I-4.123 J1.604 K0.000 F300.000
G3 X21.804 Y-27.014 Z-6.000 I-3.092 J-0.225 K0.000 F300.000
G2 X22.142 Y-26.599 Z-6.000 I0.851 J-0.346 K0.000 F300.000
G3 X23.303 Y-24.932 Z-6.000 I-0.953 J1.902 K0.000 F300.000
G3 X21.800 Y-22.673 Z-6.000 I-2.177 J0.182 K0.000 F300.000
G2 X21.816 Y-22.087 Z-6.000 I3.628 J0.191 K0.000 F300.000
G2 X22.823 Y-21.743 Z-6.000 I1.317 J-2.215 K0.000 F300.000
G3 X26.589 Y-21.217 Z-6.000 I-10.934 J91.911 K0.000 F300.000
G0 Z5.000
G0 Z5.000
(Finish operation: Profile019)
(Begin operation: Profile020)
(Path: Profile020)
(Profile020)
(Compensated Tool Path. Diameter: 3.0)
G0 Z5.000
G0 X15.195 Y-22.837
G0 Z3.000
G1 X15.195 Y-22.837 Z-3.000 F300.000
G2 X15.283 Y-22.897 Z-3.000 I-1.057 J-1.635 K0.000 F300.000
G2 X15.359 Y-23.209 Z-3.000 I-0.101 J-0.189 K0.000 F300.000
G2 X14.365 Y-23.759 Z-3.000 I-1.079 J0.777 K0.000 F300.000
G2 X12.783 Y-23.352 Z-3.000 I-0.396 J1.736 K0.000 F300.000
G2 X12.734 Y-23.122 Z-3.000 I0.138 J0.150 K0.000 F300.000
G2 X15.195 Y-22.837 Z-3.000 I1.403 J-1.350 K0.000 F300.000
G1 X15.195 Y-22.837 Z-6.000 F300.000
G2 X15.283 Y-22.897 Z-6.000 I-1.057 J-1.635 K0.000 F300.000
G2 X15.359 Y-23.209 Z-6.000 I-0.101 J-0.189 K0.000 F300.000
G2 X14.365 Y-23.759 Z-6.000 I-1.079 J0.777 K0.000 F300.000
G2 X12.783 Y-23.352 Z-6.000 I-0.396 J1.736 K0.000 F300.000
G2 X12.734 Y-23.122 Z-6.000 I0.138 J0.150 K0.000 F300.000
G2 X15.195 Y-22.837 Z-6.000 I1.403 J-1.350 K0.000 F300.000
G0 Z5.000
G0 Z5.000
(Finish operation: Profile020)
(Begin operation: Profile021)
(Path: Profile021)
(Profile021)
(Compensated Tool Path. Diameter: 3.0)
G0 Z5.000
G0 X15.130 Y-36.547
G0 Z3.000
G1 X15.130 Y-36.547 Z-3.000 F300.000
G2 X15.283 Y-36.682 Z-3.000 I-0.975 J-1.263 K0.000 F300.000
G2 X15.370 Y-37.012 Z-3.000 I-0.138 J-0.213 K0.000 F300.000
G2 X14.808 Y-37.360 Z-3.000 I-0.829 J0.712 K0.000 F300.000
G2 X12.861 Y-37.010 Z-3.000 I-0.689 J1.756 K0.000 F300.000
G2 X12.733 Y-36.719 Z-3.000 I0.098 J0.217 K0.000 F300.000
G2 X14.226 Y-36.216 Z-3.000 I1.247 J-1.233 K0.000 F300.000
G2 X15.130 Y-36.547 Z-3.000 I-0.070 J-1.594 K0.000 F300.000
G1 X15.130 Y-36.547 Z-6.000 F300.000
G2 X15.283 Y-36.682 Z-6.000 I-0.975 J-1.263 K0.000 F300.000
G2 X15.370 Y-37.012 Z-6.000 I-0.138 J-0.213 K0.000 F300.000
G2 X14.808 Y-37.360 Z-6.000 I-0.829 J0.712 K0.000 F300.000
G2 X12.861 Y-37.010 Z-6.000 I-0.689 J1.756 K0.000 F300.000
G2 X12.733 Y-36.719 Z-6.000 I0.098 J0.217 K0.000 F300.000
G2 X14.226 Y-36.216 Z-6.000 I1.247 J-1.233 K0.000 F300.000
G2 X15.130 Y-36.547 Z-6.000 I-0.070 J-1.594 K0.000 F300.000
G0 Z5.000
G0 Z5.000
(Finish operation: Profile021)
(Begin operation: Profile022)
(Path: Profile022)
(Profile022)
(Compensated Tool Path. Diameter: 3.0)
G0 Z5.000
G0 X-27.411 Y-21.217
G0 Z3.000
G1 X-27.411 Y-21.217 Z-3.000 F300.000
G2 X-28.050 Y-21.931 Z-3.000 I-1.709 J0.885 K0.000 F300.000
G3 X-29.076 Y-24.701 Z-3.000 I0.913 J-1.913 K0.000 F300.000
G3 X-27.506 Y-25.932 Z-3.000 I2.067 J1.018 K0.000 F300.000
G2 X-27.212 Y-26.060 Z-3.000 I-0.039 J-0.495 K0.000 F300.000
G2 X-27.207 Y-26.162 Z-3.000 I-0.024 J-0.052 K0.000 F300.000
G3 X-29.556 Y-28.850 Z-3.000 I1.789 J-3.934 K0.000 F300.000
G3 X-29.666 Y-30.783 Z-3.000 I3.086 J-1.145 K0.000 F300.000
G3 X-27.180 Y-33.846 Z-3.000 I4.198 J0.867 K0.000 F300.000
G2 X-27.219 Y-33.963 Z-3.000 I-0.349 J0.052 K0.000 F300.000
G2 X-27.442 Y-34.044 Z-3.000 I-4.629 J12.361 K0.000 F300.000
G3 X-29.147 Y-35.497 Z-3.000 I0.448 J-2.253 K0.000 F300.000
G3 X-28.031 Y-38.102 Z-3.000 I2.049 J-0.664 K0.000 F300.000
G2 X-27.403 Y-38.791 Z-3.000 I-0.739 J-1.305 K0.000 F300.000
G3 X-31.387 Y-38.216 Z-3.000 I-110.653 J-753.364 K0.000 F300.000
G2 X-32.182 Y-37.940 Z-3.000 I0.381 J2.379 K0.000 F300.000
G2 X-32.200 Y-37.327 Z-3.000 I3.799 J0.417 K0.000 F300.000
G3 X-30.852 Y-36.078 Z-3.000 I-0.737 J2.148 K0.000 F300.000
G3 X-31.808 Y-33.421 Z-3.000 I-1.964 J0.793 K0.000 F300.000
G2 X-32.197 Y-33.004 Z-3.000 I0.370 J0.733 K0.000 F300.000
G3 X-30.945 Y-31.609 Z-3.000 I-1.868 J2.935 K0.000 F300.000
G3 X-30.678 Y-29.460 Z-3.000 I-4.123 J1.604 K0.000 F300.000
G3 X-32.196 Y-27.014 Z-3.000 I-3.092 J-0.225 K0.000 F300.000
G2 X-31.858 Y-26.599 Z-3.000 I0.851 J-0.346 K0.000 F300.000
G3 X-30.697 Y-24.932 Z-3.000 I-0.953 J1.902 K0.000 F300.000
G3 X-32.200 Y-22.673 Z-3.000 I-2.177 J0.182 K0.000 F300.000
G2 X-32.184 Y-22.087 Z-3.000 I3.628 J0.191 K0.000 F300.000
G2 X-31.177 Y-21.743 Z-3.000 I1.317 J-2.215 K0.000 F300.000
G3 X-27.411 Y-21.217 Z-3.000 I-10.934 J91.911 K0.000 F300.000
G1 X-27.411 Y-21.217 Z-6.000 F300.000
G2 X-28.050 Y-21.931 Z-6.000 I-1.709 J0.885 K0.000 F300.000
G3 X-29.076 Y-24.701 Z-6.000 I0.913 J-1.913 K0.000 F300.000
G3 X-27.506 Y-25.932 Z-6.000 I2.067 J1.018 K0.000 F300.000
G2 X-27.212 Y-26.060 Z-6.000 I-0.039 J-0.495 K0.000 F300.000
G2 X-27.207 Y-26.162 Z-6.000 I-0.024 J-0.052 K0.000 F300.000
G3 X-29.556 Y-28.850 Z-6.000 I1.789 J-3.934 K0.000 F300.000
G3 X-29.666 Y-30.783 Z-6.000 I3.086 J-1.145 K0.000 F300.000
G3 X-27.180 Y-33.846 Z-6.000 I4.198 J0.867 K0.000 F300.000
G2 X-27.219 Y-33.963 Z-6.000 I-0.349 J0.052 K0.000 F300.000
G2 X-27.442 Y-34.044 Z-6.000 I-4.629 J12.361 K0.000 F300.000
G3 X-29.147 Y-35.497 Z-6.000 I0.448 J-2.253 K0.000 F300.000
G3 X-28.031 Y-38.102 Z-6.000 I2.049 J-0.664 K0.000 F300.000
G2 X-27.403 Y-38.791 Z-6.000 I-0.739 J-1.305 K0.000 F300.000
G3 X-31.387 Y-38.216 Z-6.000 I-110.653 J-753.364 K0.000 F300.000
G2 X-32.182 Y-37.940 Z-6.000 I0.381 J2.379 K0.000 F300.000
G2 X-32.200 Y-37.327 Z-6.000 I3.799 J0.417 K0.000 F300.000
G3 X-30.852 Y-36.078 Z-6.000 I-0.737 J2.148 K0.000 F300.000
G3 X-31.808 Y-33.421 Z-6.000 I-1.964 J0.793 K0.000 F300.000
G2 X-32.197 Y-33.004 Z-6.000 I0.370 J0.733 K0.000 F300.000
G3 X-30.945 Y-31.609 Z-6.000 I-1.868 J2.935 K0.000 F300.000
G3 X-30.678 Y-29.460 Z-6.000 I-4.123 J1.604 K0.000 F300.000
G3 X-32.196 Y-27.014 Z-6.000 I-3.092 J-0.225 K0.000 F300.000
G2 X-31.858 Y-26.599 Z-6.000 I0.851 J-0.346 K0.000 F300.000
G3 X-30.697 Y-24.932 Z-6.000 I-0.953 J1.902 K0.000 F300.000
G3 X-32.200 Y-22.673 Z-6.000 I-2.177 J0.182 K0.000 F300.000
G2 X-32.184 Y-22.087 Z-6.000 I3.628 J0.191 K0.000 F300.000
G2 X-31.177 Y-21.743 Z-6.000 I1.317 J-2.215 K0.000 F300.000
G3 X-27.411 Y-21.217 Z-6.000 I-10.934 J91.911 K0.000 F300.000
G0 Z5.000
G0 Z5.000
(Finish operation: Profile022)
(Begin operation: Profile023)
(Path: Profile023)
(Profile023)
(Compensated Tool Path. Diameter: 3.0)
G0 Z5.000
G0 X-38.870 Y-36.547
G0 Z3.000
G1 X-38.870 Y-36.547 Z-3.000 F300.000
G2 X-38.717 Y-36.682 Z-3.000 I-0.975 J-1.263 K0.000 F300.000
G2 X-38.630 Y-37.012 Z-3.000 I-0.138 J-0.213 K0.000 F300.000
G2 X-39.192 Y-37.360 Z-3.000 I-0.829 J0.712 K0.000 F300.000
G2 X-41.139 Y-37.010 Z-3.000 I-0.689 J1.756 K0.000 F300.000
G2 X-41.267 Y-36.719 Z-3.000 I0.098 J0.217 K0.000 F300.000
G2 X-39.774 Y-36.216 Z-3.000 I1.247 J-1.233 K0.000 F300.000
G2 X-38.870 Y-36.547 Z-3.000 I-0.070 J-1.594 K0.000 F300.000
G1 X-38.870 Y-36.547 Z-6.000 F300.000
G2 X-38.717 Y-36.682 Z-6.000 I-0.975 J-1.263 K0.000 F300.000
G2 X-38.630 Y-37.012 Z-6.000 I-0.138 J-0.213 K0.000 F300.000
G2 X-39.192 Y-37.360 Z-6.000 I-0.829 J0.712 K0.000 F300.000
G2 X-41.139 Y-37.010 Z-6.000 I-0.689 J1.756 K0.000 F300.000
G2 X-41.267 Y-36.719 Z-6.000 I0.098 J0.217 K0.000 F300.000
G2 X-39.774 Y-36.216 Z-6.000 I1.247 J-1.233 K0.000 F300.000
G2 X-38.870 Y-36.547 Z-6.000 I-0.070 J-1.594 K0.000 F300.000
G0 Z5.000
G0 Z5.000
(Finish operation: Profile023)
(Begin operation: Profile024)
(Path: Profile024)
(Profile024)
(Compensated Tool Path. Diameter: 3.0)
G0 Z5.000
G0 X-38.805 Y-22.837
G0 Z3.000
G1 X-38.805 Y-22.837 Z-3.000 F300.000
G2 X-38.717 Y-22.897 Z-3.000 I-1.057 J-1.635 K0.000 F300.000
G2 X-38.641 Y-23.209 Z-3.000 I-0.101 J-0.189 K0.000 F300.000
G2 X-39.635 Y-23.759 Z-3.000 I-1.079 J0.777 K0.000 F300.000
G2 X-41.217 Y-23.352 Z-3.000 I-0.396 J1.736 K0.000 F300.000
G2 X-41.266 Y-23.122 Z-3.000 I0.138 J0.150 K0.000 F300.000
G2 X-38.805 Y-22.837 Z-3.000 I1.403 J-1.350 K0.000 F300.000
G1 X-38.805 Y-22.837 Z-6.000 F300.000
G2 X-38.717 Y-22.897 Z-6.000 I-1.057 J-1.635 K0.000 F300.000
G2 X-38.641 Y-23.209 Z-6.000 I-0.101 J-0.189 K0.000 F300.000
G2 X-39.635 Y-23.759 Z-6.000 I-1.079 J0.777 K0.000 F300.000
G2 X-41.217 Y-23.352 Z-6.000 I-0.396 J1.736 K0.000 F300.000
G2 X-41.266 Y-23.122 Z-6.000 I0.138 J0.150 K0.000 F300.000
G2 X-38.805 Y-22.837 Z-6.000 I1.403 J-1.350 K0.000 F300.000
G0 Z5.000
G0 Z5.000
(Finish operation: Profile024)
(Begin operation: Profile025)
(Path: Profile025)
(Profile025)
(Compensated Tool Path. Diameter: 3.0)
G0 Z5.000
G0 X-81.411 Y-21.217
G0 Z3.000
G1 X-81.411 Y-21.217 Z-3.000 F300.000
G2 X-82.050 Y-21.931 Z-3.000 I-1.709 J0.885 K0.000 F300.000
G3 X-83.076 Y-24.701 Z-3.000 I0.913 J-1.913 K0.000 F300.000
G3 X-81.506 Y-25.932 Z-3.000 I2.067 J1.018 K0.000 F300.000
G2 X-81.212 Y-26.060 Z-3.000 I-0.039 J-0.495 K0.000 F300.000
G2 X-81.207 Y-26.162 Z-3.000 I-0.024 J-0.052 K0.000 F300.000
G3 X-83.556 Y-28.850 Z-3.000 I1.789 J-3.934 K0.000 F300.000
G3 X-83.666 Y-30.783 Z-3.000 I3.086 J-1.145 K0.000 F300.000
G3 X-81.180 Y-33.846 Z-3.000 I4.198 J0.867 K0.000 F300.000
G2 X-81.219 Y-33.963 Z-3.000 I-0.349 J0.052 K0.000 F300.000
G2 X-81.442 Y-34.044 Z-3.000 I-4.629 J12.361 K0.000 F300.000
G3 X-83.147 Y-35.497 Z-3.000 I0.448 J-2.253 K0.000 F300.000
G3 X-82.031 Y-38.102 Z-3.000 I2.049 J-0.664 K0.000 F300.000
G2 X-81.403 Y-38.791 Z-3.000 I-0.739 J-1.305 K0.000 F300.000
G3 X-85.387 Y-38.216 Z-3.000 I-110.653 J-753.364 K0.000 F300.000
G2 X-86.182 Y-37.940 Z-3.000 I0.381 J2.379 K0.000 F300.000
G2 X-86.200 Y-37.327 Z-3.000 I3.799 J0.417 K0.000 F300.000
G3 X-84.852 Y-36.078 Z-3.000 I-0.737 J2.148 K0.000 F300.000
G3 X-85.808 Y-33.421 Z-3.000 I-1.964 J0.793 K0.000 F300.000
G2 X-86.197 Y-33.004 Z-3.000 I0.370 J0.733 K0.000 F300.000
G3 X-84.945 Y-31.609 Z-3.000 I-1.868 J2.935 K0.000 F300.000
G3 X-84.678 Y-29.460 Z-3.000 I-4.123 J1.604 K0.000 F300.000
G3 X-86.196 Y-27.014 Z-3.000 I-3.092 J-0.225 K0.000 F300.000
G2 X-85.858 Y-26.599 Z-3.000 I0.851 J-0.346 K0.000 F300.000
G3 X-84.697 Y-24.932 Z-3.000 I-0.953 J1.902 K0.000 F300.000
G3 X-86.200 Y-22.673 Z-3.000 I-2.177 J0.182 K0.000 F300.000
G2 X-86.184 Y-22.087 Z-3.000 I3.628 J0.191 K0.000 F300.000
G2 X-85.177 Y-21.743 Z-3.000 I1.317 J-2.215 K0.000 F300.000
G3 X-81.411 Y-21.217 Z-3.000 I-10.934 J91.911 K0.000 F300.000
G1 X-81.411 Y-21.217 Z-6.000 F300.000
G2 X-82.050 Y-21.931 Z-6.000 I-1.709 J0.885 K0.000 F300.000
G3 X-83.076 Y-24.701 Z-6.000 I0.913 J-1.913 K0.000 F300.000
G3 X-81.506 Y-25.932 Z-6.000 I2.067 J1.018 K0.000 F300.000
G2 X-81.212 Y-26.060 Z-6.000 I-0.039 J-0.495 K0.000 F300.000
G2 X-81.207 Y-26.162 Z-6.000 I-0.024 J-0.052 K0.000 F300.000
G3 X-83.556 Y-28.850 Z-6.000 I1.789 J-3.934 K0.000 F300.000
G3 X-83.666 Y-30.783 Z-6.000 I3.086 J-1.145 K0.000 F300.000
G3 X-81.180 Y-33.846 Z-6.000 I4.198 J0.867 K0.000 F300.000
G2 X-81.219 Y-33.963 Z-6.000 I-0.349 J0.052 K0.000 F300.000
G2 X-81.442 Y-34.044 Z-6.000 I-4.629 J12.361 K0.000 F300.000
G3 X-83.147 Y-35.497 Z-6.000 I0.448 J-2.253 K0.000 F300.000
G3 X-82.031 Y-38.102 Z-6.000 I2.049 J-0.664 K0.000 F300.000
G2 X-81.403 Y-38.791 Z-6.000 I-0.739 J-1.305 K0.000 F300.000
G3 X-85.387 Y-38.216 Z-6.000 I-110.653 J-753.364 K0.000 F300.000
G2 X-86.182 Y-37.940 Z-6.000 I0.381 J2.379 K0.000 F300.000
G2 X-86.200 Y-37.327 Z-6.000 I3.799 J0.417 K0.000 F300.000
G3 X-84.852 Y-36.078 Z-6.000 I-0.737 J2.148 K0.000 F300.000
G3 X-85.808 Y-33.421 Z-6.000 I-1.964 J0.793 K0.000 F300.000
G2 X-86.197 Y-33.004 Z-6.000 I0.370 J0.733 K0.000 F300.000
G3 X-84.945 Y-31.609 Z-6.000 I-1.868 J2.935 K0.000 F300.000
G3 X-84.678 Y-29.460 Z-6.000 I-4.123 J1.604 K0.000 F300.000
G3 X-86.196 Y-27.014 Z-6.000 I-3.092 J-0.225 K0.000 F300.000
G2 X-85.858 Y-26.599 Z-6.000 I0.851 J-0.346 K0.000 F300.000
G3 X-84.697 Y-24.932 Z-6.000 I-0.953 J1.902 K0.000 F300.000
G3 X-86.200 Y-22.673 Z-6.000 I-2.177 J0.182 K0.000 F300.000
G2 X-86.184 Y-22.087 Z-6.000 I3.628 J0.191 K0.000 F300.000
G2 X-85.177 Y-21.743 Z-6.000 I1.317 J-2.215 K0.000 F300.000
G3 X-81.411 Y-21.217 Z-6.000 I-10.934 J91.911 K0.000 F300.000
G0 Z5.000
G0 Z5.000
(Finish operation: Profile025)
(Begin operation: Profile026)
(Path: Profile026)
(Profile026)
(Compensated Tool Path. Diameter: 3.0)
G0 Z5.000
G0 X-92.805 Y-22.837
G0 Z3.000
G1 X-92.805 Y-22.837 Z-3.000 F300.000
G2 X-92.717 Y-22.897 Z-3.000 I-1.057 J-1.635 K0.000 F300.000
G2 X-92.641 Y-23.209 Z-3.000 I-0.101 J-0.189 K0.000 F300.000
G2 X-93.635 Y-23.759 Z-3.000 I-1.079 J0.777 K0.000 F300.000
G2 X-95.217 Y-23.352 Z-3.000 I-0.396 J1.736 K0.000 F300.000
G2 X-95.266 Y-23.122 Z-3.000 I0.138 J0.150 K0.000 F300.000
G2 X-92.805 Y-22.837 Z-3.000 I1.403 J-1.350 K0.000 F300.000
G1 X-92.805 Y-22.837 Z-6.000 F300.000
G2 X-92.717 Y-22.897 Z-6.000 I-1.057 J-1.635 K0.000 F300.000
G2 X-92.641 Y-23.209 Z-6.000 I-0.101 J-0.189 K0.000 F300.000
G2 X-93.635 Y-23.759 Z-6.000 I-1.079 J0.777 K0.000 F300.000
G2 X-95.217 Y-23.352 Z-6.000 I-0.396 J1.736 K0.000 F300.000
G2 X-95.266 Y-23.122 Z-6.000 I0.138 J0.150 K0.000 F300.000
G2 X-92.805 Y-22.837 Z-6.000 I1.403 J-1.350 K0.000 F300.000
G0 Z5.000
G0 Z5.000
(Finish operation: Profile026)
(Begin operation: Profile027)
(Path: Profile027)
(Profile027)
(Compensated Tool Path. Diameter: 3.0)
G0 Z5.000
G0 X-92.870 Y-36.547
G0 Z3.000
G1 X-92.870 Y-36.547 Z-3.000 F300.000
G2 X-92.717 Y-36.682 Z-3.000 I-0.975 J-1.263 K0.000 F300.000
G2 X-92.630 Y-37.012 Z-3.000 I-0.138 J-0.213 K0.000 F300.000
G2 X-93.192 Y-37.360 Z-3.000 I-0.829 J0.712 K0.000 F300.000
G2 X-95.139 Y-37.010 Z-3.000 I-0.689 J1.756 K0.000 F300.000
G2 X-95.267 Y-36.719 Z-3.000 I0.098 J0.217 K0.000 F300.000
G2 X-93.774 Y-36.216 Z-3.000 I1.247 J-1.233 K0.000 F300.000
G2 X-92.870 Y-36.547 Z-3.000 I-0.070 J-1.594 K0.000 F300.000
G1 X-92.870 Y-36.547 Z-6.000 F300.000
G2 X-92.717 Y-36.682 Z-6.000 I-0.975 J-1.263 K0.000 F300.000
G2 X-92.630 Y-37.012 Z-6.000 I-0.138 J-0.213 K0.000 F300.000
G2 X-93.192 Y-37.360 Z-6.000 I-0.829 J0.712 K0.000 F300.000
G2 X-95.139 Y-37.010 Z-6.000 I-0.689 J1.756 K0.000 F300.000
G2 X-95.267 Y-36.719 Z-6.000 I0.098 J0.217 K0.000 F300.000
G2 X-93.774 Y-36.216 Z-6.000 I1.247 J-1.233 K0.000 F300.000
G2 X-92.870 Y-36.547 Z-6.000 I-0.070 J-1.594 K0.000 F300.000
G0 Z5.000
G0 Z5.000
(Finish operation: Profile027)
(Begin operation: Profile028)
(Path: Profile028)
(Profile028)
(Compensated Tool Path. Diameter: 3.0)
G0 Z5.000
G0 X-59.431 Y-7.315
G0 Z3.000
G1 X-59.431 Y-7.315 Z-3.000 F300.000
G2 X-58.687 Y-9.217 Z-3.000 I-2.871 J-2.220 K0.000 F300.000
G2 X-58.952 Y-12.629 Z-3.000 I-12.508 J-0.744 K0.000 F300.000
G1 X-58.787 Y-12.783 Z-3.000 F300.000
G2 X-56.855 Y-14.590 Z-3.000 I-5.854 J-8.195 K0.000 F300.000
G2 X-55.676 Y-17.276 Z-3.000 I-3.342 J-3.068 K0.000 F300.000
G2 X-55.926 Y-19.791 Z-3.000 I-12.895 J0.009 K0.000 F300.000
G2 X-57.843 Y-22.404 Z-3.000 I-4.708 J1.444 K0.000 F300.000
G1 X-57.843 Y-22.404 Z-3.000 F300.000
G3 X-58.707 Y-23.173 Z-3.000 I4.016 J-5.385 K0.000 F300.000
G3 X-59.125 Y-23.847 Z-3.000 I0.934 J-1.045 K0.000 F300.000
G3 X-58.849 Y-25.172 Z-3.000 I1.522 J-0.374 K0.000 F300.000
G2 X-56.933 Y-28.079 Z-3.000 I-3.578 J-4.444 K0.000 F300.000
G2 X-56.753 Y-30.847 Z-3.000 I-7.722 J-1.890 K0.000 F300.000
G2 X-58.616 Y-34.606 Z-3.000 I-5.463 J0.367 K0.000 F300.000
G3 X-58.862 Y-36.664 Z-3.000 I0.940 J-1.156 K0.000 F300.000
G3 X-57.251 Y-38.097 Z-3.000 I17.513 J18.058 K0.000 F300.000
G2 X-55.927 Y-40.240 Z-3.000 I-3.368 J-3.562 K0.000 F300.000
G2 X-55.695 Y-41.796 Z-3.000 I-22.453 J-4.144 K0.000 F300.000
G2 X-56.149 Y-44.372 Z-3.000 I-4.273 J-0.575 K0.000 F300.000
G2 X-58.510 Y-47.020 Z-3.000 I-8.097 J4.842 K0.000 F300.000
G3 X-58.945 Y-47.357 Z-3.000 I1.509 J-2.396 K0.000 F300.000
G1 X-58.923 Y-47.502 Z-3.000 F300.000
G1 X-58.923 Y-47.502 Z-3.000 F300.000
G2 X-58.691 Y-50.673 Z-3.000 I-11.489 J-2.434 K0.000 F300.000
G2 X-60.344 Y-53.531 Z-3.000 I-3.619 J0.187 K0.000 F300.000
G2 X-62.972 Y-53.623 Z-3.000 I-1.407 J2.601 K0.000 F300.000
G2 X-66.109 Y-52.047 Z-3.000 I151.979 J306.520 K0.000 F300.000
G3 X-67.945 Y-51.318 Z-3.000 I-4.089 J-7.622 K0.000 F300.000
G1 X-73.418 Y-50.133 Z-3.000 F300.000
G3 X-74.208 Y-50.001 Z-3.000 I-1.351 J-5.672 K0.000 F300.000
G3 X-75.267 Y-50.098 Z-3.000 I-0.384 J-1.632 K0.000 F300.000
G3 X-75.878 Y-50.795 Z-3.000 I3.760 J-3.914 K0.000 F300.000
G2 X-78.941 Y-54.050 Z-3.000 I-10.733 J7.032 K0.000 F300.000
G2 X-82.390 Y-55.517 Z-3.000 I-4.678 J6.207 K0.000 F300.000
G2 X-84.237 Y-55.593 Z-3.000 I-1.270 J8.417 K0.000 F300.000
G2 X-88.431 Y-52.919 Z-3.000 I0.294 J5.087 K0.000 F300.000
G2 X-89.203 Y-48.775 Z-3.000 I6.816 J3.413 K0.000 F300.000
G1 X-92.331 Y-48.660 Z-3.000 F300.000
G2 X-93.263 Y-48.526 Z-3.000 I0.679 J8.048 K0.000 F300.000
G2 X-99.105 Y-46.618 Z-3.000 I2.390 J17.212 K0.000 F300.000
G1 X-101.241 Y-45.217 Z-3.000 F300.000
G1 X-101.404 Y-45.092 Z-3.000 F300.000
G1 X-103.327 Y-43.414 Z-3.000 F300.000
G1 X-103.584 Y-43.123 Z-3.000 F300.000
G2 X-107.010 Y-37.017 Z-3.000 I28.313 J19.903 K0.000 F300.000
G1 X-107.846 Y-34.549 Z-3.000 F300.000
G1 X-107.904 Y-34.314 Z-3.000 F300.000
G1 X-108.244 Y-32.233 Z-3.000 F300.000
G1 X-108.264 Y-31.991 Z-3.000 F300.000
G1 X-108.264 Y-28.009 Z-3.000 F300.000
G1 X-108.244 Y-27.767 Z-3.000 F300.000
G1 X-107.904 Y-25.686 Z-3.000 F300.000
G1 X-107.846 Y-25.451 Z-3.000 F300.000
G1 X-107.069 Y-23.131 Z-3.000 F300.000
G2 X-103.584 Y-16.877 Z-3.000 I30.304 J-12.790 K0.000 F300.000
G1 X-103.327 Y-16.586 Z-3.000 F300.000
G1 X-101.404 Y-14.908 Z-3.000 F300.000
G1 X-101.241 Y-14.783 Z-3.000 F300.000
G1 X-99.105 Y-13.382 Z-3.000 F300.000
G2 X-98.071 Y-12.865 Z-3.000 I4.580 J-7.860 K0.000 F300.000
G2 X-92.331 Y-11.340 Z-3.000 I7.789 J-17.755 K0.000 F300.000
G1 X-89.203 Y-11.225 Z-3.000 F300.000
G2 X-88.952 Y-8.447 Z-3.000 I7.874 J0.690 K0.000 F300.000
G2 X-85.588 Y-4.685 Z-3.000 I5.064 J-1.144 K0.000 F300.000
G2 X-82.949 Y-4.422 Z-3.000 I2.021 J-6.884 K0.000 F300.000
G2 X-78.788 Y-6.047 Z-3.000 I-0.668 J-7.846 K0.000 F300.000
G2 X-76.314 Y-8.588 Z-3.000 I-8.020 J-10.285 K0.000 F300.000
G3 X-75.277 Y-9.888 Z-3.000 I6.865 J4.408 K0.000 F300.000
G3 X-74.931 Y-10.002 Z-3.000 I1.109 J2.800 K0.000 F300.000
G3 X-73.830 Y-9.950 Z-3.000 I0.384 J3.581 K0.000 F300.000
G3 X-67.914 Y-8.675 Z-3.000 I-37.806 J189.776 K0.000 F300.000
G3 X-67.121 Y-8.418 Z-3.000 I-1.873 J7.134 K0.000 F300.000
G3 X-63.088 Y-6.429 Z-3.000 I-41.785 J89.820 K0.000 F300.000
G2 X-60.639 Y-6.309 Z-3.000 I1.368 J-2.874 K0.000 F300.000
G2 X-59.431 Y-7.315 Z-3.000 I-1.663 J-3.226 K0.000 F300.000
G1 X-59.431 Y-7.315 Z-6.000 F300.000
G2 X-58.687 Y-9.217 Z-6.000 I-2.871 J-2.220 K0.000 F300.000
G2 X-58.952 Y-12.629 Z-6.000 I-12.508 J-0.744 K0.000 F300.000
G1 X-58.787 Y-12.783 Z-6.000 F300.000
G2 X-56.855 Y-14.590 Z-6.000 I-5.854 J-8.195 K0.000 F300.000
G2 X-55.676 Y-17.276 Z-6.000 I-3.342 J-3.068 K0.000 F300.000
G2 X-55.926 Y-19.791 Z-6.000 I-12.895 J0.009 K0.000 F300.000
G2 X-57.843 Y-22.404 Z-6.000 I-4.708 J1.444 K0.000 F300.000
G1 X-57.843 Y-22.404 Z-6.000 F300.000
G3 X-58.707 Y-23.173 Z-6.000 I4.016 J-5.385 K0.000 F300.000
G3 X-59.125 Y-23.847 Z-6.000 I0.934 J-1.045 K0.000 F300.000
G3 X-58.849 Y-25.172 Z-6.000 I1.522 J-0.374 K0.000 F300.000
G2 X-56.933 Y-28.079 Z-6.000 I-3.578 J-4.444 K0.000 F300.000
G2 X-56.753 Y-30.847 Z-6.000 I-7.722 J-1.890 K0.000 F300.000
G2 X-58.616 Y-34.606 Z-6.000 I-5.463 J0.367 K0.000 F300.000
G3 X-58.862 Y-36.664 Z-6.000 I0.940 J-1.156 K0.000 F300.000
G3 X-57.251 Y-38.097 Z-6.000 I17.513 J18.058 K0.000 F300.000
G2 X-55.927 Y-40.240 Z-6.000 I-3.368 J-3.562 K0.000 F300.000
G2 X-55.695 Y-41.796 Z-6.000 I-22.453 J-4.144 K0.000 F300.000
G2 X-56.149 Y-44.372 Z-6.000 I-4.273 J-0.575 K0.000 F300.000
G2 X-58.510 Y-47.020 Z-6.000 I-8.097 J4.842 K0.000 F300.000
G3 X-58.945 Y-47.357 Z-6.000 I1.509 J-2.396 K0.000 F300.000
G1 X-58.923 Y-47.502 Z-6.000 F300.000
G1 X-58.923 Y-47.502 Z-6.000 F300.000
G2 X-58.691 Y-50.673 Z-6.000 I-11.489 J-2.434 K0.000 F300.000
G2 X-60.344 Y-53.531 Z-6.000 I-3.619 J0.187 K0.000 F300.000
G2 X-62.972 Y-53.623 Z-6.000 I-1.407 J2.601 K0.000 F300.000
G2 X-66.109 Y-52.047 Z-6.000 I151.979 J306.520 K0.000 F300.000
G3 X-67.945 Y-51.318 Z-6.000 I-4.089 J-7.622 K0.000 F300.000
G1 X-73.418 Y-50.133 Z-6.000 F300.000
G3 X-74.208 Y-50.001 Z-6.000 I-1.351 J-5.672 K0.000 F300.000
G3 X-75.267 Y-50.098 Z-6.000 I-0.384 J-1.632 K0.000 F300.000
G3 X-75.878 Y-50.795 Z-6.000 I3.760 J-3.914 K0.000 F300.000
G2 X-78.941 Y-54.050 Z-6.000 I-10.733 J7.032 K0.000 F300.000
G2 X-82.390 Y-55.517 Z-6.000 I-4.678 J6.207 K0.000 F300.000
G2 X-84.237 Y-55.593 Z-6.000 I-1.270 J8.417 K0.000 F300.000
G2 X-88.431 Y-52.919 Z-6.000 I0.294 J5.087 K0.000 F300.000
G2 X-89.203 Y-48.775 Z-6.000 I6.816 J3.413 K0.000 F300.000
G1 X-92.331 Y-48.660 Z-6.000 F300.000
G2 X-93.263 Y-48.526 Z-6.000 I0.679 J8.048 K0.000 F300.000
G2 X-99.105 Y-46.618 Z-6.000 I2.390 J17.212 K0.000 F300.000
G1 X-101.241 Y-45.217 Z-6.000 F300.000
G1 X-101.404 Y-45.092 Z-6.000 F300.000
G1 X-103.327 Y-43.414 Z-6.000 F300.000
G1 X-103.584 Y-43.123 Z-6.000 F300.000
G2 X-107.010 Y-37.017 Z-6.000 I28.313 J19.903 K0.000 F300.000
G1 X-107.846 Y-34.549 Z-6.000 F300.000
G1 X-107.904 Y-34.314 Z-6.000 F300.000
G1 X-108.244 Y-32.233 Z-6.000 F300.000
G1 X-108.264 Y-31.991 Z-6.000 F300.000
G1 X-108.264 Y-28.009 Z-6.000 F300.000
G1 X-108.244 Y-27.767 Z-6.000 F300.000
G1 X-107.904 Y-25.686 Z-6.000 F300.000
G1 X-107.846 Y-25.451 Z-6.000 F300.000
G1 X-107.069 Y-23.131 Z-6.000 F300.000
G2 X-103.584 Y-16.877 Z-6.000 I30.304 J-12.790 K0.000 F300.000
G1 X-103.327 Y-16.586 Z-6.000 F300.000
G1 X-101.404 Y-14.908 Z-6.000 F300.000
G1 X-101.241 Y-14.783 Z-6.000 F300.000
G1 X-99.105 Y-13.382 Z-6.000 F300.000
G2 X-98.071 Y-12.865 Z-6.000 I4.580 J-7.860 K0.000 F300.000
G2 X-92.331 Y-11.340 Z-6.000 I7.789 J-17.755 K0.000 F300.000
G1 X-89.203 Y-11.225 Z-6.000 F300.000
G2 X-88.952 Y-8.447 Z-6.000 I7.874 J0.690 K0.000 F300.000
G2 X-85.588 Y-4.685 Z-6.000 I5.064 J-1.144 K0.000 F300.000
G2 X-82.949 Y-4.422 Z-6.000 I2.021 J-6.884 K0.000 F300.000
G2 X-78.788 Y-6.047 Z-6.000 I-0.668 J-7.846 K0.000 F300.000
G2 X-76.314 Y-8.588 Z-6.000 I-8.020 J-10.285 K0.000 F300.000
G3 X-75.277 Y-9.888 Z-6.000 I6.865 J4.408 K0.000 F300.000
G3 X-74.931 Y-10.002 Z-6.000 I1.109 J2.800 K0.000 F300.000
G3 X-73.830 Y-9.950 Z-6.000 I0.384 J3.581 K0.000 F300.000
G3 X-67.914 Y-8.675 Z-6.000 I-37.806 J189.776 K0.000 F300.000
G3 X-67.121 Y-8.418 Z-6.000 I-1.873 J7.134 K0.000 F300.000
G3 X-63.088 Y-6.429 Z-6.000 I-41.785 J89.820 K0.000 F300.000
G2 X-60.639 Y-6.309 Z-6.000 I1.368 J-2.874 K0.000 F300.000
G2 X-59.431 Y-7.315 Z-6.000 I-1.663 J-3.226 K0.000 F300.000
G0 Z5.000
G0 Z5.000
(Finish operation: Profile028)
(Begin operation: Profile029)
(Path: Profile029)
(Profile029)
(Compensated Tool Path. Diameter: 3.0)
G0 Z5.000
G0 X-59.431 Y52.685
G0 Z3.000
G1 X-59.431 Y52.685 Z-3.000 F300.000
G2 X-58.687 Y50.783 Z-3.000 I-2.871 J-2.220 K0.000 F300.000
G2 X-58.952 Y47.371 Z-3.000 I-12.508 J-0.744 K0.000 F300.000
G1 X-58.787 Y47.217 Z-3.000 F300.000
G2 X-56.855 Y45.410 Z-3.000 I-5.854 J-8.195 K0.000 F300.000
G2 X-55.676 Y42.724 Z-3.000 I-3.342 J-3.068 K0.000 F300.000
G2 X-55.926 Y40.209 Z-3.000 I-12.895 J0.009 K0.000 F300.000
G2 X-57.843 Y37.596 Z-3.000 I-4.708 J1.444 K0.000 F300.000
G1 X-57.843 Y37.596 Z-3.000 F300.000
G3 X-58.707 Y36.827 Z-3.000 I4.016 J-5.385 K0.000 F300.000
G3 X-59.125 Y36.153 Z-3.000 I0.934 J-1.045 K0.000 F300.000
G3 X-58.849 Y34.828 Z-3.000 I1.522 J-0.374 K0.000 F300.000
G2 X-56.933 Y31.921 Z-3.000 I-3.578 J-4.444 K0.000 F300.000
G2 X-56.753 Y29.153 Z-3.000 I-7.722 J-1.890 K0.000 F300.000
G2 X-58.616 Y25.394 Z-3.000 I-5.463 J0.367 K0.000 F300.000
G3 X-58.862 Y23.336 Z-3.000 I0.940 J-1.156 K0.000 F300.000
G3 X-57.251 Y21.903 Z-3.000 I17.513 J18.058 K0.000 F300.000
G2 X-55.927 Y19.760 Z-3.000 I-3.368 J-3.562 K0.000 F300.000
G2 X-55.695 Y18.204 Z-3.000 I-22.453 J-4.144 K0.000 F300.000
G2 X-56.149 Y15.628 Z-3.000 I-4.273 J-0.575 K0.000 F300.000
G2 X-58.510 Y12.980 Z-3.000 I-8.097 J4.842 K0.000 F300.000
G3 X-58.945 Y12.643 Z-3.000 I1.509 J-2.396 K0.000 F300.000
G1 X-58.923 Y12.498 Z-3.000 F300.000
G1 X-58.923 Y12.498 Z-3.000 F300.000
G2 X-58.691 Y9.327 Z-3.000 I-11.489 J-2.434 K0.000 F300.000
G2 X-60.344 Y6.469 Z-3.000 I-3.619 J0.187 K0.000 F300.000
G2 X-62.972 Y6.377 Z-3.000 I-1.407 J2.601 K0.000 F300.000
G2 X-66.109 Y7.953 Z-3.000 I151.976 J306.515 K0.000 F300.000
G3 X-67.945 Y8.682 Z-3.000 I-4.089 J-7.622 K0.000 F300.000
G1 X-73.418 Y9.867 Z-3.000 F300.000
G3 X-74.208 Y9.999 Z-3.000 I-1.351 J-5.672 K0.000 F300.000
G3 X-75.267 Y9.902 Z-3.000 I-0.384 J-1.632 K0.000 F300.000
G3 X-75.878 Y9.205 Z-3.000 I3.760 J-3.914 K0.000 F300.000
G2 X-78.941 Y5.950 Z-3.000 I-10.733 J7.032 K0.000 F300.000
G2 X-82.390 Y4.483 Z-3.000 I-4.678 J6.207 K0.000 F300.000
G2 X-84.237 Y4.407 Z-3.000 I-1.270 J8.417 K0.000 F300.000
G2 X-88.431 Y7.081 Z-3.000 I0.294 J5.087 K0.000 F300.000
G2 X-89.203 Y11.225 Z-3.000 I6.816 J3.413 K0.000 F300.000
G1 X-92.331 Y11.340 Z-3.000 F300.000
G2 X-93.263 Y11.474 Z-3.000 I0.679 J8.048 K0.000 F300.000
G2 X-99.105 Y13.382 Z-3.000 I2.390 J17.212 K0.000 F300.000
G1 X-101.241 Y14.783 Z-3.000 F300.000
G1 X-101.404 Y14.908 Z-3.000 F300.000
G1 X-103.327 Y16.586 Z-3.000 F300.000
G1 X-103.584 Y16.877 Z-3.000 F300.000
G2 X-107.010 Y22.983 Z-3.000 I28.313 J19.903 K0.000 F300.000
G1 X-107.846 Y25.451 Z-3.000 F300.000
G1 X-107.904 Y25.686 Z-3.000 F300.000
G1 X-108.244 Y27.767 Z-3.000 F300.000
G1 X-108.264 Y28.009 Z-3.000 F300.000
G1 X-108.264 Y31.991 Z-3.000 F300.000
G1 X-108.244 Y32.233 Z-3.000 F300.000
G1 X-107.904 Y34.314 Z-3.000 F300.000
G1 X-107.846 Y34.549 Z-3.000 F300.000
G1 X-107.069 Y36.869 Z-3.000 F300.000
G2 X-103.584 Y43.123 Z-3.000 I30.304 J-12.790 K0.000 F300.000
G1 X-103.327 Y43.414 Z-3.000 F300.000
G1 X-101.404 Y45.092 Z-3.000 F300.000
G1 X-101.241 Y45.217 Z-3.000 F300.000
G1 X-99.105 Y46.618 Z-3.000 F300.000
G2 X-98.071 Y47.135 Z-3.000 I4.580 J-7.860 K0.000 F300.000
G2 X-92.331 Y48.660 Z-3.000 I7.789 J-17.755 K0.000 F300.000
G1 X-89.203 Y48.775 Z-3.000 F300.000
G2 X-88.952 Y51.553 Z-3.000 I7.874 J0.690 K0.000 F300.000
G2 X-85.588 Y55.315 Z-3.000 I5.064 J-1.144 K0.000 F300.000
G2 X-82.949 Y55.578 Z-3.000 I2.021 J-6.884 K0.000 F300.000
G2 X-78.788 Y53.953 Z-3.000 I-0.668 J-7.846 K0.000 F300.000
G2 X-76.314 Y51.412 Z-3.000 I-8.020 J-10.285 K0.000 F300.000
G3 X-75.277 Y50.112 Z-3.000 I6.865 J4.408 K0.000 F300.000
G3 X-74.931 Y49.998 Z-3.000 I1.109 J2.800 K0.000 F300.000
G3 X-73.830 Y50.050 Z-3.000 I0.384 J3.581 K0.000 F300.000
G3 X-67.914 Y51.325 Z-3.000 I-37.806 J189.776 K0.000 F300.000
G3 X-67.121 Y51.582 Z-3.000 I-1.873 J7.134 K0.000 F300.000
G3 X-63.088 Y53.571 Z-3.000 I-41.785 J89.820 K0.000 F300.000
G2 X-60.639 Y53.691 Z-3.000 I1.368 J-2.874 K0.000 F300.000
G2 X-59.431 Y52.685 Z-3.000 I-1.663 J-3.226 K0.000 F300.000
G1 X-59.431 Y52.685 Z-6.000 F300.000
G2 X-58.687 Y50.783 Z-6.000 I-2.871 J-2.220 K0.000 F300.000
G2 X-58.952 Y47.371 Z-6.000 I-12.508 J-0.744 K0.000 F300.000
G1 X-58.787 Y47.217 Z-6.000 F300.000
G2 X-56.855 Y45.410 Z-6.000 I-5.854 J-8.195 K0.000 F300.000
G2 X-55.676 Y42.724 Z-6.000 I-3.342 J-3.068 K0.000 F300.000
G2 X-55.926 Y40.209 Z-6.000 I-12.895 J0.009 K0.000 F300.000
G2 X-57.843 Y37.596 Z-6.000 I-4.708 J1.444 K0.000 F300.000
G1 X-57.843 Y37.596 Z-6.000 F300.000
G3 X-58.707 Y36.827 Z-6.000 I4.016 J-5.385 K0.000 F300.000
G3 X-59.125 Y36.153 Z-6.000 I0.934 J-1.045 K0.000 F300.000
G3 X-58.849 Y34.828 Z-6.000 I1.522 J-0.374 K0.000 F300.000
G2 X-56.933 Y31.921 Z-6.000 I-3.578 J-4.444 K0.000 F300.000
G2 X-56.753 Y29.153 Z-6.000 I-7.722 J-1.890 K0.000 F300.000
G2 X-58.616 Y25.394 Z-6.000 I-5.463 J0.367 K0.000 F300.000
G3 X-58.862 Y23.336 Z-6.000 I0.940 J-1.156 K0.000 F300.000
G3 X-57.251 Y21.903 Z-6.000 I17.513 J18.058 K0.000 F300.000
G2 X-55.927 Y19.760 Z-6.000 I-3.368 J-3.562 K0.000 F300.000
G2 X-55.695 Y18.204 Z-6.000 I-22.453 J-4.144 K0.000 F300.000
G2 X-56.149 Y15.628 Z-6.000 I-4.273 J-0.575 K0.000 F300.000
G2 X-58.510 Y12.980 Z-6.000 I-8.097 J4.842 K0.000 F300.000
G3 X-58.945 Y12.643 Z-6.000 I1.509 J-2.396 K0.000 F300.000
G1 X-58.923 Y12.498 Z-6.000 F300.000
G1 X-58.923 Y12.498 Z-6.000 F300.000
G2 X-58.691 Y9.327 Z-6.000 I-11.489 J-2.434 K0.000 F300.000
G2 X-60.344 Y6.469 Z-6.000 I-3.619 J0.187 K0.000 F300.000
G2 X-62.972 Y6.377 Z-6.000 I-1.407 J2.601 K0.000 F300.000
G2 X-66.109 Y7.953 Z-6.000 I151.976 J306.515 K0.000 F300.000
G3 X-67.945 Y8.682 Z-6.000 I-4.089 J-7.622 K0.000 F300.000
G1 X-73.418 Y9.867 Z-6.000 F300.000
G3 X-74.208 Y9.999 Z-6.000 I-1.351 J-5.672 K0.000 F300.000
G3 X-75.267 Y9.902 Z-6.000 I-0.384 J-1.632 K0.000 F300.000
G3 X-75.878 Y9.205 Z-6.000 I3.760 J-3.914 K0.000 F300.000
G2 X-78.941 Y5.950 Z-6.000 I-10.733 J7.032 K0.000 F300.000
G2 X-82.390 Y4.483 Z-6.000 I-4.678 J6.207 K0.000 F300.000
G2 X-84.237 Y4.407 Z-6.000 I-1.270 J8.417 K0.000 F300.000
G2 X-88.431 Y7.081 Z-6.000 I0.294 J5.087 K0.000 F300.000
G2 X-89.203 Y11.225 Z-6.000 I6.816 J3.413 K0.000 F300.000
G1 X-92.331 Y11.340 Z-6.000 F300.000
G2 X-93.263 Y11.474 Z-6.000 I0.679 J8.048 K0.000 F300.000
G2 X-99.105 Y13.382 Z-6.000 I2.390 J17.212 K0.000 F300.000
G1 X-101.241 Y14.783 Z-6.000 F300.000
G1 X-101.404 Y14.908 Z-6.000 F300.000
G1 X-103.327 Y16.586 Z-6.000 F300.000
G1 X-103.584 Y16.877 Z-6.000 F300.000
G2 X-107.010 Y22.983 Z-6.000 I28.313 J19.903 K0.000 F300.000
G1 X-107.846 Y25.451 Z-6.000 F300.000
G1 X-107.904 Y25.686 Z-6.000 F300.000
G1 X-108.244 Y27.767 Z-6.000 F300.000
G1 X-108.264 Y28.009 Z-6.000 F300.000
G1 X-108.264 Y31.991 Z-6.000 F300.000
G1 X-108.244 Y32.233 Z-6.000 F300.000
G1 X-107.904 Y34.314 Z-6.000 F300.000
G1 X-107.846 Y34.549 Z-6.000 F300.000
G1 X-107.069 Y36.869 Z-6.000 F300.000
G2 X-103.584 Y43.123 Z-6.000 I30.304 J-12.790 K0.000 F300.000
G1 X-103.327 Y43.414 Z-6.000 F300.000
G1 X-101.404 Y45.092 Z-6.000 F300.000
G1 X-101.241 Y45.217 Z-6.000 F300.000
G1 X-99.105 Y46.618 Z-6.000 F300.000
G2 X-98.071 Y47.135 Z-6.000 I4.580 J-7.860 K0.000 F300.000
G2 X-92.331 Y48.660 Z-6.000 I7.789 J-17.755 K0.000 F300.000
G1 X-89.203 Y48.775 Z-6.000 F300.000
G2 X-88.952 Y51.553 Z-6.000 I7.874 J0.690 K0.000 F300.000
G2 X-85.588 Y55.315 Z-6.000 I5.064 J-1.144 K0.000 F300.000
G2 X-82.949 Y55.578 Z-6.000 I2.021 J-6.884 K0.000 F300.000
G2 X-78.788 Y53.953 Z-6.000 I-0.668 J-7.846 K0.000 F300.000
G2 X-76.314 Y51.412 Z-6.000 I-8.020 J-10.285 K0.000 F300.000
G3 X-75.277 Y50.112 Z-6.000 I6.865 J4.408 K0.000 F300.000
G3 X-74.931 Y49.998 Z-6.000 I1.109 J2.800 K0.000 F300.000
G3 X-73.830 Y50.050 Z-6.000 I0.384 J3.581 K0.000 F300.000
G3 X-67.914 Y51.325 Z-6.000 I-37.806 J189.776 K0.000 F300.000
G3 X-67.121 Y51.582 Z-6.000 I-1.873 J7.134 K0.000 F300.000
G3 X-63.088 Y53.571 Z-6.000 I-41.785 J89.820 K0.000 F300.000
G2 X-60.639 Y53.691 Z-6.000 I1.368 J-2.874 K0.000 F300.000
G2 X-59.431 Y52.685 Z-6.000 I-1.663 J-3.226 K0.000 F300.000
G0 Z5.000
G0 Z5.000
(Finish operation: Profile029)
(Begin operation: Profile030)
(Path: Profile030)
(Profile030)
(Compensated Tool Path. Diameter: 3.0)
G0 Z5.000
G0 X-5.431 Y-7.315
G0 Z3.000
G1 X-5.431 Y-7.315 Z-3.000 F300.000
G2 X-4.687 Y-9.217 Z-3.000 I-2.871 J-2.220 K0.000 F300.000
G2 X-4.952 Y-12.629 Z-3.000 I-12.508 J-0.744 K0.000 F300.000
G1 X-4.787 Y-12.783 Z-3.000 F300.000
G2 X-2.855 Y-14.590 Z-3.000 I-5.854 J-8.195 K0.000 F300.000
G2 X-1.676 Y-17.276 Z-3.000 I-3.342 J-3.068 K0.000 F300.000
G2 X-1.926 Y-19.791 Z-3.000 I-12.895 J0.009 K0.000 F300.000
G2 X-3.843 Y-22.404 Z-3.000 I-4.708 J1.444 K0.000 F300.000
G1 X-3.843 Y-22.404 Z-3.000 F300.000
G3 X-4.707 Y-23.173 Z-3.000 I4.016 J-5.385 K0.000 F300.000
G3 X-5.125 Y-23.847 Z-3.000 I0.934 J-1.045 K0.000 F300.000
G3 X-4.849 Y-25.172 Z-3.000 I1.522 J-0.374 K0.000 F300.000
G2 X-2.933 Y-28.079 Z-3.000 I-3.578 J-4.444 K0.000 F300.000
G2 X-2.753 Y-30.847 Z-3.000 I-7.722 J-1.890 K0.000 F300.000
G2 X-4.616 Y-34.606 Z-3.000 I-5.463 J0.367 K0.000 F300.000
G3 X-4.862 Y-36.664 Z-3.000 I0.940 J-1.156 K0.000 F300.000
G3 X-3.251 Y-38.097 Z-3.000 I17.513 J18.058 K0.000 F300.000
G2 X-1.927 Y-40.240 Z-3.000 I-3.368 J-3.562 K0.000 F300.000
G2 X-1.695 Y-41.796 Z-3.000 I-22.453 J-4.144 K0.000 F300.000
G2 X-2.149 Y-44.372 Z-3.000 I-4.273 J-0.575 K0.000 F300.000
G2 X-4.510 Y-47.020 Z-3.000 I-8.097 J4.842 K0.000 F300.000
G3 X-4.945 Y-47.357 Z-3.000 I1.509 J-2.396 K0.000 F300.000
G1 X-4.923 Y-47.502 Z-3.000 F300.000
G1 X-4.923 Y-47.502 Z-3.000 F300.000
G2 X-4.691 Y-50.673 Z-3.000 I-11.489 J-2.434 K0.000 F300.000
G2 X-6.344 Y-53.531 Z-3.000 I-3.619 J0.187 K0.000 F300.000
G2 X-8.972 Y-53.623 Z-3.000 I-1.407 J2.601 K0.000 F300.000
G2 X-12.109 Y-52.047 Z-3.000 I151.976 J306.514 K0.000 F300.000
G3 X-13.945 Y-51.318 Z-3.000 I-4.089 J-7.622 K0.000 F300.000
G1 X-19.418 Y-50.133 Z-3.000 F300.000
G3 X-20.208 Y-50.001 Z-3.000 I-1.351 J-5.672 K0.000 F300.000
G3 X-21.267 Y-50.098 Z-3.000 I-0.384 J-1.632 K0.000 F300.000
G3 X-21.878 Y-50.795 Z-3.000 I3.760 J-3.914 K0.000 F300.000
G2 X-24.941 Y-54.050 Z-3.000 I-10.733 J7.032 K0.000 F300.000
G2 X-28.390 Y-55.517 Z-3.000 I-4.678 J6.207 K0.000 F300.000
G2 X-30.237 Y-55.593 Z-3.000 I-1.270 J8.417 K0.000 F300.000
G2 X-34.431 Y-52.919 Z-3.000 I0.294 J5.087 K0.000 F300.000
G2 X-35.203 Y-48.775 Z-3.000 I6.816 J3.413 K0.000 F300.000
G1 X-38.331 Y-48.660 Z-3.000 F300.000
G2 X-39.263 Y-48.526 Z-3.000 I0.679 J8.048 K0.000 F300.000
G2 X-45.105 Y-46.618 Z-3.000 I2.390 J17.212 K0.000 F300.000
G1 X-47.241 Y-45.217 Z-3.000 F300.000
G1 X-47.404 Y-45.092 Z-3.000 F300.000
G1 X-49.327 Y-43.414 Z-3.000 F300.000
G1 X-49.584 Y-43.123 Z-3.000 F300.000
G2 X-53.010 Y-37.017 Z-3.000 I28.313 J19.903 K0.000 F300.000
G1 X-53.846 Y-34.549 Z-3.000 F300.000
G1 X-53.904 Y-34.314 Z-3.000 F300.000
G1 X-54.244 Y-32.233 Z-3.000 F300.000
G1 X-54.264 Y-31.991 Z-3.000 F300.000
G1 X-54.264 Y-28.009 Z-3.000 F300.000
G1 X-54.244 Y-27.767 Z-3.000 F300.000
G1 X-53.904 Y-25.686 Z-3.000 F300.000
G1 X-53.846 Y-25.451 Z-3.000 F300.000
G1 X-53.069 Y-23.131 Z-3.000 F300.000
G2 X-49.584 Y-16.877 Z-3.000 I30.304 J-12.790 K0.000 F300.000
G1 X-49.327 Y-16.586 Z-3.000 F300.000
G1 X-47.404 Y-14.908 Z-3.000 F300.000
G1 X-47.241 Y-14.783 Z-3.000 F300.000
G1 X-45.105 Y-13.382 Z-3.000 F300.000
G2 X-44.071 Y-12.865 Z-3.000 I4.580 J-7.860 K0.000 F300.000
G2 X-38.331 Y-11.340 Z-3.000 I7.789 J-17.755 K0.000 F300.000
G1 X-35.203 Y-11.225 Z-3.000 F300.000
G2 X-34.952 Y-8.447 Z-3.000 I7.874 J0.690 K0.000 F300.000
G2 X-31.588 Y-4.685 Z-3.000 I5.064 J-1.144 K0.000 F300.000
G2 X-28.949 Y-4.422 Z-3.000 I2.021 J-6.884 K0.000 F300.000
G2 X-24.788 Y-6.047 Z-3.000 I-0.668 J-7.846 K0.000 F300.000
G2 X-22.314 Y-8.588 Z-3.000 I-8.020 J-10.285 K0.000 F300.000
G3 X-21.277 Y-9.888 Z-3.000 I6.865 J4.408 K0.000 F300.000
G3 X-20.931 Y-10.002 Z-3.000 I1.109 J2.800 K0.000 F300.000
G3 X-19.830 Y-9.950 Z-3.000 I0.384 J3.581 K0.000 F300.000
G3 X-13.914 Y-8.675 Z-3.000 I-37.805 J189.775 K0.000 F300.000
G3 X-13.121 Y-8.418 Z-3.000 I-1.873 J7.134 K0.000 F300.000
G3 X-9.088 Y-6.429 Z-3.000 I-41.785 J89.819 K0.000 F300.000
G2 X-6.639 Y-6.309 Z-3.000 I1.368 J-2.874 K0.000 F300.000
G2 X-5.431 Y-7.315 Z-3.000 I-1.663 J-3.226 K0.000 F300.000
G1 X-5.431 Y-7.315 Z-6.000 F300.000
G2 X-4.687 Y-9.217 Z-6.000 I-2.871 J-2.220 K0.000 F300.000
G2 X-4.952 Y-12.629 Z-6.000 I-12.508 J-0.744 K0.000 F300.000
G1 X-4.787 Y-12.783 Z-6.000 F300.000
G2 X-2.855 Y-14.590 Z-6.000 I-5.854 J-8.195 K0.000 F300.000
G2 X-1.676 Y-17.276 Z-6.000 I-3.342 J-3.068 K0.000 F300.000
G2 X-1.926 Y-19.791 Z-6.000 I-12.895 J0.009 K0.000 F300.000
G2 X-3.843 Y-22.404 Z-6.000 I-4.708 J1.444 K0.000 F300.000
G1 X-3.843 Y-22.404 Z-6.000 F300.000
G3 X-4.707 Y-23.173 Z-6.000 I4.016 J-5.385 K0.000 F300.000
G3 X-5.125 Y-23.847 Z-6.000 I0.934 J-1.045 K0.000 F300.000
G3 X-4.849 Y-25.172 Z-6.000 I1.522 J-0.374 K0.000 F300.000
G2 X-2.933 Y-28.079 Z-6.000 I-3.578 J-4.444 K0.000 F300.000
G2 X-2.753 Y-30.847 Z-6.000 I-7.722 J-1.890 K0.000 F300.000
G2 X-4.616 Y-34.606 Z-6.000 I-5.463 J0.367 K0.000 F300.000
G3 X-4.862 Y-36.664 Z-6.000 I0.940 J-1.156 K0.000 F300.000
G3 X-3.251 Y-38.097 Z-6.000 I17.513 J18.058 K0.000 F300.000
G2 X-1.927 Y-40.240 Z-6.000 I-3.368 J-3.562 K0.000 F300.000
G2 X-1.695 Y-41.796 Z-6.000 I-22.453 J-4.144 K0.000 F300.000
G2 X-2.149 Y-44.372 Z-6.000 I-4.273 J-0.575 K0.000 F300.000
G2 X-4.510 Y-47.020 Z-6.000 I-8.097 J4.842 K0.000 F300.000
G3 X-4.945 Y-47.357 Z-6.000 I1.509 J-2.396 K0.000 F300.000
G1 X-4.923 Y-47.502 Z-6.000 F300.000
G1 X-4.923 Y-47.502 Z-6.000 F300.000
G2 X-4.691 Y-50.673 Z-6.000 I-11.489 J-2.434 K0.000 F300.000
G2 X-6.344 Y-53.531 Z-6.000 I-3.619 J0.187 K0.000 F300.000
G2 X-8.972 Y-53.623 Z-6.000 I-1.407 J2.601 K0.000 F300.000
G2 X-12.109 Y-52.047 Z-6.000 I151.976 J306.514 K0.000 F300.000
G3 X-13.945 Y-51.318 Z-6.000 I-4.089 J-7.622 K0.000 F300.000
G1 X-19.418 Y-50.133 Z-6.000 F300.000
G3 X-20.208 Y-50.001 Z-6.000 I-1.351 J-5.672 K0.000 F300.000
G3 X-21.267 Y-50.098 Z-6.000 I-0.384 J-1.632 K0.000 F300.000
G3 X-21.878 Y-50.795 Z-6.000 I3.760 J-3.914 K0.000 F300.000
G2 X-24.941 Y-54.050 Z-6.000 I-10.733 J7.032 K0.000 F300.000
G2 X-28.390 Y-55.517 Z-6.000 I-4.678 J6.207 K0.000 F300.000
G2 X-30.237 Y-55.593 Z-6.000 I-1.270 J8.417 K0.000 F300.000
G2 X-34.431 Y-52.919 Z-6.000 I0.294 J5.087 K0.000 F300.000
G2 X-35.203 Y-48.775 Z-6.000 I6.816 J3.413 K0.000 F300.000
G1 X-38.331 Y-48.660 Z-6.000 F300.000
G2 X-39.263 Y-48.526 Z-6.000 I0.679 J8.048 K0.000 F300.000
G2 X-45.105 Y-46.618 Z-6.000 I2.390 J17.212 K0.000 F300.000
G1 X-47.241 Y-45.217 Z-6.000 F300.000
G1 X-47.404 Y-45.092 Z-6.000 F300.000
G1 X-49.327 Y-43.414 Z-6.000 F300.000
G1 X-49.584 Y-43.123 Z-6.000 F300.000
G2 X-53.010 Y-37.017 Z-6.000 I28.313 J19.903 K0.000 F300.000
G1 X-53.846 Y-34.549 Z-6.000 F300.000
G1 X-53.904 Y-34.314 Z-6.000 F300.000
G1 X-54.244 Y-32.233 Z-6.000 F300.000
G1 X-54.264 Y-31.991 Z-6.000 F300.000
G1 X-54.264 Y-28.009 Z-6.000 F300.000
G1 X-54.244 Y-27.767 Z-6.000 F300.000
G1 X-53.904 Y-25.686 Z-6.000 F300.000
G1 X-53.846 Y-25.451 Z-6.000 F300.000
G1 X-53.069 Y-23.131 Z-6.000 F300.000
G2 X-49.584 Y-16.877 Z-6.000 I30.304 J-12.790 K0.000 F300.000
G1 X-49.327 Y-16.586 Z-6.000 F300.000
G1 X-47.404 Y-14.908 Z-6.000 F300.000
G1 X-47.241 Y-14.783 Z-6.000 F300.000
G1 X-45.105 Y-13.382 Z-6.000 F300.000
G2 X-44.071 Y-12.865 Z-6.000 I4.580 J-7.860 K0.000 F300.000
G2 X-38.331 Y-11.340 Z-6.000 I7.789 J-17.755 K0.000 F300.000
G1 X-35.203 Y-11.225 Z-6.000 F300.000
G2 X-34.952 Y-8.447 Z-6.000 I7.874 J0.690 K0.000 F300.000
G2 X-31.588 Y-4.685 Z-6.000 I5.064 J-1.144 K0.000 F300.000
G2 X-28.949 Y-4.422 Z-6.000 I2.021 J-6.884 K0.000 F300.000
G2 X-24.788 Y-6.047 Z-6.000 I-0.668 J-7.846 K0.000 F300.000
G2 X-22.314 Y-8.588 Z-6.000 I-8.020 J-10.285 K0.000 F300.000
G3 X-21.277 Y-9.888 Z-6.000 I6.865 J4.408 K0.000 F300.000
G3 X-20.931 Y-10.002 Z-6.000 I1.109 J2.800 K0.000 F300.000
G3 X-19.830 Y-9.950 Z-6.000 I0.384 J3.581 K0.000 F300.000
G3 X-13.914 Y-8.675 Z-6.000 I-37.805 J189.775 K0.000 F300.000
G3 X-13.121 Y-8.418 Z-6.000 I-1.873 J7.134 K0.000 F300.000
G3 X-9.088 Y-6.429 Z-6.000 I-41.785 J89.819 K0.000 F300.000
G2 X-6.639 Y-6.309 Z-6.000 I1.368 J-2.874 K0.000 F300.000
G2 X-5.431 Y-7.315 Z-6.000 I-1.663 J-3.226 K0.000 F300.000
G0 Z5.000
G0 Z5.000
(Finish operation: Profile030)
(Begin operation: Profile031)
(Path: Profile031)
(Profile031)
(Compensated Tool Path. Diameter: 3.0)
G0 Z5.000
G0 X-5.431 Y52.685
G0 Z3.000
G1 X-5.431 Y52.685 Z-3.000 F300.000
G2 X-4.687 Y50.783 Z-3.000 I-2.871 J-2.220 K0.000 F300.000
G2 X-4.952 Y47.371 Z-3.000 I-12.508 J-0.744 K0.000 F300.000
G1 X-4.787 Y47.217 Z-3.000 F300.000
G2 X-2.855 Y45.410 Z-3.000 I-5.854 J-8.195 K0.000 F300.000
G2 X-1.676 Y42.724 Z-3.000 I-3.342 J-3.068 K0.000 F300.000
G2 X-1.926 Y40.209 Z-3.000 I-12.895 J0.009 K0.000 F300.000
G2 X-3.843 Y37.596 Z-3.000 I-4.708 J1.444 K0.000 F300.000
G1 X-3.843 Y37.596 Z-3.000 F300.000
G3 X-4.707 Y36.827 Z-3.000 I4.016 J-5.385 K0.000 F300.000
G3 X-5.125 Y36.153 Z-3.000 I0.934 J-1.045 K0.000 F300.000
G3 X-4.849 Y34.828 Z-3.000 I1.522 J-0.374 K0.000 F300.000
G2 X-2.933 Y31.921 Z-3.000 I-3.578 J-4.444 K0.000 F300.000
G2 X-2.753 Y29.153 Z-3.000 I-7.722 J-1.890 K0.000 F300.000
G2 X-4.616 Y25.394 Z-3.000 I-5.463 J0.367 K0.000 F300.000
G3 X-4.862 Y23.336 Z-3.000 I0.940 J-1.156 K0.000 F300.000
G3 X-3.251 Y21.903 Z-3.000 I17.513 J18.058 K0.000 F300.000
G2 X-1.927 Y19.760 Z-3.000 I-3.368 J-3.562 K0.000 F300.000
G2 X-1.695 Y18.204 Z-3.000 I-22.453 J-4.144 K0.000 F300.000
G2 X-2.149 Y15.628 Z-3.000 I-4.273 J-0.575 K0.000 F300.000
G2 X-4.510 Y12.980 Z-3.000 I-8.097 J4.842 K0.000 F300.000
G3 X-4.945 Y12.643 Z-3.000 I1.509 J-2.396 K0.000 F300.000
G1 X-4.923 Y12.498 Z-3.000 F300.000
G1 X-4.923 Y12.498 Z-3.000 F300.000
G2 X-4.691 Y9.327 Z-3.000 I-11.489 J-2.434 K0.000 F300.000
G2 X-6.344 Y6.469 Z-3.000 I-3.619 J0.187 K0.000 F300.000
G2 X-8.972 Y6.377 Z-3.000 I-1.407 J2.601 K0.000 F300.000
G2 X-12.109 Y7.953 Z-3.000 I151.981 J306.524 K0.000 F300.000
G3 X-13.945 Y8.682 Z-3.000 I-4.089 J-7.622 K0.000 F300.000
G1 X-19.418 Y9.867 Z-3.000 F300.000
G3 X-20.208 Y9.999 Z-3.000 I-1.351 J-5.672 K0.000 F300.000
G3 X-21.267 Y9.902 Z-3.000 I-0.384 J-1.632 K0.000 F300.000
G3 X-21.878 Y9.205 Z-3.000 I3.760 J-3.914 K0.000 F300.000
G2 X-24.941 Y5.950 Z-3.000 I-10.733 J7.032 K0.000 F300.000
G2 X-28.390 Y4.483 Z-3.000 I-4.678 J6.207 K0.000 F300.000
G2 X-30.237 Y4.407 Z-3.000 I-1.270 J8.417 K0.000 F300.000
G2 X-34.431 Y7.081 Z-3.000 I0.294 J5.087 K0.000 F300.000
G2 X-35.203 Y11.225 Z-3.000 I6.816 J3.413 K0.000 F300.000
G1 X-38.331 Y11.340 Z-3.000 F300.000
G2 X-39.263 Y11.474 Z-3.000 I0.679 J8.048 K0.000 F300.000
G2 X-45.105 Y13.382 Z-3.000 I2.390 J17.212 K0.000 F300.000
G1 X-47.241 Y14.783 Z-3.000 F300.000
G1 X-47.404 Y14.908 Z-3.000 F300.000
G1 X-49.327 Y16.586 Z-3.000 F300.000
G1 X-49.584 Y16.877 Z-3.000 F300.000
G2 X-53.010 Y22.983 Z-3.000 I28.313 J19.903 K0.000 F300.000
G1 X-53.846 Y25.451 Z-3.000 F300.000
G1 X-53.904 Y25.686 Z-3.000 F300.000
G1 X-54.244 Y27.767 Z-3.000 F300.000
G1 X-54.264 Y28.009 Z-3.000 F300.000
G1 X-54.264 Y31.991 Z-3.000 F300.000
G1 X-54.244 Y32.233 Z-3.000 F300.000
G1 X-53.904 Y34.314 Z-3.000 F300.000
G1 X-53.846 Y34.549 Z-3.000 F300.000
G1 X-53.069 Y36.869 Z-3.000 F300.000
G2 X-49.584 Y43.123 Z-3.000 I30.304 J-12.790 K0.000 F300.000
G1 X-49.327 Y43.414 Z-3.000 F300.000
G1 X-47.404 Y45.092 Z-3.000 F300.000
G1 X-47.241 Y45.217 Z-3.000 F300.000
G1 X-45.105 Y46.618 Z-3.000 F300.000
G2 X-44.071 Y47.135 Z-3.000 I4.580 J-7.860 K0.000 F300.000
G2 X-38.331 Y48.660 Z-3.000 I7.789 J-17.755 K0.000 F300.000
G1 X-35.203 Y48.775 Z-3.000 F300.000
G2 X-34.952 Y51.553 Z-3.000 I7.874 J0.690 K0.000 F300.000
G2 X-31.588 Y55.315 Z-3.000 I5.064 J-1.144 K0.000 F300.000
G2 X-28.949 Y55.578 Z-3.000 I2.021 J-6.884 K0.000 F300.000
G2 X-24.788 Y53.953 Z-3.000 I-0.668 J-7.846 K0.000 F300.000
G2 X-22.314 Y51.412 Z-3.000 I-8.020 J-10.285 K0.000 F300.000
G3 X-21.277 Y50.112 Z-3.000 I6.865 J4.408 K0.000 F300.000
G3 X-20.931 Y49.998 Z-3.000 I1.109 J2.800 K0.000 F300.000
G3 X-19.830 Y50.050 Z-3.000 I0.384 J3.581 K0.000 F300.000
G3 X-13.914 Y51.325 Z-3.000 I-37.805 J189.775 K0.000 F300.000
G3 X-13.121 Y51.582 Z-3.000 I-1.873 J7.134 K0.000 F300.000
G3 X-9.088 Y53.571 Z-3.000 I-41.785 J89.819 K0.000 F300.000
G2 X-6.639 Y53.691 Z-3.000 I1.368 J-2.874 K0.000 F300.000
G2 X-5.431 Y52.685 Z-3.000 I-1.663 J-3.226 K0.000 F300.000
G1 X-5.431 Y52.685 Z-6.000 F300.000
G2 X-4.687 Y50.783 Z-6.000 I-2.871 J-2.220 K0.000 F300.000
G2 X-4.952 Y47.371 Z-6.000 I-12.508 J-0.744 K0.000 F300.000
G1 X-4.787 Y47.217 Z-6.000 F300.000
G2 X-2.855 Y45.410 Z-6.000 I-5.854 J-8.195 K0.000 F300.000
G2 X-1.676 Y42.724 Z-6.000 I-3.342 J-3.068 K0.000 F300.000
G2 X-1.926 Y40.209 Z-6.000 I-12.895 J0.009 K0.000 F300.000
G2 X-3.843 Y37.596 Z-6.000 I-4.708 J1.444 K0.000 F300.000
G1 X-3.843 Y37.596 Z-6.000 F300.000
G3 X-4.707 Y36.827 Z-6.000 I4.016 J-5.385 K0.000 F300.000
G3 X-5.125 Y36.153 Z-6.000 I0.934 J-1.045 K0.000 F300.000
G3 X-4.849 Y34.828 Z-6.000 I1.522 J-0.374 K0.000 F300.000
G2 X-2.933 Y31.921 Z-6.000 I-3.578 J-4.444 K0.000 F300.000
G2 X-2.753 Y29.153 Z-6.000 I-7.722 J-1.890 K0.000 F300.000
G2 X-4.616 Y25.394 Z-6.000 I-5.463 J0.367 K0.000 F300.000
G3 X-4.862 Y23.336 Z-6.000 I0.940 J-1.156 K0.000 F300.000
G3 X-3.251 Y21.903 Z-6.000 I17.513 J18.058 K0.000 F300.000
G2 X-1.927 Y19.760 Z-6.000 I-3.368 J-3.562 K0.000 F300.000
G2 X-1.695 Y18.204 Z-6.000 I-22.453 J-4.144 K0.000 F300.000
G2 X-2.149 Y15.628 Z-6.000 I-4.273 J-0.575 K0.000 F300.000
G2 X-4.510 Y12.980 Z-6.000 I-8.097 J4.842 K0.000 F300.000
G3 X-4.945 Y12.643 Z-6.000 I1.509 J-2.396 K0.000 F300.000
G1 X-4.923 Y12.498 Z-6.000 F300.000
G1 X-4.923 Y12.498 Z-6.000 F300.000
G2 X-4.691 Y9.327 Z-6.000 I-11.489 J-2.434 K0.000 F300.000
G2 X-6.344 Y6.469 Z-6.000 I-3.619 J0.187 K0.000 F300.000
G2 X-8.972 Y6.377 Z-6.000 I-1.407 J2.601 K0.000 F300.000
G2 X-12.109 Y7.953 Z-6.000 I151.981 J306.524 K0.000 F300.000
G3 X-13.945 Y8.682 Z-6.000 I-4.089 J-7.622 K0.000 F300.000
G1 X-19.418 Y9.867 Z-6.000 F300.000
G3 X-20.208 Y9.999 Z-6.000 I-1.351 J-5.672 K0.000 F300.000
G3 X-21.267 Y9.902 Z-6.000 I-0.384 J-1.632 K0.000 F300.000
G3 X-21.878 Y9.205 Z-6.000 I3.760 J-3.914 K0.000 F300.000
G2 X-24.941 Y5.950 Z-6.000 I-10.733 J7.032 K0.000 F300.000
G2 X-28.390 Y4.483 Z-6.000 I-4.678 J6.207 K0.000 F300.000
G2 X-30.237 Y4.407 Z-6.000 I-1.270 J8.417 K0.000 F300.000
G2 X-34.431 Y7.081 Z-6.000 I0.294 J5.087 K0.000 F300.000
G2 X-35.203 Y11.225 Z-6.000 I6.816 J3.413 K0.000 F300.000
G1 X-38.331 Y11.340 Z-6.000 F300.000
G2 X-39.263 Y11.474 Z-6.000 I0.679 J8.048 K0.000 F300.000
G2 X-45.105 Y13.382 Z-6.000 I2.390 J17.212 K0.000 F300.000
G1 X-47.241 Y14.783 Z-6.000 F300.000
G1 X-47.404 Y14.908 Z-6.000 F300.000
G1 X-49.327 Y16.586 Z-6.000 F300.000
G1 X-49.584 Y16.877 Z-6.000 F300.000
G2 X-53.010 Y22.983 Z-6.000 I28.313 J19.903 K0.000 F300.000
G1 X-53.846 Y25.451 Z-6.000 F300.000
G1 X-53.904 Y25.686 Z-6.000 F300.000
G1 X-54.244 Y27.767 Z-6.000 F300.000
G1 X-54.264 Y28.009 Z-6.000 F300.000
G1 X-54.264 Y31.991 Z-6.000 F300.000
G1 X-54.244 Y32.233 Z-6.000 F300.000
G1 X-53.904 Y34.314 Z-6.000 F300.000
G1 X-53.846 Y34.549 Z-6.000 F300.000
G1 X-53.069 Y36.869 Z-6.000 F300.000
G2 X-49.584 Y43.123 Z-6.000 I30.304 J-12.790 K0.000 F300.000
G1 X-49.327 Y43.414 Z-6.000 F300.000
G1 X-47.404 Y45.092 Z-6.000 F300.000
G1 X-47.241 Y45.217 Z-6.000 F300.000
G1 X-45.105 Y46.618 Z-6.000 F300.000
G2 X-44.071 Y47.135 Z-6.000 I4.580 J-7.860 K0.000 F300.000
G2 X-38.331 Y48.660 Z-6.000 I7.789 J-17.755 K0.000 F300.000
G1 X-35.203 Y48.775 Z-6.000 F300.000
G2 X-34.952 Y51.553 Z-6.000 I7.874 J0.690 K0.000 F300.000
G2 X-31.588 Y55.315 Z-6.000 I5.064 J-1.144 K0.000 F300.000
G2 X-28.949 Y55.578 Z-6.000 I2.021 J-6.884 K0.000 F300.000
G2 X-24.788 Y53.953 Z-6.000 I-0.668 J-7.846 K0.000 F300.000
G2 X-22.314 Y51.412 Z-6.000 I-8.020 J-10.285 K0.000 F300.000
G3 X-21.277 Y50.112 Z-6.000 I6.865 J4.408 K0.000 F300.000
G3 X-20.931 Y49.998 Z-6.000 I1.109 J2.800 K0.000 F300.000
G3 X-19.830 Y50.050 Z-6.000 I0.384 J3.581 K0.000 F300.000
G3 X-13.914 Y51.325 Z-6.000 I-37.805 J189.775 K0.000 F300.000
G3 X-13.121 Y51.582 Z-6.000 I-1.873 J7.134 K0.000 F300.000
G3 X-9.088 Y53.571 Z-6.000 I-41.785 J89.819 K0.000 F300.000
G2 X-6.639 Y53.691 Z-6.000 I1.368 J-2.874 K0.000 F300.000
G2 X-5.431 Y52.685 Z-6.000 I-1.663 J-3.226 K0.000 F300.000
G0 Z5.000
G0 Z5.000
(Finish operation: Profile031)
(Begin operation: Profile032)
(Path: Profile032)
(Profile032)
(Compensated Tool Path. Diameter: 3.0)
G0 Z5.000
G0 X48.569 Y-7.315
G0 Z3.000
G1 X48.569 Y-7.315 Z-3.000 F300.000
G2 X49.313 Y-9.217 Z-3.000 I-2.871 J-2.220 K0.000 F300.000
G2 X49.048 Y-12.629 Z-3.000 I-12.508 J-0.744 K0.000 F300.000
G1 X49.213 Y-12.783 Z-3.000 F300.000
G2 X51.145 Y-14.590 Z-3.000 I-5.854 J-8.195 K0.000 F300.000
G2 X52.324 Y-17.276 Z-3.000 I-3.342 J-3.068 K0.000 F300.000
G2 X52.074 Y-19.791 Z-3.000 I-12.895 J0.009 K0.000 F300.000
G2 X50.157 Y-22.404 Z-3.000 I-4.708 J1.444 K0.000 F300.000
G1 X50.157 Y-22.404 Z-3.000 F300.000
G3 X49.293 Y-23.173 Z-3.000 I4.016 J-5.385 K0.000 F300.000
G3 X48.875 Y-23.847 Z-3.000 I0.934 J-1.045 K0.000 F300.000
G3 X49.151 Y-25.172 Z-3.000 I1.522 J-0.374 K0.000 F300.000
G2 X51.067 Y-28.079 Z-3.000 I-3.578 J-4.444 K0.000 F300.000
G2 X51.247 Y-30.847 Z-3.000 I-7.722 J-1.890 K0.000 F300.000
G2 X49.384 Y-34.605 Z-3.000 I-5.463 J0.367 K0.000 F300.000
G3 X49.138 Y-36.664 Z-3.000 I0.940 J-1.156 K0.000 F300.000
G3 X50.749 Y-38.097 Z-3.000 I17.513 J18.058 K0.000 F300.000
G2 X52.073 Y-40.240 Z-3.000 I-3.368 J-3.562 K0.000 F300.000
G2 X52.305 Y-41.796 Z-3.000 I-22.453 J-4.144 K0.000 F300.000
G2 X51.851 Y-44.372 Z-3.000 I-4.273 J-0.575 K0.000 F300.000
G2 X49.490 Y-47.020 Z-3.000 I-8.097 J4.842 K0.000 F300.000
G3 X49.055 Y-47.357 Z-3.000 I1.509 J-2.396 K0.000 F300.000
G1 X49.077 Y-47.502 Z-3.000 F300.000
G1 X49.077 Y-47.502 Z-3.000 F300.000
G2 X49.309 Y-50.673 Z-3.000 I-11.489 J-2.434 K0.000 F300.000
G2 X47.656 Y-53.531 Z-3.000 I-3.619 J0.187 K0.000 F300.000
G2 X45.028 Y-53.623 Z-3.000 I-1.407 J2.601 K0.000 F300.000
G2 X41.891 Y-52.047 Z-3.000 I151.981 J306.524 K0.000 F300.000
G3 X40.055 Y-51.318 Z-3.000 I-4.089 J-7.622 K0.000 F300.000
G1 X34.582 Y-50.133 Z-3.000 F300.000
G3 X33.792 Y-50.001 Z-3.000 I-1.351 J-5.672 K0.000 F300.000
G3 X32.733 Y-50.098 Z-3.000 I-0.384 J-1.632 K0.000 F300.000
G3 X32.122 Y-50.795 Z-3.000 I3.760 J-3.914 K0.000 F300.000
G2 X29.059 Y-54.050 Z-3.000 I-10.733 J7.032 K0.000 F300.000
G2 X25.610 Y-55.517 Z-3.000 I-4.678 J6.207 K0.000 F300.000
G2 X23.763 Y-55.593 Z-3.000 I-1.270 J8.417 K0.000 F300.000
G2 X19.569 Y-52.919 Z-3.000 I0.294 J5.087 K0.000 F300.000
G2 X18.797 Y-48.775 Z-3.000 I6.816 J3.413 K0.000 F300.000
G1 X15.669 Y-48.660 Z-3.000 F300.000
G2 X14.737 Y-48.526 Z-3.000 I0.679 J8.048 K0.000 F300.000
G2 X8.895 Y-46.618 Z-3.000 I2.390 J17.212 K0.000 F300.000
G1 X6.759 Y-45.217 Z-3.000 F300.000
G1 X6.596 Y-45.092 Z-3.000 F300.000
G1 X4.673 Y-43.414 Z-3.000 F300.000
G1 X4.416 Y-43.123 Z-3.000 F300.000
G2 X0.990 Y-37.017 Z-3.000 I28.313 J19.903 K0.000 F300.000
G1 X0.154 Y-34.549 Z-3.000 F300.000
G1 X0.096 Y-34.314 Z-3.000 F300.000
G1 X-0.244 Y-32.233 Z-3.000 F300.000
G1 X-0.264 Y-31.991 Z-3.000 F300.000
G1 X-0.264 Y-28.009 Z-3.000 F300.000
G1 X-0.244 Y-27.767 Z-3.000 F300.000
G1 X0.096 Y-25.686 Z-3.000 F300.000
G1 X0.154 Y-25.451 Z-3.000 F300.000
G1 X0.931 Y-23.131 Z-3.000 F300.000
G2 X4.416 Y-16.877 Z-3.000 I30.304 J-12.790 K0.000 F300.000
G1 X4.673 Y-16.586 Z-3.000 F300.000
G1 X6.596 Y-14.908 Z-3.000 F300.000
G1 X6.759 Y-14.783 Z-3.000 F300.000
G1 X8.895 Y-13.382 Z-3.000 F300.000
G2 X9.929 Y-12.865 Z-3.000 I4.580 J-7.860 K0.000 F300.000
G2 X15.669 Y-11.340 Z-3.000 I7.789 J-17.755 K0.000 F300.000
G1 X18.797 Y-11.225 Z-3.000 F300.000
G2 X19.048 Y-8.447 Z-3.000 I7.874 J0.690 K0.000 F300.000
G2 X22.412 Y-4.685 Z-3.000 I5.064 J-1.144 K0.000 F300.000
G2 X25.051 Y-4.422 Z-3.000 I2.021 J-6.884 K0.000 F300.000
G2 X29.212 Y-6.047 Z-3.000 I-0.668 J-7.846 K0.000 F300.000
G2 X31.686 Y-8.588 Z-3.000 I-8.020 J-10.285 K0.000 F300.000
G3 X32.723 Y-9.888 Z-3.000 I6.865 J4.408 K0.000 F300.000
G3 X33.069 Y-10.002 Z-3.000 I1.109 J2.800 K0.000 F300.000
G3 X34.170 Y-9.950 Z-3.000 I0.384 J3.581 K0.000 F300.000
G3 X40.086 Y-8.675 Z-3.000 I-37.805 J189.775 K0.000 F300.000
G3 X40.879 Y-8.418 Z-3.000 I-1.873 J7.134 K0.000 F300.000
G3 X44.912 Y-6.429 Z-3.000 I-41.785 J89.819 K0.000 F300.000
G2 X47.361 Y-6.309 Z-3.000 I1.368 J-2.874 K0.000 F300.000
G2 X48.569 Y-7.315 Z-3.000 I-1.663 J-3.226 K0.000 F300.000
G1 X48.569 Y-7.315 Z-6.000 F300.000
G2 X49.313 Y-9.217 Z-6.000 I-2.871 J-2.220 K0.000 F300.000
G2 X49.048 Y-12.629 Z-6.000 I-12.508 J-0.744 K0.000 F300.000
G1 X49.213 Y-12.783 Z-6.000 F300.000
G2 X51.145 Y-14.590 Z-6.000 I-5.854 J-8.195 K0.000 F300.000
G2 X52.324 Y-17.276 Z-6.000 I-3.342 J-3.068 K0.000 F300.000
G2 X52.074 Y-19.791 Z-6.000 I-12.895 J0.009 K0.000 F300.000
G2 X50.157 Y-22.404 Z-6.000 I-4.708 J1.444 K0.000 F300.000
G1 X50.157 Y-22.404 Z-6.000 F300.000
G3 X49.293 Y-23.173 Z-6.000 I4.016 J-5.385 K0.000 F300.000
G3 X48.875 Y-23.847 Z-6.000 I0.934 J-1.045 K0.000 F300.000
G3 X49.151 Y-25.172 Z-6.000 I1.522 J-0.374 K0.000 F300.000
G2 X51.067 Y-28.079 Z-6.000 I-3.578 J-4.444 K0.000 F300.000
G2 X51.247 Y-30.847 Z-6.000 I-7.722 J-1.890 K0.000 F300.000
G2 X49.384 Y-34.605 Z-6.000 I-5.463 J0.367 K0.000 F300.000
G3 X49.138 Y-36.664 Z-6.000 I0.940 J-1.156 K0.000 F300.000
G3 X50.749 Y-38.097 Z-6.000 I17.513 J18.058 K0.000 F300.000
G2 X52.073 Y-40.240 Z-6.000 I-3.368 J-3.562 K0.000 F300.000
G2 X52.305 Y-41.796 Z-6.000 I-22.453 J-4.144 K0.000 F300.000
G2 X51.851 Y-44.372 Z-6.000 I-4.273 J-0.575 K0.000 F300.000
G2 X49.490 Y-47.020 Z-6.000 I-8.097 J4.842 K0.000 F300.000
G3 X49.055 Y-47.357 Z-6.000 I1.509 J-2.396 K0.000 F300.000
G1 X49.077 Y-47.502 Z-6.000 F300.000
G1 X49.077 Y-47.502 Z-6.000 F300.000
G2 X49.309 Y-50.673 Z-6.000 I-11.489 J-2.434 K0.000 F300.000
G2 X47.656 Y-53.531 Z-6.000 I-3.619 J0.187 K0.000 F300.000
G2 X45.028 Y-53.623 Z-6.000 I-1.407 J2.601 K0.000 F300.000
G2 X41.891 Y-52.047 Z-6.000 I151.981 J306.524 K0.000 F300.000
G3 X40.055 Y-51.318 Z-6.000 I-4.089 J-7.622 K0.000 F300.000
G1 X34.582 Y-50.133 Z-6.000 F300.000
G3 X33.792 Y-50.001 Z-6.000 I-1.351 J-5.672 K0.000 F300.000
G3 X32.733 Y-50.098 Z-6.000 I-0.384 J-1.632 K0.000 F300.000
G3 X32.122 Y-50.795 Z-6.000 I3.760 J-3.914 K0.000 F300.000
G2 X29.059 Y-54.050 Z-6.000 I-10.733 J7.032 K0.000 F300.000
G2 X25.610 Y-55.517 Z-6.000 I-4.678 J6.207 K0.000 F300.000
G2 X23.763 Y-55.593 Z-6.000 I-1.270 J8.417 K0.000 F300.000
G2 X19.569 Y-52.919 Z-6.000 I0.294 J5.087 K0.000 F300.000
G2 X18.797 Y-48.775 Z-6.000 I6.816 J3.413 K0.000 F300.000
G1 X15.669 Y-48.660 Z-6.000 F300.000
G2 X14.737 Y-48.526 Z-6.000 I0.679 J8.048 K0.000 F300.000
G2 X8.895 Y-46.618 Z-6.000 I2.390 J17.212 K0.000 F300.000
G1 X6.759 Y-45.217 Z-6.000 F300.000
G1 X6.596 Y-45.092 Z-6.000 F300.000
G1 X4.673 Y-43.414 Z-6.000 F300.000
G1 X4.416 Y-43.123 Z-6.000 F300.000
G2 X0.990 Y-37.017 Z-6.000 I28.313 J19.903 K0.000 F300.000
G1 X0.154 Y-34.549 Z-6.000 F300.000
G1 X0.096 Y-34.314 Z-6.000 F300.000
G1 X-0.244 Y-32.233 Z-6.000 F300.000
G1 X-0.264 Y-31.991 Z-6.000 F300.000
G1 X-0.264 Y-28.009 Z-6.000 F300.000
G1 X-0.244 Y-27.767 Z-6.000 F300.000
G1 X0.096 Y-25.686 Z-6.000 F300.000
G1 X0.154 Y-25.451 Z-6.000 F300.000
G1 X0.931 Y-23.131 Z-6.000 F300.000
G2 X4.416 Y-16.877 Z-6.000 I30.304 J-12.790 K0.000 F300.000
G1 X4.673 Y-16.586 Z-6.000 F300.000
G1 X6.596 Y-14.908 Z-6.000 F300.000
G1 X6.759 Y-14.783 Z-6.000 F300.000
G1 X8.895 Y-13.382 Z-6.000 F300.000
G2 X9.929 Y-12.865 Z-6.000 I4.580 J-7.860 K0.000 F300.000
G2 X15.669 Y-11.340 Z-6.000 I7.789 J-17.755 K0.000 F300.000
G1 X18.797 Y-11.225 Z-6.000 F300.000
G2 X19.048 Y-8.447 Z-6.000 I7.874 J0.690 K0.000 F300.000
G2 X22.412 Y-4.685 Z-6.000 I5.064 J-1.144 K0.000 F300.000
G2 X25.051 Y-4.422 Z-6.000 I2.021 J-6.884 K0.000 F300.000
G2 X29.212 Y-6.047 Z-6.000 I-0.668 J-7.846 K0.000 F300.000
G2 X31.686 Y-8.588 Z-6.000 I-8.020 J-10.285 K0.000 F300.000
G3 X32.723 Y-9.888 Z-6.000 I6.865 J4.408 K0.000 F300.000
G3 X33.069 Y-10.002 Z-6.000 I1.109 J2.800 K0.000 F300.000
G3 X34.170 Y-9.950 Z-6.000 I0.384 J3.581 K0.000 F300.000
G3 X40.086 Y-8.675 Z-6.000 I-37.805 J189.775 K0.000 F300.000
G3 X40.879 Y-8.418 Z-6.000 I-1.873 J7.134 K0.000 F300.000
G3 X44.912 Y-6.429 Z-6.000 I-41.785 J89.819 K0.000 F300.000
G2 X47.361 Y-6.309 Z-6.000 I1.368 J-2.874 K0.000 F300.000
G2 X48.569 Y-7.315 Z-6.000 I-1.663 J-3.226 K0.000 F300.000
G0 Z5.000
G0 Z5.000
(Finish operation: Profile032)
(Begin operation: Profile033)
(Path: Profile033)
(Profile033)
(Compensated Tool Path. Diameter: 3.0)
G0 Z5.000
G0 X48.569 Y52.685
G0 Z3.000
G1 X48.569 Y52.685 Z-3.000 F300.000
G2 X49.313 Y50.783 Z-3.000 I-2.871 J-2.220 K0.000 F300.000
G2 X49.048 Y47.371 Z-3.000 I-12.508 J-0.744 K0.000 F300.000
G1 X49.213 Y47.217 Z-3.000 F300.000
G2 X51.145 Y45.410 Z-3.000 I-5.854 J-8.195 K0.000 F300.000
G2 X52.324 Y42.724 Z-3.000 I-3.342 J-3.068 K0.000 F300.000
G2 X52.074 Y40.209 Z-3.000 I-12.895 J0.009 K0.000 F300.000
G2 X50.157 Y37.596 Z-3.000 I-4.708 J1.444 K0.000 F300.000
G1 X50.157 Y37.596 Z-3.000 F300.000
G3 X49.293 Y36.827 Z-3.000 I4.016 J-5.385 K0.000 F300.000
G3 X48.875 Y36.153 Z-3.000 I0.934 J-1.045 K0.000 F300.000
G3 X49.151 Y34.828 Z-3.000 I1.522 J-0.374 K0.000 F300.000
G2 X51.067 Y31.921 Z-3.000 I-3.578 J-4.444 K0.000 F300.000
G2 X51.247 Y29.153 Z-3.000 I-7.722 J-1.890 K0.000 F300.000
G2 X49.384 Y25.395 Z-3.000 I-5.463 J0.367 K0.000 F300.000
G3 X49.138 Y23.336 Z-3.000 I0.940 J-1.156 K0.000 F300.000
G3 X50.749 Y21.903 Z-3.000 I17.513 J18.058 K0.000 F300.000
G2 X52.073 Y19.760 Z-3.000 I-3.368 J-3.562 K0.000 F300.000
G2 X52.305 Y18.204 Z-3.000 I-22.453 J-4.144 K0.000 F300.000
G2 X51.851 Y15.628 Z-3.000 I-4.273 J-0.575 K0.000 F300.000
G2 X49.490 Y12.980 Z-3.000 I-8.097 J4.842 K0.000 F300.000
G3 X49.055 Y12.643 Z-3.000 I1.509 J-2.396 K0.000 F300.000
G1 X49.077 Y12.498 Z-3.000 F300.000
G1 X49.077 Y12.498 Z-3.000 F300.000
G2 X49.309 Y9.327 Z-3.000 I-11.489 J-2.434 K0.000 F300.000
G2 X47.656 Y6.469 Z-3.000 I-3.619 J0.187 K0.000 F300.000
G2 X45.028 Y6.377 Z-3.000 I-1.407 J2.601 K0.000 F300.000
G2 X41.891 Y7.953 Z-3.000 I151.976 J306.514 K0.000 F300.000
G3 X40.055 Y8.682 Z-3.000 I-4.089 J-7.622 K0.000 F300.000
G1 X34.582 Y9.867 Z-3.000 F300.000
G3 X33.792 Y9.999 Z-3.000 I-1.351 J-5.672 K0.000 F300.000
G3 X32.733 Y9.902 Z-3.000 I-0.384 J-1.632 K0.000 F300.000
G3 X32.122 Y9.205 Z-3.000 I3.760 J-3.914 K0.000 F300.000
G2 X29.059 Y5.950 Z-3.000 I-10.733 J7.032 K0.000 F300.000
G2 X25.610 Y4.483 Z-3.000 I-4.678 J6.207 K0.000 F300.000
G2 X23.763 Y4.407 Z-3.000 I-1.270 J8.417 K0.000 F300.000
G2 X19.569 Y7.081 Z-3.000 I0.294 J5.087 K0.000 F300.000
G2 X18.797 Y11.225 Z-3.000 I6.816 J3.413 K0.000 F300.000
G1 X15.669 Y11.340 Z-3.000 F300.000
G2 X14.737 Y11.474 Z-3.000 I0.679 J8.048 K0.000 F300.000
G2 X8.895 Y13.382 Z-3.000 I2.390 J17.212 K0.000 F300.000
G1 X6.759 Y14.783 Z-3.000 F300.000
G1 X6.596 Y14.908 Z-3.000 F300.000
G1 X4.673 Y16.586 Z-3.000 F300.000
G1 X4.416 Y16.877 Z-3.000 F300.000
G2 X0.990 Y22.983 Z-3.000 I28.313 J19.903 K0.000 F300.000
G1 X0.154 Y25.451 Z-3.000 F300.000
G1 X0.096 Y25.686 Z-3.000 F300.000
G1 X-0.244 Y27.767 Z-3.000 F300.000
G1 X-0.264 Y28.009 Z-3.000 F300.000
G1 X-0.264 Y31.991 Z-3.000 F300.000
G1 X-0.244 Y32.233 Z-3.000 F300.000
G1 X0.096 Y34.314 Z-3.000 F300.000
G1 X0.154 Y34.549 Z-3.000 F300.000
G1 X0.931 Y36.869 Z-3.000 F300.000
G2 X4.416 Y43.123 Z-3.000 I30.304 J-12.790 K0.000 F300.000
G1 X4.673 Y43.414 Z-3.000 F300.000
G1 X6.596 Y45.092 Z-3.000 F300.000
G1 X6.759 Y45.217 Z-3.000 F300.000
G1 X8.895 Y46.618 Z-3.000 F300.000
G2 X9.929 Y47.135 Z-3.000 I4.580 J-7.860 K0.000 F300.000
G2 X15.669 Y48.660 Z-3.000 I7.789 J-17.755 K0.000 F300.000
G1 X18.797 Y48.775 Z-3.000 F300.000
G2 X19.048 Y51.553 Z-3.000 I7.874 J0.690 K0.000 F300.000
G2 X22.412 Y55.315 Z-3.000 I5.064 J-1.144 K0.000 F300.000
G2 X25.051 Y55.578 Z-3.000 I2.021 J-6.884 K0.000 F300.000
G2 X29.212 Y53.953 Z-3.000 I-0.668 J-7.846 K0.000 F300.000
G2 X31.686 Y51.412 Z-3.000 I-8.020 J-10.285 K0.000 F300.000
G3 X32.723 Y50.112 Z-3.000 I6.865 J4.408 K0.000 F300.000
G3 X33.069 Y49.998 Z-3.000 I1.109 J2.800 K0.000 F300.000
G3 X34.170 Y50.050 Z-3.000 I0.384 J3.581 K0.000 F300.000
G3 X40.086 Y51.325 Z-3.000 I-37.805 J189.775 K0.000 F300.000
G3 X40.879 Y51.582 Z-3.000 I-1.873 J7.134 K0.000 F300.000
G3 X44.912 Y53.571 Z-3.000 I-41.785 J89.819 K0.000 F300.000
G2 X47.361 Y53.691 Z-3.000 I1.368 J-2.874 K0.000 F300.000
G2 X48.569 Y52.685 Z-3.000 I-1.663 J-3.226 K0.000 F300.000
G1 X48.569 Y52.685 Z-6.000 F300.000
G2 X49.313 Y50.783 Z-6.000 I-2.871 J-2.220 K0.000 F300.000
G2 X49.048 Y47.371 Z-6.000 I-12.508 J-0.744 K0.000 F300.000
G1 X49.213 Y47.217 Z-6.000 F300.000
G2 X51.145 Y45.410 Z-6.000 I-5.854 J-8.195 K0.000 F300.000
G2 X52.324 Y42.724 Z-6.000 I-3.342 J-3.068 K0.000 F300.000
G2 X52.074 Y40.209 Z-6.000 I-12.895 J0.009 K0.000 F300.000
G2 X50.157 Y37.596 Z-6.000 I-4.708 J1.444 K0.000 F300.000
G1 X50.157 Y37.596 Z-6.000 F300.000
G3 X49.293 Y36.827 Z-6.000 I4.016 J-5.385 K0.000 F300.000
G3 X48.875 Y36.153 Z-6.000 I0.934 J-1.045 K0.000 F300.000
G3 X49.151 Y34.828 Z-6.000 I1.522 J-0.374 K0.000 F300.000
G2 X51.067 Y31.921 Z-6.000 I-3.578 J-4.444 K0.000 F300.000
G2 X51.247 Y29.153 Z-6.000 I-7.722 J-1.890 K0.000 F300.000
G2 X49.384 Y25.395 Z-6.000 I-5.463 J0.367 K0.000 F300.000
G3 X49.138 Y23.336 Z-6.000 I0.940 J-1.156 K0.000 F300.000
G3 X50.749 Y21.903 Z-6.000 I17.513 J18.058 K0.000 F300.000
G2 X52.073 Y19.760 Z-6.000 I-3.368 J-3.562 K0.000 F300.000
G2 X52.305 Y18.204 Z-6.000 I-22.453 J-4.144 K0.000 F300.000
G2 X51.851 Y15.628 Z-6.000 I-4.273 J-0.575 K0.000 F300.000
G2 X49.490 Y12.980 Z-6.000 I-8.097 J4.842 K0.000 F300.000
G3 X49.055 Y12.643 Z-6.000 I1.509 J-2.396 K0.000 F300.000
G1 X49.077 Y12.498 Z-6.000 F300.000
G1 X49.077 Y12.498 Z-6.000 F300.000
G2 X49.309 Y9.327 Z-6.000 I-11.489 J-2.434 K0.000 F300.000
G2 X47.656 Y6.469 Z-6.000 I-3.619 J0.187 K0.000 F300.000
G2 X45.028 Y6.377 Z-6.000 I-1.407 J2.601 K0.000 F300.000
G2 X41.891 Y7.953 Z-6.000 I151.976 J306.514 K0.000 F300.000
G3 X40.055 Y8.682 Z-6.000 I-4.089 J-7.622 K0.000 F300.000
G1 X34.582 Y9.867 Z-6.000 F300.000
G3 X33.792 Y9.999 Z-6.000 I-1.351 J-5.672 K0.000 F300.000
G3 X32.733 Y9.902 Z-6.000 I-0.384 J-1.632 K0.000 F300.000
G3 X32.122 Y9.205 Z-6.000 I3.760 J-3.914 K0.000 F300.000
G2 X29.059 Y5.950 Z-6.000 I-10.733 J7.032 K0.000 F300.000
G2 X25.610 Y4.483 Z-6.000 I-4.678 J6.207 K0.000 F300.000
G2 X23.763 Y4.407 Z-6.000 I-1.270 J8.417 K0.000 F300.000
G2 X19.569 Y7.081 Z-6.000 I0.294 J5.087 K0.000 F300.000
G2 X18.797 Y11.225 Z-6.000 I6.816 J3.413 K0.000 F300.000
G1 X15.669 Y11.340 Z-6.000 F300.000
G2 X14.737 Y11.474 Z-6.000 I0.679 J8.048 K0.000 F300.000
G2 X8.895 Y13.382 Z-6.000 I2.390 J17.212 K0.000 F300.000
G1 X6.759 Y14.783 Z-6.000 F300.000
G1 X6.596 Y14.908 Z-6.000 F300.000
G1 X4.673 Y16.586 Z-6.000 F300.000
G1 X4.416 Y16.877 Z-6.000 F300.000
G2 X0.990 Y22.983 Z-6.000 I28.313 J19.903 K0.000 F300.000
G1 X0.154 Y25.451 Z-6.000 F300.000
G1 X0.096 Y25.686 Z-6.000 F300.000
G1 X-0.244 Y27.767 Z-6.000 F300.000
G1 X-0.264 Y28.009 Z-6.000 F300.000
G1 X-0.264 Y31.991 Z-6.000 F300.000
G1 X-0.244 Y32.233 Z-6.000 F300.000
G1 X0.096 Y34.314 Z-6.000 F300.000
G1 X0.154 Y34.549 Z-6.000 F300.000
G1 X0.931 Y36.869 Z-6.000 F300.000
G2 X4.416 Y43.123 Z-6.000 I30.304 J-12.790 K0.000 F300.000
G1 X4.673 Y43.414 Z-6.000 F300.000
G1 X6.596 Y45.092 Z-6.000 F300.000
G1 X6.759 Y45.217 Z-6.000 F300.000
G1 X8.895 Y46.618 Z-6.000 F300.000
G2 X9.929 Y47.135 Z-6.000 I4.580 J-7.860 K0.000 F300.000
G2 X15.669 Y48.660 Z-6.000 I7.789 J-17.755 K0.000 F300.000
G1 X18.797 Y48.775 Z-6.000 F300.000
G2 X19.048 Y51.553 Z-6.000 I7.874 J0.690 K0.000 F300.000
G2 X22.412 Y55.315 Z-6.000 I5.064 J-1.144 K0.000 F300.000
G2 X25.051 Y55.578 Z-6.000 I2.021 J-6.884 K0.000 F300.000
G2 X29.212 Y53.953 Z-6.000 I-0.668 J-7.846 K0.000 F300.000
G2 X31.686 Y51.412 Z-6.000 I-8.020 J-10.285 K0.000 F300.000
G3 X32.723 Y50.112 Z-6.000 I6.865 J4.408 K0.000 F300.000
G3 X33.069 Y49.998 Z-6.000 I1.109 J2.800 K0.000 F300.000
G3 X34.170 Y50.050 Z-6.000 I0.384 J3.581 K0.000 F300.000
G3 X40.086 Y51.325 Z-6.000 I-37.805 J189.775 K0.000 F300.000
G3 X40.879 Y51.582 Z-6.000 I-1.873 J7.134 K0.000 F300.000
G3 X44.912 Y53.571 Z-6.000 I-41.785 J89.819 K0.000 F300.000
G2 X47.361 Y53.691 Z-6.000 I1.368 J-2.874 K0.000 F300.000
G2 X48.569 Y52.685 Z-6.000 I-1.663 J-3.226 K0.000 F300.000
G0 Z5.000
G0 Z5.000
(Finish operation: Profile033)
(Begin operation: Profile034)
(Path: Profile034)
(Profile034)
(Compensated Tool Path. Diameter: 3.0)
G0 Z5.000
G0 X102.569 Y-7.315
G0 Z3.000
G1 X102.569 Y-7.315 Z-3.000 F300.000
G2 X103.313 Y-9.217 Z-3.000 I-2.871 J-2.220 K0.000 F300.000
G2 X103.048 Y-12.629 Z-3.000 I-12.508 J-0.744 K0.000 F300.000
G1 X103.213 Y-12.783 Z-3.000 F300.000
G2 X105.145 Y-14.590 Z-3.000 I-5.854 J-8.195 K0.000 F300.000
G2 X106.324 Y-17.276 Z-3.000 I-3.342 J-3.068 K0.000 F300.000
G2 X106.074 Y-19.791 Z-3.000 I-12.895 J0.009 K0.000 F300.000
G2 X104.157 Y-22.404 Z-3.000 I-4.708 J1.444 K0.000 F300.000
G1 X104.157 Y-22.404 Z-3.000 F300.000
G3 X103.293 Y-23.173 Z-3.000 I4.016 J-5.385 K0.000 F300.000
G3 X102.875 Y-23.847 Z-3.000 I0.934 J-1.045 K0.000 F300.000
G3 X103.151 Y-25.172 Z-3.000 I1.522 J-0.374 K0.000 F300.000
G2 X105.067 Y-28.079 Z-3.000 I-3.578 J-4.444 K0.000 F300.000
G2 X105.247 Y-30.847 Z-3.000 I-7.722 J-1.890 K0.000 F300.000
G2 X103.384 Y-34.606 Z-3.000 I-5.463 J0.367 K0.000 F300.000
G3 X103.138 Y-36.664 Z-3.000 I0.940 J-1.156 K0.000 F300.000
G3 X104.749 Y-38.097 Z-3.000 I17.513 J18.058 K0.000 F300.000
G2 X106.073 Y-40.240 Z-3.000 I-3.368 J-3.562 K0.000 F300.000
G2 X106.305 Y-41.796 Z-3.000 I-22.453 J-4.144 K0.000 F300.000
G2 X105.851 Y-44.372 Z-3.000 I-4.273 J-0.575 K0.000 F300.000
G2 X103.490 Y-47.020 Z-3.000 I-8.097 J4.842 K0.000 F300.000
G3 X103.055 Y-47.357 Z-3.000 I1.509 J-2.396 K0.000 F300.000
G1 X103.077 Y-47.502 Z-3.000 F300.000
G1 X103.077 Y-47.502 Z-3.000 F300.000
G2 X103.309 Y-50.673 Z-3.000 I-11.489 J-2.434 K0.000 F300.000
G2 X101.656 Y-53.531 Z-3.000 I-3.619 J0.187 K0.000 F300.000
G2 X99.028 Y-53.623 Z-3.000 I-1.407 J2.601 K0.000 F300.000
G2 X95.891 Y-52.047 Z-3.000 I151.979 J306.520 K0.000 F300.000
G3 X94.055 Y-51.318 Z-3.000 I-4.089 J-7.622 K0.000 F300.000
G1 X88.582 Y-50.133 Z-3.000 F300.000
G3 X87.792 Y-50.001 Z-3.000 I-1.351 J-5.672 K0.000 F300.000
G3 X86.733 Y-50.098 Z-3.000 I-0.384 J-1.632 K0.000 F300.000
G3 X86.122 Y-50.795 Z-3.000 I3.760 J-3.914 K0.000 F300.000
G2 X83.059 Y-54.050 Z-3.000 I-10.733 J7.032 K0.000 F300.000
G2 X79.610 Y-55.517 Z-3.000 I-4.678 J6.207 K0.000 F300.000
G2 X77.763 Y-55.593 Z-3.000 I-1.270 J8.417 K0.000 F300.000
G2 X73.569 Y-52.919 Z-3.000 I0.294 J5.087 K0.000 F300.000
G2 X72.797 Y-48.775 Z-3.000 I6.816 J3.413 K0.000 F300.000
G1 X69.669 Y-48.660 Z-3.000 F300.000
G2 X68.737 Y-48.526 Z-3.000 I0.679 J8.048 K0.000 F300.000
G2 X62.895 Y-46.618 Z-3.000 I2.390 J17.212 K0.000 F300.000
G1 X60.759 Y-45.217 Z-3.000 F300.000
G1 X60.596 Y-45.092 Z-3.000 F300.000
G1 X58.673 Y-43.414 Z-3.000 F300.000
G1 X58.416 Y-43.123 Z-3.000 F300.000
G2 X54.990 Y-37.017 Z-3.000 I28.313 J19.903 K0.000 F300.000
G1 X54.154 Y-34.549 Z-3.000 F300.000
G1 X54.096 Y-34.314 Z-3.000 F300.000
G1 X53.756 Y-32.233 Z-3.000 F300.000
G1 X53.736 Y-31.991 Z-3.000 F300.000
G1 X53.736 Y-28.009 Z-3.000 F300.000
G1 X53.756 Y-27.767 Z-3.000 F300.000
G1 X54.096 Y-25.686 Z-3.000 F300.000
G1 X54.154 Y-25.451 Z-3.000 F300.000
G1 X54.931 Y-23.131 Z-3.000 F300.000
G2 X58.416 Y-16.877 Z-3.000 I30.304 J-12.790 K0.000 F300.000
G1 X58.673 Y-16.586 Z-3.000 F300.000
G1 X60.596 Y-14.908 Z-3.000 F300.000
G1 X60.759 Y-14.783 Z-3.000 F300.000
G1 X62.895 Y-13.382 Z-3.000 F300.000
G2 X63.929 Y-12.865 Z-3.000 I4.580 J-7.860 K0.000 F300.000
G2 X69.669 Y-11.340 Z-3.000 I7.789 J-17.755 K0.000 F300.000
G1 X72.797 Y-11.225 Z-3.000 F300.000
G2 X73.048 Y-8.447 Z-3.000 I7.874 J0.690 K0.000 F300.000
G2 X76.412 Y-4.685 Z-3.000 I5.064 J-1.144 K0.000 F300.000
G2 X79.051 Y-4.422 Z-3.000 I2.021 J-6.884 K0.000 F300.000
G2 X83.212 Y-6.047 Z-3.000 I-0.668 J-7.846 K0.000 F300.000
G2 X85.686 Y-8.588 Z-3.000 I-8.020 J-10.285 K0.000 F300.000
G3 X86.723 Y-9.888 Z-3.000 I6.865 J4.408 K0.000 F300.000
G3 X87.069 Y-10.002 Z-3.000 I1.109 J2.800 K0.000 F300.000
G3 X88.170 Y-9.950 Z-3.000 I0.384 J3.581 K0.000 F300.000
G3 X94.086 Y-8.675 Z-3.000 I-37.806 J189.776 K0.000 F300.000
G3 X94.879 Y-8.418 Z-3.000 I-1.873 J7.134 K0.000 F300.000
G3 X98.912 Y-6.429 Z-3.000 I-41.785 J89.820 K0.000 F300.000
G2 X101.361 Y-6.309 Z-3.000 I1.368 J-2.874 K0.000 F300.000
G2 X102.569 Y-7.315 Z-3.000 I-1.663 J-3.226 K0.000 F300.000
G1 X102.569 Y-7.315 Z-6.000 F300.000
G2 X103.313 Y-9.217 Z-6.000 I-2.871 J-2.220 K0.000 F300.000
G2 X103.048 Y-12.629 Z-6.000 I-12.508 J-0.744 K0.000 F300.000
G1 X103.213 Y-12.783 Z-6.000 F300.000
G2 X105.145 Y-14.590 Z-6.000 I-5.854 J-8.195 K0.000 F300.000
G2 X106.324 Y-17.276 Z-6.000 I-3.342 J-3.068 K0.000 F300.000
G2 X106.074 Y-19.791 Z-6.000 I-12.895 J0.009 K0.000 F300.000
G2 X104.157 Y-22.404 Z-6.000 I-4.708 J1.444 K0.000 F300.000
G1 X104.157 Y-22.404 Z-6.000 F300.000
G3 X103.293 Y-23.173 Z-6.000 I4.016 J-5.385 K0.000 F300.000
G3 X102.875 Y-23.847 Z-6.000 I0.934 J-1.045 K0.000 F300.000
G3 X103.151 Y-25.172 Z-6.000 I1.522 J-0.374 K0.000 F300.000
G2 X105.067 Y-28.079 Z-6.000 I-3.578 J-4.444 K0.000 F300.000
G2 X105.247 Y-30.847 Z-6.000 I-7.722 J-1.890 K0.000 F300.000
G2 X103.384 Y-34.606 Z-6.000 I-5.463 J0.367 K0.000 F300.000
G3 X103.138 Y-36.664 Z-6.000 I0.940 J-1.156 K0.000 F300.000
G3 X104.749 Y-38.097 Z-6.000 I17.513 J18.058 K0.000 F300.000
G2 X106.073 Y-40.240 Z-6.000 I-3.368 J-3.562 K0.000 F300.000
G2 X106.305 Y-41.796 Z-6.000 I-22.453 J-4.144 K0.000 F300.000
G2 X105.851 Y-44.372 Z-6.000 I-4.273 J-0.575 K0.000 F300.000
G2 X103.490 Y-47.020 Z-6.000 I-8.097 J4.842 K0.000 F300.000
G3 X103.055 Y-47.357 Z-6.000 I1.509 J-2.396 K0.000 F300.000
G1 X103.077 Y-47.502 Z-6.000 F300.000
G1 X103.077 Y-47.502 Z-6.000 F300.000
G2 X103.309 Y-50.673 Z-6.000 I-11.489 J-2.434 K0.000 F300.000
G2 X101.656 Y-53.531 Z-6.000 I-3.619 J0.187 K0.000 F300.000
G2 X99.028 Y-53.623 Z-6.000 I-1.407 J2.601 K0.000 F300.000
G2 X95.891 Y-52.047 Z-6.000 I151.979 J306.520 K0.000 F300.000
G3 X94.055 Y-51.318 Z-6.000 I-4.089 J-7.622 K0.000 F300.000
G1 X88.582 Y-50.133 Z-6.000 F300.000
G3 X87.792 Y-50.001 Z-6.000 I-1.351 J-5.672 K0.000 F300.000
