(Exported by FreeCAD)
(Post Processor: script_module)
(Output Time:2026-04-09 15:45:58.948580)
(Begin preamble)
G17 G90
G21
(Begin operation: Fixture)
(Path: Fixture)
G54
(Finish operation: Fixture)
(Begin operation: 3mm001)
(Path: 3mm001)
(3mm001)
(Begin toolchange)
( M6 T2 )
M3 S10000
(Finish operation: 3mm001)
(Begin operation: Profile)
(Path: Profile)
(Profile)
(Compensated Tool Path. Diameter: 3.0)
G0 Z4.995
G0 X-6.434 Y11.164
G0 Z2.995
G1 X-6.434 Y11.164 Z-3.005 F360.000
G2 X-6.392 Y11.048 Z-3.005 I-0.215 J-0.145 K0.000 F360.000
G2 X-6.418 Y8.775 Z-3.005 I-4.552 J-1.084 K0.000 F360.000
G2 X-6.628 Y8.677 Z-3.005 I-0.209 J0.173 K0.000 F360.000
G2 X-7.225 Y8.765 Z-3.005 I-0.238 J0.459 K0.000 F360.000
G2 X-7.378 Y10.637 Z-3.005 I1.856 J1.094 K0.000 F360.000
G2 X-6.691 Y11.275 Z-3.005 I1.320 J-0.731 K0.000 F360.000
G2 X-6.434 Y11.164 Z-3.005 I0.042 J-0.256 K0.000 F360.000
G1 X-6.434 Y11.164 Z-5.005 F360.000
G2 X-6.392 Y11.048 Z-5.005 I-0.215 J-0.145 K0.000 F360.000
G2 X-6.418 Y8.775 Z-5.005 I-4.552 J-1.084 K0.000 F360.000
G2 X-6.628 Y8.677 Z-5.005 I-0.209 J0.173 K0.000 F360.000
G2 X-7.225 Y8.765 Z-5.005 I-0.238 J0.459 K0.000 F360.000
G2 X-7.378 Y10.637 Z-5.005 I1.856 J1.094 K0.000 F360.000
G2 X-6.691 Y11.275 Z-5.005 I1.320 J-0.731 K0.000 F360.000
G2 X-6.434 Y11.164 Z-5.005 I0.042 J-0.256 K0.000 F360.000
G0 Z4.995
G0 Z4.995
(Finish operation: Profile)
(Begin operation: Profile001)
(Path: Profile001)
(Profile001)
(Compensated Tool Path. Diameter: 3.0)
G0 Z4.995
G0 X7.159 Y10.938
G0 Z2.995
G1 X7.159 Y10.938 Z-3.005 F360.000
G2 X7.378 Y10.637 Z-3.005 I-1.001 J-0.960 K0.000 F360.000
G2 X7.329 Y8.957 Z-3.005 I-2.216 J-0.775 K0.000 F360.000
G2 X7.129 Y8.703 Z-3.005 I-0.326 J0.051 K0.000 F360.000
G2 X6.391 Y8.853 Z-3.005 I-0.286 J0.480 K0.000 F360.000
G2 X6.385 Y11.033 Z-3.005 I4.740 J1.103 K0.000 F360.000
G2 X6.651 Y11.275 Z-3.005 I0.267 J-0.027 K0.000 F360.000
G2 X7.159 Y10.938 Z-3.005 I-0.494 J-1.296 K0.000 F360.000
G1 X7.159 Y10.938 Z-5.005 F360.000
G2 X7.378 Y10.637 Z-5.005 I-1.001 J-0.960 K0.000 F360.000
G2 X7.329 Y8.957 Z-5.005 I-2.216 J-0.775 K0.000 F360.000
G2 X7.129 Y8.703 Z-5.005 I-0.326 J0.051 K0.000 F360.000
G2 X6.391 Y8.853 Z-5.005 I-0.286 J0.480 K0.000 F360.000
G2 X6.385 Y11.033 Z-5.005 I4.740 J1.103 K0.000 F360.000
G2 X6.651 Y11.275 Z-5.005 I0.267 J-0.027 K0.000 F360.000
G2 X7.159 Y10.938 Z-5.005 I-0.494 J-1.296 K0.000 F360.000
G0 Z4.995
G0 Z4.995
(Finish operation: Profile001)
(Begin operation: Profile002)
(Path: Profile002)
(Profile002)
(Compensated Tool Path. Diameter: 3.0)
G0 Z4.995
G0 X8.047 Y1.912
G0 Z2.995
G1 X8.047 Y1.912 Z-3.005 F360.000
G2 X8.258 Y1.160 Z-3.005 I-3.169 J-1.296 K0.000 F360.000
G2 X8.798 Y-2.595 Z-3.005 I-1076.422 J-156.585 K0.000 F360.000
G2 X8.581 Y-2.511 Z-3.005 I0.417 J1.403 K0.000 F360.000
G2 X8.220 Y-2.142 Z-3.005 I0.904 J1.246 K0.000 F360.000
G3 X7.111 Y-0.942 Z-3.005 I-3.051 J-1.706 K0.000 F360.000
G3 X5.391 Y-0.890 Z-3.005 I-0.924 J-2.093 K0.000 F360.000
G3 X4.041 Y-2.593 Z-3.005 I0.917 J-2.113 K0.000 F360.000
G2 X3.857 Y-2.821 Z-3.005 I-0.186 J-0.038 K0.000 F360.000
G3 X2.783 Y-1.359 Z-3.005 I-5.385 J-2.832 K0.000 F360.000
G3 X0.326 Y-0.254 Z-3.005 I-2.921 J-3.208 K0.000 F360.000
G3 X-2.161 Y-0.857 Z-3.005 I-0.265 J-4.331 K0.000 F360.000
G3 X-3.844 Y-2.820 Z-3.005 I2.657 J-3.980 K0.000 F360.000
G2 X-3.975 Y-2.779 Z-3.005 I0.051 J0.392 K0.000 F360.000
G3 X-4.779 Y-1.265 Z-3.005 I-2.919 J-0.579 K0.000 F360.000
G3 X-6.787 Y-0.808 Z-3.005 I-1.461 J-1.781 K0.000 F360.000
G3 X-7.991 Y-1.801 Z-3.005 I0.846 J-2.252 K0.000 F360.000
G2 X-8.362 Y-2.297 Z-3.005 I-1.220 J0.528 K0.000 F360.000
G2 X-8.790 Y-2.593 Z-3.005 I-0.559 J0.351 K0.000 F360.000
G3 X-8.214 Y1.386 Z-3.005 I-249.196 J38.122 K0.000 F360.000
G2 X-7.924 Y2.179 Z-3.005 I1.905 J-0.248 K0.000 F360.000
G2 X-7.340 Y2.211 Z-3.005 I0.402 J-1.966 K0.000 F360.000
G3 X-6.154 Y0.875 Z-3.005 I2.383 J0.921 K0.000 F360.000
G3 X-3.401 Y1.847 Z-3.005 I0.849 J1.980 K0.000 F360.000
G2 X-2.985 Y2.184 Z-3.005 I0.757 J-0.507 K0.000 F360.000
G3 X-0.118 Y0.689 Z-3.005 I2.626 J1.539 K0.000 F360.000
G1 X-0.118 Y0.689 Z-3.005 F360.000
G1 X-0.000 Y0.689 Z-3.005 F360.000
G3 X2.988 Y2.189 Z-3.005 I0.322 J3.085 K0.000 F360.000
G2 X3.418 Y1.841 Z-3.005 I-0.503 J-1.060 K0.000 F360.000
G3 X6.329 Y0.984 Z-3.005 I1.862 J0.952 K0.000 F360.000
G3 X7.327 Y2.199 Z-3.005 I-1.225 J2.023 K0.000 F360.000
G2 X7.934 Y2.161 Z-3.005 I0.149 J-2.515 K0.000 F360.000
G2 X8.047 Y1.912 Z-3.005 I-3.056 J-1.545 K0.000 F360.000
G1 X8.047 Y1.912 Z-5.005 F360.000
G2 X8.258 Y1.160 Z-5.005 I-3.169 J-1.296 K0.000 F360.000
G2 X8.798 Y-2.595 Z-5.005 I-1076.422 J-156.585 K0.000 F360.000
G2 X8.581 Y-2.511 Z-5.005 I0.417 J1.403 K0.000 F360.000
G2 X8.220 Y-2.142 Z-5.005 I0.904 J1.246 K0.000 F360.000
G3 X7.111 Y-0.942 Z-5.005 I-3.051 J-1.706 K0.000 F360.000
G3 X5.391 Y-0.890 Z-5.005 I-0.924 J-2.093 K0.000 F360.000
G3 X4.041 Y-2.593 Z-5.005 I0.917 J-2.113 K0.000 F360.000
G2 X3.857 Y-2.821 Z-5.005 I-0.186 J-0.038 K0.000 F360.000
G3 X2.783 Y-1.359 Z-5.005 I-5.385 J-2.832 K0.000 F360.000
G3 X0.326 Y-0.254 Z-5.005 I-2.921 J-3.208 K0.000 F360.000
G3 X-2.161 Y-0.857 Z-5.005 I-0.265 J-4.331 K0.000 F360.000
G3 X-3.844 Y-2.820 Z-5.005 I2.657 J-3.980 K0.000 F360.000
G2 X-3.975 Y-2.779 Z-5.005 I0.051 J0.392 K0.000 F360.000
G3 X-4.779 Y-1.265 Z-5.005 I-2.919 J-0.579 K0.000 F360.000
G3 X-6.787 Y-0.808 Z-5.005 I-1.461 J-1.781 K0.000 F360.000
G3 X-7.991 Y-1.801 Z-5.005 I0.846 J-2.252 K0.000 F360.000
G2 X-8.362 Y-2.297 Z-5.005 I-1.220 J0.528 K0.000 F360.000
G2 X-8.790 Y-2.593 Z-5.005 I-0.559 J0.351 K0.000 F360.000
G3 X-8.214 Y1.386 Z-5.005 I-249.196 J38.122 K0.000 F360.000
G2 X-7.924 Y2.179 Z-5.005 I1.905 J-0.248 K0.000 F360.000
G2 X-7.340 Y2.211 Z-5.005 I0.402 J-1.966 K0.000 F360.000
G3 X-6.154 Y0.875 Z-5.005 I2.383 J0.921 K0.000 F360.000
G3 X-3.401 Y1.847 Z-5.005 I0.849 J1.980 K0.000 F360.000
G2 X-2.985 Y2.184 Z-5.005 I0.757 J-0.507 K0.000 F360.000
G3 X-0.118 Y0.689 Z-5.005 I2.626 J1.539 K0.000 F360.000
G1 X-0.118 Y0.689 Z-5.005 F360.000
G1 X-0.000 Y0.689 Z-5.005 F360.000
G3 X2.988 Y2.189 Z-5.005 I0.322 J3.085 K0.000 F360.000
G2 X3.418 Y1.841 Z-5.005 I-0.503 J-1.060 K0.000 F360.000
G3 X6.329 Y0.984 Z-5.005 I1.862 J0.952 K0.000 F360.000
G3 X7.327 Y2.199 Z-5.005 I-1.225 J2.023 K0.000 F360.000
G2 X7.934 Y2.161 Z-5.005 I0.149 J-2.515 K0.000 F360.000
G2 X8.047 Y1.912 Z-5.005 I-3.056 J-1.545 K0.000 F360.000
G0 Z4.995
G0 Z4.995
(Finish operation: Profile002)
(Begin operation: Profile003)
(Path: Profile003)
(Profile003)
(Compensated Tool Path. Diameter: 3.0)
G0 Z4.995
G0 X15.481 Y16.583
G0 Z2.995
G1 X15.481 Y16.583 Z-3.005 F360.000
G1 X16.546 Y15.182 Z-3.005 F360.000
G1 X16.742 Y14.838 Z-3.005 F360.000
G1 X17.966 Y11.824 Z-3.005 F360.000
G1 X18.050 Y11.538 Z-3.005 F360.000
G1 X18.618 Y8.532 Z-3.005 F360.000
G1 X18.642 Y8.323 Z-3.005 F360.000
G1 X18.786 Y5.213 Z-3.005 F360.000
G1 X18.996 Y5.205 Z-3.005 F360.000
G2 X23.281 Y4.215 Z-3.005 I0.585 J-7.235 K0.000 F360.000
G1 X24.024 Y3.593 Z-3.005 F360.000
G2 X25.299 Y1.617 Z-3.005 I-3.197 J-3.462 K0.000 F360.000
G2 X24.444 Y-4.468 Z-3.005 I-7.174 J-2.095 K0.000 F360.000
G2 X21.162 Y-7.855 Z-3.005 I-9.435 J5.858 K0.000 F360.000
G1 X21.162 Y-7.855 Z-3.005 F360.000
G3 X20.211 Y-8.631 Z-3.005 I4.803 J-6.863 K0.000 F360.000
G3 X19.984 Y-9.138 Z-3.005 I0.803 J-0.664 K0.000 F360.000
G3 X20.008 Y-9.786 Z-3.005 I5.129 J-0.137 K0.000 F360.000
G3 X21.318 Y-15.988 Z-3.005 I65.675 J10.631 K0.000 F360.000
G1 X21.967 Y-17.706 Z-3.005 F360.000
G1 X22.286 Y-18.345 Z-3.005 F360.000
G2 X23.759 Y-21.421 Z-3.005 I-47.400 J-24.584 K0.000 F360.000
G2 X23.872 Y-22.169 Z-3.005 I-1.379 J-0.591 K0.000 F360.000
G2 X23.634 Y-23.483 Z-3.005 I-3.673 J-0.013 K0.000 F360.000
G2 X21.046 Y-25.270 Z-3.005 I-3.208 J1.877 K0.000 F360.000
G2 X19.175 Y-25.319 Z-3.005 I-1.140 J7.843 K0.000 F360.000
G3 X17.357 Y-25.065 Z-3.005 I-2785.163 J-19926.934 K0.000 F360.000
G1 X17.220 Y-25.212 Z-3.005 F360.000
G2 X14.775 Y-27.610 Z-3.005 I-8.703 J6.430 K0.000 F360.000
G2 X13.651 Y-28.139 Z-3.005 I-3.197 J5.329 K0.000 F360.000
G1 X13.212 Y-28.258 Z-3.005 F360.000
G2 X11.044 Y-28.208 Z-3.005 I-0.939 J6.391 K0.000 F360.000
G2 X8.056 Y-26.715 Z-3.005 I0.428 J4.594 K0.000 F360.000
G3 X6.578 Y-25.085 Z-3.005 I-9.517 J-7.141 K0.000 F360.000
G3 X4.828 Y-25.157 Z-3.005 I-0.822 J-1.351 K0.000 F360.000
G2 X1.991 Y-27.035 Z-3.005 I-4.417 J3.588 K0.000 F360.000
G2 X-1.222 Y-27.186 Z-3.005 I-1.962 J7.533 K0.000 F360.000
G2 X-3.442 Y-26.384 Z-3.005 I0.506 J4.878 K0.000 F360.000
G2 X-4.898 Y-25.108 Z-3.005 I6.972 J9.421 K0.000 F360.000
G3 X-6.428 Y-24.988 Z-3.005 I-0.869 J-1.272 K0.000 F360.000
G3 X-7.683 Y-26.259 Z-3.005 I5.152 J-6.341 K0.000 F360.000
G2 X-9.749 Y-27.910 Z-3.005 I-4.118 J3.035 K0.000 F360.000
G2 X-13.331 Y-28.239 Z-3.005 I-2.531 J7.880 K0.000 F360.000
G2 X-14.514 Y-27.758 Z-3.005 I1.546 J5.493 K0.000 F360.000
G2 X-16.380 Y-26.225 Z-3.005 I3.783 J6.510 K0.000 F360.000
G2 X-17.366 Y-25.069 Z-3.005 I14.517 J13.373 K0.000 F360.000
G1 X-17.804 Y-25.127 Z-3.005 F360.000
G2 X-20.375 Y-25.339 Z-3.005 I-2.184 J10.797 K0.000 F360.000
G2 X-23.717 Y-23.288 Z-3.005 I-0.044 J3.675 K0.000 F360.000
G2 X-23.859 Y-21.759 Z-3.005 I4.701 J1.209 K0.000 F360.000
G2 X-23.558 Y-20.938 Z-3.005 I3.796 J-0.923 K0.000 F360.000
G2 X-21.967 Y-17.706 Z-3.005 I52.959 J-24.073 K0.000 F360.000
G1 X-21.316 Y-15.984 Z-3.005 F360.000
G3 X-20.266 Y-11.265 Z-3.005 I-66.680 J17.318 K0.000 F360.000
G3 X-19.989 Y-9.120 Z-3.005 I-10.219 J2.411 K0.000 F360.000
G3 X-20.114 Y-8.726 Z-3.005 I-2.499 J-0.583 K0.000 F360.000
G3 X-20.812 Y-8.114 Z-3.005 I-4.437 J-4.346 K0.000 F360.000
G2 X-24.420 Y-4.504 Z-3.005 I6.390 J9.995 K0.000 F360.000
G2 X-25.535 Y0.512 Z-3.005 I6.244 J4.020 K0.000 F360.000
G2 X-24.957 Y2.400 Z-3.005 I4.822 J-0.442 K0.000 F360.000
G2 X-23.281 Y4.215 Z-3.005 I5.016 J-2.951 K0.000 F360.000
G1 X-22.908 Y4.444 Z-3.005 F360.000
G2 X-18.786 Y5.216 Z-3.005 I3.511 J-7.362 K0.000 F360.000
G1 X-18.642 Y8.323 Z-3.005 F360.000
G1 X-18.618 Y8.532 Z-3.005 F360.000
G1 X-18.050 Y11.538 Z-3.005 F360.000
G1 X-17.966 Y11.824 Z-3.005 F360.000
G1 X-16.742 Y14.838 Z-3.005 F360.000
G1 X-16.546 Y15.182 Z-3.005 F360.000
G1 X-13.466 Y19.232 Z-3.005 F360.000
G2 X-13.050 Y19.607 Z-3.005 I1.194 J-0.908 K0.000 F360.000
G1 X-8.957 Y22.088 Z-3.005 F360.000
G1 X-8.726 Y22.202 Z-3.005 F360.000
G1 X-4.647 Y23.798 Z-3.005 F360.000
G1 X-4.240 Y23.894 Z-3.005 F360.000
G1 X-0.140 Y24.278 Z-3.005 F360.000
G1 X0.140 Y24.278 Z-3.005 F360.000
G1 X4.240 Y23.894 Z-3.005 F360.000
G1 X4.647 Y23.798 Z-3.005 F360.000
G1 X8.726 Y22.202 Z-3.005 F360.000
G1 X8.957 Y22.088 Z-3.005 F360.000
G1 X13.050 Y19.607 Z-3.005 F360.000
G2 X13.466 Y19.232 Z-3.005 I-0.778 J-1.283 K0.000 F360.000
G1 X15.481 Y16.583 Z-3.005 F360.000
G1 X15.481 Y16.583 Z-5.005 F360.000
G1 X16.546 Y15.182 Z-5.005 F360.000
G1 X16.742 Y14.838 Z-5.005 F360.000
G1 X17.966 Y11.824 Z-5.005 F360.000
G1 X18.050 Y11.538 Z-5.005 F360.000
G1 X18.618 Y8.532 Z-5.005 F360.000
G1 X18.642 Y8.323 Z-5.005 F360.000
G1 X18.786 Y5.213 Z-5.005 F360.000
G1 X18.996 Y5.205 Z-5.005 F360.000
G2 X23.281 Y4.215 Z-5.005 I0.585 J-7.235 K0.000 F360.000
G1 X24.024 Y3.593 Z-5.005 F360.000
G2 X25.299 Y1.617 Z-5.005 I-3.197 J-3.462 K0.000 F360.000
G2 X24.444 Y-4.468 Z-5.005 I-7.174 J-2.095 K0.000 F360.000
G2 X21.162 Y-7.855 Z-5.005 I-9.435 J5.858 K0.000 F360.000
G1 X21.162 Y-7.855 Z-5.005 F360.000
G3 X20.211 Y-8.631 Z-5.005 I4.803 J-6.863 K0.000 F360.000
G3 X19.984 Y-9.138 Z-5.005 I0.803 J-0.664 K0.000 F360.000
G3 X20.008 Y-9.786 Z-5.005 I5.129 J-0.137 K0.000 F360.000
G3 X21.318 Y-15.988 Z-5.005 I65.675 J10.631 K0.000 F360.000
G1 X21.967 Y-17.706 Z-5.005 F360.000
G1 X22.286 Y-18.345 Z-5.005 F360.000
G2 X23.759 Y-21.421 Z-5.005 I-47.400 J-24.584 K0.000 F360.000
G2 X23.872 Y-22.169 Z-5.005 I-1.379 J-0.591 K0.000 F360.000
G2 X23.634 Y-23.483 Z-5.005 I-3.673 J-0.013 K0.000 F360.000
G2 X21.046 Y-25.270 Z-5.005 I-3.208 J1.877 K0.000 F360.000
G2 X19.175 Y-25.319 Z-5.005 I-1.140 J7.843 K0.000 F360.000
G3 X17.357 Y-25.065 Z-5.005 I-2785.163 J-19926.934 K0.000 F360.000
G1 X17.220 Y-25.212 Z-5.005 F360.000
G2 X14.775 Y-27.610 Z-5.005 I-8.703 J6.430 K0.000 F360.000
G2 X13.651 Y-28.139 Z-5.005 I-3.197 J5.329 K0.000 F360.000
G1 X13.212 Y-28.258 Z-5.005 F360.000
G2 X11.044 Y-28.208 Z-5.005 I-0.939 J6.391 K0.000 F360.000
G2 X8.056 Y-26.715 Z-5.005 I0.428 J4.594 K0.000 F360.000
G3 X6.578 Y-25.085 Z-5.005 I-9.517 J-7.141 K0.000 F360.000
G3 X4.828 Y-25.157 Z-5.005 I-0.822 J-1.351 K0.000 F360.000
G2 X1.991 Y-27.035 Z-5.005 I-4.417 J3.588 K0.000 F360.000
G2 X-1.222 Y-27.186 Z-5.005 I-1.962 J7.533 K0.000 F360.000
G2 X-3.442 Y-26.384 Z-5.005 I0.506 J4.878 K0.000 F360.000
G2 X-4.898 Y-25.108 Z-5.005 I6.972 J9.421 K0.000 F360.000
G3 X-6.428 Y-24.988 Z-5.005 I-0.869 J-1.272 K0.000 F360.000
G3 X-7.683 Y-26.259 Z-5.005 I5.152 J-6.341 K0.000 F360.000
G2 X-9.749 Y-27.910 Z-5.005 I-4.118 J3.035 K0.000 F360.000
G2 X-13.331 Y-28.239 Z-5.005 I-2.531 J7.880 K0.000 F360.000
G2 X-14.514 Y-27.758 Z-5.005 I1.546 J5.493 K0.000 F360.000
G2 X-16.380 Y-26.225 Z-5.005 I3.783 J6.510 K0.000 F360.000
G2 X-17.366 Y-25.069 Z-5.005 I14.517 J13.373 K0.000 F360.000
G1 X-17.804 Y-25.127 Z-5.005 F360.000
G2 X-20.375 Y-25.339 Z-5.005 I-2.184 J10.797 K0.000 F360.000
G2 X-23.717 Y-23.288 Z-5.005 I-0.044 J3.675 K0.000 F360.000
G2 X-23.859 Y-21.759 Z-5.005 I4.701 J1.209 K0.000 F360.000
G2 X-23.558 Y-20.938 Z-5.005 I3.796 J-0.923 K0.000 F360.000
G2 X-21.967 Y-17.706 Z-5.005 I52.959 J-24.073 K0.000 F360.000
G1 X-21.316 Y-15.984 Z-5.005 F360.000
G3 X-20.266 Y-11.265 Z-5.005 I-66.680 J17.318 K0.000 F360.000
G3 X-19.989 Y-9.120 Z-5.005 I-10.219 J2.411 K0.000 F360.000
G3 X-20.114 Y-8.726 Z-5.005 I-2.499 J-0.583 K0.000 F360.000
G3 X-20.812 Y-8.114 Z-5.005 I-4.437 J-4.346 K0.000 F360.000
G2 X-24.420 Y-4.504 Z-5.005 I6.390 J9.995 K0.000 F360.000
G2 X-25.535 Y0.512 Z-5.005 I6.244 J4.020 K0.000 F360.000
G2 X-24.957 Y2.400 Z-5.005 I4.822 J-0.442 K0.000 F360.000
G2 X-23.281 Y4.215 Z-5.005 I5.016 J-2.951 K0.000 F360.000
G1 X-22.908 Y4.444 Z-5.005 F360.000
G2 X-18.786 Y5.216 Z-5.005 I3.511 J-7.362 K0.000 F360.000
G1 X-18.642 Y8.323 Z-5.005 F360.000
G1 X-18.618 Y8.532 Z-5.005 F360.000
G1 X-18.050 Y11.538 Z-5.005 F360.000
G1 X-17.966 Y11.824 Z-5.005 F360.000
G1 X-16.742 Y14.838 Z-5.005 F360.000
G1 X-16.546 Y15.182 Z-5.005 F360.000
G1 X-13.466 Y19.232 Z-5.005 F360.000
G2 X-13.050 Y19.607 Z-5.005 I1.194 J-0.908 K0.000 F360.000
G1 X-8.957 Y22.088 Z-5.005 F360.000
G1 X-8.726 Y22.202 Z-5.005 F360.000
G1 X-4.647 Y23.798 Z-5.005 F360.000
G1 X-4.240 Y23.894 Z-5.005 F360.000
G1 X-0.140 Y24.278 Z-5.005 F360.000
G1 X0.140 Y24.278 Z-5.005 F360.000
G1 X4.240 Y23.894 Z-5.005 F360.000
G1 X4.647 Y23.798 Z-5.005 F360.000
G1 X8.726 Y22.202 Z-5.005 F360.000
G1 X8.957 Y22.088 Z-5.005 F360.000
G1 X13.050 Y19.607 Z-5.005 F360.000
G2 X13.466 Y19.232 Z-5.005 I-0.778 J-1.283 K0.000 F360.000
G1 X15.481 Y16.583 Z-5.005 F360.000
G0 Z4.995
G0 Z4.995
(Finish operation: Profile003)
(Begin postamble)
M5
G17 G90
M2
