(Exported by FreeCAD)
(Post Processor: script_module)
(Output Time:2026-07-04 12:17:59.443026)
(Begin preamble)
G17 G90
G21
(Begin operation: Fixture)
(Path: Fixture)
G54
(Finish operation: Fixture)
(Begin operation: 12001)
(Path: 12001)
(12001)
(Begin toolchange)
( M6 T2 )
M3 S10000
(Finish operation: 12001)
(Begin operation: Profile000)
(Path: Profile000)
(Profile000)
(Compensated Tool Path. Diameter: 1.2)
G0 Z5.000
G0 X0.000 Y0.000
G0 X-0.862 Y-0.003
G0 X-0.862 Y-0.003 Z3.000
G1 X-0.862 Y-0.003 Z-1.000 F300.000
G3 X-0.787 Y-0.590 Z-1.000 I2.397 J0.008 K0.000 F300.000
G3 X0.872 Y-2.866 Z-1.000 I3.236 J0.617 K0.000 F300.000
G2 X1.585 Y-3.319 Z-1.000 I-0.554 J-1.656 K0.000 F300.000
G2 X1.375 Y-4.675 Z-1.000 I-0.985 J-0.541 K0.000 F300.000
G2 X0.638 Y-4.970 Z-1.000 I-1.953 J3.798 K0.000 F300.000
G3 X0.100 Y-7.101 Z-1.000 I0.213 J-1.187 K0.000 F300.000
G2 X0.773 Y-7.588 Z-1.000 I-3.467 J-5.495 K0.000 F300.000
G2 X1.565 Y-9.050 Z-1.000 I-1.111 J-1.548 K0.000 F300.000
G2 X1.109 Y-9.701 Z-1.000 I-0.969 J0.193 K0.000 F300.000
G1 X0.990 Y-9.733 Z-1.000 F300.000
G2 X-2.446 Y-9.259 Z-1.000 I11.078 J93.053 K0.000 F300.000
G2 X-4.167 Y-8.937 Z-1.000 I0.484 J7.353 K0.000 F300.000
G2 X-4.965 Y-8.425 Z-1.000 I0.320 J1.375 K0.000 F300.000
G2 X-5.102 Y-7.316 Z-1.000 I1.991 J0.809 K0.000 F300.000
G2 X-4.516 Y-6.483 Z-1.000 I0.778 J0.076 K0.000 F300.000
G3 X-4.055 Y-4.338 Z-1.000 I-0.318 J1.190 K0.000 F300.000
G2 X-4.873 Y-3.632 Z-1.000 I1.009 J1.994 K0.000 F300.000
G2 X-5.114 Y-2.537 Z-1.000 I1.009 J0.796 K0.000 F300.000
G2 X-4.775 Y-2.310 Z-1.000 I0.530 J-0.426 K0.000 F300.000
G3 X-3.679 Y-1.019 Z-1.000 I-1.100 J2.045 K0.000 F300.000
G3 X-3.576 Y0.476 Z-1.000 I-3.629 J1.002 K0.000 F300.000
G3 X-4.511 Y2.119 Z-1.000 I-2.124 J-0.122 K0.000 F300.000
G2 X-5.103 Y2.524 Z-1.000 I1.040 J2.153 K0.000 F300.000
G2 X-5.162 Y2.818 Z-1.000 I0.666 J0.286 K0.000 F300.000
G2 X-4.378 Y4.140 Z-1.000 I1.826 J-0.188 K0.000 F300.000
G3 X-3.615 Y5.017 Z-1.000 I-0.501 J1.207 K0.000 F300.000
G3 X-4.503 Y6.478 Z-1.000 I-1.225 J0.255 K0.000 F300.000
G2 X-5.048 Y6.939 Z-1.000 I0.120 J0.695 K0.000 F300.000
G2 X-5.096 Y7.829 Z-1.000 I2.872 J0.601 K0.000 F300.000
G2 X-4.772 Y8.629 Z-1.000 I0.922 J0.093 K0.000 F300.000
G2 X-3.333 Y9.144 Z-1.000 I2.093 J-3.578 K0.000 F300.000
G3 X0.844 Y9.736 Z-1.000 I-11.055 J93.157 K0.000 F300.000
G2 X1.141 Y9.682 Z-1.000 I-0.243 J-2.192 K0.000 F300.000
G2 X1.551 Y9.078 Z-1.000 I-0.574 J-0.830 K0.000 F300.000
G2 X0.428 Y7.305 Z-1.000 I-2.214 J0.160 K0.000 F300.000
G3 X-0.339 Y5.947 Z-1.000 I0.453 J-1.151 K0.000 F300.000
G3 X0.780 Y4.921 Z-1.000 I1.310 J0.304 K0.000 F300.000
G2 X1.493 Y4.560 Z-1.000 I-0.197 J-1.275 K0.000 F300.000
G2 X1.668 Y3.497 Z-1.000 I-1.028 J-0.715 K0.000 F300.000
G2 X1.124 Y2.978 Z-1.000 I-0.983 J0.484 K0.000 F300.000
G3 X-0.701 Y0.869 Z-1.000 I1.274 J-2.948 K0.000 F300.000
G3 X-0.862 Y-0.003 Z-1.000 I2.236 J-0.864 K0.000 F300.000
G1 X-0.862 Y-0.003 Z-2.000 F300.000
G3 X-0.787 Y-0.590 Z-2.000 I2.397 J0.008 K0.000 F300.000
G3 X0.872 Y-2.866 Z-2.000 I3.236 J0.617 K0.000 F300.000
G2 X1.585 Y-3.319 Z-2.000 I-0.554 J-1.656 K0.000 F300.000
G2 X1.375 Y-4.675 Z-2.000 I-0.985 J-0.541 K0.000 F300.000
G2 X0.638 Y-4.970 Z-2.000 I-1.953 J3.798 K0.000 F300.000
G3 X0.100 Y-7.101 Z-2.000 I0.213 J-1.187 K0.000 F300.000
G2 X0.773 Y-7.588 Z-2.000 I-3.467 J-5.495 K0.000 F300.000
G2 X1.565 Y-9.050 Z-2.000 I-1.111 J-1.548 K0.000 F300.000
G2 X1.109 Y-9.701 Z-2.000 I-0.969 J0.193 K0.000 F300.000
G1 X0.990 Y-9.733 Z-2.000 F300.000
G2 X-2.446 Y-9.259 Z-2.000 I11.078 J93.053 K0.000 F300.000
G2 X-4.167 Y-8.937 Z-2.000 I0.484 J7.353 K0.000 F300.000
G2 X-4.965 Y-8.425 Z-2.000 I0.320 J1.375 K0.000 F300.000
G2 X-5.102 Y-7.316 Z-2.000 I1.991 J0.809 K0.000 F300.000
G2 X-4.516 Y-6.483 Z-2.000 I0.778 J0.076 K0.000 F300.000
G3 X-4.055 Y-4.338 Z-2.000 I-0.318 J1.190 K0.000 F300.000
G2 X-4.873 Y-3.632 Z-2.000 I1.009 J1.994 K0.000 F300.000
G2 X-5.114 Y-2.537 Z-2.000 I1.009 J0.796 K0.000 F300.000
G2 X-4.775 Y-2.310 Z-2.000 I0.530 J-0.426 K0.000 F300.000
G3 X-3.679 Y-1.019 Z-2.000 I-1.100 J2.045 K0.000 F300.000
G3 X-3.576 Y0.476 Z-2.000 I-3.629 J1.002 K0.000 F300.000
G3 X-4.511 Y2.119 Z-2.000 I-2.124 J-0.122 K0.000 F300.000
G2 X-5.103 Y2.524 Z-2.000 I1.040 J2.153 K0.000 F300.000
G2 X-5.162 Y2.818 Z-2.000 I0.666 J0.286 K0.000 F300.000
G2 X-4.378 Y4.140 Z-2.000 I1.826 J-0.188 K0.000 F300.000
G3 X-3.615 Y5.017 Z-2.000 I-0.501 J1.207 K0.000 F300.000
G3 X-4.503 Y6.478 Z-2.000 I-1.225 J0.255 K0.000 F300.000
G2 X-5.048 Y6.939 Z-2.000 I0.120 J0.695 K0.000 F300.000
G2 X-5.096 Y7.829 Z-2.000 I2.872 J0.601 K0.000 F300.000
G2 X-4.772 Y8.629 Z-2.000 I0.922 J0.093 K0.000 F300.000
G2 X-3.333 Y9.144 Z-2.000 I2.093 J-3.578 K0.000 F300.000
G3 X0.844 Y9.736 Z-2.000 I-11.055 J93.157 K0.000 F300.000
G2 X1.141 Y9.682 Z-2.000 I-0.243 J-2.192 K0.000 F300.000
G2 X1.551 Y9.078 Z-2.000 I-0.574 J-0.830 K0.000 F300.000
G2 X0.428 Y7.305 Z-2.000 I-2.214 J0.160 K0.000 F300.000
G3 X-0.339 Y5.947 Z-2.000 I0.453 J-1.151 K0.000 F300.000
G3 X0.780 Y4.921 Z-2.000 I1.310 J0.304 K0.000 F300.000
G2 X1.493 Y4.560 Z-2.000 I-0.197 J-1.275 K0.000 F300.000
G2 X1.668 Y3.497 Z-2.000 I-1.028 J-0.715 K0.000 F300.000
G2 X1.124 Y2.978 Z-2.000 I-0.983 J0.484 K0.000 F300.000
G3 X-0.701 Y0.869 Z-2.000 I1.274 J-2.948 K0.000 F300.000
G3 X-0.862 Y-0.003 Z-2.000 I2.236 J-0.864 K0.000 F300.000
G1 X-0.862 Y-0.003 Z-3.000 F300.000
G3 X-0.787 Y-0.590 Z-3.000 I2.397 J0.008 K0.000 F300.000
G3 X0.872 Y-2.866 Z-3.000 I3.236 J0.617 K0.000 F300.000
G2 X1.585 Y-3.319 Z-3.000 I-0.554 J-1.656 K0.000 F300.000
G2 X1.375 Y-4.675 Z-3.000 I-0.985 J-0.541 K0.000 F300.000
G2 X0.638 Y-4.970 Z-3.000 I-1.953 J3.798 K0.000 F300.000
G3 X0.100 Y-7.101 Z-3.000 I0.213 J-1.187 K0.000 F300.000
G2 X0.773 Y-7.588 Z-3.000 I-3.467 J-5.495 K0.000 F300.000
G2 X1.565 Y-9.050 Z-3.000 I-1.111 J-1.548 K0.000 F300.000
G2 X1.109 Y-9.701 Z-3.000 I-0.969 J0.193 K0.000 F300.000
G1 X0.990 Y-9.733 Z-3.000 F300.000
G2 X-2.446 Y-9.259 Z-3.000 I11.078 J93.053 K0.000 F300.000
G2 X-4.167 Y-8.937 Z-3.000 I0.484 J7.353 K0.000 F300.000
G2 X-4.965 Y-8.425 Z-3.000 I0.320 J1.375 K0.000 F300.000
G2 X-5.102 Y-7.316 Z-3.000 I1.991 J0.809 K0.000 F300.000
G2 X-4.516 Y-6.483 Z-3.000 I0.778 J0.076 K0.000 F300.000
G3 X-4.055 Y-4.338 Z-3.000 I-0.318 J1.190 K0.000 F300.000
G2 X-4.873 Y-3.632 Z-3.000 I1.009 J1.994 K0.000 F300.000
G2 X-5.114 Y-2.537 Z-3.000 I1.009 J0.796 K0.000 F300.000
G2 X-4.775 Y-2.310 Z-3.000 I0.530 J-0.426 K0.000 F300.000
G3 X-3.679 Y-1.019 Z-3.000 I-1.100 J2.045 K0.000 F300.000
G3 X-3.576 Y0.476 Z-3.000 I-3.629 J1.002 K0.000 F300.000
G3 X-4.511 Y2.119 Z-3.000 I-2.124 J-0.122 K0.000 F300.000
G2 X-5.103 Y2.524 Z-3.000 I1.040 J2.153 K0.000 F300.000
G2 X-5.162 Y2.818 Z-3.000 I0.666 J0.286 K0.000 F300.000
G2 X-4.378 Y4.140 Z-3.000 I1.826 J-0.188 K0.000 F300.000
G3 X-3.615 Y5.017 Z-3.000 I-0.501 J1.207 K0.000 F300.000
G3 X-4.503 Y6.478 Z-3.000 I-1.225 J0.255 K0.000 F300.000
G2 X-5.048 Y6.939 Z-3.000 I0.120 J0.695 K0.000 F300.000
G2 X-5.096 Y7.829 Z-3.000 I2.872 J0.601 K0.000 F300.000
G2 X-4.772 Y8.629 Z-3.000 I0.922 J0.093 K0.000 F300.000
G2 X-3.333 Y9.144 Z-3.000 I2.093 J-3.578 K0.000 F300.000
G3 X0.844 Y9.736 Z-3.000 I-11.055 J93.157 K0.000 F300.000
G2 X1.141 Y9.682 Z-3.000 I-0.243 J-2.192 K0.000 F300.000
G2 X1.551 Y9.078 Z-3.000 I-0.574 J-0.830 K0.000 F300.000
G2 X0.428 Y7.305 Z-3.000 I-2.214 J0.160 K0.000 F300.000
G3 X-0.339 Y5.947 Z-3.000 I0.453 J-1.151 K0.000 F300.000
G3 X0.780 Y4.921 Z-3.000 I1.310 J0.304 K0.000 F300.000
G2 X1.493 Y4.560 Z-3.000 I-0.197 J-1.275 K0.000 F300.000
G2 X1.668 Y3.497 Z-3.000 I-1.028 J-0.715 K0.000 F300.000
G2 X1.124 Y2.978 Z-3.000 I-0.983 J0.484 K0.000 F300.000
G3 X-0.701 Y0.869 Z-3.000 I1.274 J-2.948 K0.000 F300.000
G3 X-0.862 Y-0.003 Z-3.000 I2.236 J-0.864 K0.000 F300.000
G1 X-0.862 Y-0.003 Z-4.000 F300.000
G3 X-0.787 Y-0.590 Z-4.000 I2.397 J0.008 K0.000 F300.000
G3 X0.872 Y-2.866 Z-4.000 I3.236 J0.617 K0.000 F300.000
G2 X1.585 Y-3.319 Z-4.000 I-0.554 J-1.656 K0.000 F300.000
G2 X1.375 Y-4.675 Z-4.000 I-0.985 J-0.541 K0.000 F300.000
G2 X0.638 Y-4.970 Z-4.000 I-1.953 J3.798 K0.000 F300.000
G3 X0.100 Y-7.101 Z-4.000 I0.213 J-1.187 K0.000 F300.000
G2 X0.773 Y-7.588 Z-4.000 I-3.467 J-5.495 K0.000 F300.000
G2 X1.565 Y-9.050 Z-4.000 I-1.111 J-1.548 K0.000 F300.000
G2 X1.109 Y-9.701 Z-4.000 I-0.969 J0.193 K0.000 F300.000
G1 X0.990 Y-9.733 Z-4.000 F300.000
G2 X-2.446 Y-9.259 Z-4.000 I11.078 J93.053 K0.000 F300.000
G2 X-4.167 Y-8.937 Z-4.000 I0.484 J7.353 K0.000 F300.000
G2 X-4.965 Y-8.425 Z-4.000 I0.320 J1.375 K0.000 F300.000
G2 X-5.102 Y-7.316 Z-4.000 I1.991 J0.809 K0.000 F300.000
G2 X-4.516 Y-6.483 Z-4.000 I0.778 J0.076 K0.000 F300.000
G3 X-4.055 Y-4.338 Z-4.000 I-0.318 J1.190 K0.000 F300.000
G2 X-4.873 Y-3.632 Z-4.000 I1.009 J1.994 K0.000 F300.000
G2 X-5.114 Y-2.537 Z-4.000 I1.009 J0.796 K0.000 F300.000
G2 X-4.775 Y-2.310 Z-4.000 I0.530 J-0.426 K0.000 F300.000
G3 X-3.679 Y-1.019 Z-4.000 I-1.100 J2.045 K0.000 F300.000
G3 X-3.576 Y0.476 Z-4.000 I-3.629 J1.002 K0.000 F300.000
G3 X-4.511 Y2.119 Z-4.000 I-2.124 J-0.122 K0.000 F300.000
G2 X-5.103 Y2.524 Z-4.000 I1.040 J2.153 K0.000 F300.000
G2 X-5.162 Y2.818 Z-4.000 I0.666 J0.286 K0.000 F300.000
G2 X-4.378 Y4.140 Z-4.000 I1.826 J-0.188 K0.000 F300.000
G3 X-3.615 Y5.017 Z-4.000 I-0.501 J1.207 K0.000 F300.000
G3 X-4.503 Y6.478 Z-4.000 I-1.225 J0.255 K0.000 F300.000
G2 X-5.048 Y6.939 Z-4.000 I0.120 J0.695 K0.000 F300.000
G2 X-5.096 Y7.829 Z-4.000 I2.872 J0.601 K0.000 F300.000
G2 X-4.772 Y8.629 Z-4.000 I0.922 J0.093 K0.000 F300.000
G2 X-3.333 Y9.144 Z-4.000 I2.093 J-3.578 K0.000 F300.000
G3 X0.844 Y9.736 Z-4.000 I-11.055 J93.157 K0.000 F300.000
G2 X1.141 Y9.682 Z-4.000 I-0.243 J-2.192 K0.000 F300.000
G2 X1.551 Y9.078 Z-4.000 I-0.574 J-0.830 K0.000 F300.000
G2 X0.428 Y7.305 Z-4.000 I-2.214 J0.160 K0.000 F300.000
G3 X-0.339 Y5.947 Z-4.000 I0.453 J-1.151 K0.000 F300.000
G3 X0.780 Y4.921 Z-4.000 I1.310 J0.304 K0.000 F300.000
G2 X1.493 Y4.560 Z-4.000 I-0.197 J-1.275 K0.000 F300.000
G2 X1.668 Y3.497 Z-4.000 I-1.028 J-0.715 K0.000 F300.000
G2 X1.124 Y2.978 Z-4.000 I-0.983 J0.484 K0.000 F300.000
G3 X-0.701 Y0.869 Z-4.000 I1.274 J-2.948 K0.000 F300.000
G3 X-0.862 Y-0.003 Z-4.000 I2.236 J-0.864 K0.000 F300.000
G1 X-0.862 Y-0.003 Z-5.000 F300.000
G3 X-0.787 Y-0.590 Z-5.000 I2.397 J0.008 K0.000 F300.000
G3 X0.872 Y-2.866 Z-5.000 I3.236 J0.617 K0.000 F300.000
G2 X1.585 Y-3.319 Z-5.000 I-0.554 J-1.656 K0.000 F300.000
G2 X1.375 Y-4.675 Z-5.000 I-0.985 J-0.541 K0.000 F300.000
G2 X0.638 Y-4.970 Z-5.000 I-1.953 J3.798 K0.000 F300.000
G3 X0.100 Y-7.101 Z-5.000 I0.213 J-1.187 K0.000 F300.000
G2 X0.773 Y-7.588 Z-5.000 I-3.467 J-5.495 K0.000 F300.000
G2 X1.565 Y-9.050 Z-5.000 I-1.111 J-1.548 K0.000 F300.000
G2 X1.109 Y-9.701 Z-5.000 I-0.969 J0.193 K0.000 F300.000
G1 X0.990 Y-9.733 Z-5.000 F300.000
G2 X-2.446 Y-9.259 Z-5.000 I11.078 J93.053 K0.000 F300.000
G2 X-4.167 Y-8.937 Z-5.000 I0.484 J7.353 K0.000 F300.000
G2 X-4.965 Y-8.425 Z-5.000 I0.320 J1.375 K0.000 F300.000
G2 X-5.102 Y-7.316 Z-5.000 I1.991 J0.809 K0.000 F300.000
G2 X-4.516 Y-6.483 Z-5.000 I0.778 J0.076 K0.000 F300.000
G3 X-4.055 Y-4.338 Z-5.000 I-0.318 J1.190 K0.000 F300.000
G2 X-4.873 Y-3.632 Z-5.000 I1.009 J1.994 K0.000 F300.000
G2 X-5.114 Y-2.537 Z-5.000 I1.009 J0.796 K0.000 F300.000
G2 X-4.775 Y-2.310 Z-5.000 I0.530 J-0.426 K0.000 F300.000
G3 X-3.679 Y-1.019 Z-5.000 I-1.100 J2.045 K0.000 F300.000
G3 X-3.576 Y0.476 Z-5.000 I-3.629 J1.002 K0.000 F300.000
G3 X-4.511 Y2.119 Z-5.000 I-2.124 J-0.122 K0.000 F300.000
G2 X-5.103 Y2.524 Z-5.000 I1.040 J2.153 K0.000 F300.000
G2 X-5.162 Y2.818 Z-5.000 I0.666 J0.286 K0.000 F300.000
G2 X-4.378 Y4.140 Z-5.000 I1.826 J-0.188 K0.000 F300.000
G3 X-3.615 Y5.017 Z-5.000 I-0.501 J1.207 K0.000 F300.000
G3 X-4.503 Y6.478 Z-5.000 I-1.225 J0.255 K0.000 F300.000
G2 X-5.048 Y6.939 Z-5.000 I0.120 J0.695 K0.000 F300.000
G2 X-5.096 Y7.829 Z-5.000 I2.872 J0.601 K0.000 F300.000
G2 X-4.772 Y8.629 Z-5.000 I0.922 J0.093 K0.000 F300.000
G2 X-3.333 Y9.144 Z-5.000 I2.093 J-3.578 K0.000 F300.000
G3 X0.844 Y9.736 Z-5.000 I-11.055 J93.157 K0.000 F300.000
G2 X1.141 Y9.682 Z-5.000 I-0.243 J-2.192 K0.000 F300.000
G2 X1.551 Y9.078 Z-5.000 I-0.574 J-0.830 K0.000 F300.000
G2 X0.428 Y7.305 Z-5.000 I-2.214 J0.160 K0.000 F300.000
G3 X-0.339 Y5.947 Z-5.000 I0.453 J-1.151 K0.000 F300.000
G3 X0.780 Y4.921 Z-5.000 I1.310 J0.304 K0.000 F300.000
G2 X1.493 Y4.560 Z-5.000 I-0.197 J-1.275 K0.000 F300.000
G2 X1.668 Y3.497 Z-5.000 I-1.028 J-0.715 K0.000 F300.000
G2 X1.124 Y2.978 Z-5.000 I-0.983 J0.484 K0.000 F300.000
G3 X-0.701 Y0.869 Z-5.000 I1.274 J-2.948 K0.000 F300.000
G3 X-0.862 Y-0.003 Z-5.000 I2.236 J-0.864 K0.000 F300.000
G1 X-0.862 Y-0.003 Z-6.000 F300.000
G3 X-0.787 Y-0.590 Z-6.000 I2.397 J0.008 K0.000 F300.000
G3 X0.872 Y-2.866 Z-6.000 I3.236 J0.617 K0.000 F300.000
G2 X1.585 Y-3.319 Z-6.000 I-0.554 J-1.656 K0.000 F300.000
G2 X1.375 Y-4.675 Z-6.000 I-0.985 J-0.541 K0.000 F300.000
G2 X0.638 Y-4.970 Z-6.000 I-1.953 J3.798 K0.000 F300.000
G3 X0.100 Y-7.101 Z-6.000 I0.213 J-1.187 K0.000 F300.000
G2 X0.773 Y-7.588 Z-6.000 I-3.467 J-5.495 K0.000 F300.000
G2 X1.565 Y-9.050 Z-6.000 I-1.111 J-1.548 K0.000 F300.000
G2 X1.109 Y-9.701 Z-6.000 I-0.969 J0.193 K0.000 F300.000
G1 X0.990 Y-9.733 Z-6.000 F300.000
G2 X-2.446 Y-9.259 Z-6.000 I11.078 J93.053 K0.000 F300.000
G2 X-4.167 Y-8.937 Z-6.000 I0.484 J7.353 K0.000 F300.000
G2 X-4.965 Y-8.425 Z-6.000 I0.320 J1.375 K0.000 F300.000
G2 X-5.102 Y-7.316 Z-6.000 I1.991 J0.809 K0.000 F300.000
G2 X-4.516 Y-6.483 Z-6.000 I0.778 J0.076 K0.000 F300.000
G3 X-4.055 Y-4.338 Z-6.000 I-0.318 J1.190 K0.000 F300.000
G2 X-4.873 Y-3.632 Z-6.000 I1.009 J1.994 K0.000 F300.000
G2 X-5.114 Y-2.537 Z-6.000 I1.009 J0.796 K0.000 F300.000
G2 X-4.775 Y-2.310 Z-6.000 I0.530 J-0.426 K0.000 F300.000
G3 X-3.679 Y-1.019 Z-6.000 I-1.100 J2.045 K0.000 F300.000
G3 X-3.576 Y0.476 Z-6.000 I-3.629 J1.002 K0.000 F300.000
G3 X-4.511 Y2.119 Z-6.000 I-2.124 J-0.122 K0.000 F300.000
G2 X-5.103 Y2.524 Z-6.000 I1.040 J2.153 K0.000 F300.000
G2 X-5.162 Y2.818 Z-6.000 I0.666 J0.286 K0.000 F300.000
G2 X-4.378 Y4.140 Z-6.000 I1.826 J-0.188 K0.000 F300.000
G3 X-3.615 Y5.017 Z-6.000 I-0.501 J1.207 K0.000 F300.000
G3 X-4.503 Y6.478 Z-6.000 I-1.225 J0.255 K0.000 F300.000
G2 X-5.048 Y6.939 Z-6.000 I0.120 J0.695 K0.000 F300.000
G2 X-5.096 Y7.829 Z-6.000 I2.872 J0.601 K0.000 F300.000
G2 X-4.772 Y8.629 Z-6.000 I0.922 J0.093 K0.000 F300.000
G2 X-3.333 Y9.144 Z-6.000 I2.093 J-3.578 K0.000 F300.000
G3 X0.844 Y9.736 Z-6.000 I-11.055 J93.157 K0.000 F300.000
G2 X1.141 Y9.682 Z-6.000 I-0.243 J-2.192 K0.000 F300.000
G2 X1.551 Y9.078 Z-6.000 I-0.574 J-0.830 K0.000 F300.000
G2 X0.428 Y7.305 Z-6.000 I-2.214 J0.160 K0.000 F300.000
G3 X-0.339 Y5.947 Z-6.000 I0.453 J-1.151 K0.000 F300.000
G3 X0.780 Y4.921 Z-6.000 I1.310 J0.304 K0.000 F300.000
G2 X1.493 Y4.560 Z-6.000 I-0.197 J-1.275 K0.000 F300.000
G2 X1.668 Y3.497 Z-6.000 I-1.028 J-0.715 K0.000 F300.000
G2 X1.124 Y2.978 Z-6.000 I-0.983 J0.484 K0.000 F300.000
G3 X-0.701 Y0.869 Z-6.000 I1.274 J-2.948 K0.000 F300.000
G3 X-0.862 Y-0.003 Z-6.000 I2.236 J-0.864 K0.000 F300.000
G0 Z5.000
G0 Z5.000
(Finish operation: Profile000)
(Begin operation: Profile001)
(Path: Profile001)
(Profile001)
(Compensated Tool Path. Diameter: 1.2)
G0 Z5.000
G0 X-10.138 Y7.798
G0 Z3.000
G1 X-10.138 Y7.798 Z-1.000 F300.000
G2 X-9.876 Y6.313 Z-1.000 I-0.670 J-0.884 K0.000 F300.000
G2 X-11.485 Y5.353 Z-1.000 I-1.831 J1.241 K0.000 F300.000
G2 X-13.864 Y6.017 Z-1.000 I-0.551 J2.616 K0.000 F300.000
G2 X-13.989 Y7.429 Z-1.000 I0.783 J0.781 K0.000 F300.000
G2 X-10.175 Y7.825 Z-1.000 I2.126 J-1.909 K0.000 F300.000
G2 X-10.138 Y7.798 Z-1.000 I-0.633 J-0.911 K0.000 F300.000
G1 X-10.138 Y7.798 Z-2.000 F300.000
G2 X-9.876 Y6.313 Z-2.000 I-0.670 J-0.884 K0.000 F300.000
G2 X-11.485 Y5.353 Z-2.000 I-1.831 J1.241 K0.000 F300.000
G2 X-13.864 Y6.017 Z-2.000 I-0.551 J2.616 K0.000 F300.000
G2 X-13.989 Y7.429 Z-2.000 I0.783 J0.781 K0.000 F300.000
G2 X-10.175 Y7.825 Z-2.000 I2.126 J-1.909 K0.000 F300.000
G2 X-10.138 Y7.798 Z-2.000 I-0.633 J-0.911 K0.000 F300.000
G1 X-10.138 Y7.798 Z-3.000 F300.000
G2 X-9.876 Y6.313 Z-3.000 I-0.670 J-0.884 K0.000 F300.000
G2 X-11.485 Y5.353 Z-3.000 I-1.831 J1.241 K0.000 F300.000
G2 X-13.864 Y6.017 Z-3.000 I-0.551 J2.616 K0.000 F300.000
G2 X-13.989 Y7.429 Z-3.000 I0.783 J0.781 K0.000 F300.000
G2 X-10.175 Y7.825 Z-3.000 I2.126 J-1.909 K0.000 F300.000
G2 X-10.138 Y7.798 Z-3.000 I-0.633 J-0.911 K0.000 F300.000
G1 X-10.138 Y7.798 Z-4.000 F300.000
G2 X-9.876 Y6.313 Z-4.000 I-0.670 J-0.884 K0.000 F300.000
G2 X-11.485 Y5.353 Z-4.000 I-1.831 J1.241 K0.000 F300.000
G2 X-13.864 Y6.017 Z-4.000 I-0.551 J2.616 K0.000 F300.000
G2 X-13.989 Y7.429 Z-4.000 I0.783 J0.781 K0.000 F300.000
G2 X-10.175 Y7.825 Z-4.000 I2.126 J-1.909 K0.000 F300.000
G2 X-10.138 Y7.798 Z-4.000 I-0.633 J-0.911 K0.000 F300.000
G1 X-10.138 Y7.798 Z-5.000 F300.000
G2 X-9.876 Y6.313 Z-5.000 I-0.670 J-0.884 K0.000 F300.000
G2 X-11.485 Y5.353 Z-5.000 I-1.831 J1.241 K0.000 F300.000
G2 X-13.864 Y6.017 Z-5.000 I-0.551 J2.616 K0.000 F300.000
G2 X-13.989 Y7.429 Z-5.000 I0.783 J0.781 K0.000 F300.000
G2 X-10.175 Y7.825 Z-5.000 I2.126 J-1.909 K0.000 F300.000
G2 X-10.138 Y7.798 Z-5.000 I-0.633 J-0.911 K0.000 F300.000
G1 X-10.138 Y7.798 Z-6.000 F300.000
G2 X-9.876 Y6.313 Z-6.000 I-0.670 J-0.884 K0.000 F300.000
G2 X-11.485 Y5.353 Z-6.000 I-1.831 J1.241 K0.000 F300.000
G2 X-13.864 Y6.017 Z-6.000 I-0.551 J2.616 K0.000 F300.000
G2 X-13.989 Y7.429 Z-6.000 I0.783 J0.781 K0.000 F300.000
G2 X-10.175 Y7.825 Z-6.000 I2.126 J-1.909 K0.000 F300.000
G2 X-10.138 Y7.798 Z-6.000 I-0.633 J-0.911 K0.000 F300.000
G0 Z5.000
G0 Z5.000
(Finish operation: Profile001)
(Begin operation: Profile002)
(Path: Profile002)
(Profile002)
(Compensated Tool Path. Diameter: 1.2)
G0 Z5.000
G0 X-10.222 Y-5.911
G0 Z3.000
G1 X-10.222 Y-5.911 Z-1.000 F300.000
G2 X-10.043 Y-6.080 Z-1.000 I-1.616 J-1.889 K0.000 F300.000
G2 X-9.848 Y-7.468 Z-1.000 I-0.791 J-0.819 K0.000 F300.000
G2 X-10.882 Y-8.208 Z-1.000 I-1.583 J1.120 K0.000 F300.000
G2 X-13.778 Y-7.647 Z-1.000 I-0.998 J2.605 K0.000 F300.000
G2 X-14.003 Y-6.187 Z-1.000 I0.700 J0.856 K0.000 F300.000
G2 X-11.668 Y-5.320 Z-1.000 I1.982 J-1.760 K0.000 F300.000
G2 X-10.222 Y-5.911 Z-1.000 I-0.170 J-2.480 K0.000 F300.000
G1 X-10.222 Y-5.911 Z-2.000 F300.000
G2 X-10.043 Y-6.080 Z-2.000 I-1.616 J-1.889 K0.000 F300.000
G2 X-9.848 Y-7.468 Z-2.000 I-0.791 J-0.819 K0.000 F300.000
G2 X-10.882 Y-8.208 Z-2.000 I-1.583 J1.120 K0.000 F300.000
G2 X-13.778 Y-7.647 Z-2.000 I-0.998 J2.605 K0.000 F300.000
G2 X-14.003 Y-6.187 Z-2.000 I0.700 J0.856 K0.000 F300.000
G2 X-11.668 Y-5.320 Z-2.000 I1.982 J-1.760 K0.000 F300.000
G2 X-10.222 Y-5.911 Z-2.000 I-0.170 J-2.480 K0.000 F300.000
G1 X-10.222 Y-5.911 Z-3.000 F300.000
G2 X-10.043 Y-6.080 Z-3.000 I-1.616 J-1.889 K0.000 F300.000
G2 X-9.848 Y-7.468 Z-3.000 I-0.791 J-0.819 K0.000 F300.000
G2 X-10.882 Y-8.208 Z-3.000 I-1.583 J1.120 K0.000 F300.000
G2 X-13.778 Y-7.647 Z-3.000 I-0.998 J2.605 K0.000 F300.000
G2 X-14.003 Y-6.187 Z-3.000 I0.700 J0.856 K0.000 F300.000
G2 X-11.668 Y-5.320 Z-3.000 I1.982 J-1.760 K0.000 F300.000
G2 X-10.222 Y-5.911 Z-3.000 I-0.170 J-2.480 K0.000 F300.000
G1 X-10.222 Y-5.911 Z-4.000 F300.000
G2 X-10.043 Y-6.080 Z-4.000 I-1.616 J-1.889 K0.000 F300.000
G2 X-9.848 Y-7.468 Z-4.000 I-0.791 J-0.819 K0.000 F300.000
G2 X-10.882 Y-8.208 Z-4.000 I-1.583 J1.120 K0.000 F300.000
G2 X-13.778 Y-7.647 Z-4.000 I-0.998 J2.605 K0.000 F300.000
G2 X-14.003 Y-6.187 Z-4.000 I0.700 J0.856 K0.000 F300.000
G2 X-11.668 Y-5.320 Z-4.000 I1.982 J-1.760 K0.000 F300.000
G2 X-10.222 Y-5.911 Z-4.000 I-0.170 J-2.480 K0.000 F300.000
G1 X-10.222 Y-5.911 Z-5.000 F300.000
G2 X-10.043 Y-6.080 Z-5.000 I-1.616 J-1.889 K0.000 F300.000
G2 X-9.848 Y-7.468 Z-5.000 I-0.791 J-0.819 K0.000 F300.000
G2 X-10.882 Y-8.208 Z-5.000 I-1.583 J1.120 K0.000 F300.000
G2 X-13.778 Y-7.647 Z-5.000 I-0.998 J2.605 K0.000 F300.000
G2 X-14.003 Y-6.187 Z-5.000 I0.700 J0.856 K0.000 F300.000
G2 X-11.668 Y-5.320 Z-5.000 I1.982 J-1.760 K0.000 F300.000
G2 X-10.222 Y-5.911 Z-5.000 I-0.170 J-2.480 K0.000 F300.000
G1 X-10.222 Y-5.911 Z-6.000 F300.000
G2 X-10.043 Y-6.080 Z-6.000 I-1.616 J-1.889 K0.000 F300.000
G2 X-9.848 Y-7.468 Z-6.000 I-0.791 J-0.819 K0.000 F300.000
G2 X-10.882 Y-8.208 Z-6.000 I-1.583 J1.120 K0.000 F300.000
G2 X-13.778 Y-7.647 Z-6.000 I-0.998 J2.605 K0.000 F300.000
G2 X-14.003 Y-6.187 Z-6.000 I0.700 J0.856 K0.000 F300.000
G2 X-11.668 Y-5.320 Z-6.000 I1.982 J-1.760 K0.000 F300.000
G2 X-10.222 Y-5.911 Z-6.000 I-0.170 J-2.480 K0.000 F300.000
G0 Z5.000
G0 Z5.000
(Finish operation: Profile002)
(Begin operation: Profile003)
(Path: Profile003)
(Profile003)
(Compensated Tool Path. Diameter: 1.2)
G0 Z5.000
G0 X21.896 Y22.095
G0 Z3.000
G1 X21.896 Y22.095 Z-1.000 F300.000
G3 X20.934 Y22.884 Z-1.000 I-2.027 J-1.490 K0.000 F300.000
G3 X19.319 Y22.768 Z-1.000 I-0.655 J-2.169 K0.000 F300.000
G2 X15.204 Y20.742 Z-1.000 I-44.643 J85.494 K0.000 F300.000
G2 X14.308 Y20.452 Z-1.000 I-3.010 J7.772 K0.000 F300.000
G2 X8.316 Y19.161 Z-1.000 I-44.263 J190.903 K0.000 F300.000
G2 X6.838 Y19.128 Z-1.000 I-0.832 J4.083 K0.000 F300.000
G2 X6.051 Y19.510 Z-1.000 I0.197 J1.405 K0.000 F300.000
G2 X4.981 Y20.854 Z-1.000 I6.270 J6.097 K0.000 F300.000
G3 X2.711 Y23.205 Z-1.000 I-9.946 J-7.328 K0.000 F300.000
G3 X-0.980 Y24.679 Z-1.000 I-4.336 J-5.500 K0.000 F300.000
G3 X-3.249 Y24.481 Z-1.000 I-0.579 J-6.464 K0.000 F300.000
G3 X-6.076 Y21.347 Z-1.000 I1.347 J-4.057 K0.000 F300.000
G3 X-6.300 Y18.611 Z-1.000 I7.625 J-2.001 K0.000 F300.000
G2 X-6.476 Y18.084 Z-1.000 I-0.642 J-0.078 K0.000 F300.000
G2 X-6.986 Y17.882 Z-1.000 I-0.697 J1.013 K0.000 F300.000
G1 X-10.375 Y17.753 Z-1.000 F300.000
G3 X-14.751 Y16.709 Z-1.000 I2.271 J-19.218 K0.000 F300.000
G3 X-16.611 Y15.865 Z-1.000 I5.467 J-14.526 K0.000 F300.000
G1 X-18.812 Y14.414 Z-1.000 F300.000
G1 X-20.735 Y12.736 Z-1.000 F300.000
G1 X-20.838 Y12.619 Z-1.000 F300.000
G3 X-24.216 Y6.583 Z-1.000 I26.296 J-18.678 K0.000 F300.000
G1 X-25.016 Y4.169 Z-1.000 F300.000
G1 X-25.364 Y1.991 Z-1.000 F300.000
G1 X-25.356 Y-2.088 Z-1.000 F300.000
G1 X-24.993 Y-4.263 Z-1.000 F300.000
G1 X-24.192 Y-6.643 Z-1.000 F300.000
G3 X-20.735 Y-12.736 Z-1.000 I29.161 J12.517 K0.000 F300.000
G1 X-18.747 Y-14.464 Z-1.000 F300.000
G1 X-16.548 Y-15.902 Z-1.000 F300.000
G3 X-11.125 Y-17.637 Z-1.000 I7.815 J15.082 K0.000 F300.000
G1 X-10.298 Y-17.760 Z-1.000 F300.000
G1 X-6.986 Y-17.882 Z-1.000 F300.000
G2 X-6.407 Y-18.140 Z-1.000 I-0.174 J-1.172 K0.000 F300.000
G2 X-6.313 Y-18.681 Z-1.000 I-1.031 J-0.457 K0.000 F300.000
G3 X-5.832 Y-22.103 Z-1.000 I7.754 J-0.654 K0.000 F300.000
G3 X-2.857 Y-24.591 Z-1.000 I3.882 J1.620 K0.000 F300.000
G3 X-0.555 Y-24.633 Z-1.000 I1.276 J6.825 K0.000 F300.000
G3 X2.500 Y-23.344 Z-1.000 I-1.058 J6.776 K0.000 F300.000
G3 X5.404 Y-20.252 Z-1.000 I-7.126 J9.601 K0.000 F300.000
G2 X6.214 Y-19.346 Z-1.000 I5.690 J-4.272 K0.000 F300.000
G2 X7.877 Y-19.104 Z-1.000 I1.181 J-2.292 K0.000 F300.000
G2 X8.766 Y-19.251 Z-1.000 I-0.624 J-6.527 K0.000 F300.000
G1 X14.296 Y-20.450 Z-1.000 F300.000
G2 X16.280 Y-21.236 Z-1.000 I-2.429 J-9.027 K0.000 F300.000
G2 X19.354 Y-22.784 Z-1.000 I-494.739 J-986.107 K0.000 F300.000
G3 X21.305 Y-22.677 Z-1.000 I0.881 J1.786 K0.000 F300.000
G3 X22.412 Y-20.607 Z-1.000 I-1.594 J2.183 K0.000 F300.000
G3 X22.187 Y-17.636 Z-1.000 I-10.746 J0.683 K0.000 F300.000
G1 X22.187 Y-17.636 Z-1.000 F300.000
G2 X22.100 Y-17.076 Z-1.000 I1.792 J0.568 K0.000 F300.000
G2 X22.920 Y-16.324 Z-1.000 I2.554 J-1.963 K0.000 F300.000
G3 X25.112 Y-13.843 Z-1.000 I-5.080 J6.698 K0.000 F300.000
G3 X25.370 Y-11.518 Z-1.000 I-3.531 J1.568 K0.000 F300.000
G3 X25.103 Y-10.150 Z-1.000 I-5.748 J-0.413 K0.000 F300.000
G3 X23.562 Y-8.270 Z-1.000 I-4.317 J-1.966 K0.000 F300.000
G3 X22.646 Y-7.474 Z-1.000 I-69.858 J-79.512 K0.000 F300.000
G2 X22.482 Y-4.224 Z-1.000 I1.763 J1.718 K0.000 F300.000
G1 X22.761 Y-3.955 Z-1.000 F300.000
G1 X22.761 Y-3.955 Z-1.000 F300.000
G3 X24.348 Y-0.792 Z-1.000 I-2.970 J3.470 K0.000 F300.000
G3 X24.210 Y1.646 Z-1.000 I-8.778 J0.726 K0.000 F300.000
G3 X22.759 Y3.958 Z-1.000 I-4.402 J-1.153 K0.000 F300.000
G2 X22.049 Y6.535 Z-1.000 I1.580 J1.821 K0.000 F300.000
G2 X22.936 Y7.744 Z-1.000 I2.626 J-0.997 K0.000 F300.000
G3 X24.214 Y8.830 Z-1.000 I-62.860 J75.320 K0.000 F300.000
G3 X25.075 Y10.049 Z-1.000 I-3.993 J3.730 K0.000 F300.000
G3 X25.348 Y11.445 Z-1.000 I-4.559 J1.618 K0.000 F300.000
G3 X25.381 Y13.024 Z-1.000 I-4.815 J0.889 K0.000 F300.000
G3 X24.174 Y15.136 Z-1.000 I-4.299 J-1.055 K0.000 F300.000
G3 X22.622 Y16.537 Z-1.000 I-6.469 J-5.601 K0.000 F300.000
G2 X22.112 Y17.046 Z-1.000 I8.630 J9.170 K0.000 F300.000
G2 X22.358 Y18.697 Z-1.000 I14.629 J-1.329 K0.000 F300.000
G3 X22.298 Y21.259 Z-1.000 I-6.427 J1.132 K0.000 F300.000
G3 X21.896 Y22.095 Z-1.000 I-2.430 J-0.654 K0.000 F300.000
G1 X21.896 Y22.095 Z-2.000 F300.000
G3 X20.934 Y22.884 Z-2.000 I-2.027 J-1.490 K0.000 F300.000
G3 X19.319 Y22.768 Z-2.000 I-0.655 J-2.169 K0.000 F300.000
G2 X15.204 Y20.742 Z-2.000 I-44.643 J85.494 K0.000 F300.000
G2 X14.308 Y20.452 Z-2.000 I-3.010 J7.772 K0.000 F300.000
G2 X8.316 Y19.161 Z-2.000 I-44.263 J190.903 K0.000 F300.000
G2 X6.838 Y19.128 Z-2.000 I-0.832 J4.083 K0.000 F300.000
G2 X6.051 Y19.510 Z-2.000 I0.197 J1.405 K0.000 F300.000
G2 X4.981 Y20.854 Z-2.000 I6.270 J6.097 K0.000 F300.000
G3 X2.711 Y23.205 Z-2.000 I-9.946 J-7.328 K0.000 F300.000
G3 X-0.980 Y24.679 Z-2.000 I-4.336 J-5.500 K0.000 F300.000
G3 X-3.249 Y24.481 Z-2.000 I-0.579 J-6.464 K0.000 F300.000
G3 X-6.076 Y21.347 Z-2.000 I1.347 J-4.057 K0.000 F300.000
G3 X-6.300 Y18.611 Z-2.000 I7.625 J-2.001 K0.000 F300.000
G2 X-6.476 Y18.084 Z-2.000 I-0.642 J-0.078 K0.000 F300.000
G2 X-6.986 Y17.882 Z-2.000 I-0.697 J1.013 K0.000 F300.000
G1 X-10.375 Y17.753 Z-2.000 F300.000
G3 X-14.751 Y16.709 Z-2.000 I2.271 J-19.218 K0.000 F300.000
G3 X-16.611 Y15.865 Z-2.000 I5.467 J-14.526 K0.000 F300.000
G1 X-18.812 Y14.414 Z-2.000 F300.000
G1 X-20.735 Y12.736 Z-2.000 F300.000
G1 X-20.838 Y12.619 Z-2.000 F300.000
G3 X-24.216 Y6.583 Z-2.000 I26.296 J-18.678 K0.000 F300.000
G1 X-25.016 Y4.169 Z-2.000 F300.000
G1 X-25.364 Y1.991 Z-2.000 F300.000
G1 X-25.356 Y-2.088 Z-2.000 F300.000
G1 X-24.993 Y-4.263 Z-2.000 F300.000
G1 X-24.192 Y-6.643 Z-2.000 F300.000
G3 X-20.735 Y-12.736 Z-2.000 I29.161 J12.517 K0.000 F300.000
G1 X-18.747 Y-14.464 Z-2.000 F300.000
G1 X-16.548 Y-15.902 Z-2.000 F300.000
G3 X-11.125 Y-17.637 Z-2.000 I7.815 J15.082 K0.000 F300.000
G1 X-10.298 Y-17.760 Z-2.000 F300.000
G1 X-6.986 Y-17.882 Z-2.000 F300.000
G2 X-6.407 Y-18.140 Z-2.000 I-0.174 J-1.172 K0.000 F300.000
G2 X-6.313 Y-18.681 Z-2.000 I-1.031 J-0.457 K0.000 F300.000
G3 X-5.832 Y-22.103 Z-2.000 I7.754 J-0.654 K0.000 F300.000
G3 X-2.857 Y-24.591 Z-2.000 I3.882 J1.620 K0.000 F300.000
G3 X-0.555 Y-24.633 Z-2.000 I1.276 J6.825 K0.000 F300.000
G3 X2.500 Y-23.344 Z-2.000 I-1.058 J6.776 K0.000 F300.000
G3 X5.404 Y-20.252 Z-2.000 I-7.126 J9.601 K0.000 F300.000
G2 X6.214 Y-19.346 Z-2.000 I5.690 J-4.272 K0.000 F300.000
G2 X7.877 Y-19.104 Z-2.000 I1.181 J-2.292 K0.000 F300.000
G2 X8.766 Y-19.251 Z-2.000 I-0.624 J-6.527 K0.000 F300.000
G1 X14.296 Y-20.450 Z-2.000 F300.000
G2 X16.280 Y-21.236 Z-2.000 I-2.429 J-9.027 K0.000 F300.000
G2 X19.354 Y-22.784 Z-2.000 I-494.739 J-986.107 K0.000 F300.000
G3 X21.305 Y-22.677 Z-2.000 I0.881 J1.786 K0.000 F300.000
G3 X22.412 Y-20.607 Z-2.000 I-1.594 J2.183 K0.000 F300.000
G3 X22.187 Y-17.636 Z-2.000 I-10.746 J0.683 K0.000 F300.000
G1 X22.187 Y-17.636 Z-2.000 F300.000
G2 X22.100 Y-17.076 Z-2.000 I1.792 J0.568 K0.000 F300.000
G2 X22.920 Y-16.324 Z-2.000 I2.554 J-1.963 K0.000 F300.000
G3 X25.112 Y-13.843 Z-2.000 I-5.080 J6.698 K0.000 F300.000
G3 X25.370 Y-11.518 Z-2.000 I-3.531 J1.568 K0.000 F300.000
G3 X25.103 Y-10.150 Z-2.000 I-5.748 J-0.413 K0.000 F300.000
G3 X23.562 Y-8.270 Z-2.000 I-4.317 J-1.966 K0.000 F300.000
G3 X22.646 Y-7.474 Z-2.000 I-69.858 J-79.512 K0.000 F300.000
G2 X22.482 Y-4.224 Z-2.000 I1.763 J1.718 K0.000 F300.000
G1 X22.761 Y-3.955 Z-2.000 F300.000
G1 X22.761 Y-3.955 Z-2.000 F300.000
G3 X24.348 Y-0.792 Z-2.000 I-2.970 J3.470 K0.000 F300.000
G3 X24.210 Y1.646 Z-2.000 I-8.778 J0.726 K0.000 F300.000
G3 X22.759 Y3.958 Z-2.000 I-4.402 J-1.153 K0.000 F300.000
G2 X22.049 Y6.535 Z-2.000 I1.580 J1.821 K0.000 F300.000
G2 X22.936 Y7.744 Z-2.000 I2.626 J-0.997 K0.000 F300.000
G3 X24.214 Y8.830 Z-2.000 I-62.860 J75.320 K0.000 F300.000
G3 X25.075 Y10.049 Z-2.000 I-3.993 J3.730 K0.000 F300.000
G3 X25.348 Y11.445 Z-2.000 I-4.559 J1.618 K0.000 F300.000
G3 X25.381 Y13.024 Z-2.000 I-4.815 J0.889 K0.000 F300.000
G3 X24.174 Y15.136 Z-2.000 I-4.299 J-1.055 K0.000 F300.000
G3 X22.622 Y16.537 Z-2.000 I-6.469 J-5.601 K0.000 F300.000
G2 X22.112 Y17.046 Z-2.000 I8.630 J9.170 K0.000 F300.000
G2 X22.358 Y18.697 Z-2.000 I14.629 J-1.329 K0.000 F300.000
G3 X22.298 Y21.259 Z-2.000 I-6.427 J1.132 K0.000 F300.000
G3 X21.896 Y22.095 Z-2.000 I-2.430 J-0.654 K0.000 F300.000
G1 X21.896 Y22.095 Z-3.000 F300.000
G3 X20.934 Y22.884 Z-3.000 I-2.027 J-1.490 K0.000 F300.000
G3 X19.319 Y22.768 Z-3.000 I-0.655 J-2.169 K0.000 F300.000
G2 X15.204 Y20.742 Z-3.000 I-44.643 J85.494 K0.000 F300.000
G2 X14.308 Y20.452 Z-3.000 I-3.010 J7.772 K0.000 F300.000
G2 X8.316 Y19.161 Z-3.000 I-44.263 J190.903 K0.000 F300.000
G2 X6.838 Y19.128 Z-3.000 I-0.832 J4.083 K0.000 F300.000
G2 X6.051 Y19.510 Z-3.000 I0.197 J1.405 K0.000 F300.000
G2 X4.981 Y20.854 Z-3.000 I6.270 J6.097 K0.000 F300.000
G3 X2.711 Y23.205 Z-3.000 I-9.946 J-7.328 K0.000 F300.000
G3 X-0.980 Y24.679 Z-3.000 I-4.336 J-5.500 K0.000 F300.000
G3 X-3.249 Y24.481 Z-3.000 I-0.579 J-6.464 K0.000 F300.000
G3 X-6.076 Y21.347 Z-3.000 I1.347 J-4.057 K0.000 F300.000
G3 X-6.300 Y18.611 Z-3.000 I7.625 J-2.001 K0.000 F300.000
G2 X-6.476 Y18.084 Z-3.000 I-0.642 J-0.078 K0.000 F300.000
G2 X-6.986 Y17.882 Z-3.000 I-0.697 J1.013 K0.000 F300.000
G1 X-10.375 Y17.753 Z-3.000 F300.000
G3 X-14.751 Y16.709 Z-3.000 I2.271 J-19.218 K0.000 F300.000
G3 X-16.611 Y15.865 Z-3.000 I5.467 J-14.526 K0.000 F300.000
G1 X-18.812 Y14.414 Z-3.000 F300.000
G1 X-20.735 Y12.736 Z-3.000 F300.000
G1 X-20.838 Y12.619 Z-3.000 F300.000
G3 X-24.216 Y6.583 Z-3.000 I26.296 J-18.678 K0.000 F300.000
G1 X-25.016 Y4.169 Z-3.000 F300.000
G1 X-25.364 Y1.991 Z-3.000 F300.000
G1 X-25.356 Y-2.088 Z-3.000 F300.000
G1 X-24.993 Y-4.263 Z-3.000 F300.000
G1 X-24.192 Y-6.643 Z-3.000 F300.000
G3 X-20.735 Y-12.736 Z-3.000 I29.161 J12.517 K0.000 F300.000
G1 X-18.747 Y-14.464 Z-3.000 F300.000
G1 X-16.548 Y-15.902 Z-3.000 F300.000
G3 X-11.125 Y-17.637 Z-3.000 I7.815 J15.082 K0.000 F300.000
G1 X-10.298 Y-17.760 Z-3.000 F300.000
G1 X-6.986 Y-17.882 Z-3.000 F300.000
G2 X-6.407 Y-18.140 Z-3.000 I-0.174 J-1.172 K0.000 F300.000
G2 X-6.313 Y-18.681 Z-3.000 I-1.031 J-0.457 K0.000 F300.000
G3 X-5.832 Y-22.103 Z-3.000 I7.754 J-0.654 K0.000 F300.000
G3 X-2.857 Y-24.591 Z-3.000 I3.882 J1.620 K0.000 F300.000
G3 X-0.555 Y-24.633 Z-3.000 I1.276 J6.825 K0.000 F300.000
G3 X2.500 Y-23.344 Z-3.000 I-1.058 J6.776 K0.000 F300.000
G3 X5.404 Y-20.252 Z-3.000 I-7.126 J9.601 K0.000 F300.000
G2 X6.214 Y-19.346 Z-3.000 I5.690 J-4.272 K0.000 F300.000
G2 X7.877 Y-19.104 Z-3.000 I1.181 J-2.292 K0.000 F300.000
G2 X8.766 Y-19.251 Z-3.000 I-0.624 J-6.527 K0.000 F300.000
G1 X14.296 Y-20.450 Z-3.000 F300.000
G2 X16.280 Y-21.236 Z-3.000 I-2.429 J-9.027 K0.000 F300.000
G2 X19.354 Y-22.784 Z-3.000 I-494.739 J-986.107 K0.000 F300.000
G3 X21.305 Y-22.677 Z-3.000 I0.881 J1.786 K0.000 F300.000
G3 X22.412 Y-20.607 Z-3.000 I-1.594 J2.183 K0.000 F300.000
G3 X22.187 Y-17.636 Z-3.000 I-10.746 J0.683 K0.000 F300.000
G1 X22.187 Y-17.636 Z-3.000 F300.000
G2 X22.100 Y-17.076 Z-3.000 I1.792 J0.568 K0.000 F300.000
G2 X22.920 Y-16.324 Z-3.000 I2.554 J-1.963 K0.000 F300.000
G3 X25.112 Y-13.843 Z-3.000 I-5.080 J6.698 K0.000 F300.000
G3 X25.370 Y-11.518 Z-3.000 I-3.531 J1.568 K0.000 F300.000
G3 X25.103 Y-10.150 Z-3.000 I-5.748 J-0.413 K0.000 F300.000
G3 X23.562 Y-8.270 Z-3.000 I-4.317 J-1.966 K0.000 F300.000
G3 X22.646 Y-7.474 Z-3.000 I-69.858 J-79.512 K0.000 F300.000
G2 X22.482 Y-4.224 Z-3.000 I1.763 J1.718 K0.000 F300.000
G1 X22.761 Y-3.955 Z-3.000 F300.000
G1 X22.761 Y-3.955 Z-3.000 F300.000
G3 X24.348 Y-0.792 Z-3.000 I-2.970 J3.470 K0.000 F300.000
G3 X24.210 Y1.646 Z-3.000 I-8.778 J0.726 K0.000 F300.000
G3 X22.759 Y3.958 Z-3.000 I-4.402 J-1.153 K0.000 F300.000
G2 X22.049 Y6.535 Z-3.000 I1.580 J1.821 K0.000 F300.000
G2 X22.936 Y7.744 Z-3.000 I2.626 J-0.997 K0.000 F300.000
G3 X24.214 Y8.830 Z-3.000 I-62.860 J75.320 K0.000 F300.000
G3 X25.075 Y10.049 Z-3.000 I-3.993 J3.730 K0.000 F300.000
G3 X25.348 Y11.445 Z-3.000 I-4.559 J1.618 K0.000 F300.000
G3 X25.381 Y13.024 Z-3.000 I-4.815 J0.889 K0.000 F300.000
G3 X24.174 Y15.136 Z-3.000 I-4.299 J-1.055 K0.000 F300.000
G3 X22.622 Y16.537 Z-3.000 I-6.469 J-5.601 K0.000 F300.000
G2 X22.112 Y17.046 Z-3.000 I8.630 J9.170 K0.000 F300.000
G2 X22.358 Y18.697 Z-3.000 I14.629 J-1.329 K0.000 F300.000
G3 X22.298 Y21.259 Z-3.000 I-6.427 J1.132 K0.000 F300.000
G3 X21.896 Y22.095 Z-3.000 I-2.430 J-0.654 K0.000 F300.000
G1 X21.896 Y22.095 Z-4.000 F300.000
G3 X20.934 Y22.884 Z-4.000 I-2.027 J-1.490 K0.000 F300.000
G3 X19.319 Y22.768 Z-4.000 I-0.655 J-2.169 K0.000 F300.000
G2 X15.204 Y20.742 Z-4.000 I-44.643 J85.494 K0.000 F300.000
G2 X14.308 Y20.452 Z-4.000 I-3.010 J7.772 K0.000 F300.000
G2 X8.316 Y19.161 Z-4.000 I-44.263 J190.903 K0.000 F300.000
G2 X6.838 Y19.128 Z-4.000 I-0.832 J4.083 K0.000 F300.000
G2 X6.051 Y19.510 Z-4.000 I0.197 J1.405 K0.000 F300.000
G2 X4.981 Y20.854 Z-4.000 I6.270 J6.097 K0.000 F300.000
G3 X2.711 Y23.205 Z-4.000 I-9.946 J-7.328 K0.000 F300.000
G3 X-0.980 Y24.679 Z-4.000 I-4.336 J-5.500 K0.000 F300.000
G3 X-3.249 Y24.481 Z-4.000 I-0.579 J-6.464 K0.000 F300.000
G3 X-6.076 Y21.347 Z-4.000 I1.347 J-4.057 K0.000 F300.000
G3 X-6.300 Y18.611 Z-4.000 I7.625 J-2.001 K0.000 F300.000
G2 X-6.476 Y18.084 Z-4.000 I-0.642 J-0.078 K0.000 F300.000
G2 X-6.986 Y17.882 Z-4.000 I-0.697 J1.013 K0.000 F300.000
G1 X-10.375 Y17.753 Z-4.000 F300.000
G3 X-14.751 Y16.709 Z-4.000 I2.271 J-19.218 K0.000 F300.000
G3 X-16.611 Y15.865 Z-4.000 I5.467 J-14.526 K0.000 F300.000
G1 X-18.812 Y14.414 Z-4.000 F300.000
G1 X-20.735 Y12.736 Z-4.000 F300.000
G1 X-20.838 Y12.619 Z-4.000 F300.000
G3 X-24.216 Y6.583 Z-4.000 I26.296 J-18.678 K0.000 F300.000
G1 X-25.016 Y4.169 Z-4.000 F300.000
G1 X-25.364 Y1.991 Z-4.000 F300.000
G1 X-25.356 Y-2.088 Z-4.000 F300.000
G1 X-24.993 Y-4.263 Z-4.000 F300.000
G1 X-24.192 Y-6.643 Z-4.000 F300.000
G3 X-20.735 Y-12.736 Z-4.000 I29.161 J12.517 K0.000 F300.000
G1 X-18.747 Y-14.464 Z-4.000 F300.000
G1 X-16.548 Y-15.902 Z-4.000 F300.000
G3 X-11.125 Y-17.637 Z-4.000 I7.815 J15.082 K0.000 F300.000
G1 X-10.298 Y-17.760 Z-4.000 F300.000
G1 X-6.986 Y-17.882 Z-4.000 F300.000
G2 X-6.407 Y-18.140 Z-4.000 I-0.174 J-1.172 K0.000 F300.000
G2 X-6.313 Y-18.681 Z-4.000 I-1.031 J-0.457 K0.000 F300.000
G3 X-5.832 Y-22.103 Z-4.000 I7.754 J-0.654 K0.000 F300.000
G3 X-2.857 Y-24.591 Z-4.000 I3.882 J1.620 K0.000 F300.000
G3 X-0.555 Y-24.633 Z-4.000 I1.276 J6.825 K0.000 F300.000
G3 X2.500 Y-23.344 Z-4.000 I-1.058 J6.776 K0.000 F300.000
G3 X5.404 Y-20.252 Z-4.000 I-7.126 J9.601 K0.000 F300.000
G2 X6.214 Y-19.346 Z-4.000 I5.690 J-4.272 K0.000 F300.000
G2 X7.877 Y-19.104 Z-4.000 I1.181 J-2.292 K0.000 F300.000
G2 X8.766 Y-19.251 Z-4.000 I-0.624 J-6.527 K0.000 F300.000
G1 X14.296 Y-20.450 Z-4.000 F300.000
G2 X16.280 Y-21.236 Z-4.000 I-2.429 J-9.027 K0.000 F300.000
G2 X19.354 Y-22.784 Z-4.000 I-494.739 J-986.107 K0.000 F300.000
G3 X21.305 Y-22.677 Z-4.000 I0.881 J1.786 K0.000 F300.000
G3 X22.412 Y-20.607 Z-4.000 I-1.594 J2.183 K0.000 F300.000
G3 X22.187 Y-17.636 Z-4.000 I-10.746 J0.683 K0.000 F300.000
G1 X22.187 Y-17.636 Z-4.000 F300.000
G2 X22.100 Y-17.076 Z-4.000 I1.792 J0.568 K0.000 F300.000
G2 X22.920 Y-16.324 Z-4.000 I2.554 J-1.963 K0.000 F300.000
G3 X25.112 Y-13.843 Z-4.000 I-5.080 J6.698 K0.000 F300.000
G3 X25.370 Y-11.518 Z-4.000 I-3.531 J1.568 K0.000 F300.000
G3 X25.103 Y-10.150 Z-4.000 I-5.748 J-0.413 K0.000 F300.000
G3 X23.562 Y-8.270 Z-4.000 I-4.317 J-1.966 K0.000 F300.000
G3 X22.646 Y-7.474 Z-4.000 I-69.858 J-79.512 K0.000 F300.000
G2 X22.482 Y-4.224 Z-4.000 I1.763 J1.718 K0.000 F300.000
G1 X22.761 Y-3.955 Z-4.000 F300.000
G1 X22.761 Y-3.955 Z-4.000 F300.000
G3 X24.348 Y-0.792 Z-4.000 I-2.970 J3.470 K0.000 F300.000
G3 X24.210 Y1.646 Z-4.000 I-8.778 J0.726 K0.000 F300.000
G3 X22.759 Y3.958 Z-4.000 I-4.402 J-1.153 K0.000 F300.000
G2 X22.049 Y6.535 Z-4.000 I1.580 J1.821 K0.000 F300.000
G2 X22.936 Y7.744 Z-4.000 I2.626 J-0.997 K0.000 F300.000
G3 X24.214 Y8.830 Z-4.000 I-62.860 J75.320 K0.000 F300.000
G3 X25.075 Y10.049 Z-4.000 I-3.993 J3.730 K0.000 F300.000
G3 X25.348 Y11.445 Z-4.000 I-4.559 J1.618 K0.000 F300.000
G3 X25.381 Y13.024 Z-4.000 I-4.815 J0.889 K0.000 F300.000
G3 X24.174 Y15.136 Z-4.000 I-4.299 J-1.055 K0.000 F300.000
G3 X22.622 Y16.537 Z-4.000 I-6.469 J-5.601 K0.000 F300.000
G2 X22.112 Y17.046 Z-4.000 I8.630 J9.170 K0.000 F300.000
G2 X22.358 Y18.697 Z-4.000 I14.629 J-1.329 K0.000 F300.000
G3 X22.298 Y21.259 Z-4.000 I-6.427 J1.132 K0.000 F300.000
G3 X21.896 Y22.095 Z-4.000 I-2.430 J-0.654 K0.000 F300.000
G1 X21.896 Y22.095 Z-5.000 F300.000
G3 X20.934 Y22.884 Z-5.000 I-2.027 J-1.490 K0.000 F300.000
G3 X19.319 Y22.768 Z-5.000 I-0.655 J-2.169 K0.000 F300.000
G2 X15.204 Y20.742 Z-5.000 I-44.643 J85.494 K0.000 F300.000
G2 X14.308 Y20.452 Z-5.000 I-3.010 J7.772 K0.000 F300.000
G2 X8.316 Y19.161 Z-5.000 I-44.263 J190.903 K0.000 F300.000
G2 X6.838 Y19.128 Z-5.000 I-0.832 J4.083 K0.000 F300.000
G2 X6.051 Y19.510 Z-5.000 I0.197 J1.405 K0.000 F300.000
G2 X4.981 Y20.854 Z-5.000 I6.270 J6.097 K0.000 F300.000
G3 X2.711 Y23.205 Z-5.000 I-9.946 J-7.328 K0.000 F300.000
G3 X-0.980 Y24.679 Z-5.000 I-4.336 J-5.500 K0.000 F300.000
G3 X-3.249 Y24.481 Z-5.000 I-0.579 J-6.464 K0.000 F300.000
G3 X-6.076 Y21.347 Z-5.000 I1.347 J-4.057 K0.000 F300.000
G3 X-6.300 Y18.611 Z-5.000 I7.625 J-2.001 K0.000 F300.000
G2 X-6.476 Y18.084 Z-5.000 I-0.642 J-0.078 K0.000 F300.000
G2 X-6.986 Y17.882 Z-5.000 I-0.697 J1.013 K0.000 F300.000
G1 X-10.375 Y17.753 Z-5.000 F300.000
G3 X-14.751 Y16.709 Z-5.000 I2.271 J-19.218 K0.000 F300.000
G3 X-16.611 Y15.865 Z-5.000 I5.467 J-14.526 K0.000 F300.000
G1 X-18.812 Y14.414 Z-5.000 F300.000
G1 X-20.735 Y12.736 Z-5.000 F300.000
G1 X-20.838 Y12.619 Z-5.000 F300.000
G3 X-24.216 Y6.583 Z-5.000 I26.296 J-18.678 K0.000 F300.000
G1 X-25.016 Y4.169 Z-5.000 F300.000
G1 X-25.364 Y1.991 Z-5.000 F300.000
G1 X-25.356 Y-2.088 Z-5.000 F300.000
G1 X-24.993 Y-4.263 Z-5.000 F300.000
G1 X-24.192 Y-6.643 Z-5.000 F300.000
G3 X-20.735 Y-12.736 Z-5.000 I29.161 J12.517 K0.000 F300.000
G1 X-18.747 Y-14.464 Z-5.000 F300.000
G1 X-16.548 Y-15.902 Z-5.000 F300.000
G3 X-11.125 Y-17.637 Z-5.000 I7.815 J15.082 K0.000 F300.000
G1 X-10.298 Y-17.760 Z-5.000 F300.000
G1 X-6.986 Y-17.882 Z-5.000 F300.000
G2 X-6.407 Y-18.140 Z-5.000 I-0.174 J-1.172 K0.000 F300.000
G2 X-6.313 Y-18.681 Z-5.000 I-1.031 J-0.457 K0.000 F300.000
G3 X-5.832 Y-22.103 Z-5.000 I7.754 J-0.654 K0.000 F300.000
G3 X-2.857 Y-24.591 Z-5.000 I3.882 J1.620 K0.000 F300.000
G3 X-0.555 Y-24.633 Z-5.000 I1.276 J6.825 K0.000 F300.000
G3 X2.500 Y-23.344 Z-5.000 I-1.058 J6.776 K0.000 F300.000
G3 X5.404 Y-20.252 Z-5.000 I-7.126 J9.601 K0.000 F300.000
G2 X6.214 Y-19.346 Z-5.000 I5.690 J-4.272 K0.000 F300.000
G2 X7.877 Y-19.104 Z-5.000 I1.181 J-2.292 K0.000 F300.000
G2 X8.766 Y-19.251 Z-5.000 I-0.624 J-6.527 K0.000 F300.000
G1 X14.296 Y-20.450 Z-5.000 F300.000
G2 X16.280 Y-21.236 Z-5.000 I-2.429 J-9.027 K0.000 F300.000
G2 X19.354 Y-22.784 Z-5.000 I-494.739 J-986.107 K0.000 F300.000
G3 X21.305 Y-22.677 Z-5.000 I0.881 J1.786 K0.000 F300.000
G3 X22.412 Y-20.607 Z-5.000 I-1.594 J2.183 K0.000 F300.000
G3 X22.187 Y-17.636 Z-5.000 I-10.746 J0.683 K0.000 F300.000
G1 X22.187 Y-17.636 Z-5.000 F300.000
G2 X22.100 Y-17.076 Z-5.000 I1.792 J0.568 K0.000 F300.000
G2 X22.920 Y-16.324 Z-5.000 I2.554 J-1.963 K0.000 F300.000
G3 X25.112 Y-13.843 Z-5.000 I-5.080 J6.698 K0.000 F300.000
G3 X25.370 Y-11.518 Z-5.000 I-3.531 J1.568 K0.000 F300.000
G3 X25.103 Y-10.150 Z-5.000 I-5.748 J-0.413 K0.000 F300.000
G3 X23.562 Y-8.270 Z-5.000 I-4.317 J-1.966 K0.000 F300.000
G3 X22.646 Y-7.474 Z-5.000 I-69.858 J-79.512 K0.000 F300.000
G2 X22.482 Y-4.224 Z-5.000 I1.763 J1.718 K0.000 F300.000
G1 X22.761 Y-3.955 Z-5.000 F300.000
G1 X22.761 Y-3.955 Z-5.000 F300.000
G3 X24.348 Y-0.792 Z-5.000 I-2.970 J3.470 K0.000 F300.000
G3 X24.210 Y1.646 Z-5.000 I-8.778 J0.726 K0.000 F300.000
G3 X22.759 Y3.958 Z-5.000 I-4.402 J-1.153 K0.000 F300.000
G2 X22.049 Y6.535 Z-5.000 I1.580 J1.821 K0.000 F300.000
G2 X22.936 Y7.744 Z-5.000 I2.626 J-0.997 K0.000 F300.000
G3 X24.214 Y8.830 Z-5.000 I-62.860 J75.320 K0.000 F300.000
G3 X25.075 Y10.049 Z-5.000 I-3.993 J3.730 K0.000 F300.000
G3 X25.348 Y11.445 Z-5.000 I-4.559 J1.618 K0.000 F300.000
G3 X25.381 Y13.024 Z-5.000 I-4.815 J0.889 K0.000 F300.000
G3 X24.174 Y15.136 Z-5.000 I-4.299 J-1.055 K0.000 F300.000
G3 X22.622 Y16.537 Z-5.000 I-6.469 J-5.601 K0.000 F300.000
G2 X22.112 Y17.046 Z-5.000 I8.630 J9.170 K0.000 F300.000
G2 X22.358 Y18.697 Z-5.000 I14.629 J-1.329 K0.000 F300.000
G3 X22.298 Y21.259 Z-5.000 I-6.427 J1.132 K0.000 F300.000
G3 X21.896 Y22.095 Z-5.000 I-2.430 J-0.654 K0.000 F300.000
G1 X21.896 Y22.095 Z-6.000 F300.000
G3 X20.934 Y22.884 Z-6.000 I-2.027 J-1.490 K0.000 F300.000
G3 X19.319 Y22.768 Z-6.000 I-0.655 J-2.169 K0.000 F300.000
G2 X15.204 Y20.742 Z-6.000 I-44.643 J85.494 K0.000 F300.000
G2 X14.308 Y20.452 Z-6.000 I-3.010 J7.772 K0.000 F300.000
G2 X8.316 Y19.161 Z-6.000 I-44.263 J190.903 K0.000 F300.000
G2 X6.838 Y19.128 Z-6.000 I-0.832 J4.083 K0.000 F300.000
G2 X6.051 Y19.510 Z-6.000 I0.197 J1.405 K0.000 F300.000
G2 X4.981 Y20.854 Z-6.000 I6.270 J6.097 K0.000 F300.000
G3 X2.711 Y23.205 Z-6.000 I-9.946 J-7.328 K0.000 F300.000
G3 X-0.980 Y24.679 Z-6.000 I-4.336 J-5.500 K0.000 F300.000
G3 X-3.249 Y24.481 Z-6.000 I-0.579 J-6.464 K0.000 F300.000
G3 X-6.076 Y21.347 Z-6.000 I1.347 J-4.057 K0.000 F300.000
G3 X-6.300 Y18.611 Z-6.000 I7.625 J-2.001 K0.000 F300.000
G2 X-6.476 Y18.084 Z-6.000 I-0.642 J-0.078 K0.000 F300.000
G2 X-6.986 Y17.882 Z-6.000 I-0.697 J1.013 K0.000 F300.000
G1 X-10.375 Y17.753 Z-6.000 F300.000
G3 X-14.751 Y16.709 Z-6.000 I2.271 J-19.218 K0.000 F300.000
G3 X-16.611 Y15.865 Z-6.000 I5.467 J-14.526 K0.000 F300.000
G1 X-18.812 Y14.414 Z-6.000 F300.000
G1 X-20.735 Y12.736 Z-6.000 F300.000
G1 X-20.838 Y12.619 Z-6.000 F300.000
G3 X-24.216 Y6.583 Z-6.000 I26.296 J-18.678 K0.000 F300.000
G1 X-25.016 Y4.169 Z-6.000 F300.000
G1 X-25.364 Y1.991 Z-6.000 F300.000
G1 X-25.356 Y-2.088 Z-6.000 F300.000
G1 X-24.993 Y-4.263 Z-6.000 F300.000
G1 X-24.192 Y-6.643 Z-6.000 F300.000
G3 X-20.735 Y-12.736 Z-6.000 I29.161 J12.517 K0.000 F300.000
G1 X-18.747 Y-14.464 Z-6.000 F300.000
G1 X-16.548 Y-15.902 Z-6.000 F300.000
G3 X-11.125 Y-17.637 Z-6.000 I7.815 J15.082 K0.000 F300.000
G1 X-10.298 Y-17.760 Z-6.000 F300.000
G1 X-6.986 Y-17.882 Z-6.000 F300.000
G2 X-6.407 Y-18.140 Z-6.000 I-0.174 J-1.172 K0.000 F300.000
G2 X-6.313 Y-18.681 Z-6.000 I-1.031 J-0.457 K0.000 F300.000
G3 X-5.832 Y-22.103 Z-6.000 I7.754 J-0.654 K0.000 F300.000
G3 X-2.857 Y-24.591 Z-6.000 I3.882 J1.620 K0.000 F300.000
G3 X-0.555 Y-24.633 Z-6.000 I1.276 J6.825 K0.000 F300.000
G3 X2.500 Y-23.344 Z-6.000 I-1.058 J6.776 K0.000 F300.000
G3 X5.404 Y-20.252 Z-6.000 I-7.126 J9.601 K0.000 F300.000
G2 X6.214 Y-19.346 Z-6.000 I5.690 J-4.272 K0.000 F300.000
G2 X7.877 Y-19.104 Z-6.000 I1.181 J-2.292 K0.000 F300.000
G2 X8.766 Y-19.251 Z-6.000 I-0.624 J-6.527 K0.000 F300.000
G1 X14.296 Y-20.450 Z-6.000 F300.000
G2 X16.280 Y-21.236 Z-6.000 I-2.429 J-9.027 K0.000 F300.000
G2 X19.354 Y-22.784 Z-6.000 I-494.739 J-986.107 K0.000 F300.000
G3 X21.305 Y-22.677 Z-6.000 I0.881 J1.786 K0.000 F300.000
G3 X22.412 Y-20.607 Z-6.000 I-1.594 J2.183 K0.000 F300.000
G3 X22.187 Y-17.636 Z-6.000 I-10.746 J0.683 K0.000 F300.000
G1 X22.187 Y-17.636 Z-6.000 F300.000
G2 X22.100 Y-17.076 Z-6.000 I1.792 J0.568 K0.000 F300.000
G2 X22.920 Y-16.324 Z-6.000 I2.554 J-1.963 K0.000 F300.000
G3 X25.112 Y-13.843 Z-6.000 I-5.080 J6.698 K0.000 F300.000
G3 X25.370 Y-11.518 Z-6.000 I-3.531 J1.568 K0.000 F300.000
G3 X25.103 Y-10.150 Z-6.000 I-5.748 J-0.413 K0.000 F300.000
G3 X23.562 Y-8.270 Z-6.000 I-4.317 J-1.966 K0.000 F300.000
G3 X22.646 Y-7.474 Z-6.000 I-69.858 J-79.512 K0.000 F300.000
G2 X22.482 Y-4.224 Z-6.000 I1.763 J1.718 K0.000 F300.000
G1 X22.761 Y-3.955 Z-6.000 F300.000
G1 X22.761 Y-3.955 Z-6.000 F300.000
G3 X24.348 Y-0.792 Z-6.000 I-2.970 J3.470 K0.000 F300.000
G3 X24.210 Y1.646 Z-6.000 I-8.778 J0.726 K0.000 F300.000
G3 X22.759 Y3.958 Z-6.000 I-4.402 J-1.153 K0.000 F300.000
G2 X22.049 Y6.535 Z-6.000 I1.580 J1.821 K0.000 F300.000
G2 X22.936 Y7.744 Z-6.000 I2.626 J-0.997 K0.000 F300.000
G3 X24.214 Y8.830 Z-6.000 I-62.860 J75.320 K0.000 F300.000
G3 X25.075 Y10.049 Z-6.000 I-3.993 J3.730 K0.000 F300.000
G3 X25.348 Y11.445 Z-6.000 I-4.559 J1.618 K0.000 F300.000
G3 X25.381 Y13.024 Z-6.000 I-4.815 J0.889 K0.000 F300.000
G3 X24.174 Y15.136 Z-6.000 I-4.299 J-1.055 K0.000 F300.000
G3 X22.622 Y16.537 Z-6.000 I-6.469 J-5.601 K0.000 F300.000
G2 X22.112 Y17.046 Z-6.000 I8.630 J9.170 K0.000 F300.000
G2 X22.358 Y18.697 Z-6.000 I14.629 J-1.329 K0.000 F300.000
G3 X22.298 Y21.259 Z-6.000 I-6.427 J1.132 K0.000 F300.000
G3 X21.896 Y22.095 Z-6.000 I-2.430 J-0.654 K0.000 F300.000
G0 Z5.000
G0 Z5.000
(Finish operation: Profile003)
(Begin operation: Profile000_SimpleCopy)
(Path: Profile000_SimpleCopy)
(Profile000_SimpleCopy)
(Begin Custom)
(Profile)
(Compensated Tool Path. Diameter: 1.2)
G0 Z5.000
G0 X-55.000 Y0.000
G0 X-55.862 Y-0.003
G0 X-55.862 Y-0.003 Z3.000
G1 X-55.862 Y-0.003 Z-1.000 F300.000
G3 X-55.787 Y-0.590 Z-1.000 I2.397 J0.008 K0.000 F300.000
G3 X-54.128 Y-2.866 Z-1.000 I3.236 J0.617 K0.000 F300.000
G2 X-53.415 Y-3.319 Z-1.000 I-0.554 J-1.656 K0.000 F300.000
G2 X-53.625 Y-4.675 Z-1.000 I-0.985 J-0.541 K0.000 F300.000
G2 X-54.362 Y-4.970 Z-1.000 I-1.953 J3.798 K0.000 F300.000
G3 X-54.900 Y-7.101 Z-1.000 I0.213 J-1.187 K0.000 F300.000
G2 X-54.227 Y-7.588 Z-1.000 I-3.467 J-5.495 K0.000 F300.000
G2 X-53.435 Y-9.050 Z-1.000 I-1.111 J-1.548 K0.000 F300.000
G2 X-53.891 Y-9.701 Z-1.000 I-0.969 J0.193 K0.000 F300.000
G1 X-54.010 Y-9.733 Z-1.000 F300.000
G2 X-57.446 Y-9.259 Z-1.000 I11.078 J93.053 K0.000 F300.000
G2 X-59.167 Y-8.937 Z-1.000 I0.484 J7.353 K0.000 F300.000
G2 X-59.965 Y-8.425 Z-1.000 I0.320 J1.375 K0.000 F300.000
G2 X-60.102 Y-7.316 Z-1.000 I1.991 J0.809 K0.000 F300.000
G2 X-59.516 Y-6.483 Z-1.000 I0.778 J0.076 K0.000 F300.000
G3 X-59.055 Y-4.338 Z-1.000 I-0.318 J1.190 K0.000 F300.000
G2 X-59.873 Y-3.632 Z-1.000 I1.009 J1.994 K0.000 F300.000
G2 X-60.114 Y-2.537 Z-1.000 I1.009 J0.796 K0.000 F300.000
G2 X-59.775 Y-2.310 Z-1.000 I0.530 J-0.426 K0.000 F300.000
G3 X-58.679 Y-1.019 Z-1.000 I-1.100 J2.045 K0.000 F300.000
G3 X-58.576 Y0.476 Z-1.000 I-3.629 J1.002 K0.000 F300.000
G3 X-59.511 Y2.119 Z-1.000 I-2.124 J-0.122 K0.000 F300.000
G2 X-60.103 Y2.524 Z-1.000 I1.040 J2.153 K0.000 F300.000
G2 X-60.162 Y2.818 Z-1.000 I0.666 J0.286 K0.000 F300.000
G2 X-59.378 Y4.140 Z-1.000 I1.826 J-0.188 K0.000 F300.000
G3 X-58.615 Y5.017 Z-1.000 I-0.501 J1.207 K0.000 F300.000
G3 X-59.503 Y6.478 Z-1.000 I-1.225 J0.255 K0.000 F300.000
G2 X-60.048 Y6.939 Z-1.000 I0.120 J0.695 K0.000 F300.000
G2 X-60.096 Y7.829 Z-1.000 I2.872 J0.601 K0.000 F300.000
G2 X-59.772 Y8.629 Z-1.000 I0.922 J0.093 K0.000 F300.000
G2 X-58.333 Y9.144 Z-1.000 I2.093 J-3.578 K0.000 F300.000
G3 X-54.156 Y9.736 Z-1.000 I-11.055 J93.157 K0.000 F300.000
G2 X-53.859 Y9.682 Z-1.000 I-0.243 J-2.192 K0.000 F300.000
G2 X-53.449 Y9.078 Z-1.000 I-0.574 J-0.830 K0.000 F300.000
G2 X-54.572 Y7.305 Z-1.000 I-2.214 J0.160 K0.000 F300.000
G3 X-55.339 Y5.947 Z-1.000 I0.453 J-1.151 K0.000 F300.000
G3 X-54.220 Y4.921 Z-1.000 I1.310 J0.304 K0.000 F300.000
G2 X-53.507 Y4.560 Z-1.000 I-0.197 J-1.275 K0.000 F300.000
G2 X-53.332 Y3.497 Z-1.000 I-1.028 J-0.715 K0.000 F300.000
G2 X-53.876 Y2.978 Z-1.000 I-0.983 J0.484 K0.000 F300.000
G3 X-55.701 Y0.869 Z-1.000 I1.274 J-2.948 K0.000 F300.000
G3 X-55.862 Y-0.003 Z-1.000 I2.236 J-0.864 K0.000 F300.000
G1 X-55.862 Y-0.003 Z-2.000 F300.000
G3 X-55.787 Y-0.590 Z-2.000 I2.397 J0.008 K0.000 F300.000
G3 X-54.128 Y-2.866 Z-2.000 I3.236 J0.617 K0.000 F300.000
G2 X-53.415 Y-3.319 Z-2.000 I-0.554 J-1.656 K0.000 F300.000
G2 X-53.625 Y-4.675 Z-2.000 I-0.985 J-0.541 K0.000 F300.000
G2 X-54.362 Y-4.970 Z-2.000 I-1.953 J3.798 K0.000 F300.000
G3 X-54.900 Y-7.101 Z-2.000 I0.213 J-1.187 K0.000 F300.000
G2 X-54.227 Y-7.588 Z-2.000 I-3.467 J-5.495 K0.000 F300.000
G2 X-53.435 Y-9.050 Z-2.000 I-1.111 J-1.548 K0.000 F300.000
G2 X-53.891 Y-9.701 Z-2.000 I-0.969 J0.193 K0.000 F300.000
G1 X-54.010 Y-9.733 Z-2.000 F300.000
G2 X-57.446 Y-9.259 Z-2.000 I11.078 J93.053 K0.000 F300.000
G2 X-59.167 Y-8.937 Z-2.000 I0.484 J7.353 K0.000 F300.000
G2 X-59.965 Y-8.425 Z-2.000 I0.320 J1.375 K0.000 F300.000
G2 X-60.102 Y-7.316 Z-2.000 I1.991 J0.809 K0.000 F300.000
G2 X-59.516 Y-6.483 Z-2.000 I0.778 J0.076 K0.000 F300.000
G3 X-59.055 Y-4.338 Z-2.000 I-0.318 J1.190 K0.000 F300.000
G2 X-59.873 Y-3.632 Z-2.000 I1.009 J1.994 K0.000 F300.000
G2 X-60.114 Y-2.537 Z-2.000 I1.009 J0.796 K0.000 F300.000
G2 X-59.775 Y-2.310 Z-2.000 I0.530 J-0.426 K0.000 F300.000
G3 X-58.679 Y-1.019 Z-2.000 I-1.100 J2.045 K0.000 F300.000
G3 X-58.576 Y0.476 Z-2.000 I-3.629 J1.002 K0.000 F300.000
G3 X-59.511 Y2.119 Z-2.000 I-2.124 J-0.122 K0.000 F300.000
G2 X-60.103 Y2.524 Z-2.000 I1.040 J2.153 K0.000 F300.000
G2 X-60.162 Y2.818 Z-2.000 I0.666 J0.286 K0.000 F300.000
G2 X-59.378 Y4.140 Z-2.000 I1.826 J-0.188 K0.000 F300.000
G3 X-58.615 Y5.017 Z-2.000 I-0.501 J1.207 K0.000 F300.000
G3 X-59.503 Y6.478 Z-2.000 I-1.225 J0.255 K0.000 F300.000
G2 X-60.048 Y6.939 Z-2.000 I0.120 J0.695 K0.000 F300.000
G2 X-60.096 Y7.829 Z-2.000 I2.872 J0.601 K0.000 F300.000
G2 X-59.772 Y8.629 Z-2.000 I0.922 J0.093 K0.000 F300.000
G2 X-58.333 Y9.144 Z-2.000 I2.093 J-3.578 K0.000 F300.000
G3 X-54.156 Y9.736 Z-2.000 I-11.055 J93.157 K0.000 F300.000
G2 X-53.859 Y9.682 Z-2.000 I-0.243 J-2.192 K0.000 F300.000
G2 X-53.449 Y9.078 Z-2.000 I-0.574 J-0.830 K0.000 F300.000
G2 X-54.572 Y7.305 Z-2.000 I-2.214 J0.160 K0.000 F300.000
G3 X-55.339 Y5.947 Z-2.000 I0.453 J-1.151 K0.000 F300.000
G3 X-54.220 Y4.921 Z-2.000 I1.310 J0.304 K0.000 F300.000
G2 X-53.507 Y4.560 Z-2.000 I-0.197 J-1.275 K0.000 F300.000
G2 X-53.332 Y3.497 Z-2.000 I-1.028 J-0.715 K0.000 F300.000
G2 X-53.876 Y2.978 Z-2.000 I-0.983 J0.484 K0.000 F300.000
G3 X-55.701 Y0.869 Z-2.000 I1.274 J-2.948 K0.000 F300.000
G3 X-55.862 Y-0.003 Z-2.000 I2.236 J-0.864 K0.000 F300.000
G1 X-55.862 Y-0.003 Z-3.000 F300.000
G3 X-55.787 Y-0.590 Z-3.000 I2.397 J0.008 K0.000 F300.000
G3 X-54.128 Y-2.866 Z-3.000 I3.236 J0.617 K0.000 F300.000
G2 X-53.415 Y-3.319 Z-3.000 I-0.554 J-1.656 K0.000 F300.000
G2 X-53.625 Y-4.675 Z-3.000 I-0.985 J-0.541 K0.000 F300.000
G2 X-54.362 Y-4.970 Z-3.000 I-1.953 J3.798 K0.000 F300.000
G3 X-54.900 Y-7.101 Z-3.000 I0.213 J-1.187 K0.000 F300.000
G2 X-54.227 Y-7.588 Z-3.000 I-3.467 J-5.495 K0.000 F300.000
G2 X-53.435 Y-9.050 Z-3.000 I-1.111 J-1.548 K0.000 F300.000
G2 X-53.891 Y-9.701 Z-3.000 I-0.969 J0.193 K0.000 F300.000
G1 X-54.010 Y-9.733 Z-3.000 F300.000
G2 X-57.446 Y-9.259 Z-3.000 I11.078 J93.053 K0.000 F300.000
G2 X-59.167 Y-8.937 Z-3.000 I0.484 J7.353 K0.000 F300.000
G2 X-59.965 Y-8.425 Z-3.000 I0.320 J1.375 K0.000 F300.000
G2 X-60.102 Y-7.316 Z-3.000 I1.991 J0.809 K0.000 F300.000
G2 X-59.516 Y-6.483 Z-3.000 I0.778 J0.076 K0.000 F300.000
G3 X-59.055 Y-4.338 Z-3.000 I-0.318 J1.190 K0.000 F300.000
G2 X-59.873 Y-3.632 Z-3.000 I1.009 J1.994 K0.000 F300.000
G2 X-60.114 Y-2.537 Z-3.000 I1.009 J0.796 K0.000 F300.000
G2 X-59.775 Y-2.310 Z-3.000 I0.530 J-0.426 K0.000 F300.000
G3 X-58.679 Y-1.019 Z-3.000 I-1.100 J2.045 K0.000 F300.000
G3 X-58.576 Y0.476 Z-3.000 I-3.629 J1.002 K0.000 F300.000
G3 X-59.511 Y2.119 Z-3.000 I-2.124 J-0.122 K0.000 F300.000
G2 X-60.103 Y2.524 Z-3.000 I1.040 J2.153 K0.000 F300.000
G2 X-60.162 Y2.818 Z-3.000 I0.666 J0.286 K0.000 F300.000
G2 X-59.378 Y4.140 Z-3.000 I1.826 J-0.188 K0.000 F300.000
G3 X-58.615 Y5.017 Z-3.000 I-0.501 J1.207 K0.000 F300.000
G3 X-59.503 Y6.478 Z-3.000 I-1.225 J0.255 K0.000 F300.000
G2 X-60.048 Y6.939 Z-3.000 I0.120 J0.695 K0.000 F300.000
G2 X-60.096 Y7.829 Z-3.000 I2.872 J0.601 K0.000 F300.000
G2 X-59.772 Y8.629 Z-3.000 I0.922 J0.093 K0.000 F300.000
G2 X-58.333 Y9.144 Z-3.000 I2.093 J-3.578 K0.000 F300.000
G3 X-54.156 Y9.736 Z-3.000 I-11.055 J93.157 K0.000 F300.000
G2 X-53.859 Y9.682 Z-3.000 I-0.243 J-2.192 K0.000 F300.000
G2 X-53.449 Y9.078 Z-3.000 I-0.574 J-0.830 K0.000 F300.000
G2 X-54.572 Y7.305 Z-3.000 I-2.214 J0.160 K0.000 F300.000
G3 X-55.339 Y5.947 Z-3.000 I0.453 J-1.151 K0.000 F300.000
G3 X-54.220 Y4.921 Z-3.000 I1.310 J0.304 K0.000 F300.000
G2 X-53.507 Y4.560 Z-3.000 I-0.197 J-1.275 K0.000 F300.000
G2 X-53.332 Y3.497 Z-3.000 I-1.028 J-0.715 K0.000 F300.000
G2 X-53.876 Y2.978 Z-3.000 I-0.983 J0.484 K0.000 F300.000
G3 X-55.701 Y0.869 Z-3.000 I1.274 J-2.948 K0.000 F300.000
G3 X-55.862 Y-0.003 Z-3.000 I2.236 J-0.864 K0.000 F300.000
G1 X-55.862 Y-0.003 Z-4.000 F300.000
G3 X-55.787 Y-0.590 Z-4.000 I2.397 J0.008 K0.000 F300.000
G3 X-54.128 Y-2.866 Z-4.000 I3.236 J0.617 K0.000 F300.000
G2 X-53.415 Y-3.319 Z-4.000 I-0.554 J-1.656 K0.000 F300.000
G2 X-53.625 Y-4.675 Z-4.000 I-0.985 J-0.541 K0.000 F300.000
G2 X-54.362 Y-4.970 Z-4.000 I-1.953 J3.798 K0.000 F300.000
G3 X-54.900 Y-7.101 Z-4.000 I0.213 J-1.187 K0.000 F300.000
G2 X-54.227 Y-7.588 Z-4.000 I-3.467 J-5.495 K0.000 F300.000
G2 X-53.435 Y-9.050 Z-4.000 I-1.111 J-1.548 K0.000 F300.000
G2 X-53.891 Y-9.701 Z-4.000 I-0.969 J0.193 K0.000 F300.000
G1 X-54.010 Y-9.733 Z-4.000 F300.000
G2 X-57.446 Y-9.259 Z-4.000 I11.078 J93.053 K0.000 F300.000
G2 X-59.167 Y-8.937 Z-4.000 I0.484 J7.353 K0.000 F300.000
G2 X-59.965 Y-8.425 Z-4.000 I0.320 J1.375 K0.000 F300.000
G2 X-60.102 Y-7.316 Z-4.000 I1.991 J0.809 K0.000 F300.000
G2 X-59.516 Y-6.483 Z-4.000 I0.778 J0.076 K0.000 F300.000
G3 X-59.055 Y-4.338 Z-4.000 I-0.318 J1.190 K0.000 F300.000
G2 X-59.873 Y-3.632 Z-4.000 I1.009 J1.994 K0.000 F300.000
G2 X-60.114 Y-2.537 Z-4.000 I1.009 J0.796 K0.000 F300.000
G2 X-59.775 Y-2.310 Z-4.000 I0.530 J-0.426 K0.000 F300.000
G3 X-58.679 Y-1.019 Z-4.000 I-1.100 J2.045 K0.000 F300.000
G3 X-58.576 Y0.476 Z-4.000 I-3.629 J1.002 K0.000 F300.000
G3 X-59.511 Y2.119 Z-4.000 I-2.124 J-0.122 K0.000 F300.000
G2 X-60.103 Y2.524 Z-4.000 I1.040 J2.153 K0.000 F300.000
G2 X-60.162 Y2.818 Z-4.000 I0.666 J0.286 K0.000 F300.000
G2 X-59.378 Y4.140 Z-4.000 I1.826 J-0.188 K0.000 F300.000
G3 X-58.615 Y5.017 Z-4.000 I-0.501 J1.207 K0.000 F300.000
G3 X-59.503 Y6.478 Z-4.000 I-1.225 J0.255 K0.000 F300.000
G2 X-60.048 Y6.939 Z-4.000 I0.120 J0.695 K0.000 F300.000
G2 X-60.096 Y7.829 Z-4.000 I2.872 J0.601 K0.000 F300.000
G2 X-59.772 Y8.629 Z-4.000 I0.922 J0.093 K0.000 F300.000
G2 X-58.333 Y9.144 Z-4.000 I2.093 J-3.578 K0.000 F300.000
G3 X-54.156 Y9.736 Z-4.000 I-11.055 J93.157 K0.000 F300.000
G2 X-53.859 Y9.682 Z-4.000 I-0.243 J-2.192 K0.000 F300.000
G2 X-53.449 Y9.078 Z-4.000 I-0.574 J-0.830 K0.000 F300.000
G2 X-54.572 Y7.305 Z-4.000 I-2.214 J0.160 K0.000 F300.000
G3 X-55.339 Y5.947 Z-4.000 I0.453 J-1.151 K0.000 F300.000
G3 X-54.220 Y4.921 Z-4.000 I1.310 J0.304 K0.000 F300.000
G2 X-53.507 Y4.560 Z-4.000 I-0.197 J-1.275 K0.000 F300.000
G2 X-53.332 Y3.497 Z-4.000 I-1.028 J-0.715 K0.000 F300.000
G2 X-53.876 Y2.978 Z-4.000 I-0.983 J0.484 K0.000 F300.000
G3 X-55.701 Y0.869 Z-4.000 I1.274 J-2.948 K0.000 F300.000
G3 X-55.862 Y-0.003 Z-4.000 I2.236 J-0.864 K0.000 F300.000
G1 X-55.862 Y-0.003 Z-5.000 F300.000
G3 X-55.787 Y-0.590 Z-5.000 I2.397 J0.008 K0.000 F300.000
G3 X-54.128 Y-2.866 Z-5.000 I3.236 J0.617 K0.000 F300.000
G2 X-53.415 Y-3.319 Z-5.000 I-0.554 J-1.656 K0.000 F300.000
G2 X-53.625 Y-4.675 Z-5.000 I-0.985 J-0.541 K0.000 F300.000
G2 X-54.362 Y-4.970 Z-5.000 I-1.953 J3.798 K0.000 F300.000
G3 X-54.900 Y-7.101 Z-5.000 I0.213 J-1.187 K0.000 F300.000
G2 X-54.227 Y-7.588 Z-5.000 I-3.467 J-5.495 K0.000 F300.000
G2 X-53.435 Y-9.050 Z-5.000 I-1.111 J-1.548 K0.000 F300.000
G2 X-53.891 Y-9.701 Z-5.000 I-0.969 J0.193 K0.000 F300.000
G1 X-54.010 Y-9.733 Z-5.000 F300.000
G2 X-57.446 Y-9.259 Z-5.000 I11.078 J93.053 K0.000 F300.000
G2 X-59.167 Y-8.937 Z-5.000 I0.484 J7.353 K0.000 F300.000
G2 X-59.965 Y-8.425 Z-5.000 I0.320 J1.375 K0.000 F300.000
G2 X-60.102 Y-7.316 Z-5.000 I1.991 J0.809 K0.000 F300.000
G2 X-59.516 Y-6.483 Z-5.000 I0.778 J0.076 K0.000 F300.000
G3 X-59.055 Y-4.338 Z-5.000 I-0.318 J1.190 K0.000 F300.000
G2 X-59.873 Y-3.632 Z-5.000 I1.009 J1.994 K0.000 F300.000
G2 X-60.114 Y-2.537 Z-5.000 I1.009 J0.796 K0.000 F300.000
G2 X-59.775 Y-2.310 Z-5.000 I0.530 J-0.426 K0.000 F300.000
G3 X-58.679 Y-1.019 Z-5.000 I-1.100 J2.045 K0.000 F300.000
G3 X-58.576 Y0.476 Z-5.000 I-3.629 J1.002 K0.000 F300.000
G3 X-59.511 Y2.119 Z-5.000 I-2.124 J-0.122 K0.000 F300.000
G2 X-60.103 Y2.524 Z-5.000 I1.040 J2.153 K0.000 F300.000
G2 X-60.162 Y2.818 Z-5.000 I0.666 J0.286 K0.000 F300.000
G2 X-59.378 Y4.140 Z-5.000 I1.826 J-0.188 K0.000 F300.000
G3 X-58.615 Y5.017 Z-5.000 I-0.501 J1.207 K0.000 F300.000
G3 X-59.503 Y6.478 Z-5.000 I-1.225 J0.255 K0.000 F300.000
G2 X-60.048 Y6.939 Z-5.000 I0.120 J0.695 K0.000 F300.000
G2 X-60.096 Y7.829 Z-5.000 I2.872 J0.601 K0.000 F300.000
G2 X-59.772 Y8.629 Z-5.000 I0.922 J0.093 K0.000 F300.000
G2 X-58.333 Y9.144 Z-5.000 I2.093 J-3.578 K0.000 F300.000
G3 X-54.156 Y9.736 Z-5.000 I-11.055 J93.157 K0.000 F300.000
G2 X-53.859 Y9.682 Z-5.000 I-0.243 J-2.192 K0.000 F300.000
G2 X-53.449 Y9.078 Z-5.000 I-0.574 J-0.830 K0.000 F300.000
G2 X-54.572 Y7.305 Z-5.000 I-2.214 J0.160 K0.000 F300.000
G3 X-55.339 Y5.947 Z-5.000 I0.453 J-1.151 K0.000 F300.000
G3 X-54.220 Y4.921 Z-5.000 I1.310 J0.304 K0.000 F300.000
G2 X-53.507 Y4.560 Z-5.000 I-0.197 J-1.275 K0.000 F300.000
G2 X-53.332 Y3.497 Z-5.000 I-1.028 J-0.715 K0.000 F300.000
G2 X-53.876 Y2.978 Z-5.000 I-0.983 J0.484 K0.000 F300.000
G3 X-55.701 Y0.869 Z-5.000 I1.274 J-2.948 K0.000 F300.000
G3 X-55.862 Y-0.003 Z-5.000 I2.236 J-0.864 K0.000 F300.000
G1 X-55.862 Y-0.003 Z-6.000 F300.000
G3 X-55.787 Y-0.590 Z-6.000 I2.397 J0.008 K0.000 F300.000
G3 X-54.128 Y-2.866 Z-6.000 I3.236 J0.617 K0.000 F300.000
G2 X-53.415 Y-3.319 Z-6.000 I-0.554 J-1.656 K0.000 F300.000
G2 X-53.625 Y-4.675 Z-6.000 I-0.985 J-0.541 K0.000 F300.000
G2 X-54.362 Y-4.970 Z-6.000 I-1.953 J3.798 K0.000 F300.000
G3 X-54.900 Y-7.101 Z-6.000 I0.213 J-1.187 K0.000 F300.000
G2 X-54.227 Y-7.588 Z-6.000 I-3.467 J-5.495 K0.000 F300.000
G2 X-53.435 Y-9.050 Z-6.000 I-1.111 J-1.548 K0.000 F300.000
G2 X-53.891 Y-9.701 Z-6.000 I-0.969 J0.193 K0.000 F300.000
G1 X-54.010 Y-9.733 Z-6.000 F300.000
G2 X-57.446 Y-9.259 Z-6.000 I11.078 J93.053 K0.000 F300.000
G2 X-59.167 Y-8.937 Z-6.000 I0.484 J7.353 K0.000 F300.000
G2 X-59.965 Y-8.425 Z-6.000 I0.320 J1.375 K0.000 F300.000
G2 X-60.102 Y-7.316 Z-6.000 I1.991 J0.809 K0.000 F300.000
G2 X-59.516 Y-6.483 Z-6.000 I0.778 J0.076 K0.000 F300.000
G3 X-59.055 Y-4.338 Z-6.000 I-0.318 J1.190 K0.000 F300.000
G2 X-59.873 Y-3.632 Z-6.000 I1.009 J1.994 K0.000 F300.000
G2 X-60.114 Y-2.537 Z-6.000 I1.009 J0.796 K0.000 F300.000
G2 X-59.775 Y-2.310 Z-6.000 I0.530 J-0.426 K0.000 F300.000
G3 X-58.679 Y-1.019 Z-6.000 I-1.100 J2.045 K0.000 F300.000
G3 X-58.576 Y0.476 Z-6.000 I-3.629 J1.002 K0.000 F300.000
G3 X-59.511 Y2.119 Z-6.000 I-2.124 J-0.122 K0.000 F300.000
G2 X-60.103 Y2.524 Z-6.000 I1.040 J2.153 K0.000 F300.000
G2 X-60.162 Y2.818 Z-6.000 I0.666 J0.286 K0.000 F300.000
G2 X-59.378 Y4.140 Z-6.000 I1.826 J-0.188 K0.000 F300.000
G3 X-58.615 Y5.017 Z-6.000 I-0.501 J1.207 K0.000 F300.000
G3 X-59.503 Y6.478 Z-6.000 I-1.225 J0.255 K0.000 F300.000
G2 X-60.048 Y6.939 Z-6.000 I0.120 J0.695 K0.000 F300.000
G2 X-60.096 Y7.829 Z-6.000 I2.872 J0.601 K0.000 F300.000
G2 X-59.772 Y8.629 Z-6.000 I0.922 J0.093 K0.000 F300.000
G2 X-58.333 Y9.144 Z-6.000 I2.093 J-3.578 K0.000 F300.000
G3 X-54.156 Y9.736 Z-6.000 I-11.055 J93.157 K0.000 F300.000
G2 X-53.859 Y9.682 Z-6.000 I-0.243 J-2.192 K0.000 F300.000
G2 X-53.449 Y9.078 Z-6.000 I-0.574 J-0.830 K0.000 F300.000
G2 X-54.572 Y7.305 Z-6.000 I-2.214 J0.160 K0.000 F300.000
G3 X-55.339 Y5.947 Z-6.000 I0.453 J-1.151 K0.000 F300.000
G3 X-54.220 Y4.921 Z-6.000 I1.310 J0.304 K0.000 F300.000
G2 X-53.507 Y4.560 Z-6.000 I-0.197 J-1.275 K0.000 F300.000
G2 X-53.332 Y3.497 Z-6.000 I-1.028 J-0.715 K0.000 F300.000
G2 X-53.876 Y2.978 Z-6.000 I-0.983 J0.484 K0.000 F300.000
G3 X-55.701 Y0.869 Z-6.000 I1.274 J-2.948 K0.000 F300.000
G3 X-55.862 Y-0.003 Z-6.000 I2.236 J-0.864 K0.000 F300.000
G0 Z5.000
G0 Z5.000
(End Custom)
(Finish operation: Profile000_SimpleCopy)
(Begin operation: Profile001_SimpleCopy)
(Path: Profile001_SimpleCopy)
(Profile001_SimpleCopy)
(Begin Custom)
(Profile001)
(Compensated Tool Path. Diameter: 1.2)
G0 Z5.000
G0 X-65.138 Y7.798
G0 Z3.000
G1 X-65.138 Y7.798 Z-1.000 F300.000
G2 X-64.876 Y6.313 Z-1.000 I-0.670 J-0.884 K0.000 F300.000
G2 X-66.485 Y5.353 Z-1.000 I-1.831 J1.241 K0.000 F300.000
G2 X-68.864 Y6.017 Z-1.000 I-0.551 J2.616 K0.000 F300.000
G2 X-68.989 Y7.429 Z-1.000 I0.783 J0.781 K0.000 F300.000
G2 X-65.175 Y7.825 Z-1.000 I2.126 J-1.909 K0.000 F300.000
G2 X-65.138 Y7.798 Z-1.000 I-0.633 J-0.911 K0.000 F300.000
G1 X-65.138 Y7.798 Z-2.000 F300.000
G2 X-64.876 Y6.313 Z-2.000 I-0.670 J-0.884 K0.000 F300.000
G2 X-66.485 Y5.353 Z-2.000 I-1.831 J1.241 K0.000 F300.000
G2 X-68.864 Y6.017 Z-2.000 I-0.551 J2.616 K0.000 F300.000
G2 X-68.989 Y7.429 Z-2.000 I0.783 J0.781 K0.000 F300.000
G2 X-65.175 Y7.825 Z-2.000 I2.126 J-1.909 K0.000 F300.000
G2 X-65.138 Y7.798 Z-2.000 I-0.633 J-0.911 K0.000 F300.000
G1 X-65.138 Y7.798 Z-3.000 F300.000
G2 X-64.876 Y6.313 Z-3.000 I-0.670 J-0.884 K0.000 F300.000
G2 X-66.485 Y5.353 Z-3.000 I-1.831 J1.241 K0.000 F300.000
G2 X-68.864 Y6.017 Z-3.000 I-0.551 J2.616 K0.000 F300.000
G2 X-68.989 Y7.429 Z-3.000 I0.783 J0.781 K0.000 F300.000
G2 X-65.175 Y7.825 Z-3.000 I2.126 J-1.909 K0.000 F300.000
G2 X-65.138 Y7.798 Z-3.000 I-0.633 J-0.911 K0.000 F300.000
G1 X-65.138 Y7.798 Z-4.000 F300.000
G2 X-64.876 Y6.313 Z-4.000 I-0.670 J-0.884 K0.000 F300.000
G2 X-66.485 Y5.353 Z-4.000 I-1.831 J1.241 K0.000 F300.000
G2 X-68.864 Y6.017 Z-4.000 I-0.551 J2.616 K0.000 F300.000
G2 X-68.989 Y7.429 Z-4.000 I0.783 J0.781 K0.000 F300.000
G2 X-65.175 Y7.825 Z-4.000 I2.126 J-1.909 K0.000 F300.000
G2 X-65.138 Y7.798 Z-4.000 I-0.633 J-0.911 K0.000 F300.000
G1 X-65.138 Y7.798 Z-5.000 F300.000
G2 X-64.876 Y6.313 Z-5.000 I-0.670 J-0.884 K0.000 F300.000
G2 X-66.485 Y5.353 Z-5.000 I-1.831 J1.241 K0.000 F300.000
G2 X-68.864 Y6.017 Z-5.000 I-0.551 J2.616 K0.000 F300.000
G2 X-68.989 Y7.429 Z-5.000 I0.783 J0.781 K0.000 F300.000
G2 X-65.175 Y7.825 Z-5.000 I2.126 J-1.909 K0.000 F300.000
G2 X-65.138 Y7.798 Z-5.000 I-0.633 J-0.911 K0.000 F300.000
G1 X-65.138 Y7.798 Z-6.000 F300.000
G2 X-64.876 Y6.313 Z-6.000 I-0.670 J-0.884 K0.000 F300.000
G2 X-66.485 Y5.353 Z-6.000 I-1.831 J1.241 K0.000 F300.000
G2 X-68.864 Y6.017 Z-6.000 I-0.551 J2.616 K0.000 F300.000
G2 X-68.989 Y7.429 Z-6.000 I0.783 J0.781 K0.000 F300.000
G2 X-65.175 Y7.825 Z-6.000 I2.126 J-1.909 K0.000 F300.000
G2 X-65.138 Y7.798 Z-6.000 I-0.633 J-0.911 K0.000 F300.000
G0 Z5.000
G0 Z5.000
(End Custom)
(Finish operation: Profile001_SimpleCopy)
(Begin operation: Profile002_SimpleCopy)
(Path: Profile002_SimpleCopy)
(Profile002_SimpleCopy)
(Begin Custom)
(Profile002)
(Compensated Tool Path. Diameter: 1.2)
G0 Z5.000
G0 X-65.222 Y-5.911
G0 Z3.000
G1 X-65.222 Y-5.911 Z-1.000 F300.000
G2 X-65.043 Y-6.080 Z-1.000 I-1.616 J-1.889 K0.000 F300.000
G2 X-64.848 Y-7.468 Z-1.000 I-0.791 J-0.819 K0.000 F300.000
G2 X-65.882 Y-8.208 Z-1.000 I-1.583 J1.120 K0.000 F300.000
G2 X-68.778 Y-7.647 Z-1.000 I-0.998 J2.605 K0.000 F300.000
G2 X-69.003 Y-6.187 Z-1.000 I0.700 J0.856 K0.000 F300.000
G2 X-66.668 Y-5.320 Z-1.000 I1.982 J-1.760 K0.000 F300.000
G2 X-65.222 Y-5.911 Z-1.000 I-0.170 J-2.480 K0.000 F300.000
G1 X-65.222 Y-5.911 Z-2.000 F300.000
G2 X-65.043 Y-6.080 Z-2.000 I-1.616 J-1.889 K0.000 F300.000
G2 X-64.848 Y-7.468 Z-2.000 I-0.791 J-0.819 K0.000 F300.000
G2 X-65.882 Y-8.208 Z-2.000 I-1.583 J1.120 K0.000 F300.000
G2 X-68.778 Y-7.647 Z-2.000 I-0.998 J2.605 K0.000 F300.000
G2 X-69.003 Y-6.187 Z-2.000 I0.700 J0.856 K0.000 F300.000
G2 X-66.668 Y-5.320 Z-2.000 I1.982 J-1.760 K0.000 F300.000
G2 X-65.222 Y-5.911 Z-2.000 I-0.170 J-2.480 K0.000 F300.000
G1 X-65.222 Y-5.911 Z-3.000 F300.000
G2 X-65.043 Y-6.080 Z-3.000 I-1.616 J-1.889 K0.000 F300.000
G2 X-64.848 Y-7.468 Z-3.000 I-0.791 J-0.819 K0.000 F300.000
G2 X-65.882 Y-8.208 Z-3.000 I-1.583 J1.120 K0.000 F300.000
G2 X-68.778 Y-7.647 Z-3.000 I-0.998 J2.605 K0.000 F300.000
G2 X-69.003 Y-6.187 Z-3.000 I0.700 J0.856 K0.000 F300.000
G2 X-66.668 Y-5.320 Z-3.000 I1.982 J-1.760 K0.000 F300.000
G2 X-65.222 Y-5.911 Z-3.000 I-0.170 J-2.480 K0.000 F300.000
G1 X-65.222 Y-5.911 Z-4.000 F300.000
G2 X-65.043 Y-6.080 Z-4.000 I-1.616 J-1.889 K0.000 F300.000
G2 X-64.848 Y-7.468 Z-4.000 I-0.791 J-0.819 K0.000 F300.000
G2 X-65.882 Y-8.208 Z-4.000 I-1.583 J1.120 K0.000 F300.000
G2 X-68.778 Y-7.647 Z-4.000 I-0.998 J2.605 K0.000 F300.000
G2 X-69.003 Y-6.187 Z-4.000 I0.700 J0.856 K0.000 F300.000
G2 X-66.668 Y-5.320 Z-4.000 I1.982 J-1.760 K0.000 F300.000
G2 X-65.222 Y-5.911 Z-4.000 I-0.170 J-2.480 K0.000 F300.000
G1 X-65.222 Y-5.911 Z-5.000 F300.000
G2 X-65.043 Y-6.080 Z-5.000 I-1.616 J-1.889 K0.000 F300.000
G2 X-64.848 Y-7.468 Z-5.000 I-0.791 J-0.819 K0.000 F300.000
G2 X-65.882 Y-8.208 Z-5.000 I-1.583 J1.120 K0.000 F300.000
G2 X-68.778 Y-7.647 Z-5.000 I-0.998 J2.605 K0.000 F300.000
G2 X-69.003 Y-6.187 Z-5.000 I0.700 J0.856 K0.000 F300.000
G2 X-66.668 Y-5.320 Z-5.000 I1.982 J-1.760 K0.000 F300.000
G2 X-65.222 Y-5.911 Z-5.000 I-0.170 J-2.480 K0.000 F300.000
G1 X-65.222 Y-5.911 Z-6.000 F300.000
G2 X-65.043 Y-6.080 Z-6.000 I-1.616 J-1.889 K0.000 F300.000
G2 X-64.848 Y-7.468 Z-6.000 I-0.791 J-0.819 K0.000 F300.000
G2 X-65.882 Y-8.208 Z-6.000 I-1.583 J1.120 K0.000 F300.000
G2 X-68.778 Y-7.647 Z-6.000 I-0.998 J2.605 K0.000 F300.000
G2 X-69.003 Y-6.187 Z-6.000 I0.700 J0.856 K0.000 F300.000
G2 X-66.668 Y-5.320 Z-6.000 I1.982 J-1.760 K0.000 F300.000
G2 X-65.222 Y-5.911 Z-6.000 I-0.170 J-2.480 K0.000 F300.000
G0 Z5.000
G0 Z5.000
(End Custom)
(Finish operation: Profile002_SimpleCopy)
(Begin operation: Profile003_SimpleCopy004)
(Path: Profile003_SimpleCopy004)
(Profile003_SimpleCopy004)
(Begin Custom)
(Profile003)
(Compensated Tool Path. Diameter: 1.2)
G0 Z5.000
G0 X-33.104 Y22.095
G0 Z3.000
G1 X-33.104 Y22.095 Z-1.000 F300.000
G3 X-34.066 Y22.884 Z-1.000 I-2.027 J-1.490 K0.000 F300.000
G3 X-35.681 Y22.768 Z-1.000 I-0.655 J-2.169 K0.000 F300.000
G2 X-39.796 Y20.742 Z-1.000 I-44.643 J85.494 K0.000 F300.000
G2 X-40.692 Y20.452 Z-1.000 I-3.010 J7.772 K0.000 F300.000
G2 X-46.684 Y19.161 Z-1.000 I-44.263 J190.903 K0.000 F300.000
G2 X-48.162 Y19.128 Z-1.000 I-0.832 J4.083 K0.000 F300.000
G2 X-48.949 Y19.510 Z-1.000 I0.197 J1.405 K0.000 F300.000
G2 X-50.019 Y20.854 Z-1.000 I6.270 J6.097 K0.000 F300.000
G3 X-52.289 Y23.205 Z-1.000 I-9.946 J-7.328 K0.000 F300.000
G3 X-55.980 Y24.679 Z-1.000 I-4.336 J-5.500 K0.000 F300.000
G3 X-58.249 Y24.481 Z-1.000 I-0.579 J-6.464 K0.000 F300.000
G3 X-60.917 Y21.834 Z-1.000 I1.276 J-3.955 K0.000 F300.000
G3 X-61.300 Y18.611 Z-1.000 I7.210 J-2.490 K0.000 F300.000
G2 X-61.476 Y18.084 Z-1.000 I-0.642 J-0.078 K0.000 F300.000
G2 X-61.986 Y17.882 Z-1.000 I-0.697 J1.013 K0.000 F300.000
G1 X-65.375 Y17.753 Z-1.000 F300.000
G3 X-69.751 Y16.709 Z-1.000 I2.271 J-19.218 K0.000 F300.000
G3 X-71.611 Y15.865 Z-1.000 I5.467 J-14.526 K0.000 F300.000
G1 X-73.812 Y14.414 Z-1.000 F300.000
G1 X-75.735 Y12.736 Z-1.000 F300.000
G1 X-75.838 Y12.619 Z-1.000 F300.000
G3 X-79.216 Y6.583 Z-1.000 I26.296 J-18.678 K0.000 F300.000
G1 X-80.016 Y4.169 Z-1.000 F300.000
G1 X-80.364 Y1.991 Z-1.000 F300.000
G1 X-80.356 Y-2.088 Z-1.000 F300.000
G1 X-79.993 Y-4.263 Z-1.000 F300.000
G1 X-79.192 Y-6.643 Z-1.000 F300.000
G3 X-75.735 Y-12.736 Z-1.000 I29.161 J12.517 K0.000 F300.000
G1 X-73.747 Y-14.464 Z-1.000 F300.000
G1 X-71.548 Y-15.902 Z-1.000 F300.000
G3 X-66.125 Y-17.637 Z-1.000 I7.815 J15.082 K0.000 F300.000
G1 X-65.298 Y-17.760 Z-1.000 F300.000
G1 X-61.986 Y-17.882 Z-1.000 F300.000
G2 X-61.407 Y-18.140 Z-1.000 I-0.174 J-1.172 K0.000 F300.000
G2 X-61.313 Y-18.681 Z-1.000 I-1.031 J-0.457 K0.000 F300.000
G3 X-60.832 Y-22.103 Z-1.000 I7.754 J-0.654 K0.000 F300.000
G3 X-57.857 Y-24.591 Z-1.000 I3.882 J1.620 K0.000 F300.000
G3 X-55.555 Y-24.633 Z-1.000 I1.276 J6.825 K0.000 F300.000
G3 X-52.500 Y-23.344 Z-1.000 I-1.058 J6.776 K0.000 F300.000
G3 X-49.596 Y-20.252 Z-1.000 I-7.126 J9.601 K0.000 F300.000
G2 X-48.786 Y-19.346 Z-1.000 I5.690 J-4.272 K0.000 F300.000
G2 X-47.123 Y-19.104 Z-1.000 I1.181 J-2.292 K0.000 F300.000
G2 X-46.234 Y-19.251 Z-1.000 I-0.624 J-6.527 K0.000 F300.000
G1 X-40.704 Y-20.450 Z-1.000 F300.000
G2 X-38.720 Y-21.236 Z-1.000 I-2.429 J-9.027 K0.000 F300.000
G2 X-35.646 Y-22.784 Z-1.000 I-494.739 J-986.107 K0.000 F300.000
G3 X-33.695 Y-22.677 Z-1.000 I0.881 J1.786 K0.000 F300.000
G3 X-32.588 Y-20.607 Z-1.000 I-1.594 J2.183 K0.000 F300.000
G3 X-32.813 Y-17.636 Z-1.000 I-10.746 J0.683 K0.000 F300.000
G1 X-32.813 Y-17.636 Z-1.000 F300.000
G2 X-32.900 Y-17.076 Z-1.000 I1.792 J0.568 K0.000 F300.000
G2 X-32.080 Y-16.324 Z-1.000 I2.554 J-1.963 K0.000 F300.000
G3 X-29.888 Y-13.843 Z-1.000 I-5.080 J6.698 K0.000 F300.000
G3 X-29.630 Y-11.518 Z-1.000 I-3.531 J1.568 K0.000 F300.000
G3 X-29.897 Y-10.150 Z-1.000 I-5.748 J-0.413 K0.000 F300.000
G3 X-31.438 Y-8.270 Z-1.000 I-4.317 J-1.966 K0.000 F300.000
G3 X-32.354 Y-7.474 Z-1.000 I-69.858 J-79.512 K0.000 F300.000
G2 X-32.518 Y-4.224 Z-1.000 I1.763 J1.718 K0.000 F300.000
G1 X-32.239 Y-3.955 Z-1.000 F300.000
G1 X-32.239 Y-3.955 Z-1.000 F300.000
G3 X-30.652 Y-0.792 Z-1.000 I-2.970 J3.470 K0.000 F300.000
G3 X-30.790 Y1.646 Z-1.000 I-8.778 J0.726 K0.000 F300.000
G3 X-32.241 Y3.958 Z-1.000 I-4.402 J-1.153 K0.000 F300.000
G2 X-32.951 Y6.535 Z-1.000 I1.580 J1.821 K0.000 F300.000
G2 X-32.361 Y7.428 Z-1.000 I1.986 J-0.670 K0.000 F300.000
G2 X-30.786 Y8.830 Z-1.000 I24.742 J-26.236 K0.000 F300.000
G3 X-29.925 Y10.049 Z-1.000 I-3.993 J3.730 K0.000 F300.000
G3 X-29.652 Y11.445 Z-1.000 I-4.559 J1.618 K0.000 F300.000
G3 X-29.619 Y13.024 Z-1.000 I-4.815 J0.889 K0.000 F300.000
G3 X-30.826 Y15.136 Z-1.000 I-4.299 J-1.055 K0.000 F300.000
G3 X-32.378 Y16.537 Z-1.000 I-6.469 J-5.601 K0.000 F300.000
G2 X-32.888 Y17.046 Z-1.000 I8.630 J9.170 K0.000 F300.000
G2 X-32.642 Y18.697 Z-1.000 I14.629 J-1.329 K0.000 F300.000
G3 X-32.702 Y21.259 Z-1.000 I-6.427 J1.132 K0.000 F300.000
G3 X-33.104 Y22.095 Z-1.000 I-2.430 J-0.654 K0.000 F300.000
G1 X-33.104 Y22.095 Z-2.000 F300.000
G3 X-34.066 Y22.884 Z-2.000 I-2.027 J-1.490 K0.000 F300.000
G3 X-35.681 Y22.768 Z-2.000 I-0.655 J-2.169 K0.000 F300.000
G2 X-39.796 Y20.742 Z-2.000 I-44.643 J85.494 K0.000 F300.000
G2 X-40.692 Y20.452 Z-2.000 I-3.010 J7.772 K0.000 F300.000
G2 X-46.684 Y19.161 Z-2.000 I-44.263 J190.903 K0.000 F300.000
G2 X-48.162 Y19.128 Z-2.000 I-0.832 J4.083 K0.000 F300.000
G2 X-48.949 Y19.510 Z-2.000 I0.197 J1.405 K0.000 F300.000
G2 X-50.019 Y20.854 Z-2.000 I6.270 J6.097 K0.000 F300.000
G3 X-52.289 Y23.205 Z-2.000 I-9.946 J-7.328 K0.000 F300.000
G3 X-55.980 Y24.679 Z-2.000 I-4.336 J-5.500 K0.000 F300.000
G3 X-58.249 Y24.481 Z-2.000 I-0.579 J-6.464 K0.000 F300.000
G3 X-60.917 Y21.834 Z-2.000 I1.276 J-3.955 K0.000 F300.000
G3 X-61.300 Y18.611 Z-2.000 I7.210 J-2.490 K0.000 F300.000
G2 X-61.476 Y18.084 Z-2.000 I-0.642 J-0.078 K0.000 F300.000
G2 X-61.986 Y17.882 Z-2.000 I-0.697 J1.013 K0.000 F300.000
G1 X-65.375 Y17.753 Z-2.000 F300.000
G3 X-69.751 Y16.709 Z-2.000 I2.271 J-19.218 K0.000 F300.000
G3 X-71.611 Y15.865 Z-2.000 I5.467 J-14.526 K0.000 F300.000
G1 X-73.812 Y14.414 Z-2.000 F300.000
G1 X-75.735 Y12.736 Z-2.000 F300.000
G1 X-75.838 Y12.619 Z-2.000 F300.000
G3 X-79.216 Y6.583 Z-2.000 I26.296 J-18.678 K0.000 F300.000
G1 X-80.016 Y4.169 Z-2.000 F300.000
G1 X-80.364 Y1.991 Z-2.000 F300.000
G1 X-80.356 Y-2.088 Z-2.000 F300.000
G1 X-79.993 Y-4.263 Z-2.000 F300.000
G1 X-79.192 Y-6.643 Z-2.000 F300.000
G3 X-75.735 Y-12.736 Z-2.000 I29.161 J12.517 K0.000 F300.000
G1 X-73.747 Y-14.464 Z-2.000 F300.000
G1 X-71.548 Y-15.902 Z-2.000 F300.000
G3 X-66.125 Y-17.637 Z-2.000 I7.815 J15.082 K0.000 F300.000
G1 X-65.298 Y-17.760 Z-2.000 F300.000
G1 X-61.986 Y-17.882 Z-2.000 F300.000
G2 X-61.407 Y-18.140 Z-2.000 I-0.174 J-1.172 K0.000 F300.000
G2 X-61.313 Y-18.681 Z-2.000 I-1.031 J-0.457 K0.000 F300.000
G3 X-60.832 Y-22.103 Z-2.000 I7.754 J-0.654 K0.000 F300.000
G3 X-57.857 Y-24.591 Z-2.000 I3.882 J1.620 K0.000 F300.000
G3 X-55.555 Y-24.633 Z-2.000 I1.276 J6.825 K0.000 F300.000
G3 X-52.500 Y-23.344 Z-2.000 I-1.058 J6.776 K0.000 F300.000
G3 X-49.596 Y-20.252 Z-2.000 I-7.126 J9.601 K0.000 F300.000
G2 X-48.786 Y-19.346 Z-2.000 I5.690 J-4.272 K0.000 F300.000
G2 X-47.123 Y-19.104 Z-2.000 I1.181 J-2.292 K0.000 F300.000
G2 X-46.234 Y-19.251 Z-2.000 I-0.624 J-6.527 K0.000 F300.000
G1 X-40.704 Y-20.450 Z-2.000 F300.000
G2 X-38.720 Y-21.236 Z-2.000 I-2.429 J-9.027 K0.000 F300.000
G2 X-35.646 Y-22.784 Z-2.000 I-494.739 J-986.107 K0.000 F300.000
G3 X-33.695 Y-22.677 Z-2.000 I0.881 J1.786 K0.000 F300.000
G3 X-32.588 Y-20.607 Z-2.000 I-1.594 J2.183 K0.000 F300.000
G3 X-32.813 Y-17.636 Z-2.000 I-10.746 J0.683 K0.000 F300.000
G1 X-32.813 Y-17.636 Z-2.000 F300.000
G2 X-32.900 Y-17.076 Z-2.000 I1.792 J0.568 K0.000 F300.000
G2 X-32.080 Y-16.324 Z-2.000 I2.554 J-1.963 K0.000 F300.000
G3 X-29.888 Y-13.843 Z-2.000 I-5.080 J6.698 K0.000 F300.000
G3 X-29.630 Y-11.518 Z-2.000 I-3.531 J1.568 K0.000 F300.000
G3 X-29.897 Y-10.150 Z-2.000 I-5.748 J-0.413 K0.000 F300.000
G3 X-31.438 Y-8.270 Z-2.000 I-4.317 J-1.966 K0.000 F300.000
G3 X-32.354 Y-7.474 Z-2.000 I-69.858 J-79.512 K0.000 F300.000
G2 X-32.518 Y-4.224 Z-2.000 I1.763 J1.718 K0.000 F300.000
G1 X-32.239 Y-3.955 Z-2.000 F300.000
G1 X-32.239 Y-3.955 Z-2.000 F300.000
G3 X-30.652 Y-0.792 Z-2.000 I-2.970 J3.470 K0.000 F300.000
G3 X-30.790 Y1.646 Z-2.000 I-8.778 J0.726 K0.000 F300.000
G3 X-32.241 Y3.958 Z-2.000 I-4.402 J-1.153 K0.000 F300.000
G2 X-32.951 Y6.535 Z-2.000 I1.580 J1.821 K0.000 F300.000
G2 X-32.361 Y7.428 Z-2.000 I1.986 J-0.670 K0.000 F300.000
G2 X-30.786 Y8.830 Z-2.000 I24.742 J-26.236 K0.000 F300.000
G3 X-29.925 Y10.049 Z-2.000 I-3.993 J3.730 K0.000 F300.000
G3 X-29.652 Y11.445 Z-2.000 I-4.559 J1.618 K0.000 F300.000
G3 X-29.619 Y13.024 Z-2.000 I-4.815 J0.889 K0.000 F300.000
G3 X-30.826 Y15.136 Z-2.000 I-4.299 J-1.055 K0.000 F300.000
G3 X-32.378 Y16.537 Z-2.000 I-6.469 J-5.601 K0.000 F300.000
G2 X-32.888 Y17.046 Z-2.000 I8.630 J9.170 K0.000 F300.000
G2 X-32.642 Y18.697 Z-2.000 I14.629 J-1.329 K0.000 F300.000
G3 X-32.702 Y21.259 Z-2.000 I-6.427 J1.132 K0.000 F300.000
G3 X-33.104 Y22.095 Z-2.000 I-2.430 J-0.654 K0.000 F300.000
G1 X-33.104 Y22.095 Z-3.000 F300.000
G3 X-34.066 Y22.884 Z-3.000 I-2.027 J-1.490 K0.000 F300.000
G3 X-35.681 Y22.768 Z-3.000 I-0.655 J-2.169 K0.000 F300.000
G2 X-39.796 Y20.742 Z-3.000 I-44.643 J85.494 K0.000 F300.000
G2 X-40.692 Y20.452 Z-3.000 I-3.010 J7.772 K0.000 F300.000
G2 X-46.684 Y19.161 Z-3.000 I-44.263 J190.903 K0.000 F300.000
G2 X-48.162 Y19.128 Z-3.000 I-0.832 J4.083 K0.000 F300.000
G2 X-48.949 Y19.510 Z-3.000 I0.197 J1.405 K0.000 F300.000
G2 X-50.019 Y20.854 Z-3.000 I6.270 J6.097 K0.000 F300.000
G3 X-52.289 Y23.205 Z-3.000 I-9.946 J-7.328 K0.000 F300.000
G3 X-55.980 Y24.679 Z-3.000 I-4.336 J-5.500 K0.000 F300.000
G3 X-58.249 Y24.481 Z-3.000 I-0.579 J-6.464 K0.000 F300.000
G3 X-60.917 Y21.834 Z-3.000 I1.276 J-3.955 K0.000 F300.000
G3 X-61.300 Y18.611 Z-3.000 I7.210 J-2.490 K0.000 F300.000
G2 X-61.476 Y18.084 Z-3.000 I-0.642 J-0.078 K0.000 F300.000
G2 X-61.986 Y17.882 Z-3.000 I-0.697 J1.013 K0.000 F300.000
G1 X-65.375 Y17.753 Z-3.000 F300.000
G3 X-69.751 Y16.709 Z-3.000 I2.271 J-19.218 K0.000 F300.000
G3 X-71.611 Y15.865 Z-3.000 I5.467 J-14.526 K0.000 F300.000
G1 X-73.812 Y14.414 Z-3.000 F300.000
G1 X-75.735 Y12.736 Z-3.000 F300.000
G1 X-75.838 Y12.619 Z-3.000 F300.000
G3 X-79.216 Y6.583 Z-3.000 I26.296 J-18.678 K0.000 F300.000
G1 X-80.016 Y4.169 Z-3.000 F300.000
G1 X-80.364 Y1.991 Z-3.000 F300.000
G1 X-80.356 Y-2.088 Z-3.000 F300.000
G1 X-79.993 Y-4.263 Z-3.000 F300.000
G1 X-79.192 Y-6.643 Z-3.000 F300.000
G3 X-75.735 Y-12.736 Z-3.000 I29.161 J12.517 K0.000 F300.000
G1 X-73.747 Y-14.464 Z-3.000 F300.000
G1 X-71.548 Y-15.902 Z-3.000 F300.000
G3 X-66.125 Y-17.637 Z-3.000 I7.815 J15.082 K0.000 F300.000
G1 X-65.298 Y-17.760 Z-3.000 F300.000
G1 X-61.986 Y-17.882 Z-3.000 F300.000
G2 X-61.407 Y-18.140 Z-3.000 I-0.174 J-1.172 K0.000 F300.000
G2 X-61.313 Y-18.681 Z-3.000 I-1.031 J-0.457 K0.000 F300.000
G3 X-60.832 Y-22.103 Z-3.000 I7.754 J-0.654 K0.000 F300.000
G3 X-57.857 Y-24.591 Z-3.000 I3.882 J1.620 K0.000 F300.000
G3 X-55.555 Y-24.633 Z-3.000 I1.276 J6.825 K0.000 F300.000
G3 X-52.500 Y-23.344 Z-3.000 I-1.058 J6.776 K0.000 F300.000
G3 X-49.596 Y-20.252 Z-3.000 I-7.126 J9.601 K0.000 F300.000
G2 X-48.786 Y-19.346 Z-3.000 I5.690 J-4.272 K0.000 F300.000
G2 X-47.123 Y-19.104 Z-3.000 I1.181 J-2.292 K0.000 F300.000
G2 X-46.234 Y-19.251 Z-3.000 I-0.624 J-6.527 K0.000 F300.000
G1 X-40.704 Y-20.450 Z-3.000 F300.000
G2 X-38.720 Y-21.236 Z-3.000 I-2.429 J-9.027 K0.000 F300.000
G2 X-35.646 Y-22.784 Z-3.000 I-494.739 J-986.107 K0.000 F300.000
G3 X-33.695 Y-22.677 Z-3.000 I0.881 J1.786 K0.000 F300.000
G3 X-32.588 Y-20.607 Z-3.000 I-1.594 J2.183 K0.000 F300.000
G3 X-32.813 Y-17.636 Z-3.000 I-10.746 J0.683 K0.000 F300.000
G1 X-32.813 Y-17.636 Z-3.000 F300.000
G2 X-32.900 Y-17.076 Z-3.000 I1.792 J0.568 K0.000 F300.000
G2 X-32.080 Y-16.324 Z-3.000 I2.554 J-1.963 K0.000 F300.000
G3 X-29.888 Y-13.843 Z-3.000 I-5.080 J6.698 K0.000 F300.000
G3 X-29.630 Y-11.518 Z-3.000 I-3.531 J1.568 K0.000 F300.000
G3 X-29.897 Y-10.150 Z-3.000 I-5.748 J-0.413 K0.000 F300.000
G3 X-31.438 Y-8.270 Z-3.000 I-4.317 J-1.966 K0.000 F300.000
G3 X-32.354 Y-7.474 Z-3.000 I-69.858 J-79.512 K0.000 F300.000
G2 X-32.518 Y-4.224 Z-3.000 I1.763 J1.718 K0.000 F300.000
G1 X-32.239 Y-3.955 Z-3.000 F300.000
G1 X-32.239 Y-3.955 Z-3.000 F300.000
G3 X-30.652 Y-0.792 Z-3.000 I-2.970 J3.470 K0.000 F300.000
G3 X-30.790 Y1.646 Z-3.000 I-8.778 J0.726 K0.000 F300.000
G3 X-32.241 Y3.958 Z-3.000 I-4.402 J-1.153 K0.000 F300.000
G2 X-32.951 Y6.535 Z-3.000 I1.580 J1.821 K0.000 F300.000
G2 X-32.361 Y7.428 Z-3.000 I1.986 J-0.670 K0.000 F300.000
G2 X-30.786 Y8.830 Z-3.000 I24.742 J-26.236 K0.000 F300.000
G3 X-29.925 Y10.049 Z-3.000 I-3.993 J3.730 K0.000 F300.000
G3 X-29.652 Y11.445 Z-3.000 I-4.559 J1.618 K0.000 F300.000
G3 X-29.619 Y13.024 Z-3.000 I-4.815 J0.889 K0.000 F300.000
G3 X-30.826 Y15.136 Z-3.000 I-4.299 J-1.055 K0.000 F300.000
G3 X-32.378 Y16.537 Z-3.000 I-6.469 J-5.601 K0.000 F300.000
G2 X-32.888 Y17.046 Z-3.000 I8.630 J9.170 K0.000 F300.000
G2 X-32.642 Y18.697 Z-3.000 I14.629 J-1.329 K0.000 F300.000
G3 X-32.702 Y21.259 Z-3.000 I-6.427 J1.132 K0.000 F300.000
G3 X-33.104 Y22.095 Z-3.000 I-2.430 J-0.654 K0.000 F300.000
G1 X-33.104 Y22.095 Z-4.000 F300.000
G3 X-34.066 Y22.884 Z-4.000 I-2.027 J-1.490 K0.000 F300.000
G3 X-35.681 Y22.768 Z-4.000 I-0.655 J-2.169 K0.000 F300.000
G2 X-39.796 Y20.742 Z-4.000 I-44.643 J85.494 K0.000 F300.000
G2 X-40.692 Y20.452 Z-4.000 I-3.010 J7.772 K0.000 F300.000
G2 X-46.684 Y19.161 Z-4.000 I-44.263 J190.903 K0.000 F300.000
G2 X-48.162 Y19.128 Z-4.000 I-0.832 J4.083 K0.000 F300.000
G2 X-48.949 Y19.510 Z-4.000 I0.197 J1.405 K0.000 F300.000
G2 X-50.019 Y20.854 Z-4.000 I6.270 J6.097 K0.000 F300.000
G3 X-52.289 Y23.205 Z-4.000 I-9.946 J-7.328 K0.000 F300.000
G3 X-55.980 Y24.679 Z-4.000 I-4.336 J-5.500 K0.000 F300.000
G3 X-58.249 Y24.481 Z-4.000 I-0.579 J-6.464 K0.000 F300.000
G3 X-60.917 Y21.834 Z-4.000 I1.276 J-3.955 K0.000 F300.000
G3 X-61.300 Y18.611 Z-4.000 I7.210 J-2.490 K0.000 F300.000
G2 X-61.476 Y18.084 Z-4.000 I-0.642 J-0.078 K0.000 F300.000
G2 X-61.986 Y17.882 Z-4.000 I-0.697 J1.013 K0.000 F300.000
G1 X-65.375 Y17.753 Z-4.000 F300.000
G3 X-69.751 Y16.709 Z-4.000 I2.271 J-19.218 K0.000 F300.000
G3 X-71.611 Y15.865 Z-4.000 I5.467 J-14.526 K0.000 F300.000
G1 X-73.812 Y14.414 Z-4.000 F300.000
G1 X-75.735 Y12.736 Z-4.000 F300.000
G1 X-75.838 Y12.619 Z-4.000 F300.000
G3 X-79.216 Y6.583 Z-4.000 I26.296 J-18.678 K0.000 F300.000
G1 X-80.016 Y4.169 Z-4.000 F300.000
G1 X-80.364 Y1.991 Z-4.000 F300.000
G1 X-80.356 Y-2.088 Z-4.000 F300.000
G1 X-79.993 Y-4.263 Z-4.000 F300.000
G1 X-79.192 Y-6.643 Z-4.000 F300.000
G3 X-75.735 Y-12.736 Z-4.000 I29.161 J12.517 K0.000 F300.000
G1 X-73.747 Y-14.464 Z-4.000 F300.000
G1 X-71.548 Y-15.902 Z-4.000 F300.000
G3 X-66.125 Y-17.637 Z-4.000 I7.815 J15.082 K0.000 F300.000
G1 X-65.298 Y-17.760 Z-4.000 F300.000
G1 X-61.986 Y-17.882 Z-4.000 F300.000
G2 X-61.407 Y-18.140 Z-4.000 I-0.174 J-1.172 K0.000 F300.000
G2 X-61.313 Y-18.681 Z-4.000 I-1.031 J-0.457 K0.000 F300.000
G3 X-60.832 Y-22.103 Z-4.000 I7.754 J-0.654 K0.000 F300.000
G3 X-57.857 Y-24.591 Z-4.000 I3.882 J1.620 K0.000 F300.000
G3 X-55.555 Y-24.633 Z-4.000 I1.276 J6.825 K0.000 F300.000
G3 X-52.500 Y-23.344 Z-4.000 I-1.058 J6.776 K0.000 F300.000
G3 X-49.596 Y-20.252 Z-4.000 I-7.126 J9.601 K0.000 F300.000
G2 X-48.786 Y-19.346 Z-4.000 I5.690 J-4.272 K0.000 F300.000
G2 X-47.123 Y-19.104 Z-4.000 I1.181 J-2.292 K0.000 F300.000
G2 X-46.234 Y-19.251 Z-4.000 I-0.624 J-6.527 K0.000 F300.000
G1 X-40.704 Y-20.450 Z-4.000 F300.000
G2 X-38.720 Y-21.236 Z-4.000 I-2.429 J-9.027 K0.000 F300.000
G2 X-35.646 Y-22.784 Z-4.000 I-494.739 J-986.107 K0.000 F300.000
G3 X-33.695 Y-22.677 Z-4.000 I0.881 J1.786 K0.000 F300.000
G3 X-32.588 Y-20.607 Z-4.000 I-1.594 J2.183 K0.000 F300.000
G3 X-32.813 Y-17.636 Z-4.000 I-10.746 J0.683 K0.000 F300.000
G1 X-32.813 Y-17.636 Z-4.000 F300.000
G2 X-32.900 Y-17.076 Z-4.000 I1.792 J0.568 K0.000 F300.000
G2 X-32.080 Y-16.324 Z-4.000 I2.554 J-1.963 K0.000 F300.000
G3 X-29.888 Y-13.843 Z-4.000 I-5.080 J6.698 K0.000 F300.000
G3 X-29.630 Y-11.518 Z-4.000 I-3.531 J1.568 K0.000 F300.000
G3 X-29.897 Y-10.150 Z-4.000 I-5.748 J-0.413 K0.000 F300.000
G3 X-31.438 Y-8.270 Z-4.000 I-4.317 J-1.966 K0.000 F300.000
G3 X-32.354 Y-7.474 Z-4.000 I-69.858 J-79.512 K0.000 F300.000
G2 X-32.518 Y-4.224 Z-4.000 I1.763 J1.718 K0.000 F300.000
G1 X-32.239 Y-3.955 Z-4.000 F300.000
G1 X-32.239 Y-3.955 Z-4.000 F300.000
G3 X-30.652 Y-0.792 Z-4.000 I-2.970 J3.470 K0.000 F300.000
G3 X-30.790 Y1.646 Z-4.000 I-8.778 J0.726 K0.000 F300.000
G3 X-32.241 Y3.958 Z-4.000 I-4.402 J-1.153 K0.000 F300.000
G2 X-32.951 Y6.535 Z-4.000 I1.580 J1.821 K0.000 F300.000
G2 X-32.361 Y7.428 Z-4.000 I1.986 J-0.670 K0.000 F300.000
G2 X-30.786 Y8.830 Z-4.000 I24.742 J-26.236 K0.000 F300.000
G3 X-29.925 Y10.049 Z-4.000 I-3.993 J3.730 K0.000 F300.000
G3 X-29.652 Y11.445 Z-4.000 I-4.559 J1.618 K0.000 F300.000
G3 X-29.619 Y13.024 Z-4.000 I-4.815 J0.889 K0.000 F300.000
G3 X-30.826 Y15.136 Z-4.000 I-4.299 J-1.055 K0.000 F300.000
G3 X-32.378 Y16.537 Z-4.000 I-6.469 J-5.601 K0.000 F300.000
G2 X-32.888 Y17.046 Z-4.000 I8.630 J9.170 K0.000 F300.000
G2 X-32.642 Y18.697 Z-4.000 I14.629 J-1.329 K0.000 F300.000
G3 X-32.702 Y21.259 Z-4.000 I-6.427 J1.132 K0.000 F300.000
G3 X-33.104 Y22.095 Z-4.000 I-2.430 J-0.654 K0.000 F300.000
G1 X-33.104 Y22.095 Z-5.000 F300.000
G3 X-34.066 Y22.884 Z-5.000 I-2.027 J-1.490 K0.000 F300.000
G3 X-35.681 Y22.768 Z-5.000 I-0.655 J-2.169 K0.000 F300.000
G2 X-39.796 Y20.742 Z-5.000 I-44.643 J85.494 K0.000 F300.000
G2 X-40.692 Y20.452 Z-5.000 I-3.010 J7.772 K0.000 F300.000
G2 X-46.684 Y19.161 Z-5.000 I-44.263 J190.903 K0.000 F300.000
G2 X-48.162 Y19.128 Z-5.000 I-0.832 J4.083 K0.000 F300.000
G2 X-48.949 Y19.510 Z-5.000 I0.197 J1.405 K0.000 F300.000
G2 X-50.019 Y20.854 Z-5.000 I6.270 J6.097 K0.000 F300.000
G3 X-52.289 Y23.205 Z-5.000 I-9.946 J-7.328 K0.000 F300.000
G3 X-55.980 Y24.679 Z-5.000 I-4.336 J-5.500 K0.000 F300.000
G3 X-58.249 Y24.481 Z-5.000 I-0.579 J-6.464 K0.000 F300.000
G3 X-60.917 Y21.834 Z-5.000 I1.276 J-3.955 K0.000 F300.000
G3 X-61.300 Y18.611 Z-5.000 I7.210 J-2.490 K0.000 F300.000
G2 X-61.476 Y18.084 Z-5.000 I-0.642 J-0.078 K0.000 F300.000
G2 X-61.986 Y17.882 Z-5.000 I-0.697 J1.013 K0.000 F300.000
G1 X-65.375 Y17.753 Z-5.000 F300.000
G3 X-69.751 Y16.709 Z-5.000 I2.271 J-19.218 K0.000 F300.000
G3 X-71.611 Y15.865 Z-5.000 I5.467 J-14.526 K0.000 F300.000
G1 X-73.812 Y14.414 Z-5.000 F300.000
G1 X-75.735 Y12.736 Z-5.000 F300.000
G1 X-75.838 Y12.619 Z-5.000 F300.000
G3 X-79.216 Y6.583 Z-5.000 I26.296 J-18.678 K0.000 F300.000
G1 X-80.016 Y4.169 Z-5.000 F300.000
G1 X-80.364 Y1.991 Z-5.000 F300.000
G1 X-80.356 Y-2.088 Z-5.000 F300.000
G1 X-79.993 Y-4.263 Z-5.000 F300.000
G1 X-79.192 Y-6.643 Z-5.000 F300.000
G3 X-75.735 Y-12.736 Z-5.000 I29.161 J12.517 K0.000 F300.000
G1 X-73.747 Y-14.464 Z-5.000 F300.000
G1 X-71.548 Y-15.902 Z-5.000 F300.000
G3 X-66.125 Y-17.637 Z-5.000 I7.815 J15.082 K0.000 F300.000
G1 X-65.298 Y-17.760 Z-5.000 F300.000
G1 X-61.986 Y-17.882 Z-5.000 F300.000
G2 X-61.407 Y-18.140 Z-5.000 I-0.174 J-1.172 K0.000 F300.000
G2 X-61.313 Y-18.681 Z-5.000 I-1.031 J-0.457 K0.000 F300.000
G3 X-60.832 Y-22.103 Z-5.000 I7.754 J-0.654 K0.000 F300.000
G3 X-57.857 Y-24.591 Z-5.000 I3.882 J1.620 K0.000 F300.000
G3 X-55.555 Y-24.633 Z-5.000 I1.276 J6.825 K0.000 F300.000
G3 X-52.500 Y-23.344 Z-5.000 I-1.058 J6.776 K0.000 F300.000
G3 X-49.596 Y-20.252 Z-5.000 I-7.126 J9.601 K0.000 F300.000
G2 X-48.786 Y-19.346 Z-5.000 I5.690 J-4.272 K0.000 F300.000
G2 X-47.123 Y-19.104 Z-5.000 I1.181 J-2.292 K0.000 F300.000
G2 X-46.234 Y-19.251 Z-5.000 I-0.624 J-6.527 K0.000 F300.000
G1 X-40.704 Y-20.450 Z-5.000 F300.000
G2 X-38.720 Y-21.236 Z-5.000 I-2.429 J-9.027 K0.000 F300.000
G2 X-35.646 Y-22.784 Z-5.000 I-494.739 J-986.107 K0.000 F300.000
G3 X-33.695 Y-22.677 Z-5.000 I0.881 J1.786 K0.000 F300.000
G3 X-32.588 Y-20.607 Z-5.000 I-1.594 J2.183 K0.000 F300.000
G3 X-32.813 Y-17.636 Z-5.000 I-10.746 J0.683 K0.000 F300.000
G1 X-32.813 Y-17.636 Z-5.000 F300.000
G2 X-32.900 Y-17.076 Z-5.000 I1.792 J0.568 K0.000 F300.000
G2 X-32.080 Y-16.324 Z-5.000 I2.554 J-1.963 K0.000 F300.000
G3 X-29.888 Y-13.843 Z-5.000 I-5.080 J6.698 K0.000 F300.000
G3 X-29.630 Y-11.518 Z-5.000 I-3.531 J1.568 K0.000 F300.000
G3 X-29.897 Y-10.150 Z-5.000 I-5.748 J-0.413 K0.000 F300.000
G3 X-31.438 Y-8.270 Z-5.000 I-4.317 J-1.966 K0.000 F300.000
G3 X-32.354 Y-7.474 Z-5.000 I-69.858 J-79.512 K0.000 F300.000
G2 X-32.518 Y-4.224 Z-5.000 I1.763 J1.718 K0.000 F300.000
G1 X-32.239 Y-3.955 Z-5.000 F300.000
G1 X-32.239 Y-3.955 Z-5.000 F300.000
G3 X-30.652 Y-0.792 Z-5.000 I-2.970 J3.470 K0.000 F300.000
G3 X-30.790 Y1.646 Z-5.000 I-8.778 J0.726 K0.000 F300.000
G3 X-32.241 Y3.958 Z-5.000 I-4.402 J-1.153 K0.000 F300.000
G2 X-32.951 Y6.535 Z-5.000 I1.580 J1.821 K0.000 F300.000
G2 X-32.361 Y7.428 Z-5.000 I1.986 J-0.670 K0.000 F300.000
G2 X-30.786 Y8.830 Z-5.000 I24.742 J-26.236 K0.000 F300.000
G3 X-29.925 Y10.049 Z-5.000 I-3.993 J3.730 K0.000 F300.000
G3 X-29.652 Y11.445 Z-5.000 I-4.559 J1.618 K0.000 F300.000
G3 X-29.619 Y13.024 Z-5.000 I-4.815 J0.889 K0.000 F300.000
G3 X-30.826 Y15.136 Z-5.000 I-4.299 J-1.055 K0.000 F300.000
G3 X-32.378 Y16.537 Z-5.000 I-6.469 J-5.601 K0.000 F300.000
G2 X-32.888 Y17.046 Z-5.000 I8.630 J9.170 K0.000 F300.000
G2 X-32.642 Y18.697 Z-5.000 I14.629 J-1.329 K0.000 F300.000
G3 X-32.702 Y21.259 Z-5.000 I-6.427 J1.132 K0.000 F300.000
G3 X-33.104 Y22.095 Z-5.000 I-2.430 J-0.654 K0.000 F300.000
G1 X-33.104 Y22.095 Z-6.000 F300.000
G3 X-34.066 Y22.884 Z-6.000 I-2.027 J-1.490 K0.000 F300.000
G3 X-35.681 Y22.768 Z-6.000 I-0.655 J-2.169 K0.000 F300.000
G2 X-39.796 Y20.742 Z-6.000 I-44.643 J85.494 K0.000 F300.000
G2 X-40.692 Y20.452 Z-6.000 I-3.010 J7.772 K0.000 F300.000
G2 X-46.684 Y19.161 Z-6.000 I-44.263 J190.903 K0.000 F300.000
G2 X-48.162 Y19.128 Z-6.000 I-0.832 J4.083 K0.000 F300.000
G2 X-48.949 Y19.510 Z-6.000 I0.197 J1.405 K0.000 F300.000
G2 X-50.019 Y20.854 Z-6.000 I6.270 J6.097 K0.000 F300.000
G3 X-52.289 Y23.205 Z-6.000 I-9.946 J-7.328 K0.000 F300.000
G3 X-55.980 Y24.679 Z-6.000 I-4.336 J-5.500 K0.000 F300.000
G3 X-58.249 Y24.481 Z-6.000 I-0.579 J-6.464 K0.000 F300.000
G3 X-60.917 Y21.834 Z-6.000 I1.276 J-3.955 K0.000 F300.000
G3 X-61.300 Y18.611 Z-6.000 I7.210 J-2.490 K0.000 F300.000
G2 X-61.476 Y18.084 Z-6.000 I-0.642 J-0.078 K0.000 F300.000
G2 X-61.986 Y17.882 Z-6.000 I-0.697 J1.013 K0.000 F300.000
G1 X-65.375 Y17.753 Z-6.000 F300.000
G3 X-69.751 Y16.709 Z-6.000 I2.271 J-19.218 K0.000 F300.000
G3 X-71.611 Y15.865 Z-6.000 I5.467 J-14.526 K0.000 F300.000
G1 X-73.812 Y14.414 Z-6.000 F300.000
G1 X-75.735 Y12.736 Z-6.000 F300.000
G1 X-75.838 Y12.619 Z-6.000 F300.000
G3 X-79.216 Y6.583 Z-6.000 I26.296 J-18.678 K0.000 F300.000
G1 X-80.016 Y4.169 Z-6.000 F300.000
G1 X-80.364 Y1.991 Z-6.000 F300.000
G1 X-80.356 Y-2.088 Z-6.000 F300.000
G1 X-79.993 Y-4.263 Z-6.000 F300.000
G1 X-79.192 Y-6.643 Z-6.000 F300.000
G3 X-75.735 Y-12.736 Z-6.000 I29.161 J12.517 K0.000 F300.000
G1 X-73.747 Y-14.464 Z-6.000 F300.000
G1 X-71.548 Y-15.902 Z-6.000 F300.000
G3 X-66.125 Y-17.637 Z-6.000 I7.815 J15.082 K0.000 F300.000
G1 X-65.298 Y-17.760 Z-6.000 F300.000
G1 X-61.986 Y-17.882 Z-6.000 F300.000
G2 X-61.407 Y-18.140 Z-6.000 I-0.174 J-1.172 K0.000 F300.000
G2 X-61.313 Y-18.681 Z-6.000 I-1.031 J-0.457 K0.000 F300.000
G3 X-60.832 Y-22.103 Z-6.000 I7.754 J-0.654 K0.000 F300.000
G3 X-57.857 Y-24.591 Z-6.000 I3.882 J1.620 K0.000 F300.000
G3 X-55.555 Y-24.633 Z-6.000 I1.276 J6.825 K0.000 F300.000
G3 X-52.500 Y-23.344 Z-6.000 I-1.058 J6.776 K0.000 F300.000
G3 X-49.596 Y-20.252 Z-6.000 I-7.126 J9.601 K0.000 F300.000
G2 X-48.786 Y-19.346 Z-6.000 I5.690 J-4.272 K0.000 F300.000
G2 X-47.123 Y-19.104 Z-6.000 I1.181 J-2.292 K0.000 F300.000
G2 X-46.234 Y-19.251 Z-6.000 I-0.624 J-6.527 K0.000 F300.000
G1 X-40.704 Y-20.450 Z-6.000 F300.000
G2 X-38.720 Y-21.236 Z-6.000 I-2.429 J-9.027 K0.000 F300.000
G2 X-35.646 Y-22.784 Z-6.000 I-494.739 J-986.107 K0.000 F300.000
G3 X-33.695 Y-22.677 Z-6.000 I0.881 J1.786 K0.000 F300.000
G3 X-32.588 Y-20.607 Z-6.000 I-1.594 J2.183 K0.000 F300.000
G3 X-32.813 Y-17.636 Z-6.000 I-10.746 J0.683 K0.000 F300.000
G1 X-32.813 Y-17.636 Z-6.000 F300.000
G2 X-32.900 Y-17.076 Z-6.000 I1.792 J0.568 K0.000 F300.000
G2 X-32.080 Y-16.324 Z-6.000 I2.554 J-1.963 K0.000 F300.000
G3 X-29.888 Y-13.843 Z-6.000 I-5.080 J6.698 K0.000 F300.000
G3 X-29.630 Y-11.518 Z-6.000 I-3.531 J1.568 K0.000 F300.000
G3 X-29.897 Y-10.150 Z-6.000 I-5.748 J-0.413 K0.000 F300.000
G3 X-31.438 Y-8.270 Z-6.000 I-4.317 J-1.966 K0.000 F300.000
G3 X-32.354 Y-7.474 Z-6.000 I-69.858 J-79.512 K0.000 F300.000
G2 X-32.518 Y-4.224 Z-6.000 I1.763 J1.718 K0.000 F300.000
G1 X-32.239 Y-3.955 Z-6.000 F300.000
G1 X-32.239 Y-3.955 Z-6.000 F300.000
G3 X-30.652 Y-0.792 Z-6.000 I-2.970 J3.470 K0.000 F300.000
G3 X-30.790 Y1.646 Z-6.000 I-8.778 J0.726 K0.000 F300.000
G3 X-32.241 Y3.958 Z-6.000 I-4.402 J-1.153 K0.000 F300.000
G2 X-32.951 Y6.535 Z-6.000 I1.580 J1.821 K0.000 F300.000
G2 X-32.361 Y7.428 Z-6.000 I1.986 J-0.670 K0.000 F300.000
G2 X-30.786 Y8.830 Z-6.000 I24.742 J-26.236 K0.000 F300.000
G3 X-29.925 Y10.049 Z-6.000 I-3.993 J3.730 K0.000 F300.000
G3 X-29.652 Y11.445 Z-6.000 I-4.559 J1.618 K0.000 F300.000
G3 X-29.619 Y13.024 Z-6.000 I-4.815 J0.889 K0.000 F300.000
G3 X-30.826 Y15.136 Z-6.000 I-4.299 J-1.055 K0.000 F300.000
G3 X-32.378 Y16.537 Z-6.000 I-6.469 J-5.601 K0.000 F300.000
G2 X-32.888 Y17.046 Z-6.000 I8.630 J9.170 K0.000 F300.000
G2 X-32.642 Y18.697 Z-6.000 I14.629 J-1.329 K0.000 F300.000
G3 X-32.702 Y21.259 Z-6.000 I-6.427 J1.132 K0.000 F300.000
G3 X-33.104 Y22.095 Z-6.000 I-2.430 J-0.654 K0.000 F300.000
G0 Z5.000
G0 Z5.000
(End Custom)
(Finish operation: Profile003_SimpleCopy004)
(Begin operation: Profile000_SimpleCopy001)
(Path: Profile000_SimpleCopy001)
(Profile000_SimpleCopy001)
(Begin Custom)
(Profile)
(Compensated Tool Path. Diameter: 1.2)
G0 Z5.000
G0 X55.000 Y0.000
G0 X54.138 Y-0.003
G0 X54.138 Y-0.003 Z3.000
G1 X54.138 Y-0.003 Z-1.000 F300.000
G3 X54.213 Y-0.590 Z-1.000 I2.397 J0.008 K0.000 F300.000
G3 X55.872 Y-2.866 Z-1.000 I3.236 J0.617 K0.000 F300.000
G2 X56.585 Y-3.319 Z-1.000 I-0.554 J-1.656 K0.000 F300.000
G2 X56.375 Y-4.675 Z-1.000 I-0.985 J-0.541 K0.000 F300.000
G2 X55.638 Y-4.970 Z-1.000 I-1.953 J3.798 K0.000 F300.000
G3 X55.100 Y-7.101 Z-1.000 I0.213 J-1.187 K0.000 F300.000
G2 X55.773 Y-7.588 Z-1.000 I-3.467 J-5.495 K0.000 F300.000
G2 X56.565 Y-9.050 Z-1.000 I-1.111 J-1.548 K0.000 F300.000
G2 X56.109 Y-9.701 Z-1.000 I-0.969 J0.193 K0.000 F300.000
G1 X55.990 Y-9.733 Z-1.000 F300.000
G2 X52.554 Y-9.259 Z-1.000 I11.078 J93.053 K0.000 F300.000
G2 X50.833 Y-8.937 Z-1.000 I0.484 J7.353 K0.000 F300.000
G2 X50.035 Y-8.425 Z-1.000 I0.320 J1.375 K0.000 F300.000
G2 X49.898 Y-7.316 Z-1.000 I1.991 J0.809 K0.000 F300.000
G2 X50.484 Y-6.483 Z-1.000 I0.778 J0.076 K0.000 F300.000
G3 X50.945 Y-4.338 Z-1.000 I-0.318 J1.190 K0.000 F300.000
G2 X50.127 Y-3.632 Z-1.000 I1.009 J1.994 K0.000 F300.000
G2 X49.886 Y-2.537 Z-1.000 I1.009 J0.796 K0.000 F300.000
G2 X50.225 Y-2.310 Z-1.000 I0.530 J-0.426 K0.000 F300.000
G3 X51.321 Y-1.019 Z-1.000 I-1.100 J2.045 K0.000 F300.000
G3 X51.424 Y0.476 Z-1.000 I-3.629 J1.002 K0.000 F300.000
G3 X50.489 Y2.119 Z-1.000 I-2.124 J-0.122 K0.000 F300.000
G2 X49.897 Y2.524 Z-1.000 I1.040 J2.153 K0.000 F300.000
G2 X49.838 Y2.818 Z-1.000 I0.666 J0.286 K0.000 F300.000
G2 X50.622 Y4.140 Z-1.000 I1.826 J-0.188 K0.000 F300.000
G3 X51.385 Y5.017 Z-1.000 I-0.501 J1.207 K0.000 F300.000
G3 X50.497 Y6.478 Z-1.000 I-1.225 J0.255 K0.000 F300.000
G2 X49.952 Y6.939 Z-1.000 I0.120 J0.695 K0.000 F300.000
G2 X49.904 Y7.829 Z-1.000 I2.872 J0.601 K0.000 F300.000
G2 X50.228 Y8.629 Z-1.000 I0.922 J0.093 K0.000 F300.000
G2 X51.667 Y9.144 Z-1.000 I2.093 J-3.578 K0.000 F300.000
G3 X55.844 Y9.736 Z-1.000 I-11.055 J93.157 K0.000 F300.000
G2 X56.141 Y9.682 Z-1.000 I-0.243 J-2.192 K0.000 F300.000
G2 X56.551 Y9.078 Z-1.000 I-0.574 J-0.830 K0.000 F300.000
G2 X55.428 Y7.305 Z-1.000 I-2.214 J0.160 K0.000 F300.000
G3 X54.661 Y5.947 Z-1.000 I0.453 J-1.151 K0.000 F300.000
G3 X55.780 Y4.921 Z-1.000 I1.310 J0.304 K0.000 F300.000
G2 X56.493 Y4.560 Z-1.000 I-0.197 J-1.275 K0.000 F300.000
G2 X56.668 Y3.497 Z-1.000 I-1.028 J-0.715 K0.000 F300.000
G2 X56.124 Y2.978 Z-1.000 I-0.983 J0.484 K0.000 F300.000
G3 X54.299 Y0.869 Z-1.000 I1.274 J-2.948 K0.000 F300.000
G3 X54.138 Y-0.003 Z-1.000 I2.236 J-0.864 K0.000 F300.000
G1 X54.138 Y-0.003 Z-2.000 F300.000
G3 X54.213 Y-0.590 Z-2.000 I2.397 J0.008 K0.000 F300.000
G3 X55.872 Y-2.866 Z-2.000 I3.236 J0.617 K0.000 F300.000
G2 X56.585 Y-3.319 Z-2.000 I-0.554 J-1.656 K0.000 F300.000
G2 X56.375 Y-4.675 Z-2.000 I-0.985 J-0.541 K0.000 F300.000
G2 X55.638 Y-4.970 Z-2.000 I-1.953 J3.798 K0.000 F300.000
G3 X55.100 Y-7.101 Z-2.000 I0.213 J-1.187 K0.000 F300.000
G2 X55.773 Y-7.588 Z-2.000 I-3.467 J-5.495 K0.000 F300.000
G2 X56.565 Y-9.050 Z-2.000 I-1.111 J-1.548 K0.000 F300.000
G2 X56.109 Y-9.701 Z-2.000 I-0.969 J0.193 K0.000 F300.000
G1 X55.990 Y-9.733 Z-2.000 F300.000
G2 X52.554 Y-9.259 Z-2.000 I11.078 J93.053 K0.000 F300.000
G2 X50.833 Y-8.937 Z-2.000 I0.484 J7.353 K0.000 F300.000
G2 X50.035 Y-8.425 Z-2.000 I0.320 J1.375 K0.000 F300.000
G2 X49.898 Y-7.316 Z-2.000 I1.991 J0.809 K0.000 F300.000
G2 X50.484 Y-6.483 Z-2.000 I0.778 J0.076 K0.000 F300.000
G3 X50.945 Y-4.338 Z-2.000 I-0.318 J1.190 K0.000 F300.000
G2 X50.127 Y-3.632 Z-2.000 I1.009 J1.994 K0.000 F300.000
G2 X49.886 Y-2.537 Z-2.000 I1.009 J0.796 K0.000 F300.000
G2 X50.225 Y-2.310 Z-2.000 I0.530 J-0.426 K0.000 F300.000
G3 X51.321 Y-1.019 Z-2.000 I-1.100 J2.045 K0.000 F300.000
G3 X51.424 Y0.476 Z-2.000 I-3.629 J1.002 K0.000 F300.000
G3 X50.489 Y2.119 Z-2.000 I-2.124 J-0.122 K0.000 F300.000
G2 X49.897 Y2.524 Z-2.000 I1.040 J2.153 K0.000 F300.000
G2 X49.838 Y2.818 Z-2.000 I0.666 J0.286 K0.000 F300.000
G2 X50.622 Y4.140 Z-2.000 I1.826 J-0.188 K0.000 F300.000
G3 X51.385 Y5.017 Z-2.000 I-0.501 J1.207 K0.000 F300.000
G3 X50.497 Y6.478 Z-2.000 I-1.225 J0.255 K0.000 F300.000
G2 X49.952 Y6.939 Z-2.000 I0.120 J0.695 K0.000 F300.000
G2 X49.904 Y7.829 Z-2.000 I2.872 J0.601 K0.000 F300.000
G2 X50.228 Y8.629 Z-2.000 I0.922 J0.093 K0.000 F300.000
G2 X51.667 Y9.144 Z-2.000 I2.093 J-3.578 K0.000 F300.000
G3 X55.844 Y9.736 Z-2.000 I-11.055 J93.157 K0.000 F300.000
G2 X56.141 Y9.682 Z-2.000 I-0.243 J-2.192 K0.000 F300.000
G2 X56.551 Y9.078 Z-2.000 I-0.574 J-0.830 K0.000 F300.000
G2 X55.428 Y7.305 Z-2.000 I-2.214 J0.160 K0.000 F300.000
G3 X54.661 Y5.947 Z-2.000 I0.453 J-1.151 K0.000 F300.000
G3 X55.780 Y4.921 Z-2.000 I1.310 J0.304 K0.000 F300.000
G2 X56.493 Y4.560 Z-2.000 I-0.197 J-1.275 K0.000 F300.000
G2 X56.668 Y3.497 Z-2.000 I-1.028 J-0.715 K0.000 F300.000
G2 X56.124 Y2.978 Z-2.000 I-0.983 J0.484 K0.000 F300.000
G3 X54.299 Y0.869 Z-2.000 I1.274 J-2.948 K0.000 F300.000
G3 X54.138 Y-0.003 Z-2.000 I2.236 J-0.864 K0.000 F300.000
G1 X54.138 Y-0.003 Z-3.000 F300.000
G3 X54.213 Y-0.590 Z-3.000 I2.397 J0.008 K0.000 F300.000
G3 X55.872 Y-2.866 Z-3.000 I3.236 J0.617 K0.000 F300.000
G2 X56.585 Y-3.319 Z-3.000 I-0.554 J-1.656 K0.000 F300.000
G2 X56.375 Y-4.675 Z-3.000 I-0.985 J-0.541 K0.000 F300.000
G2 X55.638 Y-4.970 Z-3.000 I-1.953 J3.798 K0.000 F300.000
G3 X55.100 Y-7.101 Z-3.000 I0.213 J-1.187 K0.000 F300.000
G2 X55.773 Y-7.588 Z-3.000 I-3.467 J-5.495 K0.000 F300.000
G2 X56.565 Y-9.050 Z-3.000 I-1.111 J-1.548 K0.000 F300.000
G2 X56.109 Y-9.701 Z-3.000 I-0.969 J0.193 K0.000 F300.000
G1 X55.990 Y-9.733 Z-3.000 F300.000
G2 X52.554 Y-9.259 Z-3.000 I11.078 J93.053 K0.000 F300.000
G2 X50.833 Y-8.937 Z-3.000 I0.484 J7.353 K0.000 F300.000
G2 X50.035 Y-8.425 Z-3.000 I0.320 J1.375 K0.000 F300.000
G2 X49.898 Y-7.316 Z-3.000 I1.991 J0.809 K0.000 F300.000
G2 X50.484 Y-6.483 Z-3.000 I0.778 J0.076 K0.000 F300.000
G3 X50.945 Y-4.338 Z-3.000 I-0.318 J1.190 K0.000 F300.000
G2 X50.127 Y-3.632 Z-3.000 I1.009 J1.994 K0.000 F300.000
G2 X49.886 Y-2.537 Z-3.000 I1.009 J0.796 K0.000 F300.000
G2 X50.225 Y-2.310 Z-3.000 I0.530 J-0.426 K0.000 F300.000
G3 X51.321 Y-1.019 Z-3.000 I-1.100 J2.045 K0.000 F300.000
G3 X51.424 Y0.476 Z-3.000 I-3.629 J1.002 K0.000 F300.000
G3 X50.489 Y2.119 Z-3.000 I-2.124 J-0.122 K0.000 F300.000
G2 X49.897 Y2.524 Z-3.000 I1.040 J2.153 K0.000 F300.000
G2 X49.838 Y2.818 Z-3.000 I0.666 J0.286 K0.000 F300.000
G2 X50.622 Y4.140 Z-3.000 I1.826 J-0.188 K0.000 F300.000
G3 X51.385 Y5.017 Z-3.000 I-0.501 J1.207 K0.000 F300.000
G3 X50.497 Y6.478 Z-3.000 I-1.225 J0.255 K0.000 F300.000
G2 X49.952 Y6.939 Z-3.000 I0.120 J0.695 K0.000 F300.000
G2 X49.904 Y7.829 Z-3.000 I2.872 J0.601 K0.000 F300.000
G2 X50.228 Y8.629 Z-3.000 I0.922 J0.093 K0.000 F300.000
G2 X51.667 Y9.144 Z-3.000 I2.093 J-3.578 K0.000 F300.000
G3 X55.844 Y9.736 Z-3.000 I-11.055 J93.157 K0.000 F300.000
G2 X56.141 Y9.682 Z-3.000 I-0.243 J-2.192 K0.000 F300.000
G2 X56.551 Y9.078 Z-3.000 I-0.574 J-0.830 K0.000 F300.000
G2 X55.428 Y7.305 Z-3.000 I-2.214 J0.160 K0.000 F300.000
G3 X54.661 Y5.947 Z-3.000 I0.453 J-1.151 K0.000 F300.000
G3 X55.780 Y4.921 Z-3.000 I1.310 J0.304 K0.000 F300.000
G2 X56.493 Y4.560 Z-3.000 I-0.197 J-1.275 K0.000 F300.000
G2 X56.668 Y3.497 Z-3.000 I-1.028 J-0.715 K0.000 F300.000
G2 X56.124 Y2.978 Z-3.000 I-0.983 J0.484 K0.000 F300.000
G3 X54.299 Y0.869 Z-3.000 I1.274 J-2.948 K0.000 F300.000
G3 X54.138 Y-0.003 Z-3.000 I2.236 J-0.864 K0.000 F300.000
G1 X54.138 Y-0.003 Z-4.000 F300.000
G3 X54.213 Y-0.590 Z-4.000 I2.397 J0.008 K0.000 F300.000
G3 X55.872 Y-2.866 Z-4.000 I3.236 J0.617 K0.000 F300.000
G2 X56.585 Y-3.319 Z-4.000 I-0.554 J-1.656 K0.000 F300.000
G2 X56.375 Y-4.675 Z-4.000 I-0.985 J-0.541 K0.000 F300.000
G2 X55.638 Y-4.970 Z-4.000 I-1.953 J3.798 K0.000 F300.000
G3 X55.100 Y-7.101 Z-4.000 I0.213 J-1.187 K0.000 F300.000
G2 X55.773 Y-7.588 Z-4.000 I-3.467 J-5.495 K0.000 F300.000
G2 X56.565 Y-9.050 Z-4.000 I-1.111 J-1.548 K0.000 F300.000
G2 X56.109 Y-9.701 Z-4.000 I-0.969 J0.193 K0.000 F300.000
G1 X55.990 Y-9.733 Z-4.000 F300.000
G2 X52.554 Y-9.259 Z-4.000 I11.078 J93.053 K0.000 F300.000
G2 X50.833 Y-8.937 Z-4.000 I0.484 J7.353 K0.000 F300.000
G2 X50.035 Y-8.425 Z-4.000 I0.320 J1.375 K0.000 F300.000
G2 X49.898 Y-7.316 Z-4.000 I1.991 J0.809 K0.000 F300.000
G2 X50.484 Y-6.483 Z-4.000 I0.778 J0.076 K0.000 F300.000
G3 X50.945 Y-4.338 Z-4.000 I-0.318 J1.190 K0.000 F300.000
G2 X50.127 Y-3.632 Z-4.000 I1.009 J1.994 K0.000 F300.000
G2 X49.886 Y-2.537 Z-4.000 I1.009 J0.796 K0.000 F300.000
G2 X50.225 Y-2.310 Z-4.000 I0.530 J-0.426 K0.000 F300.000
G3 X51.321 Y-1.019 Z-4.000 I-1.100 J2.045 K0.000 F300.000
G3 X51.424 Y0.476 Z-4.000 I-3.629 J1.002 K0.000 F300.000
G3 X50.489 Y2.119 Z-4.000 I-2.124 J-0.122 K0.000 F300.000
G2 X49.897 Y2.524 Z-4.000 I1.040 J2.153 K0.000 F300.000
G2 X49.838 Y2.818 Z-4.000 I0.666 J0.286 K0.000 F300.000
G2 X50.622 Y4.140 Z-4.000 I1.826 J-0.188 K0.000 F300.000
G3 X51.385 Y5.017 Z-4.000 I-0.501 J1.207 K0.000 F300.000
G3 X50.497 Y6.478 Z-4.000 I-1.225 J0.255 K0.000 F300.000
G2 X49.952 Y6.939 Z-4.000 I0.120 J0.695 K0.000 F300.000
